%
O01001
(Using high feed G1 F5000. instead of G0.)
(T1 D=6. CR=3. - ZMIN=-69.203 - fresa con punta de bola)
N10 G90 G94 G17
N15 G21
(When using Fusion for Personal Use, the feedrate of rapid)
(moves is reduced to match the feedrate of cutting moves,)
(which can increase machining time. Unrestricted rapid moves)
(are available with a Fusion Subscription.)
N20 G53 G0 Z0.

(Paralelo2)
N25 T1 M6
N30 S5000 M3
N35 G17 G90 G94
N40 G54
N45 M8
N50 G1 X7.392 Y-58.862 F5000.
N55 G0 G43 Z16. H1
N60 G1 Z-51.553 F1000.
N65 Z-68.603 F333.33
N70 G18 G3 X6.192 I-0.6 K0. F1000.
N75 G1 Z-55.359
N80 X6.161 Z-55.182
N85 X6.094 Z-55.046
N90 X6.009 Z-54.946
N95 X5.924 Z-54.879
N100 X5.703 Z-54.775
N105 X5.021 Z-54.508
N110 X4.13 Z-54.201
N115 X3.004 Z-53.849
N120 X1.53 Z-53.425
N125 X0.277 Z-53.089
N130 X0.148 Z-53.068
N135 X0.019 Z-53.061
N140 X-0.115 Z-53.065
N145 X-0.307 Z-53.095
N150 X-1.976 Z-53.553
N155 X-3.364 Z-53.961
N160 X-4.492 Z-54.321
N165 X-5.361 Z-54.628
N170 X-5.669 Z-54.747
N175 X-5.73 Z-54.776
N180 X-5.834 Z-54.846
N185 X-5.937 Z-54.951
N190 X-6.01 Z-55.065
N195 X-6.047 Z-55.145
N200 X-6.083 Z-55.279
N205 X-6.09 Z-55.364
N210 Z-68.603
N215 X-7.846 Y-58.516
N220 Z-55.369
N225 X-7.823 Z-55.204
N230 X-7.751 Z-55.038
N235 X-7.68 Z-54.931
N240 X-7.592 Z-54.828
N245 X-7.505 Z-54.743
N250 X-7.313 Z-54.589
N255 X-7.111 Z-54.457
N260 X-6.795 Z-54.284
N265 X-6.362 Z-54.089
N270 X-5.916 Z-53.92
N275 X-5.547 Z-53.82
N280 X-2.994 Z-53.191
N285 X-0.344 Z-52.568
N290 X-0.093 Z-52.539
N295 X0.041 Z-52.537
N300 X0.171 Z-52.545
N305 X0.416 Z-52.583
N310 X3.175 Z-53.224
N315 X5.71 Z-53.845
N320 X6.117 Z-53.956
N325 X6.572 Z-54.138
N330 X6.923 Z-54.304
N335 X7.258 Z-54.498
N340 X7.465 Z-54.645
N345 X7.647 Z-54.809
N350 X7.771 Z-54.957
N355 X7.838 Z-55.067
N360 X7.872 Z-55.142
N365 X7.905 Z-55.259
N370 X7.915 Z-55.369
N375 Z-68.603
N380 X8.992 Y-58.3
N385 X9.638 Y-58.17
N390 Z-55.355
N395 X9.61 Z-55.186
N400 X9.582 Z-55.111
N405 X9.529 Z-55.01
N410 X9.476 Z-54.932
N415 X9.37 Z-54.809
N420 X9.188 Z-54.645
N425 X8.981 Z-54.498
N430 X8.646 Z-54.304
N435 X8.295 Z-54.138
N440 X7.809 Z-53.944
N445 X7.313 Z-53.777
N450 X6.684 Z-53.594
N455 X5.919 Z-53.406
N460 X2.189 Z-52.594
N465 X0.329 Z-52.204
N470 X0.069 Z-52.181
N475 X-0.196 Z-52.189
N480 X-0.447 Z-52.225
N485 X-4.519 Z-53.114
N490 X-6.3 Z-53.519
N495 X-6.986 Z-53.702
N500 X-7.551 Z-53.879
N505 X-7.996 Z-54.04
N510 X-8.433 Z-54.227
N515 X-8.752 Z-54.39
N520 X-8.957 Z-54.513
N525 X-9.155 Z-54.654
N530 X-9.339 Z-54.819
N535 X-9.427 Z-54.919
N540 X-9.5 Z-55.025
N545 X-9.573 Z-55.183
N550 X-9.603 Z-55.369
N555 Z-68.603
N560 X-11.359 Y-57.824
N565 X-11.354 Z-55.295
N570 X-11.309 Z-55.128
N575 X-11.233 Z-54.988
N580 X-11.156 Z-54.887
N585 X-11.067 Z-54.79
N590 X-10.977 Z-54.708
N595 X-10.783 Z-54.56
N600 X-10.474 Z-54.371
N605 X-10.155 Z-54.211
N610 X-9.717 Z-54.026
N615 X-9.158 Z-53.829
N620 X-8.592 Z-53.66
N625 X-7.79 Z-53.455
N630 X-6.981 Z-53.281
N635 X-6. Z-53.1
N640 X-0.397 Z-51.899
N645 X-0.161 Z-51.869
N650 X0.101 Z-51.865
N655 X0.361 Z-51.893
N660 X5.736 Z-53.024
N665 X6.743 Z-53.218
N670 X7.642 Z-53.405
N675 X8.407 Z-53.594
N680 X9.036 Z-53.777
N685 X9.532 Z-53.944
N690 X10.018 Z-54.138
N695 X10.369 Z-54.304
N700 X10.704 Z-54.498
N705 X10.911 Z-54.645
N710 X11.093 Z-54.809
N715 X11.191 Z-54.922
N720 X11.258 Z-55.021
N725 X11.325 Z-55.163
N730 X11.343 Z-55.223
N735 X11.361 Z-55.358
N740 Z-68.603
N745 X13.084 Y-57.478
N750 Z-55.362
N755 X13.069 Z-55.235
N760 X13.006 Z-55.065
N765 X12.943 Z-54.961
N770 X12.816 Z-54.809
N775 X12.633 Z-54.645
N780 X12.427 Z-54.498
N785 X12.092 Z-54.304
N790 X11.741 Z-54.138
N795 X11.255 Z-53.944
N800 X10.759 Z-53.777
N805 X10.13 Z-53.594
N810 X9.365 Z-53.405
N815 X8.465 Z-53.218
N820 X6.138 Z-52.795
N825 X0.403 Z-51.583
N830 X0.145 Z-51.551
N835 X-0.12 Z-51.55
N840 X-0.371 Z-51.578
N845 X-6.089 Z-52.804
N850 X-8.509 Z-53.236
N855 X-9.434 Z-53.429
N860 X-10.237 Z-53.629
N865 X-10.917 Z-53.83
N870 X-11.476 Z-54.027
N875 X-11.913 Z-54.212
N880 X-12.234 Z-54.373
N885 X-12.54 Z-54.561
N890 X-12.734 Z-54.709
N895 X-12.828 Z-54.795
N900 X-12.911 Z-54.885
N905 X-12.995 Z-54.998
N910 X-13.059 Z-55.116
N915 X-13.087 Z-55.19
N920 X-13.115 Z-55.369
N925 Z-68.603
N930 X-14.871 Y-57.132
N935 Z-55.369
N940 X-14.851 Z-55.216
N945 X-14.78 Z-55.044
N950 X-14.709 Z-54.937
N955 X-14.622 Z-54.834
N960 X-14.534 Z-54.748
N965 X-14.439 Z-54.666
N970 X-14.242 Z-54.524
N975 X-13.933 Z-54.342
N980 X-13.611 Z-54.185
N985 X-13.172 Z-54.004
N990 X-12.612 Z-53.811
N995 X-11.931 Z-53.612
N1000 X-11.127 Z-53.415
N1005 X-10.202 Z-53.224
N1010 X-5.946 Z-52.464
N1015 X-0.806 Z-51.356
N1020 X-0.343 Z-51.256
N1025 X-0.075 Z-51.231
N1030 X0.187 Z-51.238
N1035 X0.444 Z-51.275
N1040 X0.701 Z-51.332
N1045 X6.05 Z-52.462
N1050 X10.188 Z-53.218
N1055 X11.088 Z-53.405
N1060 X11.853 Z-53.594
N1065 X12.482 Z-53.777
N1070 X12.978 Z-53.944
N1075 X13.464 Z-54.138
N1080 X13.815 Z-54.304
N1085 X14.15 Z-54.498
N1090 X14.356 Z-54.645
N1095 X14.539 Z-54.809
N1100 X14.609 Z-54.887
N1105 X14.679 Z-54.98
N1110 X14.746 Z-55.1
N1115 X14.776 Z-55.178
N1120 X14.807 Z-55.355
N1125 Z-68.603
N1130 X16.53 Y-56.786
N1135 Z-55.369
N1140 X16.51 Z-55.214
N1145 X16.489 Z-55.15
N1150 X16.422 Z-55.013
N1155 X16.355 Z-54.916
N1160 X16.262 Z-54.809
N1165 X16.079 Z-54.645
N1170 X15.873 Z-54.498
N1175 X15.538 Z-54.304
N1180 X15.187 Z-54.138
N1185 X14.701 Z-53.944
N1190 X14.205 Z-53.777
N1195 X13.576 Z-53.594
N1200 X12.811 Z-53.405
N1205 X11.911 Z-53.218
N1210 X6.221 Z-52.184
N1215 X0.845 Z-51.048
N1220 X0.358 Z-50.942
N1225 X0.098 Z-50.915
N1230 X-0.164 Z-50.919
N1235 X-0.4 Z-50.949
N1240 X-4.717 Z-51.884
N1245 X-6.259 Z-52.211
N1250 X-11.927 Z-53.219
N1255 X-12.853 Z-53.408
N1260 X-13.656 Z-53.604
N1265 X-14.338 Z-53.801
N1270 X-14.898 Z-53.993
N1275 X-15.338 Z-54.172
N1280 X-15.66 Z-54.327
N1285 X-15.972 Z-54.507
N1290 X-16.171 Z-54.647
N1295 X-16.357 Z-54.812
N1300 X-16.439 Z-54.904
N1305 X-16.522 Z-55.02
N1310 X-16.583 Z-55.143
N1315 X-16.605 Z-55.209
N1320 X-16.627 Z-55.369
N1325 Z-68.603
N1330 X-16.921 Y-56.726
N1335 X-17.207 Y-56.641
N1340 X-17.489 Y-56.541
N1345 X-17.77 Y-56.44
N1350 Z-55.273
N1355 X-17.75 Z-55.073
N1360 X-17.73 Z-54.992
N1365 X-17.682 Z-54.861
N1370 X-17.611 Z-54.726
N1375 X-17.539 Z-54.622
N1380 X-17.453 Z-54.52
N1385 X-17.367 Z-54.433
N1390 X-17.272 Z-54.349
N1395 X-17.075 Z-54.205
N1400 X-16.864 Z-54.081
N1405 X-16.644 Z-53.989
N1410 X-16.084 Z-53.798
N1415 X-15.402 Z-53.601
N1420 X-14.598 Z-53.406
N1425 X-13.672 Z-53.216
N1430 X-6.308 Z-51.908
N1435 X-0.912 Z-50.747
N1440 X-0.333 Z-50.621
N1445 X-0.081 Z-50.598
N1450 X0.183 Z-50.604
N1455 X0.441 Z-50.641
N1460 X1.056 Z-50.779
N1465 X6.434 Z-51.913
N1470 X12.384 Z-52.99
N1475 X13.805 Z-53.251
N1480 X14.704 Z-53.445
N1485 X15.466 Z-53.64
N1490 X16.093 Z-53.83
N1495 X16.586 Z-54.005
N1500 X17.002 Z-54.18
N1505 X17.165 Z-54.276
N1510 X17.263 Z-54.348
N1515 X17.445 Z-54.51
N1520 X17.529 Z-54.603
N1525 X17.63 Z-54.74
N1530 X17.697 Z-54.86
N1535 X17.73 Z-54.938
N1540 X17.781 Z-55.116
N1545 X17.797 Z-55.287
N1550 X17.798 Z-68.603
N1555 X18.762 Y-56.094
N1560 Z-55.107
N1565 X18.747 Z-54.953
N1570 X18.703 Z-54.785
N1575 X18.65 Z-54.664
N1580 X18.598 Z-54.571
N1585 X18.493 Z-54.427
N1590 X18.409 Z-54.334
N1595 X18.227 Z-54.173
N1600 X18.021 Z-54.029
N1605 X17.799 Z-53.903
N1610 X17.447 Z-53.745
N1615 X17.078 Z-53.615
N1620 X16.701 Z-53.511
N1625 X15.933 Z-53.334
N1630 X15.031 Z-53.157
N1635 X6.365 Z-51.586
N1640 X1.246 Z-50.506
N1645 X0.439 Z-50.323
N1650 X0.247 Z-50.293
N1655 X-0.015 Z-50.28
N1660 X-0.283 Z-50.298
N1665 X-0.517 Z-50.34
N1670 X-2.287 Z-50.732
N1675 X-6.4 Z-51.612
N1680 X-15.433 Z-53.217
N1685 X-16.359 Z-53.407
N1690 X-16.819 Z-53.518
N1695 X-17.159 Z-53.622
N1700 X-17.493 Z-53.748
N1705 X-17.817 Z-53.901
N1710 X-18.025 Z-54.023
N1715 X-18.223 Z-54.164
N1720 X-18.406 Z-54.332
N1725 X-18.493 Z-54.432
N1730 X-18.566 Z-54.534
N1735 X-18.64 Z-54.665
N1740 X-18.69 Z-54.792
N1745 X-18.728 Z-54.946
N1750 X-18.74 Z-55.104
N1755 Z-68.603
N1760 X-19.467 Y-55.835
N1765 X-19.71 Y-55.748
N1770 Z-54.934
N1775 X-19.701 Z-54.801
N1780 X-19.674 Z-54.667
N1785 X-19.646 Z-54.583
N1790 X-19.592 Z-54.46
N1795 X-19.516 Z-54.335
N1800 X-19.441 Z-54.235
N1805 X-19.352 Z-54.138
N1810 X-19.167 Z-53.974
N1815 X-18.967 Z-53.836
N1820 X-18.759 Z-53.716
N1825 X-18.434 Z-53.566
N1830 X-18.099 Z-53.442
N1835 X-17.758 Z-53.34
N1840 X-17.297 Z-53.23
N1845 X-16.741 Z-53.131
N1850 X-6.451 Z-51.31
N1855 X-2.339 Z-50.428
N1860 X-0.569 Z-50.035
N1865 X-0.335 Z-49.988
N1870 X-0.067 Z-49.964
N1875 X0.195 Z-49.971
N1880 X0.452 Z-50.009
N1885 X1.221 Z-50.183
N1890 X6.572 Z-51.315
N1895 X16.144 Z-53.047
N1900 X17.153 Z-53.223
N1905 X17.665 Z-53.334
N1910 X18.042 Z-53.439
N1915 X18.411 Z-53.569
N1920 X18.763 Z-53.728
N1925 X18.985 Z-53.854
N1930 X19.191 Z-53.997
N1935 X19.374 Z-54.159
N1940 X19.458 Z-54.252
N1945 X19.574 Z-54.416
N1950 X19.641 Z-54.546
N1955 X19.675 Z-54.634
N1960 X19.709 Z-54.764
N1965 X19.726 Z-54.941
N1970 Z-68.603
N1975 X20.69 Y-55.402
N1980 Z-54.76
N1985 X20.669 Z-54.568
N1990 X20.647 Z-54.485
N1995 X20.58 Z-54.317
N2000 X20.501 Z-54.182
N2005 X20.422 Z-54.077
N2010 X20.338 Z-53.984
N2015 X20.156 Z-53.822
N2020 X19.95 Z-53.679
N2025 X19.727 Z-53.553
N2030 X19.375 Z-53.394
N2035 X19.006 Z-53.264
N2040 X18.629 Z-53.158
N2045 X18.117 Z-53.048
N2050 X17.599 Z-52.965
N2055 X16.558 Z-52.81
N2060 X6.495 Z-50.985
N2065 X1.403 Z-49.908
N2070 X0.442 Z-49.691
N2075 X0.248 Z-49.66
N2080 X-0.012 Z-49.646
N2085 X-0.261 Z-49.662
N2090 X-0.496 Z-49.702
N2095 X-2.382 Z-50.122
N2100 X-6.494 Z-51.006
N2105 X-16.589 Z-52.795
N2110 X-17.889 Z-52.99
N2115 X-18.354 Z-53.079
N2120 X-18.814 Z-53.194
N2125 X-19.153 Z-53.301
N2130 X-19.486 Z-53.431
N2135 X-19.808 Z-53.589
N2140 X-20.013 Z-53.715
N2145 X-20.208 Z-53.863
N2150 X-20.302 Z-53.949
N2155 X-20.387 Z-54.038
N2160 X-20.471 Z-54.144
N2165 X-20.54 Z-54.25
N2170 X-20.609 Z-54.393
N2175 X-20.652 Z-54.53
N2180 X-20.666 Z-54.598
N2185 X-20.68 Z-54.764
N2190 Z-68.603
N2195 X-21.649 Y-55.056
N2200 Z-54.594
N2205 X-21.632 Z-54.41
N2210 X-21.604 Z-54.295
N2215 X-21.575 Z-54.215
N2220 X-21.518 Z-54.096
N2225 X-21.441 Z-53.974
N2230 X-21.364 Z-53.877
N2235 X-21.274 Z-53.781
N2240 X-21.185 Z-53.699
N2245 X-20.99 Z-53.55
N2250 X-20.784 Z-53.423
N2255 X-20.461 Z-53.264
N2260 X-20.129 Z-53.134
N2265 X-19.789 Z-53.026
N2270 X-19.33 Z-52.911
N2275 X-18.865 Z-52.821
N2280 X-16.409 Z-52.454
N2285 X-6.573 Z-50.708
N2290 X-2.718 Z-49.88
N2295 X-0.921 Z-49.482
N2300 X-0.343 Z-49.356
N2305 X-0.091 Z-49.331
N2310 X0.173 Z-49.336
N2315 X0.432 Z-49.372
N2320 X1.585 Z-49.633
N2325 X6.677 Z-50.709
N2330 X16.742 Z-52.528
N2335 X18.563 Z-52.79
N2340 X19.081 Z-52.873
N2345 X19.593 Z-52.983
N2350 X19.97 Z-53.089
N2355 X20.339 Z-53.219
N2360 X20.692 Z-53.378
N2365 X20.914 Z-53.503
N2370 X21.12 Z-53.647
N2375 X21.302 Z-53.809
N2380 X21.386 Z-53.902
N2385 X21.453 Z-53.989
N2390 X21.52 Z-54.095
N2395 X21.587 Z-54.236
N2400 X21.637 Z-54.412
N2405 X21.653 Z-54.558
N2410 X21.654 Z-68.603
N2415 X22.374 Y-54.798
N2420 X22.614 Y-54.71
N2425 Z-54.431
N2430 X22.592 Z-54.228
N2435 X22.559 Z-54.099
N2440 X22.525 Z-54.01
N2445 X22.458 Z-53.878
N2450 X22.345 Z-53.72
N2455 X22.261 Z-53.628
N2460 X22.078 Z-53.467
N2465 X21.871 Z-53.324
N2470 X21.648 Z-53.199
N2475 X21.296 Z-53.04
N2480 X20.926 Z-52.911
N2485 X20.549 Z-52.806
N2490 X20.037 Z-52.696
N2495 X19.519 Z-52.614
N2500 X16.656 Z-52.202
N2505 X6.851 Z-50.43
N2510 X1.758 Z-49.355
N2515 X0.476 Z-49.064
N2520 X0.219 Z-49.024
N2525 X-0.043 Z-49.013
N2530 X-0.311 Z-49.035
N2535 X-0.545 Z-49.08
N2540 X-2.571 Z-49.533
N2545 X-6.683 Z-50.416
N2550 X-16.519 Z-52.158
N2555 X-19.757 Z-52.638
N2560 X-20.222 Z-52.724
N2565 X-20.683 Z-52.835
N2570 X-21.023 Z-52.938
N2575 X-21.357 Z-53.063
N2580 X-21.683 Z-53.215
N2585 X-21.892 Z-53.336
N2590 X-22.091 Z-53.477
N2595 X-22.276 Z-53.644
N2600 X-22.399 Z-53.788
N2605 X-22.503 Z-53.962
N2610 X-22.567 Z-54.125
N2615 X-22.602 Z-54.283
N2620 X-22.614 Z-54.443
N2625 Z-68.603
N2630 X-22.802 Y-54.628
N2635 X-23.361 Y-54.364
N2640 Z-54.551
N2645 X-23.348 Z-54.368
N2650 X-23.311 Z-54.183
N2655 X-23.256 Z-54.011
N2660 X-23.2 Z-53.88
N2665 X-23.13 Z-53.743
N2670 X-23.06 Z-53.625
N2675 X-22.917 Z-53.419
N2680 X-22.752 Z-53.225
N2685 X-22.658 Z-53.136
N2690 X-22.564 Z-53.059
N2695 X-22.461 Z-52.986
N2700 X-22.248 Z-52.867
N2705 X-22.11 Z-52.809
N2710 X-21.686 Z-52.674
N2715 X-21.226 Z-52.562
N2720 X-20.761 Z-52.474
N2725 X-16.34 Z-51.818
N2730 X-6.763 Z-50.118
N2735 X-2.65 Z-49.235
N2740 X-0.392 Z-48.731
N2745 X-0.13 Z-48.7
N2750 X0.132
N2755 X0.391 Z-48.731
N2760 X1.929 Z-49.077
N2765 X6.764 Z-50.099
N2770 X16.57 Z-51.875
N2775 X20.603 Z-52.456
N2780 X21.12 Z-52.543
N2785 X21.63 Z-52.661
N2790 X22.006 Z-52.773
N2795 X22.244 Z-52.865
N2800 X22.354 Z-52.921
N2805 X22.463 Z-52.987
N2810 X22.562 Z-53.057
N2815 X22.66 Z-53.138
N2820 X22.831 Z-53.312
N2825 X22.969 Z-53.489
N2830 X23.09 Z-53.673
N2835 X23.176 Z-53.831
N2840 X23.22 Z-53.925
N2845 X23.297 Z-54.135
N2850 X23.344 Z-54.352
N2855 X23.358 Z-54.532
N2860 Z-68.603
N2865 X24.088 Y-54.018
N2870 Z-54.667
N2875 X24.068 Z-54.446
N2880 X24.037 Z-54.305
N2885 X24.006 Z-54.203
N2890 X23.944 Z-54.044
N2895 X23.82 Z-53.806
N2900 X23.699 Z-53.622
N2905 X23.561 Z-53.444
N2910 X23.302 Z-53.164
N2915 X23.02 Z-52.906
N2920 X22.714 Z-52.669
N2925 X22.497 Z-52.54
N2930 X22.264 Z-52.436
N2935 X22.019 Z-52.359
N2940 X21.635 Z-52.29
N2945 X16.431 Z-51.54
N2950 X6.886 Z-49.81
N2955 X2.051 Z-48.788
N2960 X0.449 Z-48.425
N2965 X0.256 Z-48.394
N2970 X-0.005 Z-48.379
N2975 X-0.273 Z-48.396
N2980 X-0.507 Z-48.438
N2985 X-2.789 Z-48.95
N2990 X-6.902 Z-49.831
N2995 X-16.22 Z-51.485
N3000 X-21.68 Z-52.296
N3005 X-22.029 Z-52.362
N3010 X-22.258 Z-52.433
N3015 X-22.478 Z-52.53
N3020 X-22.689 Z-52.652
N3025 X-22.885 Z-52.797
N3030 X-23.161 Z-53.031
N3035 X-23.419 Z-53.285
N3040 X-23.58 Z-53.469
N3045 X-23.729 Z-53.666
N3050 X-23.869 Z-53.893
N3055 X-23.939 Z-54.031
N3060 X-23.994 Z-54.163
N3065 X-24.049 Z-54.338
N3070 X-24.083 Z-54.515
N3075 X-24.094 Z-54.69
N3080 Z-68.603
N3085 X-24.827 Y-53.672
N3090 Z-54.828
N3095 X-24.817 Z-54.662
N3100 X-24.786 Z-54.492
N3105 X-24.732 Z-54.314
N3110 X-24.678 Z-54.182
N3115 X-24.609 Z-54.043
N3120 X-24.469 Z-53.815
N3125 X-24.321 Z-53.617
N3130 X-24.078 Z-53.346
N3135 X-23.813 Z-53.097
N3140 X-23.535 Z-52.871
N3145 X-23.145 Z-52.594
N3150 X-22.741 Z-52.343
N3155 X-22.527 Z-52.231
N3160 X-22.305 Z-52.139
N3165 X-22.078 Z-52.065
N3170 X-21.781 Z-51.998
N3175 X-16.385 Z-51.198
N3180 X-6.809 Z-49.5
N3185 X-2.954 Z-48.671
N3190 X-0.672 Z-48.159
N3195 X-0.323 Z-48.086
N3200 X-0.072 Z-48.064
N3205 X0.192 Z-48.071
N3210 X0.451 Z-48.109
N3215 X2.347 Z-48.539
N3220 X6.952 Z-49.51
N3225 X16.499 Z-51.237
N3230 X21.703 Z-51.986
N3235 X21.959 Z-52.034
N3240 X22.208 Z-52.105
N3245 X22.45 Z-52.197
N3250 X22.68 Z-52.308
N3255 X23.125 Z-52.579
N3260 X23.444 Z-52.8
N3265 X23.749 Z-53.04
N3270 X24.032 Z-53.297
N3275 X24.291 Z-53.577
N3280 X24.428 Z-53.755
N3285 X24.549 Z-53.939
N3290 X24.671 Z-54.173
N3295 X24.738 Z-54.345
N3300 X24.772 Z-54.459
N3305 X24.806 Z-54.631
N3310 X24.818 Z-54.803
N3315 Z-68.603
N3320 X25.548 Y-53.326
N3325 X25.543 Z-54.839
N3330 X25.51 Z-54.625
N3335 X25.443 Z-54.406
N3340 X25.344 Z-54.188
N3345 X25.219 Z-53.976
N3350 X25.021 Z-53.711
N3355 X24.762 Z-53.43
N3360 X24.479 Z-53.173
N3365 X24.174 Z-52.933
N3370 X23.855 Z-52.712
N3375 X23.41 Z-52.441
N3380 X22.588 Z-51.997
N3385 X22.369 Z-51.889
N3390 X22.129 Z-51.793
N3395 X21.882 Z-51.716
N3400 X21.577 Z-51.654
N3405 X16.295 Z-50.892
N3410 X7.008 Z-49.208
N3415 X2.404 Z-48.235
N3420 X0.443 Z-47.791
N3425 X0.249 Z-47.76
N3430 X-0.011 Z-47.746
N3435 X-0.261 Z-47.761
N3440 X-0.553 Z-47.815
N3445 X-3.15 Z-48.398
N3450 X-7.005 Z-49.226
N3455 X-16.324 Z-50.875
N3460 X-21.655 Z-51.666
N3465 X-21.9 Z-51.721
N3470 X-22.128 Z-51.792
N3475 X-22.46 Z-51.932
N3480 X-23.227 Z-52.342
N3485 X-23.65 Z-52.586
N3490 X-24.048 Z-52.848
N3495 X-24.336 Z-53.062
N3500 X-24.611 Z-53.294
N3505 X-24.872 Z-53.548
N3510 X-25.109 Z-53.825
N3515 X-25.252 Z-54.029
N3520 X-25.385 Z-54.265
N3525 X-25.45 Z-54.412
N3530 X-25.521 Z-54.641
N3535 X-25.553 Z-54.824
N3540 X-25.561 Z-54.967
N3545 Z-68.603
N3550 X-26.294 Y-52.98
N3555 Z-55.106
N3560 X-26.28 Z-54.915
N3565 X-26.24 Z-54.722
N3570 X-26.184 Z-54.553
N3575 X-26.127 Z-54.422
N3580 X-26.057 Z-54.286
N3585 X-25.986 Z-54.168
N3590 X-25.842 Z-53.964
N3595 X-25.686 Z-53.774
N3600 X-25.431 Z-53.512
N3605 X-25.161 Z-53.275
N3610 X-24.876 Z-53.054
N3615 X-24.481 Z-52.787
N3620 X-24.073 Z-52.543
N3625 X-22.813 Z-51.861
N3630 X-22.287 Z-51.583
N3635 X-21.955 Z-51.447
N3640 X-21.727 Z-51.378
N3645 X-21.494 Z-51.328
N3650 X-16.034 Z-50.517
N3655 X-6.976 Z-48.906
N3660 X-3.378 Z-48.132
N3665 X-0.813 Z-47.557
N3670 X-0.349 Z-47.457
N3675 X-0.085 Z-47.431
N3680 X0.177 Z-47.436
N3685 X0.435 Z-47.472
N3690 X2.486 Z-47.937
N3695 X7.063 Z-48.905
N3700 X16.351 Z-50.587
N3705 X21.425 Z-51.318
N3710 X21.68 Z-51.366
N3715 X21.929 Z-51.438
N3720 X22.171 Z-51.53
N3725 X22.405 Z-51.642
N3730 X23.448 Z-52.2
N3735 X24.14 Z-52.574
N3740 X24.585 Z-52.845
N3745 X24.904 Z-53.066
N3750 X25.209 Z-53.306
N3755 X25.492 Z-53.563
N3760 X25.75 Z-53.844
N3765 X25.949 Z-54.109
N3770 X26.06 Z-54.296
N3775 X26.163 Z-54.514
N3780 X26.214 Z-54.661
N3785 X26.261 Z-54.871
N3790 X26.277 Z-55.057
N3795 Z-68.603
N3800 X27.007 Y-52.634
N3805 Z-55.191
N3810 X26.993 Z-55.018
N3815 X26.952 Z-54.822
N3820 X26.885 Z-54.628
N3825 X26.817 Z-54.481
N3830 X26.678 Z-54.243
N3835 X26.48 Z-53.977
N3840 X26.222 Z-53.696
N3845 X25.939 Z-53.439
N3850 X25.633 Z-53.199
N3855 X25.314 Z-52.978
N3860 X24.87 Z-52.707
N3865 X24.178 Z-52.333
N3870 X22.208 Z-51.28
N3875 X21.972 Z-51.173
N3880 X21.729 Z-51.085
N3885 X21.479 Z-51.018
N3890 X21.092 Z-50.956
N3895 X16.148 Z-50.241
N3900 X7.12 Z-48.603
N3905 X2.773 Z-47.685
N3910 X0.492 Z-47.168
N3915 X0.235 Z-47.125
N3920 X-0.026 Z-47.113
N3925 X-0.294 Z-47.132
N3930 X-0.528 Z-47.176
N3935 X-3.323 Z-47.805
N3940 X-7.178 Z-48.633
N3945 X-15.979 Z-50.195
N3950 X-21.309 Z-50.987
N3955 X-21.555 Z-51.036
N3960 X-21.784 Z-51.103
N3965 X-22.007 Z-51.187
N3970 X-22.332 Z-51.344
N3975 X-24.853 Z-52.708
N3980 X-25.26 Z-52.954
N3985 X-25.653 Z-53.225
N3990 X-25.935 Z-53.447
N3995 X-26.204 Z-53.689
N4000 X-26.454 Z-53.953
N4005 X-26.607 Z-54.145
N4010 X-26.747 Z-54.352
N4015 X-26.875 Z-54.592
N4020 X-26.937 Z-54.746
N4025 X-26.981 Z-54.89
N4030 X-27.003 Z-54.988
N4035 X-27.025 Z-55.164
N4040 X-27.027 Z-68.603
N4045 X-27.575 Y-52.376
N4050 X-27.758 Y-52.288
N4055 Z-55.368
N4060 X-27.747 Z-55.2
N4065 X-27.726 Z-55.078
N4070 X-27.661 Z-54.858
N4075 X-27.606 Z-54.726
N4080 X-27.537 Z-54.588
N4085 X-27.467 Z-54.469
N4090 X-27.325 Z-54.262
N4095 X-27.17 Z-54.071
N4100 X-26.916 Z-53.807
N4105 X-26.647 Z-53.568
N4110 X-26.363 Z-53.347
N4115 X-25.969 Z-53.078
N4120 X-25.562 Z-52.833
N4125 X-22.914 Z-51.401
N4130 X-22.031 Z-50.928
N4135 X-21.699 Z-50.788
N4140 X-21.471 Z-50.717
N4145 X-21.226 Z-50.662
N4150 X-16.155 Z-49.91
N4155 X-7.354 Z-48.353
N4160 X-3.499 Z-47.528
N4165 X-1.191 Z-47.009
N4170 X-0.356 Z-46.825
N4175 X-0.105 Z-46.798
N4180 X0.16 Z-46.802
N4185 X0.418 Z-46.836
N4190 X2.828 Z-47.381
N4195 X7.433 Z-48.353
N4200 X16.204 Z-49.938
N4205 X21.116 Z-50.645
N4210 X21.404 Z-50.7
N4215 X21.653 Z-50.772
N4220 X21.894 Z-50.865
N4225 X22.127 Z-50.977
N4230 X24.908 Z-52.466
N4235 X25.6 Z-52.84
N4240 X26.044 Z-53.111
N4245 X26.363 Z-53.332
N4250 X26.669 Z-53.572
N4255 X26.951 Z-53.829
N4260 X27.21 Z-54.11
N4265 X27.348 Z-54.288
N4270 X27.469 Z-54.472
N4275 X27.555 Z-54.63
N4280 X27.622 Z-54.78
N4285 X27.689 Z-54.984
N4290 X27.725 Z-55.166
N4295 X27.737 Z-55.326
N4300 Z-68.603
N4305 X27.896 Y-52.213
N4310 X28.052 Y-52.131
N4315 X28.203 Y-52.04
N4320 X28.35 Y-51.942
N4325 Z-55.345
N4330 X28.336 Z-55.15
N4335 X28.293 Z-54.933
N4340 X28.21 Z-54.69
N4345 X28.159 Z-54.578
N4350 X28.082 Z-54.44
N4355 X27.938 Z-54.241
N4360 X27.686 Z-53.967
N4365 X27.403 Z-53.709
N4370 X27.098 Z-53.469
N4375 X26.779 Z-53.248
N4380 X26.335 Z-52.977
N4385 X25.643 Z-52.602
N4390 X21.935 Z-50.617
N4395 X21.701 Z-50.51
N4400 X21.458 Z-50.421
N4405 X21.207 Z-50.352
N4410 X20.951 Z-50.307
N4415 X16.007 Z-49.592
N4420 X7.496 Z-48.052
N4425 X2.917 Z-47.084
N4430 X0.482 Z-46.532
N4435 X0.224 Z-46.49
N4440 X-0.037 Z-46.479
N4445 X-0.287 Z-46.498
N4450 X-0.52 Z-46.541
N4455 X-3.687 Z-47.254
N4460 X-7.286 Z-48.028
N4465 X-16.085 Z-49.586
N4470 X-21.026 Z-50.318
N4475 X-21.259 Z-50.365
N4480 X-21.488 Z-50.431
N4485 X-21.712 Z-50.515
N4490 X-22.036 Z-50.67
N4495 X-26.281 Z-52.964
N4500 X-26.69 Z-53.208
N4505 X-27.084 Z-53.477
N4510 X-27.368 Z-53.696
N4515 X-27.639 Z-53.936
N4520 X-27.81 Z-54.109
N4525 X-27.967 Z-54.311
N4530 X-28.1 Z-54.532
N4535 X-28.155 Z-54.645
N4540 X-28.21 Z-54.78
N4545 X-28.25 Z-54.905
N4550 X-28.29 Z-55.08
N4555 X-28.309 Z-55.225
N4560 X-28.315 Z-55.369
N4565 Z-68.603
N4570 X-28.575 Y-51.769
N4575 X-28.835 Y-51.596
N4580 Z-55.369
N4585 X-28.822 Z-55.157
N4590 X-28.781 Z-54.944
N4595 X-28.734 Z-54.792
N4600 X-28.687 Z-54.673
N4605 X-28.627 Z-54.546
N4610 X-28.497 Z-54.325
N4615 X-28.347 Z-54.125
N4620 X-28.183 Z-53.942
N4625 X-28.006 Z-53.774
N4630 X-27.724 Z-53.549
N4635 X-27.427 Z-53.349
N4640 X-27.018 Z-53.105
N4645 X-25.296 Z-52.173
N4650 X-21.765 Z-50.269
N4655 X-21.436 Z-50.128
N4660 X-21.208 Z-50.054
N4665 X-20.977 Z-50.
N4670 X-16.035 Z-49.265
N4675 X-7.493 Z-47.754
N4680 X-3.895 Z-46.984
N4685 X-0.818 Z-46.291
N4690 X-0.355 Z-46.191
N4695 X-0.092 Z-46.164
N4700 X0.17 Z-46.169
N4705 X0.428 Z-46.204
N4710 X3.222 Z-46.837
N4715 X7.571 Z-47.754
N4720 X16.083 Z-49.292
N4725 X20.847 Z-49.978
N4730 X21.15 Z-50.038
N4735 X21.398 Z-50.114
N4740 X21.638 Z-50.209
N4745 X21.872 Z-50.324
N4750 X26.159 Z-52.621
N4755 X27.082 Z-53.12
N4760 X27.526 Z-53.392
N4765 X27.884 Z-53.644
N4770 X28.134 Z-53.859
N4775 X28.309 Z-54.04
N4780 X28.464 Z-54.232
N4785 X28.598 Z-54.434
N4790 X28.695 Z-54.62
N4795 X28.762 Z-54.784
N4800 X28.796 Z-54.887
N4805 X28.848 Z-55.122
N4810 X28.866 Z-55.35
N4815 Z-68.603
N4820 X29.382 Y-51.25
N4825 Z-55.357
N4830 X29.366 Z-55.14
N4835 X29.332 Z-54.964
N4840 X29.265 Z-54.749
N4845 X29.165 Z-54.526
N4850 X29.047 Z-54.328
N4855 X28.902 Z-54.132
N4860 X28.737 Z-53.946
N4865 X28.555 Z-53.772
N4870 X28.257 Z-53.535
N4875 X27.933 Z-53.322
N4880 X27.361 Z-53.007
N4885 X21.684 Z-49.966
N4890 X21.449 Z-49.855
N4895 X21.207 Z-49.763
N4900 X20.958 Z-49.692
N4905 X20.703 Z-49.643
N4910 X15.89 Z-48.948
N4915 X7.638 Z-47.454
N4920 X3.289 Z-46.535
N4925 X0.431 Z-45.888
N4930 X0.239 Z-45.859
N4935 X-0.022 Z-45.846
N4940 X-0.291 Z-45.865
N4945 X-0.525 Z-45.908
N4950 X-4.089 Z-46.711
N4955 X-7.43 Z-47.429
N4960 X-15.97 Z-48.942
N4965 X-20.782 Z-49.656
N4970 X-21.027 Z-49.709
N4975 X-21.255 Z-49.779
N4980 X-21.587 Z-49.917
N4985 X-22.008 Z-50.14
N4990 X-27.897 Z-53.321
N4995 X-28.199 Z-53.517
N5000 X-28.484 Z-53.738
N5005 X-28.664 Z-53.902
N5010 X-28.831 Z-54.082
N5015 X-28.984 Z-54.278
N5020 X-29.119 Z-54.494
N5025 X-29.182 Z-54.617
N5030 X-29.232 Z-54.733
N5035 X-29.282 Z-54.878
N5040 X-29.333 Z-55.097
N5045 X-29.35 Z-55.235
N5050 X-29.355 Z-55.362
N5055 Z-68.603
N5060 X-29.875 Y-50.905
N5065 Z-55.368
N5070 X-29.86 Z-55.147
N5075 X-29.816 Z-54.928
N5080 X-29.769 Z-54.778
N5085 X-29.721 Z-54.659
N5090 X-29.6 Z-54.425
N5095 X-29.458 Z-54.215
N5100 X-29.299 Z-54.023
N5105 X-29.128 Z-53.848
N5110 X-28.849 Z-53.612
N5115 X-28.555 Z-53.406
N5120 X-28.245 Z-53.224
N5125 X-27.437 Z-52.81
N5130 X-22.811 Z-50.316
N5135 X-21.465 Z-49.593
N5140 X-21.134 Z-49.453
N5145 X-20.906 Z-49.38
N5150 X-20.661 Z-49.325
N5155 X-15.85 Z-48.611
N5160 X-7.567 Z-47.144
N5165 X-3.969 Z-46.37
N5170 X-0.662 Z-45.623
N5175 X-0.312 Z-45.551
N5180 X-0.061 Z-45.53
N5185 X0.203 Z-45.538
N5190 X0.462 Z-45.577
N5195 X3.41 Z-46.246
N5200 X7.732 Z-47.16
N5205 X15.985 Z-48.65
N5210 X20.538 Z-49.306
N5215 X20.794 Z-49.352
N5220 X21.044 Z-49.422
N5225 X21.286 Z-49.512
N5230 X21.521 Z-49.621
N5235 X26.503 Z-52.29
N5240 X27.874 Z-53.016
N5245 X28.338 Z-53.258
N5250 X28.666 Z-53.46
N5255 X28.976 Z-53.691
N5260 X29.166 Z-53.859
N5265 X29.34 Z-54.04
N5270 X29.496 Z-54.232
N5275 X29.629 Z-54.434
N5280 X29.701 Z-54.567
N5285 X29.768 Z-54.716
N5290 X29.835 Z-54.915
N5295 X29.882 Z-55.141
N5300 X29.897 Z-55.344
N5305 X29.898 Z-68.603
N5310 X30.413 Y-50.559
N5315 Z-55.349
N5320 X30.393 Z-55.106
N5325 X30.338 Z-54.871
N5330 X30.305 Z-54.77
N5335 X30.238 Z-54.61
N5340 X30.145 Z-54.434
N5345 X30.012 Z-54.232
N5350 X29.856 Z-54.04
N5355 X29.681 Z-53.859
N5360 X29.491 Z-53.691
N5365 X29.182 Z-53.46
N5370 X28.853 Z-53.258
N5375 X28.39 Z-53.016
N5380 X27.012 Z-52.304
N5385 X21.335 Z-49.265
N5390 X21.099 Z-49.159
N5395 X20.855 Z-49.073
N5400 X20.604 Z-49.007
N5405 X20.217 Z-48.945
N5410 X15.794 Z-48.307
N5415 X7.801 Z-46.86
N5420 X3.709 Z-45.997
N5425 X0.402 Z-45.249
N5430 X0.144 Z-45.217
N5435 X-0.118 Z-45.215
N5440 X-0.381 Z-45.245
N5445 X-1.869 Z-45.58
N5450 X-4.434 Z-46.155
N5455 X-7.776 Z-46.869
N5460 X-15.8 Z-48.29
N5465 X-20.481 Z-48.984
N5470 X-20.714 Z-49.033
N5475 X-20.943 Z-49.101
N5480 X-21.274 Z-49.236
N5485 X-21.801 Z-49.514
N5490 X-27.121 Z-52.385
N5495 X-28.761 Z-53.222
N5500 X-29.07 Z-53.403
N5505 X-29.366 Z-53.61
N5510 X-29.643 Z-53.844
N5515 X-29.814 Z-54.018
N5520 X-29.973 Z-54.208
N5525 X-30.115 Z-54.417
N5530 X-30.236 Z-54.647
N5535 X-30.29 Z-54.783
N5540 X-30.33 Z-54.907
N5545 X-30.37 Z-55.084
N5550 X-30.382 Z-55.167
N5555 X-30.395 Z-55.369
N5560 Z-68.603
N5565 X-30.915 Y-50.213
N5570 Z-55.368
N5575 X-30.9 Z-55.149
N5580 X-30.857 Z-54.932
N5585 X-30.81 Z-54.781
N5590 X-30.762 Z-54.663
N5595 X-30.641 Z-54.428
N5600 X-30.5 Z-54.218
N5605 X-30.341 Z-54.026
N5610 X-30.17 Z-53.851
N5615 X-29.891 Z-53.614
N5620 X-29.597 Z-53.408
N5625 X-29.287 Z-53.225
N5630 X-26.84 Z-51.977
N5635 X-21.204 Z-48.936
N5640 X-20.875 Z-48.794
N5645 X-20.648 Z-48.719
N5650 X-20.352 Z-48.652
N5655 X-15.736 Z-47.967
N5660 X-7.713 Z-46.546
N5665 X-4.372 Z-45.827
N5670 X-0.552 Z-44.964
N5675 X-0.318 Z-44.919
N5680 X-0.05 Z-44.896
N5685 X0.212 Z-44.906
N5690 X0.469 Z-44.946
N5695 X3.776 Z-45.696
N5700 X7.867 Z-46.56
N5705 X15.861 Z-48.004
N5710 X20.285 Z-48.641
N5715 X20.541 Z-48.691
N5720 X20.79 Z-48.763
N5725 X21.031 Z-48.856
N5730 X21.264 Z-48.967
N5735 X26.826 Z-51.946
N5740 X28.906 Z-53.016
N5745 X29.369 Z-53.258
N5750 X29.698 Z-53.46
N5755 X30.007 Z-53.691
N5760 X30.197 Z-53.859
N5765 X30.372 Z-54.04
N5770 X30.527 Z-54.232
N5775 X30.661 Z-54.434
N5780 X30.774 Z-54.655
N5785 X30.841 Z-54.83
N5790 X30.875 Z-54.945
N5795 X30.919 Z-55.184
N5800 X30.929 Z-55.355
N5805 Z-68.603
N5810 X31.445 Y-49.867
N5815 Z-55.356
N5820 X31.428 Z-55.133
N5825 X31.378 Z-54.898
N5830 X31.311 Z-54.704
N5835 X31.244 Z-54.557
N5840 X31.11 Z-54.328
N5845 X30.965 Z-54.132
N5850 X30.8 Z-53.946
N5855 X30.618 Z-53.772
N5860 X30.32 Z-53.535
N5865 X29.996 Z-53.322
N5870 X29.656 Z-53.136
N5875 X26.613 Z-51.575
N5880 X21.075 Z-48.609
N5885 X20.841 Z-48.501
N5890 X20.598 Z-48.412
N5895 X20.347 Z-48.344
N5900 X20.091 Z-48.299
N5905 X15.667 Z-47.66
N5910 X7.933 Z-46.26
N5915 X3.87 Z-45.4
N5920 X0.409 Z-44.617
N5925 X0.15 Z-44.584
N5930 X-0.114 Z-44.582
N5935 X-0.366 Z-44.609
N5940 X-1.457 Z-44.853
N5945 X-4.534 Z-45.547
N5950 X-7.875 Z-46.263
N5955 X-15.64 Z-47.639
N5960 X-20.191 Z-48.314
N5965 X-20.437 Z-48.366
N5970 X-20.665 Z-48.435
N5975 X-20.888 Z-48.521
N5980 X-21.212 Z-48.681
N5985 X-26.74 Z-51.661
N5990 X-29.785 Z-53.213
N5995 X-30.094 Z-53.394
N6000 X-30.392 Z-53.599
N6005 X-30.669 Z-53.832
N6010 X-30.842 Z-54.005
N6015 X-31.001 Z-54.193
N6020 X-31.144 Z-54.401
N6025 X-31.267 Z-54.629
N6030 X-31.323 Z-54.763
N6035 X-31.364 Z-54.887
N6040 X-31.405 Z-55.057
N6045 X-31.427 Z-55.213
N6050 X-31.435 Z-55.368
N6055 Z-68.603
N6060 X-31.954 Y-49.521
N6065 Z-55.366
N6070 X-31.937 Z-55.128
N6075 X-31.888 Z-54.902
N6080 X-31.84 Z-54.755
N6085 X-31.791 Z-54.637
N6090 X-31.668 Z-54.406
N6095 X-31.524 Z-54.197
N6100 X-31.364 Z-54.007
N6105 X-31.191 Z-53.834
N6110 X-30.912 Z-53.599
N6115 X-30.616 Z-53.395
N6120 X-30.294 Z-53.207
N6125 X-26.428 Z-51.238
N6130 X-20.92 Z-48.268
N6135 X-20.59 Z-48.125
N6140 X-20.363 Z-48.05
N6145 X-20.053 Z-47.98
N6150 X-15.567 Z-47.315
N6155 X-7.804 Z-45.935
N6160 X-4.72 Z-45.272
N6165 X-0.527 Z-44.325
N6170 X-0.293 Z-44.282
N6175 X-0.044 Z-44.263
N6180 X0.218 Z-44.273
N6185 X0.476 Z-44.314
N6190 X4.167 Z-45.151
N6195 X8. Z-45.96
N6200 X15.736 Z-47.358
N6205 X19.996 Z-47.971
N6210 X20.282 Z-48.028
N6215 X20.53 Z-48.103
N6220 X20.771 Z-48.198
N6225 X21.005 Z-48.312
N6230 X26.427 Z-51.217
N6235 X29.938 Z-53.016
N6240 X30.401 Z-53.258
N6245 X30.729 Z-53.46
N6250 X31.039 Z-53.691
N6255 X31.229 Z-53.859
N6260 X31.403 Z-54.04
N6265 X31.559 Z-54.232
N6270 X31.692 Z-54.434
N6275 X31.77 Z-54.578
N6280 X31.847 Z-54.757
N6285 X31.914 Z-54.977
N6290 X31.949 Z-55.172
N6295 X31.96 Z-55.348
N6300 X31.961 Z-68.603
N6305 X32.476 Y-49.175
N6310 Z-55.353
N6315 X32.464 Z-55.163
N6320 X32.417 Z-54.927
N6325 X32.34 Z-54.698
N6330 X32.296 Z-54.599
N6335 X32.208 Z-54.434
N6340 X32.075 Z-54.232
N6345 X31.919 Z-54.04
N6350 X31.745 Z-53.859
N6355 X31.555 Z-53.691
N6360 X31.245 Z-53.46
N6365 X30.917 Z-53.258
N6370 X30.453 Z-53.016
N6375 X26.24 Z-50.859
N6380 X20.819 Z-47.955
N6385 X20.584 Z-47.844
N6390 X20.342 Z-47.753
N6395 X20.092 Z-47.682
N6400 X19.837 Z-47.634
N6405 X15.544 Z-47.014
N6410 X8.068 Z-45.66
N6415 X4.236 Z-44.85
N6420 X0.416 Z-43.985
N6425 X0.158 Z-43.951
N6430 X-0.104 Z-43.948
N6435 X-0.367 Z-43.976
N6440 X-1.086 Z-44.135
N6445 X-4.933 Z-45.003
N6450 X-8.017 Z-45.665
N6455 X-15.523 Z-46.995
N6460 X-19.944 Z-47.651
N6465 X-20.177 Z-47.703
N6470 X-20.405 Z-47.775
N6475 X-20.735 Z-47.913
N6480 X-21.722 Z-48.442
N6485 X-26.117 Z-50.815
N6490 X-30.803 Z-53.202
N6495 X-31.113 Z-53.38
N6500 X-31.411 Z-53.584
N6505 X-31.69 Z-53.814
N6510 X-31.864 Z-53.986
N6515 X-32.025 Z-54.173
N6520 X-32.17 Z-54.378
N6525 X-32.295 Z-54.604
N6530 X-32.352 Z-54.736
N6535 X-32.395 Z-54.858
N6540 X-32.438 Z-55.022
N6545 X-32.465 Z-55.195
N6550 X-32.474 Z-55.368
N6555 Z-68.603
N6560 X-32.994 Y-48.829
N6565 Z-55.367
N6570 X-32.978 Z-55.135
N6575 X-32.93 Z-54.908
N6580 X-32.881 Z-54.76
N6585 X-32.833 Z-54.642
N6590 X-32.71 Z-54.41
N6595 X-32.567 Z-54.201
N6600 X-32.407 Z-54.011
N6605 X-32.235 Z-53.837
N6610 X-31.955 Z-53.602
N6615 X-31.66 Z-53.397
N6620 X-31.338 Z-53.21
N6625 X-25.835 Z-50.406
N6630 X-20.77 Z-47.67
N6635 X-20.446 Z-47.512
N6640 X-20.223 Z-47.426
N6645 X-19.994 Z-47.358
N6650 X-19.748 Z-47.308
N6655 X-15.457 Z-46.672
N6660 X-7.953 Z-45.337
N6665 X-4.869 Z-44.674
N6670 X-0.536 Z-43.694
N6675 X-0.302 Z-43.649
N6680 X-0.033 Z-43.629
N6685 X0.228 Z-43.641
N6690 X0.485 Z-43.682
N6695 X4.33 Z-44.555
N6700 X8.136 Z-45.36
N6705 X15.613 Z-46.712
N6710 X19.516 Z-47.274
N6715 X19.903 Z-47.337
N6720 X20.153 Z-47.404
N6725 X20.397 Z-47.491
N6730 X20.632 Z-47.598
N6735 X25.846 Z-50.39
N6740 X31.203 Z-53.136
N6745 X31.543 Z-53.322
N6750 X31.868 Z-53.535
N6755 X32.165 Z-53.772
N6760 X32.348 Z-53.946
N6765 X32.513 Z-54.132
N6770 X32.657 Z-54.328
N6775 X32.773 Z-54.522
N6780 X32.871 Z-54.737
N6785 X32.92 Z-54.881
N6790 X32.954 Z-55.013
N6795 X32.987 Z-55.245
N6800 X32.992 Z-55.363
N6805 Z-68.603
N6810 X33.508 Y-48.483
N6815 Z-55.347
N6820 X33.495 Z-55.162
N6825 X33.457 Z-54.958
N6830 X33.403 Z-54.779
N6835 X33.348 Z-54.644
N6840 X33.24 Z-54.434
N6845 X33.106 Z-54.232
N6850 X32.951 Z-54.04
N6855 X32.776 Z-53.859
N6860 X32.586 Z-53.691
N6865 X32.277 Z-53.46
N6870 X31.948 Z-53.258
N6875 X31.485 Z-53.016
N6880 X25.634 Z-50.018
N6885 X20.559 Z-47.3
N6890 X20.327 Z-47.188
N6895 X20.086 Z-47.094
N6900 X19.837 Z-47.02
N6905 X19.549 Z-46.965
N6910 X15.419 Z-46.368
N6915 X8.202 Z-45.06
N6920 X4.626 Z-44.305
N6925 X0.422 Z-43.353
N6930 X0.164 Z-43.318
N6935 X-0.101 Z-43.314
N6940 X-0.352 Z-43.34
N6945 X-0.931 Z-43.467
N6950 X-5.033 Z-44.394
N6955 X-8.118 Z-45.058
N6960 X-15.363 Z-46.344
N6965 X-19.654 Z-46.981
N6970 X-19.9 Z-47.037
N6975 X-20.127 Z-47.108
N6980 X-20.459 Z-47.249
N6985 X-21.573 Z-47.847
N6990 X-25.736 Z-50.091
N6995 X-31.827 Z-53.194
N7000 X-32.138 Z-53.371
N7005 X-32.437 Z-53.574
N7010 X-32.717 Z-53.803
N7015 X-32.892 Z-53.973
N7020 X-33.054 Z-54.159
N7025 X-33.2 Z-54.363
N7030 X-33.327 Z-54.587
N7035 X-33.384 Z-54.717
N7040 X-33.429 Z-54.838
N7045 X-33.473 Z-54.999
N7050 X-33.504 Z-55.183
N7055 X-33.514 Z-55.368
N7060 Z-68.603
N7065 X-34.034 Y-48.137
N7070 Z-55.369
N7075 X-34.026 Z-55.205
N7080 X-33.999 Z-55.029
N7085 X-33.943 Z-54.821
N7090 X-33.89 Z-54.682
N7095 X-33.837 Z-54.568
N7100 X-33.707 Z-54.343
N7105 X-33.559 Z-54.14
N7110 X-33.395 Z-53.956
N7115 X-33.219 Z-53.786
N7120 X-32.935 Z-53.558
N7125 X-32.637 Z-53.358
N7130 X-32.313 Z-53.176
N7135 X-25.402 Z-49.656
N7140 X-20.462 Z-46.99
N7145 X-20.139 Z-46.834
N7150 X-19.915 Z-46.75
N7155 X-19.686 Z-46.684
N7160 X-19.452 Z-46.637
N7165 X-15.292 Z-46.02
N7170 X-8.303 Z-44.78
N7175 X-5.219 Z-44.119
N7180 X-0.513 Z-43.055
N7185 X-0.279 Z-43.013
N7190 X-0.03 Z-42.996
N7195 X0.231 Z-43.007
N7200 X0.489 Z-43.05
N7205 X4.693 Z-44.004
N7210 X8.268 Z-44.76
N7215 X15.487 Z-46.066
N7220 X19.39 Z-46.628
N7225 X19.646 Z-46.674
N7230 X19.896 Z-46.744
N7235 X20.139 Z-46.834
N7240 X20.373 Z-46.943
N7245 X25.447 Z-49.661
N7250 X32.001 Z-53.016
N7255 X32.464 Z-53.258
N7260 X32.792 Z-53.46
N7265 X33.102 Z-53.691
N7270 X33.292 Z-53.859
N7275 X33.466 Z-54.04
N7280 X33.622 Z-54.232
N7285 X33.755 Z-54.434
N7290 X33.874 Z-54.668
N7295 X33.934 Z-54.824
N7300 X33.964 Z-54.923
N7305 X34.009 Z-55.144
N7310 X34.024 Z-55.352
N7315 Z-68.603
N7320 X34.539 Y-47.791
N7325 Z-55.36
N7330 X34.53 Z-55.191
N7335 X34.498 Z-54.996
N7340 X34.433 Z-54.776
N7345 X34.336 Z-54.552
N7350 X34.204 Z-54.328
N7355 X34.06 Z-54.132
N7360 X33.895 Z-53.946
N7365 X33.713 Z-53.772
N7370 X33.415 Z-53.535
N7375 X33.091 Z-53.322
N7380 X32.75 Z-53.136
N7385 X25.261 Z-49.303
N7390 X20.187 Z-46.586
N7395 X19.951 Z-46.481
N7400 X19.707 Z-46.394
N7405 X19.456 Z-46.329
N7410 X19.198 Z-46.286
N7415 X15.295 Z-45.722
N7420 X8.337 Z-44.46
N7425 X4.788 Z-43.709
N7430 X0.43 Z-42.721
N7435 X0.172 Z-42.685
N7440 X-0.09 Z-42.68
N7445 X-0.353 Z-42.707
N7450 X-0.817 Z-42.807
N7455 X-5.432 Z-43.85
N7460 X-8.259 Z-44.459
N7465 X-15.246 Z-45.7
N7470 X-19.342 Z-46.308
N7475 X-19.639 Z-46.374
N7480 X-19.866 Z-46.448
N7485 X-20.195 Z-46.591
N7490 X-25.113 Z-49.244
N7495 X-32.841 Z-53.18
N7500 X-33.153 Z-53.356
N7505 X-33.453 Z-53.556
N7510 X-33.735 Z-53.783
N7515 X-33.911 Z-53.951
N7520 X-34.074 Z-54.135
N7525 X-34.223 Z-54.337
N7530 X-34.352 Z-54.558
N7535 X-34.411 Z-54.686
N7540 X-34.457 Z-54.806
N7545 X-34.503 Z-54.961
N7550 X-34.541 Z-55.165
N7555 X-34.554 Z-55.369
N7560 Z-68.603
N7565 X-34.814 Y-47.618
N7570 X-35.074 Y-47.445
N7575 Z-55.369
N7580 X-35.065 Z-55.2
N7585 X-35.047 Z-55.074
N7590 X-34.995 Z-54.859
N7595 X-34.944 Z-54.716
N7600 X-34.893 Z-54.601
N7605 X-34.766 Z-54.373
N7610 X-34.62 Z-54.167
N7615 X-34.458 Z-53.98
N7620 X-34.283 Z-53.809
N7625 X-34.002 Z-53.578
N7630 X-33.705 Z-53.376
N7635 X-33.381 Z-53.191
N7640 X-25.065 Z-48.955
N7645 X-20.67 Z-46.587
N7650 X-20.018 Z-46.239
N7655 X-19.686 Z-46.1
N7660 X-19.458 Z-46.029
N7665 X-19.213 Z-45.975
N7670 X-15.182 Z-45.377
N7675 X-8.452 Z-44.183
N7680 X-5.625 Z-43.577
N7685 X-0.523 Z-42.424
N7690 X-0.289 Z-42.381
N7695 X-0.021 Z-42.362
N7700 X0.241 Z-42.375
N7705 X0.433 Z-42.405
N7710 X4.856 Z-43.407
N7715 X8.404 Z-44.16
N7720 X15.364 Z-45.42
N7725 X19.136 Z-45.963
N7730 X19.391 Z-46.012
N7735 X19.64 Z-46.084
N7740 X19.882 Z-46.177
N7745 X20.116 Z-46.288
N7750 X24.867 Z-48.834
N7755 X33.032 Z-53.016
N7760 X33.495 Z-53.258
N7765 X33.824 Z-53.46
N7770 X34.133 Z-53.691
N7775 X34.323 Z-53.859
N7780 X34.498 Z-54.04
N7785 X34.654 Z-54.232
N7790 X34.787 Z-54.434
N7795 X34.865 Z-54.58
N7800 X34.932 Z-54.732
N7805 X34.999 Z-54.939
N7810 X35.041 Z-55.153
N7815 X35.055 Z-55.346
N7820 Z-68.603
N7825 X35.571 Y-47.099
N7830 Z-55.351
N7835 X35.553 Z-55.127
N7840 X35.502 Z-54.892
N7845 X35.469 Z-54.788
N7850 X35.402 Z-54.623
N7855 X35.303 Z-54.434
N7860 X35.169 Z-54.232
N7865 X35.014 Z-54.04
N7870 X34.839 Z-53.859
N7875 X34.649 Z-53.691
N7880 X34.34 Z-53.46
N7885 X34.011 Z-53.258
N7890 X33.548 Z-53.016
N7895 X24.654 Z-48.462
N7900 X19.927 Z-45.931
N7905 X19.692 Z-45.823
N7910 X19.449 Z-45.734
N7915 X19.199 Z-45.666
N7920 X18.813 Z-45.603
N7925 X15.17 Z-45.076
N7930 X8.47 Z-43.86
N7935 X5.152 Z-43.158
N7940 X0.435 Z-42.088
N7945 X0.177 Z-42.052
N7950 X-0.087 Z-42.047
N7955 X-0.339 Z-42.071
N7960 X-0.918 Z-42.197
N7965 X-5.79 Z-43.297
N7970 X-8.617 Z-43.901
N7975 X-15.088 Z-45.049
N7980 X-19.053 Z-45.638
N7985 X-19.362 Z-45.708
N7990 X-19.589 Z-45.783
N7995 X-19.919 Z-45.926
N8000 X-24.733 Z-48.521
N8005 X-33.974 Z-53.23
N8010 X-34.284 Z-53.413
N8015 X-34.578 Z-53.62
N8020 X-34.856 Z-53.858
N8025 X-35.027 Z-54.033
N8030 X-35.185 Z-54.226
N8035 X-35.325 Z-54.437
N8040 X-35.445 Z-54.673
N8045 X-35.492 Z-54.792
N8050 X-35.539 Z-54.944
N8055 X-35.58 Z-55.155
N8060 X-35.593 Z-55.368
N8065 Z-68.603
N8070 X-36.113 Y-46.753
N8075 Z-55.368
N8080 X-36.106 Z-55.214
N8085 X-36.084 Z-55.06
N8090 X-36.043 Z-54.889
N8095 X-36.002 Z-54.765
N8100 X-35.947 Z-54.631
N8105 X-35.824 Z-54.402
N8110 X-35.681 Z-54.195
N8115 X-35.522 Z-54.006
N8120 X-35.349 Z-53.833
N8125 X-35.072 Z-53.601
N8130 X-34.775 Z-53.395
N8135 X-34.466 Z-53.214
N8140 X-24.395 Z-48.084
N8145 X-20.231 Z-45.836
N8150 X-19.705 Z-45.557
N8155 X-19.374 Z-45.422
N8160 X-19.145 Z-45.353
N8165 X-18.912 Z-45.304
N8170 X-15.013 Z-44.724
N8175 X-8.543 Z-43.575
N8180 X-5.973 Z-43.022
N8185 X-0.498 Z-41.785
N8190 X-0.264 Z-41.744
N8195 X-0.015 Z-41.729
N8200 X0.246 Z-41.742
N8205 X0.439 Z-41.772
N8210 X5.246 Z-42.862
N8215 X8.538 Z-43.56
N8220 X15.239 Z-44.774
N8225 X18.849 Z-45.294
N8230 X19.136 Z-45.351
N8235 X19.384 Z-45.426
N8240 X19.625 Z-45.521
N8245 X19.857 Z-45.634
N8250 X24.468 Z-48.104
N8255 X34.298 Z-53.136
N8260 X34.638 Z-53.322
N8265 X34.962 Z-53.535
N8270 X35.26 Z-53.772
N8275 X35.442 Z-53.946
N8280 X35.607 Z-54.132
N8285 X35.752 Z-54.328
N8290 X35.871 Z-54.529
N8295 X35.972 Z-54.753
N8300 X36.039 Z-54.97
N8305 X36.072 Z-55.151
N8310 X36.087 Z-55.357
N8315 Z-68.603
N8320 X36.603 Y-46.407
N8325 X36.602 Z-55.345
N8330 X36.587 Z-55.143
N8335 X36.542 Z-54.921
N8340 X36.475 Z-54.72
N8345 X36.408 Z-54.57
N8350 X36.334 Z-54.434
N8355 X36.201 Z-54.232
N8360 X36.045 Z-54.04
N8365 X35.871 Z-53.859
N8370 X35.681 Z-53.691
N8375 X35.371 Z-53.46
N8380 X35.043 Z-53.258
N8385 X34.58 Z-53.016
N8390 X24.281 Z-47.746
N8395 X19.671 Z-45.276
N8400 X19.437 Z-45.167
N8405 X19.195 Z-45.075
N8410 X18.945 Z-45.004
N8415 X18.689 Z-44.957
N8420 X15.046 Z-44.43
N8425 X8.605 Z-43.26
N8430 X5.314 Z-42.561
N8435 X0.443 Z-41.456
N8440 X0.185 Z-41.42
N8445 X-0.077 Z-41.413
N8450 X-0.344 Z-41.439
N8455 X-0.807 Z-41.538
N8460 X-5.935 Z-42.699
N8465 X-8.762 Z-43.303
N8470 X-14.975 Z-44.406
N8475 X-18.744 Z-44.965
N8480 X-18.99 Z-45.015
N8485 X-19.219 Z-45.083
N8490 X-19.442 Z-45.169
N8495 X-19.766 Z-45.327
N8500 X-24.137 Z-47.688
N8505 X-35.016 Z-53.231
N8510 X-35.325 Z-53.414
N8515 X-35.619 Z-53.621
N8520 X-35.897 Z-53.859
N8525 X-36.068 Z-54.035
N8530 X-36.225 Z-54.227
N8535 X-36.366 Z-54.439
N8540 X-36.486 Z-54.674
N8545 X-36.533 Z-54.794
N8550 X-36.579 Z-54.947
N8555 X-36.62 Z-55.157
N8560 X-36.633 Z-55.368
N8565 Z-68.603
N8570 X-37.153 Y-46.061
N8575 Z-55.369
N8580 X-37.134 Z-55.12
N8585 X-37.096 Z-54.935
N8590 X-37.058 Z-54.809
N8595 X-37.004 Z-54.671
N8600 X-36.951 Z-54.557
N8605 X-36.82 Z-54.334
N8610 X-36.671 Z-54.132
N8615 X-36.507 Z-53.948
N8620 X-36.33 Z-53.779
N8625 X-36.046 Z-53.552
N8630 X-35.747 Z-53.353
N8635 X-35.423 Z-53.171
N8640 X-24.061 Z-47.385
N8645 X-19.478 Z-44.917
N8650 X-19.147 Z-44.774
N8655 X-18.92 Z-44.7
N8660 X-18.675 Z-44.643
N8665 X-14.905 Z-44.082
N8670 X-8.695 Z-42.978
N8675 X-6.125 Z-42.425
N8680 X-0.51 Z-41.154
N8685 X-0.276 Z-41.112
N8690 X-0.007 Z-41.095
N8695 X0.254 Z-41.11
N8700 X0.446 Z-41.14
N8705 X5.611 Z-42.312
N8710 X8.931 Z-43.012
N8715 X15.115 Z-44.128
N8720 X18.498 Z-44.615
N8725 X18.754 Z-44.659
N8730 X19.005 Z-44.726
N8735 X19.249 Z-44.813
N8740 X19.484 Z-44.92
N8745 X23.887 Z-47.277
N8750 X35.095 Z-53.016
N8755 X35.558 Z-53.258
N8760 X35.887 Z-53.46
N8765 X36.196 Z-53.691
N8770 X36.386 Z-53.859
N8775 X36.561 Z-54.04
N8780 X36.717 Z-54.232
N8785 X36.85 Z-54.434
N8790 X36.944 Z-54.613
N8795 X37.011 Z-54.775
N8800 X37.045 Z-54.876
N8805 X37.098 Z-55.111
N8810 X37.118 Z-55.349
N8815 Z-68.603
N8820 X37.369 Y-45.892
N8825 X37.614 Y-45.715
N8830 X37.613 Z-55.342
N8835 X37.597 Z-55.12
N8840 X37.548 Z-54.876
N8845 X37.481 Z-54.675
N8850 X37.413 Z-54.524
N8855 X37.295 Z-54.321
N8860 X37.131 Z-54.103
N8865 X36.963 Z-53.919
N8870 X36.778 Z-53.747
N8875 X36.478 Z-53.512
N8880 X36.151 Z-53.302
N8885 X35.81 Z-53.118
N8890 X23.639 Z-46.886
N8895 X19.376 Z-44.603
N8900 X19.141 Z-44.493
N8905 X18.899 Z-44.403
N8910 X18.649 Z-44.333
N8915 X18.393 Z-44.286
N8920 X14.881 Z-43.777
N8925 X8.958 Z-42.705
N8930 X5.665 Z-42.007
N8935 X0.409 Z-40.816
N8940 X0.151 Z-40.784
N8945 X-0.114 Z-40.781
N8950 X-0.365 Z-40.809
N8955 X-1.456 Z-41.052
N8960 X-6.328 Z-42.154
N8965 X-8.898 Z-42.704
N8970 X-14.851 Z-43.761
N8975 X-18.491 Z-44.301
N8980 X-18.724 Z-44.351
N8985 X-18.952 Z-44.421
N8990 X-19.283 Z-44.557
N8995 X-19.809 Z-44.836
N9000 X-23.741 Z-46.958
N9005 X-36.029 Z-53.216
N9010 X-36.339 Z-53.398
N9015 X-36.634 Z-53.603
N9020 X-36.914 Z-53.837
N9025 X-37.086 Z-54.012
N9030 X-37.244 Z-54.211
N9035 X-37.378 Z-54.434
N9040 X-37.433 Z-54.547
N9045 X-37.487 Z-54.682
N9050 X-37.527 Z-54.806
N9055 X-37.568 Z-54.97
N9060 X-37.601 Z-55.224
N9065 X-37.606 Z-55.365
N9070 Z-68.603
N9075 X-37.989 Y-45.369
N9080 Z-55.279
N9085 X-37.976 Z-55.052
N9090 X-37.938 Z-54.83
N9095 X-37.895 Z-54.673
N9100 X-37.853 Z-54.552
N9105 X-37.796 Z-54.42
N9110 X-37.739 Z-54.309
N9115 X-37.602 Z-54.091
N9120 X-37.446 Z-53.894
N9125 X-37.273 Z-53.717
N9130 X-37.087 Z-53.559
N9135 X-36.839 Z-53.385
N9140 X-36.476 Z-53.178
N9145 X-23.591 Z-46.616
N9150 X-19.658 Z-44.497
N9155 X-19.132 Z-44.219
N9160 X-18.801 Z-44.083
N9165 X-18.572 Z-44.014
N9170 X-18.34 Z-43.965
N9175 X-14.959 Z-43.463
N9180 X-9.005 Z-42.411
N9185 X-6.435 Z-41.862
N9190 X-0.564 Z-40.533
N9195 X-0.33 Z-40.486
N9200 X-0.062 Z-40.463
N9205 X0.2 Z-40.471
N9210 X0.457 Z-40.509
N9215 X5.841 Z-41.73
N9220 X8.875 Z-42.374
N9225 X14.798 Z-43.45
N9230 X18.278 Z-43.955
N9235 X18.564 Z-44.012
N9240 X18.812 Z-44.087
N9245 X19.053 Z-44.182
N9250 X19.287 Z-44.296
N9255 X23.55 Z-46.581
N9260 X36.393 Z-53.153
N9265 X36.76 Z-53.358
N9270 X37.053 Z-53.555
N9275 X37.274 Z-53.736
N9280 X37.449 Z-53.913
N9285 X37.604 Z-54.104
N9290 X37.734 Z-54.305
N9295 X37.816 Z-54.464
N9300 X37.883 Z-54.627
N9305 X37.95 Z-54.853
N9310 X37.989 Z-55.079
N9315 X38.002 Z-55.285
N9320 X38.003 Z-68.603
N9325 X38.384 Y-45.023
N9330 Z-55.203
N9335 X38.368 Z-54.971
N9340 X38.353 Z-54.869
N9345 X38.319 Z-54.715
N9350 X38.243 Z-54.483
N9355 X38.2 Z-54.383
N9360 X38.115 Z-54.217
N9365 X37.985 Z-54.016
N9370 X37.83 Z-53.825
N9375 X37.655 Z-53.648
N9380 X37.461 Z-53.486
N9385 X37.252 Z-53.34
N9390 X36.943 Z-53.166
N9395 X23.245 Z-46.16
N9400 X19.098 Z-43.938
N9405 X18.864 Z-43.828
N9410 X18.622 Z-43.737
N9415 X18.373 Z-43.666
N9420 X18.117 Z-43.618
N9425 X14.734 Z-43.126
N9430 X9.069 Z-42.1
N9435 X6.035 Z-41.458
N9440 X0.459 Z-40.193
N9445 X0.266 Z-40.161
N9450 X0.005 Z-40.145
N9455 X-0.257 Z-40.16
N9460 X-0.505 Z-40.203
N9465 X-6.748 Z-41.614
N9470 X-9.062 Z-42.109
N9475 X-14.756 Z-43.12
N9480 X-18.202 Z-43.631
N9485 X-18.512 Z-43.702
N9490 X-18.738 Z-43.778
N9495 X-19.068 Z-43.923
N9500 X-23.188 Z-46.146
N9505 X-36.538 Z-52.942
N9510 X-37.01 Z-53.177
N9515 X-37.318 Z-53.363
N9520 X-37.512 Z-53.508
N9525 X-37.695 Z-53.67
N9530 X-37.864 Z-53.85
N9535 X-38.016 Z-54.051
N9540 X-38.147 Z-54.272
N9545 X-38.207 Z-54.399
N9550 X-38.254 Z-54.518
N9555 X-38.301 Z-54.666
N9560 X-38.347 Z-54.884
N9565 X-38.363 Z-55.011
N9570 X-38.371 Z-55.194
N9575 Z-68.603
N9580 X-38.754 Y-44.677
N9585 Z-55.109
N9590 X-38.746 Z-54.931
N9595 X-38.723 Z-54.757
N9600 X-38.685 Z-54.586
N9605 X-38.646 Z-54.461
N9610 X-38.594 Z-54.323
N9615 X-38.476 Z-54.089
N9620 X-38.335 Z-53.877
N9625 X-38.176 Z-53.685
N9630 X-38. Z-53.513
N9635 X-37.812 Z-53.358
N9640 X-37.613 Z-53.221
N9645 X-37.406 Z-53.099
N9650 X-36.121 Z-52.462
N9655 X-23.001 Z-45.786
N9660 X-19.762 Z-44.039
N9665 X-18.88 Z-43.566
N9670 X-18.548 Z-43.426
N9675 X-18.32 Z-43.354
N9680 X-18.075 Z-43.299
N9685 X-14.824 Z-42.816
N9690 X-9.13 Z-41.81
N9695 X-6.817 Z-41.314
N9700 X-0.919 Z-39.98
N9705 X-0.341 Z-39.855
N9710 X-0.089 Z-39.83
N9715 X0.175 Z-39.835
N9720 X0.434 Z-39.871
N9725 X6.202 Z-41.179
N9730 X9.238 Z-41.82
N9735 X14.904 Z-42.841
N9740 X17.977 Z-43.284
N9745 X18.281 Z-43.344
N9750 X18.529 Z-43.419
N9755 X18.769 Z-43.514
N9760 X19.001 Z-43.628
N9765 X22.917 Z-45.726
N9770 X35.789 Z-52.316
N9775 X37.179 Z-53.006
N9780 X37.522 Z-53.185
N9785 X37.737 Z-53.322
N9790 X37.939 Z-53.475
N9795 X38.124 Z-53.644
N9800 X38.289 Z-53.827
N9805 X38.431 Z-54.022
N9810 X38.554 Z-54.237
N9815 X38.654 Z-54.477
N9820 X38.722 Z-54.718
N9825 X38.755 Z-54.937
N9830 X38.765 Z-55.135
N9835 Z-68.603
N9840 X39.146 Y-44.331
N9845 Z-55.02
N9850 X39.132 Z-54.808
N9855 X39.09 Z-54.576
N9860 X39.037 Z-54.393
N9865 X38.984 Z-54.255
N9870 X38.877 Z-54.041
N9875 X38.747 Z-53.84
N9880 X38.593 Z-53.649
N9885 X38.417 Z-53.472
N9890 X38.223 Z-53.31
N9895 X38.014 Z-53.164
N9900 X37.705 Z-52.99
N9905 X35.437 Z-51.872
N9910 X22.822 Z-45.417
N9915 X18.791 Z-43.258
N9920 X18.555 Z-43.149
N9925 X18.313 Z-43.06
N9930 X18.063 Z-42.991
N9935 X17.807 Z-42.945
N9940 X14.815 Z-42.515
N9945 X9.148 Z-41.489
N9950 X6.345 Z-40.895
N9955 X0.474 Z-39.563
N9960 X0.217 Z-39.522
N9965 X-0.044 Z-39.512
N9970 X-0.312 Z-39.534
N9975 X-0.546 Z-39.579
N9980 X-6.93 Z-41.023
N9985 X-9.243 Z-41.518
N9990 X-14.679 Z-42.481
N9995 X-17.93 Z-42.964
N10000 X-18.175 Z-43.019
N10005 X-18.403 Z-43.09
N10010 X-18.734 Z-43.23
N10015 X-19.617 Z-43.703
N10020 X-22.856 Z-45.448
N10025 X-35.508 Z-51.886
N10030 X-37.747 Z-52.992
N10035 X-37.968 Z-53.118
N10040 X-38.168 Z-53.254
N10045 X-38.358 Z-53.406
N10050 X-38.535 Z-53.576
N10055 X-38.697 Z-53.764
N10060 X-38.84 Z-53.974
N10065 X-38.961 Z-54.205
N10070 X-39.016 Z-54.34
N10075 X-39.056 Z-54.463
N10080 X-39.097 Z-54.627
N10085 X-39.126 Z-54.823
N10090 X-39.136 Z-55.024
N10095 Z-68.603
N10100 X-39.519 Y-43.985
N10105 Z-54.939
N10110 X-39.513 Z-54.786
N10115 X-39.491 Z-54.606
N10120 X-39.442 Z-54.391
N10125 X-39.395 Z-54.244
N10130 X-39.347 Z-54.127
N10135 X-39.286 Z-54.001
N10140 X-39.153 Z-53.781
N10145 X-39. Z-53.582
N10150 X-38.83 Z-53.403
N10155 X-38.646 Z-53.242
N10160 X-38.451 Z-53.099
N10165 X-38.142 Z-52.914
N10170 X-34.841 Z-51.284
N10175 X-22.659 Z-45.083
N10180 X-18.751 Z-42.978
N10185 X-18.426 Z-42.821
N10190 X-18.202 Z-42.736
N10195 X-17.973 Z-42.669
N10200 X-17.728 Z-42.62
N10205 X-14.737 Z-42.177
N10210 X-9.301 Z-41.217
N10215 X-6.988 Z-40.721
N10220 X-0.517 Z-39.256
N10225 X-0.254 Z-39.21
N10230 X-0.005 Z-39.195
N10235 X0.256 Z-39.21
N10240 X0.449 Z-39.241
N10245 X6.512 Z-40.616
N10250 X9.316 Z-41.21
N10255 X14.723 Z-42.187
N10260 X17.682 Z-42.613
N10265 X17.97 Z-42.668
N10270 X18.218 Z-42.741
N10275 X18.459 Z-42.835
N10280 X18.694 Z-42.947
N10285 X22.494 Z-44.983
N10290 X34.874 Z-51.32
N10295 X38.086 Z-52.902
N10300 X38.395 Z-53.076
N10305 X38.604 Z-53.222
N10310 X38.798 Z-53.384
N10315 X38.974 Z-53.561
N10320 X39.128 Z-53.752
N10325 X39.258 Z-53.953
N10330 X39.359 Z-54.152
N10335 X39.426 Z-54.327
N10340 X39.459 Z-54.44
N10345 X39.493 Z-54.588
N10350 X39.51 Z-54.695
N10355 X39.527 Z-54.938
N10360 Z-68.603
N10365 X39.908 Y-43.639
N10370 Z-54.87
N10375 X39.895 Z-54.644
N10380 X39.863 Z-54.447
N10385 X39.799 Z-54.217
N10390 X39.703 Z-53.986
N10395 X39.574 Z-53.758
N10400 X39.432 Z-53.563
N10405 X39.267 Z-53.38
N10410 X39.082 Z-53.211
N10415 X38.88 Z-53.058
N10420 X38.665 Z-52.921
N10425 X38.322 Z-52.742
N10430 X34.311 Z-50.768
N10435 X22.165 Z-44.549
N10440 X18.481 Z-42.577
N10445 X18.246 Z-42.47
N10450 X18.002 Z-42.383
N10455 X17.751 Z-42.316
N10460 X17.494 Z-42.272
N10465 X14.632 Z-41.86
N10470 X9.483 Z-40.929
N10475 X6.678 Z-40.337
N10480 X0.423 Z-38.919
N10485 X0.164 Z-38.884
N10490 X-0.1 Z-38.88
N10495 X-0.352 Z-38.906
N10500 X-0.93 Z-39.033
N10505 X-7.34 Z-40.482
N10510 X-9.396 Z-40.922
N10515 X-14.573 Z-41.839
N10520 X-17.629 Z-42.292
N10525 X-17.926 Z-42.36
N10530 X-18.153 Z-42.434
N10535 X-18.481 Z-42.577
N10540 X-22.266 Z-44.618
N10545 X-34.45 Z-50.817
N10550 X-38.458 Z-52.794
N10555 X-38.77 Z-52.972
N10560 X-38.968 Z-53.11
N10565 X-39.156 Z-53.266
N10570 X-39.331 Z-53.439
N10575 X-39.49 Z-53.631
N10580 X-39.629 Z-53.844
N10585 X-39.746 Z-54.08
N10590 X-39.798 Z-54.219
N10595 X-39.835 Z-54.344
N10600 X-39.873 Z-54.518
N10605 X-39.894 Z-54.685
N10610 X-39.901 Z-54.854
N10615 Z-68.603
N10620 X-40.283 Y-43.293
N10625 Z-54.77
N10630 X-40.272 Z-54.556
N10635 X-40.239 Z-54.347
N10640 X-40.197 Z-54.186
N10645 X-40.156 Z-54.064
N10650 X-40.1 Z-53.931
N10655 X-39.977 Z-53.701
N10660 X-39.832 Z-53.494
N10665 X-39.669 Z-53.306
N10670 X-39.49 Z-53.138
N10675 X-39.3 Z-52.987
N10680 X-39.099 Z-52.853
N10685 X-38.878 Z-52.729
N10690 X-33.809 Z-50.227
N10695 X-22.094 Z-44.266
N10700 X-18.333 Z-42.24
N10705 X-18.004 Z-42.098
N10710 X-17.777 Z-42.024
N10715 X-17.48 Z-41.957
N10720 X-14.425 Z-41.503
N10725 X-9.507 Z-40.63
N10730 X-7.451 Z-40.191
N10735 X-0.554 Z-38.631
N10740 X-0.321 Z-38.585
N10745 X-0.053 Z-38.562
N10750 X0.209 Z-38.571
N10755 X0.466 Z-38.611
N10760 X6.85 Z-40.059
N10765 X9.396 Z-40.598
N10770 X14.543 Z-41.533
N10775 X17.406 Z-41.945
N10780 X17.661 Z-41.994
N10785 X17.911 Z-42.065
N10790 X18.153 Z-42.157
N10795 X18.386 Z-42.267
N10800 X22.07 Z-44.24
N10805 X33.749 Z-50.217
N10810 X38.848 Z-52.725
N10815 X39.157 Z-52.9
N10820 X39.366 Z-53.046
N10825 X39.56 Z-53.208
N10830 X39.736 Z-53.385
N10835 X39.89 Z-53.575
N10840 X40.021 Z-53.777
N10845 X40.092 Z-53.913
N10850 X40.163 Z-54.082
N10855 X40.231 Z-54.299
N10860 X40.274 Z-54.537
N10865 X40.289 Z-54.756
N10870 Z-68.603
N10875 X40.67 Y-42.947
N10880 Z-54.673
N10885 X40.651 Z-54.42
N10890 X40.633 Z-54.308
N10895 X40.599 Z-54.165
N10900 X40.566 Z-54.054
N10905 X40.499 Z-53.881
N10910 X40.402 Z-53.689
N10915 X40.271 Z-53.487
N10920 X40.117 Z-53.297
N10925 X39.941 Z-53.12
N10930 X39.747 Z-52.958
N10935 X39.538 Z-52.812
N10940 X39.229 Z-52.637
N10945 X33.186 Z-49.665
N10950 X21.742 Z-43.806
N10955 X18.289 Z-41.957
N10960 X18.057 Z-41.843
N10965 X17.817 Z-41.747
N10970 X17.569 Z-41.672
N10975 X17.266 Z-41.611
N10980 X14.453 Z-41.205
N10985 X9.564 Z-40.319
N10990 X7.018 Z-39.781
N10995 X0.442 Z-38.289
N11000 X0.249 Z-38.259
N11005 X-0.012 Z-38.245
N11010 X-0.261 Z-38.26
N11015 X-0.495 Z-38.301
N11020 X-7.508 Z-39.888
N11025 X-9.564 Z-40.328
N11030 X-14.483 Z-41.199
N11035 X-17.343 Z-41.623
N11040 X-17.576 Z-41.673
N11045 X-17.804 Z-41.743
N11050 X-18.136 Z-41.879
N11055 X-18.661 Z-42.158
N11060 X-21.9 Z-43.902
N11065 X-33.145 Z-49.626
N11070 X-39.275 Z-52.651
N11075 X-39.584 Z-52.834
N11080 X-39.78 Z-52.977
N11085 X-39.965 Z-53.136
N11090 X-40.136 Z-53.314
N11095 X-40.291 Z-53.511
N11100 X-40.425 Z-53.73
N11105 X-40.487 Z-53.855
N11110 X-40.535 Z-53.972
N11115 X-40.584 Z-54.116
N11120 X-40.634 Z-54.328
N11125 X-40.658 Z-54.51
N11130 X-40.666 Z-54.684
N11135 Z-68.603
N11140 X-41.048 Y-42.601
N11145 Z-54.599
N11150 X-41.04 Z-54.413
N11155 X-41.014 Z-54.23
N11160 X-40.975 Z-54.062
N11165 X-40.937 Z-53.938
N11170 X-40.883 Z-53.801
N11175 X-40.764 Z-53.568
N11180 X-40.622 Z-53.357
N11185 X-40.462 Z-53.166
N11190 X-40.286 Z-52.995
N11195 X-40.097 Z-52.841
N11200 X-39.898 Z-52.704
N11205 X-39.69 Z-52.583
N11210 X-32.747 Z-49.156
N11215 X-21.504 Z-43.435
N11220 X-18.496 Z-41.811
N11225 X-17.97 Z-41.534
N11230 X-17.637 Z-41.4
N11235 X-17.408 Z-41.332
N11240 X-17.175 Z-41.284
N11245 X-14.316 Z-40.86
N11250 X-9.657 Z-40.033
N11255 X-7.601 Z-39.593
N11260 X-1.191 Z-38.142
N11265 X-0.356 Z-37.957
N11270 X-0.105 Z-37.931
N11275 X0.16 Z-37.934
N11280 X0.418 Z-37.968
N11285 X7.186 Z-39.502
N11290 X9.734 Z-40.039
N11295 X14.364 Z-40.877
N11300 X17.095 Z-41.273
N11305 X17.351 Z-41.319
N11310 X17.601 Z-41.388
N11315 X17.844 Z-41.478
N11320 X18.079 Z-41.587
N11325 X21.439 Z-43.386
N11330 X32.623 Z-49.113
N11335 X39.466 Z-52.478
N11340 X39.808 Z-52.656
N11345 X40.023 Z-52.794
N11350 X40.225 Z-52.947
N11355 X40.41 Z-53.116
N11360 X40.575 Z-53.299
N11365 X40.717 Z-53.494
N11370 X40.829 Z-53.687
N11375 X40.922 Z-53.896
N11380 X40.968 Z-54.034
N11385 X41.002 Z-54.162
N11390 X41.035 Z-54.354
N11395 X41.051 Z-54.592
N11400 Z-68.603
N11405 X41.432 Y-42.255
N11410 Z-54.491
N11415 X41.416 Z-54.267
N11420 X41.371 Z-54.023
N11425 X41.304 Z-53.81
N11430 X41.237 Z-53.652
N11435 X41.164 Z-53.513
N11440 X41.033 Z-53.311
N11445 X40.879 Z-53.121
N11450 X40.703 Z-52.944
N11455 X40.509 Z-52.782
N11460 X40.3 Z-52.636
N11465 X39.991 Z-52.461
N11470 X32.061 Z-48.561
N11475 X21.318 Z-43.064
N11480 X17.982 Z-41.276
N11485 X17.748 Z-41.163
N11490 X17.507 Z-41.07
N11495 X17.258 Z-40.996
N11500 X16.971 Z-40.941
N11505 X14.272 Z-40.548
N11510 X9.642 Z-39.707
N11515 X7.123 Z-39.171
N11520 X0.457 Z-37.659
N11525 X0.2 Z-37.62
N11530 X-0.062 Z-37.612
N11535 X-0.33 Z-37.636
N11540 X-0.564 Z-37.683
N11545 X-7.973 Z-39.358
N11550 X-9.772 Z-39.742
N11555 X-14.432 Z-40.564
N11560 X-17.032 Z-40.95
N11565 X-17.265 Z-40.998
N11570 X-17.494 Z-41.065
N11575 X-17.827 Z-41.199
N11580 X-18.353 Z-41.477
N11585 X-21.36 Z-43.098
N11590 X-32.138 Z-48.582
N11595 X-40.037 Z-52.479
N11600 X-40.257 Z-52.605
N11605 X-40.457 Z-52.74
N11610 X-40.647 Z-52.891
N11615 X-40.825 Z-53.061
N11620 X-40.988 Z-53.249
N11625 X-41.131 Z-53.458
N11630 X-41.253 Z-53.688
N11635 X-41.308 Z-53.823
N11640 X-41.349 Z-53.946
N11645 X-41.39 Z-54.108
N11650 X-41.42 Z-54.309
N11655 X-41.431 Z-54.514
N11660 Z-68.603
N11665 X-41.622 Y-42.082
N11670 X-41.812 Y-41.909
N11675 Z-54.443
N11680 X-41.807 Z-54.308
N11685 X-41.788 Z-54.129
N11690 X-41.742 Z-53.912
N11695 X-41.697 Z-53.763
N11700 X-41.651 Z-53.644
N11705 X-41.592 Z-53.515
N11710 X-41.533 Z-53.405
N11715 X-41.391 Z-53.192
N11720 X-41.23 Z-53.
N11725 X-41.054 Z-52.828
N11730 X-40.865 Z-52.673
N11735 X-40.665 Z-52.536
N11740 X-40.399 Z-52.384
N11745 X-31.498 Z-47.993
N11750 X-21.19 Z-42.746
N11755 X-17.764 Z-40.903
N11760 X-17.434 Z-40.76
N11765 X-17.207 Z-40.686
N11770 X-16.962 Z-40.628
N11775 X-14.232 Z-40.221
N11780 X-9.831 Z-39.44
N11785 X-8.032 Z-39.056
N11790 X-0.506 Z-37.353
N11795 X-0.272 Z-37.311
N11800 X-0.023 Z-37.295
N11805 X0.238 Z-37.307
N11810 X0.431 Z-37.337
N11815 X7.289 Z-38.892
N11820 X9.809 Z-39.428
N11825 X14.18 Z-40.22
N11830 X16.782 Z-40.599
N11835 X17.039 Z-40.644
N11840 X17.29 Z-40.711
N11845 X17.533 Z-40.799
N11850 X17.768 Z-40.905
N11855 X20.989 Z-42.629
N11860 X31.497 Z-48.009
N11865 X40.372 Z-52.373
N11870 X40.68 Z-52.548
N11875 X40.89 Z-52.693
N11880 X41.084 Z-52.855
N11885 X41.259 Z-53.032
N11890 X41.414 Z-53.223
N11895 X41.543 Z-53.424
N11900 X41.658 Z-53.661
N11905 X41.716 Z-53.82
N11910 X41.773 Z-54.046
N11915 X41.802 Z-54.244
N11920 X41.812 Z-54.443
N11925 Z-68.603
N11930 X41.976 Y-41.738
N11935 X42.135 Y-41.563
N11940 Z-54.466
N11945 X42.122 Z-54.235
N11950 X42.108 Z-54.132
N11955 X42.075 Z-53.955
N11960 X41.998 Z-53.684
N11965 X41.911 Z-53.463
N11970 X41.808 Z-53.262
N11975 X41.678 Z-53.059
N11980 X41.526 Z-52.868
N11985 X41.353 Z-52.69
N11990 X41.16 Z-52.531
N11995 X40.918 Z-52.373
N12000 X40.608 Z-52.213
N12005 X30.934 Z-47.457
N12010 X20.686 Z-42.209
N12015 X17.674 Z-40.595
N12020 X17.44 Z-40.485
N12025 X17.198 Z-40.393
N12030 X16.949 Z-40.321
N12035 X16.694 Z-40.272
N12040 X14.352 Z-39.935
N12045 X9.979 Z-39.148
N12050 X7.458 Z-38.614
N12055 X0.408 Z-37.016
N12060 X0.149 Z-36.983
N12065 X-0.116 Z-36.981
N12070 X-0.367 Z-37.008
N12075 X-1.458 Z-37.252
N12080 X-8.124 Z-38.761
N12085 X-9.923 Z-39.145
N12090 X-14.324 Z-39.921
N12095 X-16.794 Z-40.289
N12100 X-17.039 Z-40.344
N12105 X-17.267 Z-40.417
N12110 X-17.598 Z-40.557
N12115 X-18.943 Z-41.281
N12120 X-20.794 Z-42.28
N12125 X-31.103 Z-47.524
N12130 X-40.77 Z-52.293
N12135 X-40.98 Z-52.409
N12140 X-41.181 Z-52.547
N12145 X-41.369 Z-52.706
N12150 X-41.541 Z-52.885
N12155 X-41.696 Z-53.084
N12160 X-41.831 Z-53.302
N12165 X-41.944 Z-53.54
N12170 X-42.033 Z-53.795
N12175 X-42.067 Z-53.919
N12180 X-42.1 Z-54.08
N12185 X-42.127 Z-54.284
N12190 X-42.136 Z-54.487
N12195 Z-68.603
N12200 X-42.293 Y-41.39
N12205 X-42.45 Y-41.217
N12210 Z-54.564
N12215 X-42.437 Z-54.324
N12220 X-42.402 Z-54.096
N12225 X-42.366 Z-53.943
N12230 X-42.284 Z-53.687
N12235 X-42.183 Z-53.45
N12240 X-42.064 Z-53.227
N12245 X-41.93 Z-53.017
N12250 X-41.782 Z-52.817
N12255 X-41.619 Z-52.631
N12260 X-41.44 Z-52.462
N12265 X-41.248 Z-52.312
N12270 X-40.945 Z-52.121
N12275 X-40.619 Z-51.942
N12280 X-30.362 Z-46.885
N12285 X-20.757 Z-41.996
N12290 X-19.369 Z-41.253
N12295 X-17.457 Z-40.224
N12300 X-17.127 Z-40.083
N12305 X-16.9 Z-40.011
N12310 X-16.668 Z-39.957
N12315 X-14.069 Z-39.569
N12320 X-9.927 Z-38.834
N12325 X-8.385 Z-38.502
N12330 X-1.718 Z-36.995
N12335 X-0.371 Z-36.693
N12340 X-0.12 Z-36.664
N12345 X0.145 Z-36.666
N12350 X0.403 Z-36.698
N12355 X7.71 Z-38.354
N12360 X9.972 Z-38.834
N12365 X14.085 Z-39.579
N12370 X16.556 Z-39.939
N12375 X16.811 Z-39.988
N12380 X17.06 Z-40.06
N12385 X17.301 Z-40.152
N12390 X17.536 Z-40.264
N12395 X20.433 Z-41.815
N12400 X30.237 Z-46.837
N12405 X40.509 Z-51.888
N12410 X40.911 Z-52.101
N12415 X41.238 Z-52.306
N12420 X41.438 Z-52.46
N12425 X41.62 Z-52.632
N12430 X41.784 Z-52.82
N12435 X41.999 Z-53.121
N12440 X42.123 Z-53.332
N12445 X42.245 Z-53.588
N12450 X42.31 Z-53.757
N12455 X42.377 Z-53.984
N12460 X42.41 Z-54.141
N12465 X42.444 Z-54.416
N12470 X42.448 Z-54.554
N12475 Z-68.603
N12480 X42.761 Y-40.871
N12485 Z-54.613
N12490 X42.749 Z-54.399
N12495 X42.712 Z-54.16
N12500 X42.645 Z-53.902
N12505 X42.535 Z-53.612
N12510 X42.379 Z-53.306
N12515 X42.246 Z-53.098
N12520 X42.097 Z-52.897
N12525 X41.845 Z-52.611
N12530 X41.567 Z-52.35
N12535 X41.263 Z-52.112
N12540 X40.835 Z-51.818
N12545 X40.501 Z-51.617
N12550 X40.155 Z-51.436
N12555 X29.679 Z-46.288
N12560 X20.341 Z-41.508
N12565 X17.352 Z-39.908
N12570 X17.117 Z-39.801
N12575 X16.875 Z-39.711
N12580 X16.624 Z-39.643
N12585 X16.368 Z-39.597
N12590 X14.026 Z-39.257
N12595 X9.913 Z-38.508
N12600 X7.881 Z-38.076
N12605 X0.473 Z-36.395
N12610 X0.216 Z-36.355
N12615 X-0.046 Z-36.345
N12620 X-0.314 Z-36.367
N12625 X-0.548 Z-36.412
N12630 X-8.47 Z-38.206
N12635 X-10.012 Z-38.537
N12640 X-14.154 Z-39.269
N12645 X-16.494 Z-39.617
N12650 X-16.727 Z-39.668
N12655 X-16.955 Z-39.738
N12660 X-17.286 Z-39.876
N12665 X-18.043 Z-40.28
N12670 X-20.356 Z-41.527
N12675 X-29.962 Z-46.414
N12680 X-40.172 Z-51.444
N12685 X-40.547 Z-51.643
N12690 X-40.953 Z-51.895
N12695 X-41.342 Z-52.171
N12700 X-41.62 Z-52.397
N12705 X-41.883 Z-52.651
N12710 X-42.12 Z-52.928
N12715 X-42.265 Z-53.127
N12720 X-42.397 Z-53.339
N12725 X-42.513 Z-53.564
N12730 X-42.612 Z-53.804
N12735 X-42.691 Z-54.063
N12740 X-42.725 Z-54.221
N12745 X-42.759 Z-54.496
N12750 X-42.764 Z-54.647
N12755 Z-68.603
N12760 X-43.078 Y-40.525
N12765 Z-54.714
N12770 X-43.065 Z-54.482
N12775 X-43.021 Z-54.21
N12780 X-42.99 Z-54.084
N12785 X-42.905 Z-53.827
N12790 X-42.801 Z-53.589
N12795 X-42.68 Z-53.367
N12800 X-42.545 Z-53.157
N12805 X-42.317 Z-52.864
N12810 X-42.068 Z-52.601
N12815 X-41.786 Z-52.351
N12820 X-41.108 Z-51.809
N12825 X-40.724 Z-51.526
N12830 X-40.323 Z-51.267
N12835 X-39.906 Z-51.036
N12840 X-39.197 Z-50.69
N12845 X-29.293 Z-45.81
N12850 X-20.157 Z-41.161
N12855 X-17.193 Z-39.566
N12860 X-16.863 Z-39.422
N12865 X-16.636 Z-39.348
N12870 X-16.391 Z-39.29
N12875 X-13.922 Z-38.92
N12880 X-10.041 Z-38.229
N12885 X-8.499 Z-37.897
N12890 X-0.808 Z-36.154
N12895 X-0.344 Z-36.055
N12900 X-0.077 Z-36.029
N12905 X0.185 Z-36.036
N12910 X0.442 Z-36.072
N12915 X7.877 Z-37.759
N12920 X10.139 Z-38.241
N12925 X13.993 Z-38.939
N12930 X16.075 Z-39.241
N12935 X16.461 Z-39.304
N12940 X16.712 Z-39.37
N12945 X16.955 Z-39.458
N12950 X17.191 Z-39.565
N12955 X20.064 Z-41.102
N12960 X29.168 Z-45.762
N12965 X39.291 Z-50.736
N12970 X39.997 Z-51.083
N12975 X40.335 Z-51.275
N12980 X40.664 Z-51.485
N12985 X41.085 Z-51.791
N12990 X41.88 Z-52.427
N12995 X42.158 Z-52.688
N13000 X42.41 Z-52.974
N13005 X42.559 Z-53.174
N13010 X42.692 Z-53.383
N13015 X42.846 Z-53.684
N13020 X42.947 Z-53.944
N13025 X43.014 Z-54.185
N13030 X43.047 Z-54.362
N13035 X43.061 Z-54.466
N13040 X43.074 Z-54.697
N13045 Z-68.603
N13050 X43.387 Y-40.179
N13055 Z-54.785
N13060 X43.383 Z-54.645
N13065 X43.35 Z-54.375
N13070 X43.284 Z-54.098
N13075 X43.251 Z-53.995
N13080 X43.185 Z-53.821
N13085 X43.062 Z-53.562
N13090 X42.939 Z-53.351
N13095 X42.723 Z-53.05
N13100 X42.471 Z-52.764
N13105 X42.193 Z-52.504
N13110 X41.788 Z-52.179
N13115 X40.677 Z-51.296
N13120 X40.254 Z-50.994
N13125 X39.924 Z-50.788
N13130 X39.524 Z-50.57
N13135 X34.296 Z-48.01
N13140 X28.633 Z-45.225
N13145 X19.763 Z-40.683
N13150 X17.122 Z-39.268
N13155 X16.888 Z-39.155
N13160 X16.647 Z-39.061
N13165 X16.398 Z-38.988
N13170 X16.111 Z-38.932
N13175 X13.933 Z-38.616
N13180 X10.079 Z-37.914
N13185 X8.074 Z-37.487
N13190 X0.447 Z-35.757
N13195 X0.253 Z-35.726
N13200 X-0.007 Z-35.711
N13205 X-0.256 Z-35.726
N13210 X-0.52 Z-35.772
N13215 X-8.786 Z-37.644
N13220 X-10.328 Z-37.97
N13225 X-13.952 Z-38.612
N13230 X-16.162 Z-38.94
N13235 X-16.408 Z-38.99
N13240 X-16.636 Z-39.058
N13245 X-16.86 Z-39.143
N13250 X-17.184 Z-39.301
N13255 X-19.936 Z-40.784
N13260 X-28.84 Z-45.313
N13265 X-38.272 Z-49.96
N13270 X-39.572 Z-50.594
N13275 X-39.899 Z-50.773
N13280 X-40.302 Z-51.027
N13285 X-40.69 Z-51.305
N13290 X-42.158 Z-52.479
N13295 X-42.427 Z-52.725
N13300 X-42.672 Z-52.993
N13305 X-42.896 Z-53.29
N13310 X-43.027 Z-53.503
N13315 X-43.144 Z-53.729
N13320 X-43.243 Z-53.972
N13325 X-43.322 Z-54.236
N13330 X-43.35 Z-54.365
N13335 X-43.385 Z-54.627
N13340 X-43.393 Z-54.808
N13345 Z-68.603
N13350 X-43.55 Y-40.006
N13355 X-43.707 Y-39.833
N13360 Z-54.888
N13365 X-43.695 Z-54.659
N13370 X-43.661 Z-54.428
N13375 X-43.626 Z-54.274
N13380 X-43.545 Z-54.017
N13385 X-43.444 Z-53.779
N13390 X-43.326 Z-53.556
N13395 X-43.193 Z-53.345
N13400 X-42.97 Z-53.054
N13405 X-42.721 Z-52.785
N13410 X-42.453 Z-52.542
N13415 X-40.487 Z-50.969
N13420 X-40.057 Z-50.648
N13425 X-39.658 Z-50.387
N13430 X-39.242 Z-50.154
N13435 X-37.351 Z-49.232
N13440 X-28.154 Z-44.701
N13445 X-19.72 Z-40.409
N13450 X-18.795 Z-39.914
N13455 X-16.883 Z-38.885
N13460 X-16.554 Z-38.744
N13465 X-16.326 Z-38.672
N13470 X-16.094 Z-38.618
N13475 X-14.014 Z-38.308
N13480 X-10.39 Z-37.669
N13485 X-8.848 Z-37.342
N13490 X-0.669 Z-35.49
N13495 X-0.32 Z-35.418
N13500 X-0.068 Z-35.395
N13505 X0.196 Z-35.403
N13510 X0.454 Z-35.441
N13515 X8.274 Z-37.215
N13520 X10.278 Z-37.642
N13525 X13.874 Z-38.294
N13530 X15.955 Z-38.596
N13535 X16.211 Z-38.643
N13540 X16.461 Z-38.713
N13545 X16.704 Z-38.803
N13550 X16.938 Z-38.912
N13555 X19.463 Z-40.264
N13560 X27.889 Z-44.58
N13565 X34.469 Z-47.82
N13570 X39.11 Z-50.089
N13575 X39.512 Z-50.301
N13580 X39.845 Z-50.505
N13585 X40.271 Z-50.803
N13590 X42.101 Z-52.256
N13595 X42.506 Z-52.581
N13600 X42.784 Z-52.841
N13605 X43.036 Z-53.127
N13610 X43.185 Z-53.328
N13615 X43.318 Z-53.537
N13620 X43.432 Z-53.752
N13625 X43.541 Z-54.009
N13630 X43.596 Z-54.173
N13635 X43.651 Z-54.39
N13640 X43.688 Z-54.63
N13645 X43.7 Z-54.844
N13650 Z-68.603
N13655 X44.013 Y-39.487
N13660 Z-54.928
N13665 X44. Z-54.696
N13670 X43.986 Z-54.592
N13675 X43.953 Z-54.415
N13680 X43.876 Z-54.145
N13685 X43.789 Z-53.923
N13690 X43.688 Z-53.716
N13695 X43.565 Z-53.505
N13700 X43.349 Z-53.204
N13705 X43.097 Z-52.918
N13710 X42.819 Z-52.658
N13715 X42.414 Z-52.333
N13720 X40.582 Z-50.877
N13725 X39.968 Z-50.387
N13730 X39.544 Z-50.087
N13735 X39.212 Z-49.88
N13740 X38.812 Z-49.664
N13745 X33.7 Z-47.167
N13750 X27.355 Z-44.043
N13755 X19.398 Z-39.971
N13760 X16.757 Z-38.558
N13765 X16.521 Z-38.452
N13770 X16.277 Z-38.365
N13775 X16.027 Z-38.299
N13780 X15.64 Z-38.236
N13785 X13.819 Z-37.972
N13790 X10.223 Z-37.316
N13795 X8.476 Z-36.944
N13800 X0.4 Z-35.114
N13805 X0.141 Z-35.082
N13810 X-0.123 Z-35.081
N13815 X-0.375 Z-35.11
N13820 X-1.978 Z-35.47
N13825 X-9.157 Z-37.094
N13830 X-10.442 Z-37.367
N13835 X-13.807 Z-37.964
N13840 X-15.888 Z-38.272
N13845 X-16.121 Z-38.321
N13850 X-16.35 Z-38.388
N13855 X-16.682 Z-38.522
N13860 X-17.209 Z-38.8
N13865 X-19.522 Z-40.043
N13870 X-27.723 Z-44.214
N13875 X-36.448 Z-48.513
N13880 X-38.918 Z-49.718
N13885 X-39.333 Z-49.952
N13890 X-39.731 Z-50.214
N13895 X-40.16 Z-50.537
N13900 X-42.444 Z-52.364
N13905 X-42.753 Z-52.611
N13910 X-43.033 Z-52.863
N13915 X-43.281 Z-53.129
N13920 X-43.506 Z-53.424
N13925 X-43.64 Z-53.635
N13930 X-43.758 Z-53.859
N13935 X-43.86 Z-54.099
N13940 X-43.942 Z-54.36
N13945 X-43.971 Z-54.488
N13950 X-44.011 Z-54.753
N13955 X-44.021 Z-54.968
N13960 Z-68.603
N13965 X-44.178 Y-39.314
N13970 X-44.335 Y-39.141
N13975 Z-55.047
N13980 X-44.324 Z-54.817
N13985 X-44.289 Z-54.586
N13990 X-44.254 Z-54.432
N13995 X-44.172 Z-54.175
N14000 X-44.071 Z-53.937
N14005 X-43.953 Z-53.714
N14010 X-43.82 Z-53.504
N14015 X-43.598 Z-53.212
N14020 X-43.348 Z-52.943
N14025 X-43.08 Z-52.701
N14030 X-39.65 Z-49.96
N14035 X-39.262 Z-49.682
N14040 X-38.859 Z-49.428
N14045 X-38.533 Z-49.25
N14050 X-35.578 Z-47.81
N14055 X-27.088 Z-43.628
N14060 X-19.122 Z-39.575
N14065 X-16.727 Z-38.282
N14070 X-16.403 Z-38.128
N14075 X-16.179 Z-38.044
N14080 X-15.949 Z-37.979
N14085 X-15.716 Z-37.933
N14090 X-13.895 Z-37.663
N14095 X-10.53 Z-37.071
N14100 X-9.245 Z-36.798
N14105 X-0.554 Z-34.83
N14110 X-0.32 Z-34.784
N14115 X-0.052 Z-34.762
N14120 X0.21 Z-34.771
N14125 X0.467 Z-34.811
N14130 X8.645 Z-36.666
N14135 X10.419 Z-37.043
N14140 X13.756 Z-37.649
N14145 X15.674 Z-37.927
N14150 X15.962 Z-37.982
N14155 X16.21 Z-38.055
N14160 X16.451 Z-38.148
N14165 X16.686 Z-38.261
N14170 X19.095 Z-39.551
N14175 X26.819 Z-43.505
N14180 X32.927 Z-46.512
N14185 X38.337 Z-49.154
N14190 X38.685 Z-49.33
N14195 X39.022 Z-49.526
N14200 X39.347 Z-49.74
N14205 X39.765 Z-50.05
N14210 X40.481 Z-50.627
N14215 X42.727 Z-52.41
N14220 X43.132 Z-52.735
N14225 X43.41 Z-52.995
N14230 X43.662 Z-53.281
N14235 X43.878 Z-53.582
N14240 X44.001 Z-53.793
N14245 X44.123 Z-54.049
N14250 X44.187 Z-54.218
N14255 X44.254 Z-54.445
N14260 X44.288 Z-54.601
N14265 X44.322 Z-54.874
N14270 X44.326 Z-55.016
N14275 Z-68.603
N14280 X44.639 Y-38.795
N14285 Z-55.075
N14290 X44.627 Z-54.86
N14295 X44.59 Z-54.62
N14300 X44.523 Z-54.363
N14305 X44.413 Z-54.074
N14310 X44.257 Z-53.768
N14315 X44.124 Z-53.559
N14320 X43.975 Z-53.358
N14325 X43.723 Z-53.072
N14330 X43.445 Z-52.812
N14335 X43.04 Z-52.486
N14340 X40.382 Z-50.379
N14345 X39.359 Z-49.555
N14350 X38.939 Z-49.249
N14355 X38.61 Z-49.038
N14360 X38.272 Z-48.846
N14365 X37.803 Z-48.614
N14370 X32.157 Z-45.858
N14375 X26.258 Z-42.955
N14380 X18.793 Z-39.131
N14385 X16.499 Z-37.904
N14390 X16.265 Z-37.795
N14395 X16.022 Z-37.705
N14400 X15.772 Z-37.636
N14405 X15.516 Z-37.59
N14410 X13.694 Z-37.326
N14415 X10.616 Z-36.769
N14420 X8.84 Z-36.394
N14425 X0.406 Z-34.482
N14430 X0.147 Z-34.449
N14435 X-0.115 Z-34.447
N14440 X-0.378 Z-34.477
N14445 X-1.61 Z-34.753
N14450 X-9.302 Z-36.495
N14455 X-10.587 Z-36.769
N14460 X-13.693 Z-37.32
N14465 X-15.643 Z-37.61
N14470 X-15.888 Z-37.666
N14475 X-16.116 Z-37.738
N14480 X-16.447 Z-37.878
N14485 X-17.561 Z-38.476
N14490 X-18.949 Z-39.222
N14495 X-26.446 Z-43.037
N14500 X-34.7 Z-47.103
N14505 X-38.127 Z-48.772
N14510 X-38.454 Z-48.946
N14515 X-38.86 Z-49.197
N14520 X-39.25 Z-49.472
N14525 X-39.807 Z-49.915
N14530 X-42.27 Z-51.885
N14535 X-43.401 Z-52.787
N14540 X-43.681 Z-53.042
N14545 X-43.926 Z-53.31
N14550 X-44.15 Z-53.607
N14555 X-44.282 Z-53.819
N14560 X-44.399 Z-54.045
N14565 X-44.498 Z-54.287
N14570 X-44.578 Z-54.551
N14575 X-44.606 Z-54.68
N14580 X-44.642 Z-54.942
N14585 X-44.649 Z-55.127
N14590 Z-68.603
N14595 X-44.963 Y-38.449
N14600 Z-55.199
N14605 X-44.946 Z-54.925
N14610 X-44.909 Z-54.704
N14615 X-44.872 Z-54.554
N14620 X-44.788 Z-54.3
N14625 X-44.684 Z-54.065
N14630 X-44.564 Z-53.843
N14635 X-44.428 Z-53.635
N14640 X-44.204 Z-53.346
N14645 X-43.952 Z-53.079
N14650 X-43.682 Z-52.839
N14655 X-41.419 Z-51.038
N14660 X-39.369 Z-49.392
N14665 X-38.903 Z-49.023
N14670 X-38.514 Z-48.748
N14675 X-38.108 Z-48.498
N14680 X-37.793 Z-48.33
N14685 X-33.774 Z-46.373
N14690 X-25.992 Z-42.54
N14695 X-18.728 Z-38.845
N14700 X-16.331 Z-37.557
N14705 X-16.003 Z-37.414
N14710 X-15.776 Z-37.339
N14715 X-15.479 Z-37.272
N14720 X-13.723 Z-37.011
N14725 X-10.617 Z-36.463
N14730 X-9.589 Z-36.242
N14735 X-0.525 Z-34.19
N14740 X-0.292 Z-34.147
N14745 X-0.042 Z-34.128
N14750 X0.219 Z-34.138
N14755 X0.477 Z-34.179
N14760 X8.809 Z-36.07
N14765 X10.557 Z-36.444
N14770 X13.635 Z-37.004
N14775 X15.196 Z-37.23
N14780 X15.583 Z-37.292
N14785 X15.834 Z-37.357
N14790 X16.078 Z-37.443
N14795 X16.372 Z-37.577
N14800 X18.492 Z-38.712
N14805 X25.723 Z-42.417
N14810 X31.386 Z-45.203
N14815 X37.741 Z-48.305
N14820 X37.973 Z-48.423
N14825 X38.31 Z-48.618
N14830 X38.637 Z-48.831
N14835 X39.055 Z-49.14
N14840 X40.282 Z-50.13
N14845 X43.353 Z-52.563
N14850 X43.758 Z-52.889
N14855 X44.036 Z-53.149
N14860 X44.288 Z-53.435
N14865 X44.437 Z-53.636
N14870 X44.57 Z-53.845
N14875 X44.724 Z-54.145
N14880 X44.824 Z-54.405
N14885 X44.892 Z-54.645
N14890 X44.925 Z-54.822
N14895 X44.939 Z-54.926
N14900 X44.952 Z-55.158
N14905 Z-68.603
N14910 X45.265 Y-38.103
N14915 Z-55.246
N14920 X45.26 Z-55.102
N14925 X45.228 Z-54.835
N14930 X45.162 Z-54.559
N14935 X45.129 Z-54.456
N14940 X45.063 Z-54.282
N14945 X44.94 Z-54.024
N14950 X44.817 Z-53.813
N14955 X44.601 Z-53.512
N14960 X44.349 Z-53.226
N14965 X44.071 Z-52.966
N14970 X43.666 Z-52.64
N14975 X40.183 Z-49.881
N14980 X38.648 Z-48.645
N14985 X38.227 Z-48.34
N14990 X37.899 Z-48.131
N14995 X37.559 Z-47.939
N15000 X35.79 Z-47.075
N15005 X30.38 Z-44.434
N15010 X25.19 Z-41.88
N15015 X18.218 Z-38.308
N15020 X16.248 Z-37.253
N15025 X16.014 Z-37.141
N15030 X15.773 Z-37.048
N15035 X15.524 Z-36.976
N15040 X15.268 Z-36.927
N15045 X13.578 Z-36.681
N15050 X10.759 Z-36.171
N15055 X9.01 Z-35.799
N15060 X0.421 Z-33.851
N15065 X0.163 Z-33.817
N15070 X-0.102 Z-33.813
N15075 X-0.353 Z-33.839
N15080 X-0.932 Z-33.966
N15085 X-9.649 Z-35.94
N15090 X-10.677 Z-36.161
N15095 X-13.523 Z-36.667
N15100 X-15.342 Z-36.938
N15105 X-15.575 Z-36.989
N15110 X-15.803 Z-37.059
N15115 X-16.134 Z-37.195
N15120 X-16.891 Z-37.599
N15125 X-18.51 Z-38.469
N15130 X-25.304 Z-41.926
N15135 X-33.087 Z-45.759
N15140 X-37.459 Z-47.888
N15145 X-37.786 Z-48.064
N15150 X-38.191 Z-48.316
N15155 X-38.58 Z-48.593
N15160 X-39.341 Z-49.201
N15165 X-41.597 Z-51.009
N15170 X-43.962 Z-52.892
N15175 X-44.245 Z-53.139
N15180 X-44.496 Z-53.401
N15185 X-44.726 Z-53.691
N15190 X-44.863 Z-53.899
N15195 X-44.986 Z-54.12
N15200 X-45.092 Z-54.356
N15205 X-45.179 Z-54.61
N15210 X-45.212 Z-54.735
N15215 X-45.245 Z-54.897
N15220 X-45.276 Z-55.191
N15225 X-45.278 Z-68.603
N15230 X-45.435 Y-37.93
N15235 X-45.592 Y-37.757
N15240 Z-55.374
N15245 X-45.587 Z-55.216
N15250 X-45.555 Z-54.955
N15255 X-45.49 Z-54.678
N15260 X-45.403 Z-54.427
N15265 X-45.297 Z-54.193
N15270 X-45.174 Z-53.974
N15275 X-45.037 Z-53.767
N15280 X-44.81 Z-53.48
N15285 X-44.556 Z-53.216
N15290 X-44.285 Z-52.978
N15295 X-40.993 Z-50.359
N15300 X-38.417 Z-48.287
N15305 X-37.988 Z-47.965
N15310 X-37.589 Z-47.704
N15315 X-37.173 Z-47.471
N15320 X-32.209 Z-45.053
N15325 X-24.898 Z-41.452
N15330 X-18.337 Z-38.116
N15335 X-16.486 Z-37.123
N15340 X-15.959 Z-36.846
N15345 X-15.627 Z-36.713
N15350 X-15.398 Z-36.646
N15355 X-15.165 Z-36.598
N15360 X-13.605 Z-36.367
N15365 X-10.759 Z-35.864
N15370 X-9.731 Z-35.643
N15375 X-0.528 Z-33.557
N15380 X-0.294 Z-33.514
N15385 X-0.025 Z-33.494
N15390 X0.236 Z-33.507
N15395 X0.493 Z-33.549
N15400 X9.209 Z-35.527
N15405 X10.7 Z-35.845
N15410 X13.519 Z-36.359
N15415 X15.08 Z-36.586
N15420 X15.337 Z-36.631
N15425 X15.587 Z-36.7
N15430 X15.83 Z-36.789
N15435 X16.064 Z-36.897
N15440 X18.126 Z-38.001
N15445 X24.656 Z-41.343
N15450 X29.846 Z-43.896
N15455 X36.675 Z-47.227
N15460 X37.261 Z-47.517
N15465 X37.599 Z-47.711
N15470 X37.926 Z-47.923
N15475 X38.345 Z-48.23
N15480 X39.879 Z-49.467
N15485 X43.979 Z-52.717
N15490 X44.384 Z-53.043
N15495 X44.662 Z-53.303
N15500 X44.914 Z-53.589
N15505 X45.063 Z-53.79
N15510 X45.196 Z-53.998
N15515 X45.31 Z-54.213
N15520 X45.419 Z-54.47
N15525 X45.474 Z-54.634
N15530 X45.529 Z-54.85
N15535 X45.566 Z-55.091
N15540 X45.578 Z-55.305
N15545 Z-68.603
N15550 X45.732 Y-37.587
N15555 X45.88 Y-37.411
N15560 X45.876 Z-55.233
N15565 X45.847 Z-54.978
N15570 X45.797 Z-54.748
N15575 X45.727 Z-54.533
N15580 X45.611 Z-54.266
N15585 X45.495 Z-54.052
N15590 X45.361 Z-53.844
N15595 X45.21 Z-53.644
N15600 X44.955 Z-53.36
N15605 X44.676 Z-53.101
N15610 X43.238 Z-51.961
N15615 X39.757 Z-49.2
N15620 X38.018 Z-47.797
N15625 X37.6 Z-47.489
N15630 X37.274 Z-47.276
N15635 X36.936 Z-47.08
N15640 X36.588 Z-46.905
N15645 X28.814 Z-43.113
N15650 X23.885 Z-40.685
N15655 X17.8 Z-37.568
N15660 X15.97 Z-36.587
N15665 X15.737 Z-36.476
N15670 X15.496 Z-36.382
N15675 X15.247 Z-36.309
N15680 X14.959 Z-36.254
N15685 X13.431 Z-36.031
N15690 X10.87 Z-35.567
N15695 X9.38 Z-35.249
N15700 X0.407 Z-33.215
N15705 X0.148 Z-33.182
N15710 X-0.114 Z-33.18
N15715 X-0.377 Z-33.21
N15720 X-1.609 Z-33.486
N15725 X-10.07 Z-35.401
N15730 X-10.841 Z-35.567
N15735 X-13.428 Z-36.026
N15740 X-15.052 Z-36.268
N15745 X-15.361 Z-36.34
N15750 X-15.588 Z-36.415
N15755 X-15.918 Z-36.561
N15760 X-17.955 Z-37.657
N15765 X-24.282 Z-40.875
N15770 X-31.121 Z-44.243
N15775 X-36.794 Z-47.006
N15780 X-37.211 Z-47.237
N15785 X-37.612 Z-47.496
N15790 X-37.996 Z-47.779
N15795 X-40.823 Z-50.054
N15800 X-44.629 Z-53.083
N15805 X-44.91 Z-53.334
N15810 X-45.158 Z-53.599
N15815 X-45.384 Z-53.894
N15820 X-45.548 Z-54.156
N15825 X-45.638 Z-54.332
N15830 X-45.736 Z-54.581
N15835 X-45.774 Z-54.704
N15840 X-45.811 Z-54.857
N15845 X-45.847 Z-55.08
N15850 X-45.86 Z-55.216
N15855 X-45.864 Z-55.369
N15860 Z-68.603
N15865 X-46.096 Y-37.065
N15870 Z-55.368
N15875 X-46.088 Z-55.16
N15880 X-46.062 Z-54.954
N15885 X-46.029 Z-54.791
N15890 X-45.996 Z-54.666
N15895 X-45.907 Z-54.411
N15900 X-45.798 Z-54.175
N15905 X-45.67 Z-53.955
N15910 X-45.526 Z-53.751
N15915 X-45.367 Z-53.561
N15920 X-45.197 Z-53.388
N15925 X-44.914 Z-53.139
N15930 X-40.697 Z-49.784
N15935 X-37.666 Z-47.344
N15940 X-37.282 Z-47.06
N15945 X-36.883 Z-46.8
N15950 X-36.466 Z-46.567
N15955 X-30.321 Z-43.574
N15960 X-23.717 Z-40.323
N15965 X-17.859 Z-37.344
N15970 X-16.702 Z-36.725
N15975 X-15.715 Z-36.197
N15980 X-15.384 Z-36.059
N15985 X-15.156 Z-35.988
N15990 X-14.924 Z-35.936
N15995 X-13.364 Z-35.703
N16000 X-11.035 Z-35.29
N16005 X-10.007 Z-35.072
N16010 X-0.547 Z-32.928
N16015 X-0.313 Z-32.883
N16020 X-0.045 Z-32.861
N16025 X0.217 Z-32.871
N16030 X0.474 Z-32.912
N16035 X9.447 Z-34.948
N16040 X10.937 Z-35.267
N16045 X13.499 Z-35.73
N16050 X14.8 Z-35.917
N16055 X15.057 Z-35.963
N16060 X15.307 Z-36.032
N16065 X15.549 Z-36.122
N16070 X15.784 Z-36.231
N16075 X17.614 Z-37.21
N16080 X23.441 Z-40.194
N16085 X27.924 Z-42.401
N16090 X34.752 Z-45.732
N16095 X36.521 Z-46.596
N16100 X36.862 Z-46.787
N16105 X37.19 Z-46.997
N16110 X37.611 Z-47.301
N16115 X39.759 Z-49.033
N16120 X44.874 Z-53.084
N16125 X45.178 Z-53.348
N16130 X45.442 Z-53.625
N16135 X45.599 Z-53.819
N16140 X45.735 Z-54.022
N16145 X45.851 Z-54.234
N16150 X45.958 Z-54.482
N16155 X46.038 Z-54.737
N16160 X46.092 Z-55.002
N16165 X46.116 Z-55.239
N16170 X46.119 Z-68.603
N16175 X46.35 Y-36.719
N16180 Z-55.354
N16185 X46.333 Z-55.086
N16190 X46.302 Z-54.883
N16195 X46.239 Z-54.632
N16200 X46.144 Z-54.371
N16205 X46.023 Z-54.122
N16210 X45.897 Z-53.914
N16215 X45.752 Z-53.715
N16220 X45.589 Z-53.526
N16225 X45.41 Z-53.349
N16230 X45.116 Z-53.105
N16235 X39.571 Z-48.714
N16240 X37.322 Z-46.898
N16245 X36.903 Z-46.589
N16250 X36.576 Z-46.376
N16255 X36.239 Z-46.182
N16260 X36.007 Z-46.063
N16265 X27.288 Z-41.813
N16270 X22.831 Z-39.618
N16275 X17.239 Z-36.752
N16280 X15.617 Z-35.884
N16285 X15.382 Z-35.778
N16290 X15.139 Z-35.69
N16295 X14.888 Z-35.623
N16300 X14.631 Z-35.579
N16305 X13.33 Z-35.389
N16310 X11.028 Z-34.972
N16315 X9.538 Z-34.652
N16320 X0.436 Z-32.587
N16325 X0.178 Z-32.551
N16330 X-0.086 Z-32.546
N16335 X-0.338 Z-32.57
N16340 X-0.917 Z-32.695
N16345 X-10.403 Z-34.843
N16350 X-11.174 Z-35.003
N16355 X-13.504 Z-35.411
N16360 X-14.804 Z-35.606
N16365 X-15.036 Z-35.659
N16370 X-15.264 Z-35.732
N16375 X-15.593 Z-35.873
N16380 X-17.505 Z-36.899
N16385 X-23.128 Z-39.758
N16390 X-29.496 Z-42.893
N16395 X-36.114 Z-46.116
N16400 X-36.531 Z-46.349
N16405 X-36.931 Z-46.608
N16410 X-37.314 Z-46.892
N16415 X-40.551 Z-49.497
N16420 X-45.286 Z-53.261
N16425 X-45.466 Z-53.424
N16430 X-45.635 Z-53.602
N16435 X-45.791 Z-53.795
N16440 X-45.932 Z-54.002
N16445 X-46.056 Z-54.225
N16450 X-46.161 Z-54.465
N16455 X-46.245 Z-54.726
N16460 X-46.275 Z-54.853
N16465 X-46.317 Z-55.126
N16470 X-46.329 Z-55.368
N16475 Z-68.603
N16480 X-46.561 Y-36.373
N16485 Z-55.36
N16490 X-46.555 Z-55.205
N16495 X-46.543 Z-55.074
N16500 X-46.507 Z-54.852
N16505 X-46.47 Z-54.7
N16510 X-46.385 Z-54.445
N16515 X-46.279 Z-54.208
N16520 X-46.154 Z-53.987
N16525 X-46.013 Z-53.781
N16530 X-45.857 Z-53.59
N16535 X-45.687 Z-53.413
N16540 X-45.495 Z-53.242
N16545 X-44.972 Z-52.84
N16550 X-40.446 Z-49.244
N16555 X-37.064 Z-46.52
N16560 X-36.624 Z-46.188
N16565 X-36.226 Z-45.926
N16570 X-35.811 Z-45.691
N16575 X-28.484 Z-42.121
N16580 X-22.588 Z-39.218
N16585 X-17.198 Z-36.477
N16590 X-15.602 Z-35.617
N16595 X-15.278 Z-35.459
N16600 X-15.054 Z-35.374
N16605 X-14.826 Z-35.307
N16610 X-14.58 Z-35.257
N16615 X-13.41 Z-35.084
N16620 X-11.082 Z-34.674
N16625 X-10.311 Z-34.508
N16630 X-0.825 Z-32.358
N16635 X-0.362 Z-32.257
N16640 X-0.099 Z-32.23
N16645 X0.163 Z-32.233
N16650 X0.421 Z-32.268
N16655 X9.651 Z-34.361
N16660 X11.141 Z-34.681
N16665 X13.184 Z-35.051
N16670 X14.485 Z-35.244
N16675 X14.742 Z-35.288
N16680 X14.993 Z-35.354
N16685 X15.237 Z-35.442
N16690 X15.472 Z-35.549
N16695 X17.07 Z-36.403
N16700 X22.219 Z-39.041
N16705 X26.205 Z-41.005
N16710 X35.397 Z-45.486
N16715 X35.865 Z-45.719
N16720 X36.203 Z-45.912
N16725 X36.531 Z-46.124
N16730 X36.951 Z-46.43
N16735 X39.405 Z-48.411
N16740 X43.506 Z-51.661
N16745 X45.346 Z-53.108
N16750 X45.547 Z-53.267
N16755 X45.734 Z-53.438
N16760 X45.905 Z-53.622
N16765 X46.06 Z-53.817
N16770 X46.196 Z-54.021
N16775 X46.312 Z-54.234
N16780 X46.401 Z-54.435
N16785 X46.468 Z-54.626
N16790 X46.535 Z-54.896
N16795 X46.568 Z-55.131
N16800 X46.58 Z-55.343
N16805 Z-68.603
N16810 X46.81 Y-36.027
N16815 Z-55.359
N16820 X46.803 Z-55.18
N16825 X46.769 Z-54.92
N16830 X46.736 Z-54.763
N16835 X46.669 Z-54.537
N16840 X46.602 Z-54.364
N16845 X46.484 Z-54.122
N16850 X46.358 Z-53.914
N16855 X46.213 Z-53.715
N16860 X46.05 Z-53.526
N16865 X45.87 Z-53.349
N16870 X45.627 Z-53.146
N16875 X44.556 Z-52.321
N16880 X39.219 Z-48.092
N16885 X36.663 Z-46.028
N16890 X36.246 Z-45.717
N16895 X35.921 Z-45.503
N16900 X35.584 Z-45.306
N16905 X35.236 Z-45.129
N16910 X25.335 Z-40.303
N16915 X21.796 Z-38.561
N16920 X16.905 Z-36.057
N16925 X15.307 Z-35.203
N16930 X15.071 Z-35.098
N16935 X14.826 Z-35.012
N16940 X14.575 Z-34.948
N16945 X14.318 Z-34.905
N16950 X13.277 Z-34.756
N16955 X11.232 Z-34.386
N16960 X9.998 Z-34.123
N16965 X0.447 Z-31.956
N16970 X0.255 Z-31.925
N16975 X-0.006 Z-31.911
N16980 X-0.274 Z-31.928
N16985 X-0.508 Z-31.969
N16990 X-10.481 Z-34.23
N16995 X-11.252 Z-34.393
N17000 X-13.323 Z-34.758
N17005 X-14.493 Z-34.932
N17010 X-14.738 Z-34.987
N17015 X-14.966 Z-35.059
N17020 X-15.298 Z-35.199
N17025 X-16.412 Z-35.797
N17030 X-17.106 Z-36.166
N17035 X-22.027 Z-38.668
N17040 X-27.687 Z-41.454
N17045 X-35.369 Z-45.194
N17050 X-35.696 Z-45.369
N17055 X-36.102 Z-45.62
N17060 X-36.491 Z-45.895
N17065 X-37.253 Z-46.504
N17070 X-40.324 Z-48.976
N17075 X-44.644 Z-52.413
N17080 X-45.689 Z-53.211
N17085 X-45.873 Z-53.37
N17090 X-46.046 Z-53.543
N17095 X-46.207 Z-53.731
N17100 X-46.352 Z-53.934
N17105 X-46.482 Z-54.152
N17110 X-46.593 Z-54.386
N17115 X-46.684 Z-54.639
N17120 X-46.718 Z-54.763
N17125 X-46.752 Z-54.922
N17130 X-46.788 Z-55.209
N17135 X-46.793 Z-55.368
N17140 Z-68.603
N17145 X-47.025 Y-35.681
N17150 Z-55.368
N17155 X-47.01 Z-55.099
N17160 X-46.964 Z-54.821
N17165 X-46.932 Z-54.695
N17170 X-46.846 Z-54.436
N17175 X-46.738 Z-54.199
N17180 X-46.613 Z-53.977
N17185 X-46.47 Z-53.772
N17190 X-46.313 Z-53.581
N17195 X-46.142 Z-53.404
N17200 X-45.908 Z-53.2
N17205 X-44.497 Z-52.123
N17210 X-40.177 Z-48.689
N17215 X-36.696 Z-45.886
N17220 X-36.139 Z-45.443
N17225 X-35.75 Z-45.168
N17230 X-35.344 Z-44.917
N17235 X-35.017 Z-44.743
N17240 X-26.862 Z-40.773
N17245 X-21.437 Z-38.103
N17250 X-16.751 Z-35.72
N17255 X-15.175 Z-34.874
N17260 X-14.844 Z-34.732
N17265 X-14.617 Z-34.658
N17270 X-14.372 Z-34.601
N17275 X-13.202 Z-34.426
N17280 X-11.39 Z-34.106
N17285 X-10.619 Z-33.944
N17290 X-0.531 Z-31.658
N17295 X-0.297 Z-31.614
N17300 X-0.047 Z-31.594
N17305 X0.215 Z-31.604
N17310 X0.473 Z-31.645
N17315 X9.831 Z-33.768
N17320 X11.322 Z-34.091
N17325 X13.106 Z-34.414
N17330 X14.244 Z-34.581
N17335 X14.531 Z-34.636
N17340 X14.779 Z-34.709
N17345 X15.02 Z-34.802
N17350 X15.255 Z-34.915
N17355 X16.529 Z-35.598
N17360 X21.16 Z-37.972
N17365 X24.464 Z-39.599
N17370 X34.601 Z-44.54
N17375 X35.187 Z-44.83
N17380 X35.526 Z-45.025
N17385 X35.852 Z-45.237
N17390 X36.271 Z-45.544
N17395 X39.237 Z-47.938
N17400 X44.369 Z-52.002
N17405 X45.857 Z-53.146
N17410 X46.101 Z-53.349
N17415 X46.28 Z-53.526
N17420 X46.443 Z-53.715
N17425 X46.588 Z-53.914
N17430 X46.714 Z-54.122
N17435 X46.821 Z-54.339
N17440 X46.904 Z-54.55
N17445 X46.971 Z-54.782
N17450 X47.004 Z-54.945
N17455 X47.022 Z-55.068
N17460 X47.04 Z-55.346
N17465 Z-68.603
N17470 X47.271 Y-35.335
N17475 X47.27 Z-55.338
N17480 X47.254 Z-55.083
N17485 X47.238 Z-54.966
N17490 X47.205 Z-54.801
N17495 X47.138 Z-54.564
N17500 X47.07 Z-54.383
N17505 X46.944 Z-54.122
N17510 X46.818 Z-53.914
N17515 X46.673 Z-53.715
N17520 X46.51 Z-53.526
N17525 X46.331 Z-53.349
N17530 X46.087 Z-53.146
N17535 X44.182 Z-51.683
N17540 X39.049 Z-47.618
N17545 X35.879 Z-45.06
N17550 X35.458 Z-44.756
N17555 X35.129 Z-44.546
N17560 X34.789 Z-44.355
N17565 X32.547 Z-43.261
N17570 X23.591 Z-38.895
N17575 X20.55 Z-37.396
N17580 X16.337 Z-35.237
N17585 X15.086 Z-34.567
N17590 X14.851 Z-34.457
N17595 X14.609 Z-34.365
N17600 X14.36 Z-34.294
N17605 X14.104 Z-34.247
N17610 X13.194 Z-34.116
N17615 X11.408 Z-33.795
N17620 X10.174 Z-33.529
N17625 X0.432 Z-31.32
N17630 X0.174 Z-31.284
N17635 X-0.088 Z-31.279
N17640 X-0.352 Z-31.305
N17645 X-0.815 Z-31.406
N17650 X-10.815 Z-33.671
N17655 X-11.329 Z-33.782
N17660 X-13.139 Z-34.103
N17665 X-14.179 Z-34.258
N17670 X-14.412 Z-34.307
N17675 X-14.641 Z-34.376
N17680 X-14.972 Z-34.511
N17685 X-15.499 Z-34.789
N17690 X-16.655 Z-35.407
N17695 X-20.872 Z-37.551
N17700 X-26.061 Z-40.104
N17705 X-34.689 Z-44.304
N17710 X-35.016 Z-44.48
N17715 X-35.421 Z-44.731
N17720 X-35.81 Z-45.008
N17725 X-36.571 Z-45.616
N17730 X-40.051 Z-48.419
N17735 X-44.371 Z-51.851
N17740 X-46.148 Z-53.207
N17745 X-46.342 Z-53.374
N17750 X-46.514 Z-53.547
N17755 X-46.674 Z-53.735
N17760 X-46.819 Z-53.937
N17765 X-46.948 Z-54.155
N17770 X-47.058 Z-54.388
N17775 X-47.148 Z-54.638
N17780 X-47.215 Z-54.914
N17785 X-47.25 Z-55.18
N17790 X-47.257 Z-55.369
N17795 Z-68.603
N17800 X-47.373 Y-35.162
N17805 X-47.489 Y-34.989
N17810 Z-55.369
N17815 X-47.484 Z-55.216
N17820 X-47.472 Z-55.081
N17825 X-47.436 Z-54.858
N17830 X-47.363 Z-54.583
N17835 X-47.267 Z-54.334
N17840 X-47.152 Z-54.104
N17845 X-47.019 Z-53.889
N17850 X-46.87 Z-53.69
N17855 X-46.707 Z-53.505
N17860 X-46.531 Z-53.335
N17865 X-46.345 Z-53.179
N17870 X-44.045 Z-51.425
N17875 X-39.931 Z-48.153
N17880 X-36.655 Z-45.516
N17885 X-35.486 Z-44.576
N17890 X-35.098 Z-44.299
N17895 X-34.694 Z-44.046
N17900 X-34.367 Z-43.868
N17905 X-25.031 Z-39.322
N17910 X-20.313 Z-37.001
N17915 X-16.33 Z-34.977
N17920 X-14.881 Z-34.201
N17925 X-14.552 Z-34.06
N17930 X-14.324 Z-33.987
N17935 X-14.092 Z-33.933
N17940 X-13.052 Z-33.777
N17945 X-11.499 Z-33.502
N17950 X-10.985 Z-33.393
N17955 X-0.499 Z-31.017
N17960 X-0.265 Z-30.976
N17965 X0.004 Z-30.961
N17970 X0.265 Z-30.976
N17975 X0.457 Z-31.008
N17980 X10.263 Z-33.233
N17985 X11.498 Z-33.499
N17990 X13.024 Z-33.775
N17995 X13.934 Z-33.908
N18000 X14.19 Z-33.953
N18005 X14.44 Z-34.022
N18010 X14.683 Z-34.111
N18015 X14.918 Z-34.219
N18020 X16.169 Z-34.889
N18025 X19.914 Z-36.806
N18030 X22.719 Z-38.191
N18035 X34.275 Z-43.823
N18040 X34.507 Z-43.941
N18045 X34.844 Z-44.135
N18050 X35.171 Z-44.349
N18055 X35.59 Z-44.657
N18060 X38.862 Z-47.298
N18065 X43.994 Z-51.364
N18070 X46.317 Z-53.146
N18075 X46.561 Z-53.349
N18080 X46.741 Z-53.526
N18085 X46.904 Z-53.715
N18090 X47.049 Z-53.914
N18095 X47.175 Z-54.122
N18100 X47.276 Z-54.326
N18105 X47.363 Z-54.547
N18110 X47.44 Z-54.82
N18115 X47.474 Z-55.
N18120 X47.487 Z-55.108
N18125 X47.501 Z-55.349
N18130 Z-68.603
N18135 X47.616 Y-34.816
N18140 X47.731 Y-34.643
N18145 X47.728 Z-55.237
N18150 X47.703 Z-54.995
N18155 X47.648 Z-54.73
N18160 X47.569 Z-54.479
N18165 X47.463 Z-54.234
N18170 X47.347 Z-54.022
N18175 X47.211 Z-53.817
N18180 X47.057 Z-53.622
N18185 X46.885 Z-53.438
N18190 X46.698 Z-53.267
N18195 X46.498 Z-53.108
N18200 X43.783 Z-51.027
N18205 X38.674 Z-46.978
N18210 X35.197 Z-44.172
N18215 X34.776 Z-43.867
N18220 X34.447 Z-43.657
N18225 X34.108 Z-43.465
N18230 X33.403 Z-43.119
N18235 X21.847 Z-37.487
N18240 X19.487 Z-36.324
N18245 X15.793 Z-34.429
N18250 X14.75 Z-33.872
N18255 X14.514 Z-33.766
N18260 X14.271 Z-33.679
N18265 X14.02 Z-33.613
N18270 X13.633 Z-33.551
N18275 X12.853 Z-33.432
N18280 X11.586 Z-33.203
N18285 X10.352 Z-32.936
N18290 X0.481 Z-30.697
N18295 X0.223 Z-30.655
N18300 X-0.038 Z-30.644
N18305 X-0.287 Z-30.662
N18310 X-0.521 Z-30.705
N18315 X-11.123 Z-33.108
N18320 X-11.637 Z-33.214
N18325 X-13.19 Z-33.484
N18330 X-13.97 Z-33.603
N18335 X-14.202 Z-33.658
N18340 X-14.429 Z-33.733
N18345 X-14.757 Z-33.876
N18350 X-16.232 Z-34.662
N18355 X-19.746 Z-36.448
N18360 X-24.228 Z-38.652
N18365 X-34.037 Z-43.429
N18370 X-34.364 Z-43.607
N18375 X-34.767 Z-43.861
N18380 X-35.154 Z-44.14
N18385 X-36.732 Z-45.41
N18390 X-39.803 Z-47.882
N18395 X-43.918 Z-51.151
N18400 X-46.635 Z-53.225
N18405 X-46.818 Z-53.385
N18410 X-46.99 Z-53.56
N18415 X-47.149 Z-53.749
N18420 X-47.293 Z-53.953
N18425 X-47.421 Z-54.173
N18430 X-47.531 Z-54.409
N18435 X-47.62 Z-54.664
N18440 X-47.653 Z-54.789
N18445 X-47.686 Z-54.951
N18450 X-47.717 Z-55.221
N18455 X-47.721 Z-55.369
N18460 Z-68.603
N18465 X-47.837 Y-34.47
N18470 X-47.953 Y-34.297
N18475 Z-55.369
N18480 X-47.947 Z-55.19
N18485 X-47.913 Z-54.925
N18490 X-47.847 Z-54.648
N18495 X-47.758 Z-54.397
N18500 X-47.648 Z-54.163
N18505 X-47.52 Z-53.945
N18510 X-47.376 Z-53.742
N18515 X-47.217 Z-53.554
N18520 X-47.045 Z-53.38
N18525 X-46.851 Z-53.212
N18530 X-43.611 Z-50.74
N18535 X-39.497 Z-47.468
N18540 X-34.969 Z-43.817
N18545 X-34.54 Z-43.495
N18550 X-34.141 Z-43.233
N18555 X-33.726 Z-42.999
N18560 X-23.456 Z-37.997
N18565 X-19.21 Z-35.91
N18570 X-15.929 Z-34.243
N18575 X-14.583 Z-33.526
N18580 X-14.252 Z-33.386
N18585 X-14.024 Z-33.314
N18590 X-13.779 Z-33.259
N18595 X-13.129 Z-33.162
N18600 X-11.835 Z-32.938
N18605 X-11.321 Z-32.836
N18610 X-0.809 Z-30.454
N18615 X-0.345 Z-30.354
N18620 X-0.079 Z-30.329
N18625 X0.183 Z-30.335
N18630 X0.441 Z-30.371
N18635 X10.439 Z-32.639
N18640 X11.673 Z-32.907
N18645 X12.708 Z-33.094
N18650 X13.2 Z-33.174
N18655 X13.848 Z-33.272
N18660 X14.099 Z-33.336
N18665 X14.344 Z-33.421
N18670 X14.58 Z-33.525
N18675 X15.599 Z-34.068
N18680 X18.852 Z-35.736
N18685 X20.976 Z-36.783
N18690 X33.477 Z-42.875
N18695 X33.825 Z-43.051
N18700 X34.164 Z-43.247
N18705 X34.489 Z-43.46
N18710 X34.907 Z-43.768
N18715 X38.691 Z-46.823
N18720 X43.596 Z-50.708
N18725 X46.778 Z-53.146
N18730 X47.022 Z-53.349
N18735 X47.201 Z-53.526
N18740 X47.364 Z-53.715
N18745 X47.509 Z-53.914
N18750 X47.635 Z-54.122
N18755 X47.756 Z-54.37
N18760 X47.849 Z-54.627
N18765 X47.912 Z-54.873
N18770 X47.943 Z-55.066
N18775 X47.961 Z-55.353
N18780 Z-68.603
N18785 X48.192 Y-33.951
N18790 Z-55.343
N18795 X48.18 Z-55.125
N18800 X48.144 Z-54.884
N18805 X48.077 Z-54.619
N18810 X48.01 Z-54.429
N18815 X47.923 Z-54.234
N18820 X47.808 Z-54.021
N18825 X47.672 Z-53.817
N18830 X47.517 Z-53.622
N18835 X47.346 Z-53.438
N18840 X47.159 Z-53.267
N18845 X46.958 Z-53.108
N18850 X43.409 Z-50.389
N18855 X38.504 Z-46.504
N18860 X34.515 Z-43.284
N18865 X34.095 Z-42.979
N18870 X33.768 Z-42.768
N18875 X33.428 Z-42.576
N18880 X32.605 Z-42.171
N18885 X20.104 Z-36.079
N18890 X18.242 Z-35.159
N18895 X15.433 Z-33.721
N18900 X14.53 Z-33.237
N18905 X14.297 Z-33.126
N18910 X14.056 Z-33.033
N18915 X13.807 Z-32.96
N18920 X13.519 Z-32.906
N18925 X12.771 Z-32.794
N18930 X11.503 Z-32.558
N18935 X6.683 Z-31.47
N18940 X0.402 Z-30.047
N18945 X0.143 Z-30.015
N18950 X-0.122 Z-30.014
N18955 X-0.373 Z-30.042
N18960 X-1.72 Z-30.344
N18965 X-11.463 Z-32.551
N18970 X-11.979 Z-32.652
N18975 X-13.014 Z-32.831
N18980 X-13.664 Z-32.93
N18985 X-13.909 Z-32.987
N18990 X-14.136 Z-33.061
N18995 X-14.467 Z-33.205
N19000 X-15.58 Z-33.8
N19005 X-18.625 Z-35.348
N19010 X-22.636 Z-37.318
N19015 X-33.379 Z-42.55
N19020 X-33.794 Z-42.784
N19025 X-34.193 Z-43.046
N19030 X-34.622 Z-43.369
N19035 X-39.354 Z-47.184
N19040 X-43.469 Z-50.454
N19045 X-47.022 Z-53.164
N19050 X-47.298 Z-53.4
N19055 X-47.468 Z-53.576
N19060 X-47.626 Z-53.766
N19065 X-47.768 Z-53.97
N19070 X-47.894 Z-54.19
N19075 X-48.002 Z-54.425
N19080 X-48.089 Z-54.679
N19085 X-48.126 Z-54.829
N19090 X-48.164 Z-55.047
N19095 X-48.181 Z-55.226
N19100 X-48.185 Z-68.603
N19105 X-48.417 Y-33.605
N19110 Z-55.364
N19115 X-48.404 Z-55.115
N19120 X-48.37 Z-54.886
N19125 X-48.335 Z-54.731
N19130 X-48.299 Z-54.608
N19135 X-48.206 Z-54.357
N19140 X-48.092 Z-54.125
N19145 X-47.961 Z-53.909
N19150 X-47.813 Z-53.708
N19155 X-47.651 Z-53.522
N19160 X-47.477 Z-53.35
N19165 X-47.291 Z-53.193
N19170 X-43.32 Z-50.164
N19175 X-39.205 Z-46.896
N19180 X-34.269 Z-42.915
N19185 X-33.839 Z-42.593
N19190 X-33.44 Z-42.332
N19195 X-33.024 Z-42.098
N19200 X-21.809 Z-36.636
N19205 X-18.269 Z-34.898
N19210 X-15.457 Z-33.473
N19215 X-14.344 Z-32.88
N19220 X-14.015 Z-32.735
N19225 X-13.788 Z-32.659
N19230 X-13.557 Z-32.602
N19235 X-12.662 Z-32.461
N19240 X-11.628 Z-32.272
N19245 X-0.513 Z-29.754
N19250 X-0.279 Z-29.711
N19255 X-0.03 Z-29.694
N19260 X0.231 Z-29.706
N19265 X0.489 Z-29.748
N19270 X10.872 Z-32.104
N19275 X11.849 Z-32.315
N19280 X12.859 Z-32.497
N19285 X13.38 Z-32.572
N19290 X13.636 Z-32.619
N19295 X13.885 Z-32.689
N19300 X14.128 Z-32.78
N19305 X14.362 Z-32.889
N19310 X15.057 Z-33.261
N19315 X17.605 Z-34.57
N19320 X19.231 Z-35.375
N19325 X32.442 Z-41.812
N19330 X33.145 Z-42.162
N19335 X33.482 Z-42.357
N19340 X33.809 Z-42.572
N19345 X34.226 Z-42.881
N19350 X38.316 Z-46.184
N19355 X43.221 Z-50.07
N19360 X47.239 Z-53.146
N19365 X47.482 Z-53.349
N19370 X47.662 Z-53.526
N19375 X47.825 Z-53.715
N19380 X47.97 Z-53.914
N19385 X48.096 Z-54.122
N19390 X48.211 Z-54.359
N19395 X48.278 Z-54.531
N19400 X48.312 Z-54.633
N19405 X48.379 Z-54.907
N19410 X48.412 Z-55.151
N19415 X48.422 Z-55.357
N19420 Z-68.603
N19425 X48.652 Y-33.259
N19430 Z-55.361
N19435 X48.643 Z-55.15
N19440 X48.614 Z-54.931
N19445 X48.58 Z-54.772
N19450 X48.513 Z-54.544
N19455 X48.432 Z-54.336
N19460 X48.326 Z-54.122
N19465 X48.2 Z-53.914
N19470 X48.055 Z-53.715
N19475 X47.892 Z-53.526
N19480 X47.713 Z-53.349
N19485 X47.469 Z-53.147
N19490 X42.849 Z-49.605
N19495 X38.131 Z-45.866
N19500 X33.836 Z-42.399
N19505 X33.416 Z-42.092
N19510 X33.088 Z-41.88
N19515 X32.75 Z-41.687
N19520 X32.282 Z-41.455
N19525 X18.362 Z-34.673
N19530 X16.972 Z-33.982
N19535 X14.865 Z-32.901
N19540 X14.194 Z-32.542
N19545 X13.959 Z-32.435
N19550 X13.716 Z-32.346
N19555 X13.465 Z-32.278
N19560 X13.209 Z-32.233
N19565 X12.688 Z-32.155
N19570 X11.68 Z-31.967
N19575 X0.451 Z-29.423
N19580 X0.193 Z-29.385
N19585 X-0.069 Z-29.378
N19590 X-0.337 Z-29.403
N19595 X-0.57 Z-29.45
N19600 X-11.825 Z-31.999
N19605 X-12.859 Z-32.181
N19610 X-13.379 Z-32.26
N19615 X-13.611 Z-32.315
N19620 X-13.838 Z-32.388
N19625 X-14.168 Z-32.529
N19630 X-15.154 Z-33.054
N19635 X-17.496 Z-34.243
N19640 X-21.036 Z-35.98
N19645 X-32.618 Z-41.619
N19650 X-33.036 Z-41.849
N19655 X-33.438 Z-42.107
N19660 X-33.823 Z-42.388
N19665 X-39.104 Z-46.645
N19670 X-43.012 Z-49.752
N19675 X-47.507 Z-53.18
N19680 X-47.701 Z-53.343
N19685 X-47.876 Z-53.514
N19690 X-48.038 Z-53.699
N19695 X-48.186 Z-53.899
N19700 X-48.318 Z-54.113
N19705 X-48.432 Z-54.343
N19710 X-48.526 Z-54.59
N19715 X-48.597 Z-54.861
N19720 X-48.638 Z-55.133
N19725 X-48.65 Z-55.368
N19730 Z-68.603
N19735 X-48.882 Y-32.913
N19740 Z-55.369
N19745 X-48.874 Z-55.17
N19750 X-48.861 Z-55.049
N19755 X-48.823 Z-54.831
N19760 X-48.785 Z-54.681
N19765 X-48.699 Z-54.427
N19770 X-48.592 Z-54.192
N19775 X-48.466 Z-53.972
N19780 X-48.323 Z-53.767
N19785 X-48.166 Z-53.577
N19790 X-47.995 Z-53.401
N19795 X-47.803 Z-53.231
N19800 X-42.89 Z-49.482
N19805 X-38.982 Z-46.378
N19810 X-33.497 Z-41.956
N19815 X-33.112 Z-41.673
N19820 X-32.712 Z-41.414
N19825 X-32.295 Z-41.183
N19830 X-20.713 Z-35.543
N19835 X-17.171 Z-33.809
N19840 X-15.061 Z-32.742
N19845 X-14.049 Z-32.207
N19850 X-13.721 Z-32.063
N19855 X-13.494 Z-31.988
N19860 X-13.263 Z-31.931
N19865 X-12.743 Z-31.85
N19870 X-11.966 Z-31.714
N19875 X-1.198 Z-29.275
N19880 X-0.363 Z-29.09
N19885 X-0.112 Z-29.063
N19890 X0.153 Z-29.066
N19895 X0.411 Z-29.099
N19900 X11.769 Z-31.671
N19905 X12.518 Z-31.813
N19910 X13.039 Z-31.895
N19915 X13.296 Z-31.938
N19920 X13.547 Z-32.003
N19925 X13.791 Z-32.09
N19930 X14.027 Z-32.196
N19935 X14.49 Z-32.442
N19940 X16.337 Z-33.393
N19945 X17.49 Z-33.969
N19950 X32.119 Z-41.097
N19955 X32.467 Z-41.273
N19960 X32.804 Z-41.47
N19965 X33.129 Z-41.684
N19970 X33.546 Z-41.995
N19975 X38.148 Z-45.711
N19980 X42.662 Z-49.286
N19985 X47.699 Z-53.147
N19990 X47.943 Z-53.349
N19995 X48.122 Z-53.526
N20000 X48.285 Z-53.715
N20005 X48.43 Z-53.914
N20010 X48.556 Z-54.122
N20015 X48.681 Z-54.38
N20020 X48.748 Z-54.557
N20025 X48.815 Z-54.791
N20030 X48.848 Z-54.957
N20035 X48.865 Z-55.075
N20040 X48.882 Z-55.314
N20045 X48.883 Z-68.603
N20050 X48.998 Y-32.74
N20055 X49.113 Y-32.567
N20060 Z-55.348
N20065 X49.098 Z-55.097
N20070 X49.083 Z-54.985
N20075 X49.05 Z-54.81
N20080 X48.973 Z-54.542
N20085 X48.887 Z-54.325
N20090 X48.787 Z-54.122
N20095 X48.661 Z-53.914
N20100 X48.515 Z-53.715
N20105 X48.352 Z-53.526
N20110 X48.173 Z-53.349
N20115 X47.929 Z-53.146
N20120 X42.474 Z-48.967
N20125 X37.961 Z-45.391
N20130 X33.154 Z-41.511
N20135 X32.735 Z-41.204
N20140 X32.409 Z-40.992
N20145 X32.07 Z-40.798
N20150 X31.484 Z-40.508
N20155 X16.619 Z-33.266
N20160 X15.235 Z-32.566
N20165 X14.299 Z-32.081
N20170 X13.859 Z-31.849
N20175 X13.622 Z-31.745
N20180 X13.377 Z-31.661
N20185 X13.126 Z-31.597
N20190 X12.375 Z-31.475
N20195 X11.627 Z-31.325
N20200 X0.437 Z-28.787
N20205 X0.243 Z-28.757
N20210 X-0.018 Z-28.744
N20215 X-0.267 Z-28.76
N20220 X-0.501 Z-28.801
N20225 X-11.872 Z-31.38
N20230 X-12.647 Z-31.523
N20235 X-13.037 Z-31.581
N20240 X-13.282 Z-31.634
N20245 X-13.51 Z-31.704
N20250 X-13.843 Z-31.841
N20255 X-14.263 Z-32.063
N20260 X-15.195 Z-32.545
N20265 X-16.602 Z-33.255
N20270 X-21.089 Z-35.447
N20275 X-31.962 Z-40.742
N20280 X-32.379 Z-40.974
N20285 X-32.779 Z-41.234
N20290 X-33.163 Z-41.517
N20295 X-38.852 Z-46.105
N20300 X-42.555 Z-49.049
N20305 X-47.99 Z-53.195
N20310 X-48.175 Z-53.352
N20315 X-48.349 Z-53.524
N20320 X-48.511 Z-53.71
N20325 X-48.658 Z-53.911
N20330 X-48.79 Z-54.128
N20335 X-48.903 Z-54.36
N20340 X-48.996 Z-54.611
N20345 X-49.032 Z-54.734
N20350 X-49.067 Z-54.89
N20355 X-49.101 Z-55.119
N20360 X-49.114 Z-55.365
N20365 Z-68.603
N20370 X-49.346 Y-32.221
N20375 Z-55.368
N20380 X-49.333 Z-55.113
N20385 X-49.289 Z-54.837
N20390 X-49.215 Z-54.57
N20395 X-49.119 Z-54.324
N20400 X-49.004 Z-54.095
N20405 X-48.871 Z-53.882
N20410 X-48.722 Z-53.684
N20415 X-48.558 Z-53.5
N20420 X-48.383 Z-53.33
N20425 X-48.188 Z-53.168
N20430 X-42.439 Z-48.784
N20435 X-38.736 Z-45.842
N20440 X-32.889 Z-41.127
N20445 X-32.46 Z-40.805
N20450 X-32.062 Z-40.543
N20455 X-31.646 Z-40.309
N20460 X-16.048 Z-32.708
N20465 X-14.641 Z-31.998
N20470 X-13.862 Z-31.589
N20475 X-13.538 Z-31.435
N20480 X-13.314 Z-31.351
N20485 X-13.085 Z-31.286
N20490 X-12.819 Z-31.235
N20495 X-12.075 Z-31.108
N20500 X-0.564 Z-28.498
N20505 X-0.331 Z-28.452
N20510 X-0.063 Z-28.428
N20515 X0.199 Z-28.436
N20520 X0.457 Z-28.474
