%
O01002
(Using high feed G1 F5000. instead of G0.)
(T1 D=6. CR=3. - ZMIN=-14.154 - fresa con punta de bola)
N10 G90 G94 G17
N15 G21
(When using Fusion for Personal Use, the feedrate of rapid)
(moves is reduced to match the feedrate of cutting moves,)
(which can increase machining time. Unrestricted rapid moves)
(are available with a Fusion Subscription.)
N20 G53 G0 Z0.

(Paralelo1)
N25 T1 M6
N30 S5000 M3
N35 G17 G90 G94
N40 G54
N45 M8
N50 G1 X0.641 Y-56.206 F5000.
N55 G0 G43 Z16. H1
N60 G1 Z-10.806 F1000.
N65 Z-12.552 F333.33
N70 G18 G3 X0.04 Z-13.152 I-0.6 K0. F1000.
N75 G1 X-0.035
N80 G3 X-0.634 Z-12.552 I0.001 K0.6
N85 G1 Z6.
N90 X-6.672 Y-55.86
N95 Z-11.635
N100 Z-13.383 F333.33
N105 G2 X-5.955 Z-13.972 I0.6 K0. F1000.
N110 G1 X-3.241 Z-13.428
N115 X-0.587 Z-12.986
N120 X-0.219 Z-12.933
N125 X0.046 Z-12.924
N130 X0.307 Z-12.942
N135 X3.159 Z-13.413
N140 X5.863 Z-13.967
N145 X5.928 Z-13.973
N150 X5.993 Z-13.965
N155 X6.055 Z-13.942
N160 X6.119 Z-13.92
N165 X6.187 Z-13.912
N170 X7.943
N175 X7.969 Y-55.858
N180 X7.995 Y-55.853 Z-13.914
N185 X8.019 Y-55.844 Z-13.917
N190 X8.042 Y-55.832 Z-13.921
N195 X8.063 Y-55.817 Z-13.926
N200 X8.081 Y-55.8 Z-13.932
N205 X8.097 Y-55.78 Z-13.938
N210 X8.109 Y-55.758 Z-13.945
N215 X8.118 Y-55.735 Z-13.953
N220 X8.124 Y-55.711 Z-13.961
N225 X8.125 Y-55.687 Z-13.969
N230 X8.124 Y-55.662 Z-13.977
N235 X8.118 Y-55.638 Z-13.985
N240 X8.109 Y-55.615 Z-13.993
N245 X8.097 Y-55.593 Z-14.
N250 X8.081 Y-55.573 Z-14.006
N255 X8.063 Y-55.556 Z-14.012
N260 X8.042 Y-55.541 Z-14.017
N265 X8.019 Y-55.529 Z-14.021
N270 X7.995 Y-55.521 Z-14.024
N275 X7.969 Y-55.515 Z-14.026
N280 X7.943 Y-55.514
N285 X7.876 Z-14.034
N290 X7.811 Z-14.057
N295 X7.749 Z-14.079
N300 X7.684 Z-14.087
N305 X7.619 Z-14.081
N310 X3.628 Z-13.262
N315 X0.386 Z-12.725
N320 X0.127 Z-12.699
N325 X-0.136
N330 X-0.43 Z-12.733
N335 X-3.691 Z-13.274
N340 X-7.678 Z-14.073
N345 G3 X-8.037 Z-13.779 I-0.059 K0.294
N350 G1 X-8.044 Y-55.512 Z-13.665
N355 X-8.066 Y-55.508 Z-13.554
N360 X-8.102 Y-55.5 Z-13.446
N365 X-8.151 Y-55.49 Z-13.344
N370 X-8.213 Y-55.478 Z-13.25
N375 X-8.286 Y-55.463 Z-13.164
N380 X-8.37 Y-55.446 Z-13.089
N385 X-8.463 Y-55.427 Z-13.026
N390 X-8.563 Y-55.407 Z-12.976
N395 X-8.668 Y-55.385 Z-12.939
N400 X-8.777 Y-55.363 Z-12.917
N405 X-8.888 Y-55.341 Z-12.91
N410 X-9. Y-55.318 Z-12.917
N415 X-9.109 Y-55.296 Z-12.939
N420 X-9.214 Y-55.274 Z-12.976
N425 X-9.314 Y-55.254 Z-13.026
N430 X-9.407 Y-55.235 Z-13.089
N435 X-9.49 Y-55.218 Z-13.164
N440 X-9.564 Y-55.203 Z-13.25
N445 X-9.626 Y-55.191 Z-13.344
N450 X-9.675 Y-55.181 Z-13.446
N455 X-9.711 Y-55.174 Z-13.554
N460 X-9.733 Y-55.169 Z-13.665
N465 X-9.74 Y-55.168 Z-13.779
N470 Z-13.797
N475 G2 X-9.402 Z-14.094 I0.3 K0.
N480 G1 X-8.38 Z-13.964
N485 X-8.122 Z-13.917
N490 X-4.513 Z-13.194
N495 X-4.022 Z-13.099
N500 X-0.418 Z-12.503
N505 X-0.182 Z-12.474
N510 X0.085 Z-12.469
N515 X0.346 Z-12.492
N520 X3.717 Z-13.049
N525 X4.234 Z-13.139
N530 X8.071 Z-13.927
N535 X8.332 Z-13.967
N540 X9.375 Z-14.098
N545 X9.433 Z-14.1
N550 X9.49 Z-14.09
N555 X9.544 Z-14.07
N560 X9.609 Z-14.047
N565 X9.676 Z-14.039
N570 X11.432
N575 G17 G3 Y-54.822 I0. J0.173
N580 G1 X11.365 Z-14.047
N585 X11.3 Z-14.07
N590 X11.246 Z-14.09
N595 X11.189 Z-14.1
N600 X11.131 Z-14.098
N605 X8.522 Z-13.771
N610 X4.554 Z-12.96
N615 X0.405 Z-12.273
N620 X0.145 Z-12.244
N625 X-0.12 Z-12.243
N630 X-0.411 Z-12.274
N635 X-4.613 Z-12.97
N640 X-8.685 Z-13.782
N645 X-11.125 Z-14.094
N650 X-11.126
N655 X-11.184 Z-14.096
N660 X-11.242 Z-14.087
N665 X-11.296 Z-14.066
N670 X-11.36 Z-14.043
N675 X-11.428 Z-14.036
N680 X-13.151
N685 G2 Y-54.476 I0. J0.173
N690 G1 X-13.083 Z-14.043
N695 X-13.019 Z-14.066
N700 X-12.965 Z-14.087
N705 X-12.907 Z-14.096
N710 X-12.849 Z-14.094
N715 X-9.039 Z-13.607
N720 X-8.781 Z-13.561
N725 X-5.43 Z-12.889
N730 X-4.939 Z-12.795
N735 X-0.439 Z-12.05
N740 X-0.188 Z-12.019
N745 X0.077 Z-12.013
N750 X0.338 Z-12.035
N755 X4.099 Z-12.656
N760 X5.135 Z-12.83
N765 X8.713 Z-13.566
N770 X8.974 Z-13.608
N775 X12.887 Z-14.098
N780 X12.945 Z-14.1
N785 X13.002 Z-14.09
N790 X13.056 Z-14.07
N795 X13.121 Z-14.047
N800 X13.188 Z-14.039
N805 X14.945
N810 G3 Y-54.13 I0. J0.173
N815 G1 X14.877 Z-14.047
N820 X14.813 Z-14.07
N825 X14.758 Z-14.09
N830 X14.701 Z-14.1
N835 X14.643 Z-14.098
N840 X9.165 Z-13.412
N845 X5.583 Z-12.676
N850 X0.397 Z-11.816
N855 X0.137 Z-11.788
N860 X-0.125 Z-11.787
N865 X-0.417 Z-11.819
N870 X-5.581 Z-12.675
N875 X-9.337 Z-13.425
N880 X-14.573 Z-14.095
N885 X-14.631 Z-14.096
N890 X-14.688 Z-14.087
N895 X-14.743 Z-14.066
N900 X-14.807 Z-14.043
N905 X-14.875 Z-14.036
N910 X-16.598
N915 G2 Y-53.784 I0. J0.173
N920 G1 X-16.53 Z-14.043
N925 X-16.466 Z-14.066
N930 X-16.411 Z-14.087
N935 X-16.354 Z-14.096
N940 X-16.296 Z-14.095
N945 X-16.292 Z-14.094
N950 X-10.015 Z-13.291
N955 X-9.497 Z-13.216
N960 X-6.056 Z-12.526
N965 X-0.431 Z-11.593
N970 X-0.15 Z-11.561
N975 X0.115 Z-11.559
N980 X0.375 Z-11.584
N985 X5.951 Z-12.507
N990 X9.533 Z-13.238
N995 X16.316 Z-14.087
N1000 G18 G2 X16.653 Z-13.79 I0.037 K0.298
N1005 G1 Z-13.646
N1010 X16.66 Y-53.781 Z-13.559
N1015 X16.682 Y-53.773 Z-13.474
N1020 X16.717 Y-53.76 Z-13.394
N1025 X16.764 Y-53.743 Z-13.322
N1030 X16.823 Y-53.722 Z-13.259
N1035 X16.89 Y-53.697 Z-13.209
N1040 X16.965 Y-53.67 Z-13.171
N1045 X17.045 Y-53.641 Z-13.149
N1050 X17.128 Y-53.611 Z-13.141
N1055 X17.21 Y-53.581 Z-13.149
N1060 X17.29 Y-53.552 Z-13.171
N1065 X17.365 Y-53.524 Z-13.209
N1070 X17.433 Y-53.499 Z-13.259
N1075 X17.492 Y-53.478 Z-13.322
N1080 X17.539 Y-53.461 Z-13.394
N1085 X17.574 Y-53.448 Z-13.474
N1090 X17.595 Y-53.44 Z-13.559
N1095 X17.603 Y-53.438 Z-13.646
N1100 G3 X17.288 Z-13.946 I-0.3 K0.
N1105 G1 X16.763 Z-13.921
N1110 X10.006 Z-13.078
N1115 X9.745 Z-13.038
N1120 X6.552 Z-12.382
N1125 X5.387 Z-12.186
N1130 X0.329 Z-11.35
N1135 X0.068 Z-11.329
N1140 X-0.197 Z-11.336
N1145 X-0.448 Z-11.368
N1150 X-6.504 Z-12.372
N1155 X-9.803 Z-13.033
N1160 X-10.061 Z-13.076
N1165 X-16.841 Z-13.944
N1170 X-17.313 Z-13.968
N1175 X-17.363 Z-13.966
N1180 X-17.412 Z-13.956
N1185 X-17.46 Z-13.937
N1190 X-17.524 Z-13.914
N1195 X-17.592 Z-13.907
N1200 X-18.554
N1205 X-18.581 Y-53.436 Z-13.906
N1210 X-18.609 Y-53.431 Z-13.903
N1215 X-18.634 Y-53.422 Z-13.899
N1220 X-18.659 Y-53.41 Z-13.893
N1225 X-18.681 Y-53.395 Z-13.885
N1230 X-18.7 Y-53.378 Z-13.876
N1235 X-18.717 Y-53.358 Z-13.866
N1240 X-18.73 Y-53.337 Z-13.855
N1245 X-18.74 Y-53.313 Z-13.844
N1250 X-18.746 Y-53.289 Z-13.831
N1255 X-18.748 Y-53.265 Z-13.819
N1260 X-18.746 Y-53.24 Z-13.807
N1265 X-18.74 Y-53.216 Z-13.794
N1270 X-18.73 Y-53.193 Z-13.783
N1275 X-18.717 Y-53.171 Z-13.772
N1280 X-18.7 Y-53.151 Z-13.762
N1285 X-18.681 Y-53.134 Z-13.753
N1290 X-18.659 Y-53.119 Z-13.745
N1295 X-18.634 Y-53.107 Z-13.739
N1300 X-18.609 Y-53.099 Z-13.735
N1305 X-18.581 Y-53.093 Z-13.732
N1310 X-18.554 Y-53.092 Z-13.731
N1315 X-18.486 Z-13.739
N1320 X-18.422 Z-13.762
N1325 X-18.375 Z-13.78
N1330 X-18.327 Z-13.79
N1335 X-18.277 Z-13.792
N1340 X-16.914 Z-13.733
N1345 X-10.395 Z-12.899
N1350 X-10.137 Z-12.856
N1355 X-7.302 Z-12.287
N1360 X-6.811 Z-12.193
N1365 X-0.437 Z-11.139
N1370 X-0.143 Z-11.104
N1375 X0.119 Z-11.103
N1380 X0.379 Z-11.129
N1385 X6.992 Z-12.225
N1390 X10.188 Z-12.88
N1395 X16.683 Z-13.694
N1400 X16.945 Z-13.714
N1405 X18.258 Z-13.776
N1410 X18.308 Z-13.774
N1415 X18.358 Z-13.764
N1420 X18.404 Z-13.746
N1425 X18.469 Z-13.723
N1430 X18.536 Z-13.715
N1435 X19.506
N1440 X19.534 Y-53.09
N1445 X19.561 Y-53.085 Z-13.712
N1450 X19.586 Y-53.076 Z-13.708
N1455 X19.61 Y-53.064 Z-13.702
N1460 X19.632 Y-53.049 Z-13.695
N1465 X19.652 Y-53.032 Z-13.686
N1470 X19.668 Y-53.012 Z-13.676
N1475 X19.682 Y-52.991 Z-13.666
N1480 X19.691 Y-52.967 Z-13.654
N1485 X19.697 Y-52.943 Z-13.643
N1490 X19.699 Y-52.919 Z-13.631
N1495 X19.697 Y-52.894 Z-13.618
N1500 X19.691 Y-52.87 Z-13.607
N1505 X19.682 Y-52.847 Z-13.595
N1510 X19.668 Y-52.825 Z-13.585
N1515 X19.652 Y-52.805 Z-13.575
N1520 X19.632 Y-52.788 Z-13.566
N1525 X19.61 Y-52.773 Z-13.559
N1530 X19.586 Y-52.761 Z-13.553
N1535 X19.561 Y-52.753 Z-13.549
N1540 X19.534 Y-52.747 Z-13.547
N1545 X19.506 Y-52.746 Z-13.546
N1550 X19.438 Z-13.553
N1555 X19.374 Z-13.576
N1560 X19.327 Z-13.595
N1565 X19.278 Z-13.605
N1570 X19.228 Z-13.607
N1575 X16.865 Z-13.494
N1580 X10.629 Z-12.716
N1585 X10.137 Z-12.625
N1590 X7.562 Z-12.096
N1595 X7.304 Z-12.047
N1600 X0.366 Z-10.899
N1605 X0.171 Z-10.878
N1610 X-0.094 Z-10.874
N1615 X-0.346 Z-10.896
N1620 X-7.44 Z-12.071
N1625 X-10.481 Z-12.68
N1630 X-10.999 Z-12.756
N1635 X-16.997 Z-13.521
N1640 X-19.241 Z-13.617
N1645 X-19.291 Z-13.615
N1650 X-19.339 Z-13.605
N1655 X-19.386 Z-13.587
N1660 X-19.45 Z-13.564
N1665 X-19.518 Z-13.556
N1670 X-20.482
N1675 X-20.51 Y-52.744 Z-13.555
N1680 X-20.537 Y-52.739 Z-13.553
N1685 X-20.563 Y-52.73 Z-13.548
N1690 X-20.587 Y-52.718 Z-13.542
N1695 X-20.609 Y-52.703 Z-13.535
N1700 X-20.629 Y-52.686 Z-13.526
N1705 X-20.645 Y-52.666 Z-13.516
N1710 X-20.658 Y-52.645 Z-13.505
N1715 X-20.668 Y-52.621 Z-13.493
N1720 X-20.674 Y-52.597 Z-13.481
N1725 X-20.676 Y-52.573 Z-13.468
N1730 X-20.674 Y-52.548 Z-13.456
N1735 X-20.668 Y-52.524 Z-13.444
N1740 X-20.658 Y-52.501 Z-13.432
N1745 X-20.645 Y-52.479 Z-13.421
N1750 X-20.629 Y-52.459 Z-13.411
N1755 X-20.609 Y-52.442 Z-13.402
N1760 X-20.587 Y-52.427 Z-13.395
N1765 X-20.563 Y-52.415 Z-13.389
N1770 X-20.537 Y-52.407 Z-13.384
N1775 X-20.51 Y-52.401 Z-13.382
N1780 X-20.482 Y-52.4 Z-13.381
N1785 X-20.414 Z-13.389
N1790 X-20.35 Z-13.411
N1795 X-20.304 Z-13.43
N1800 X-20.255 Z-13.44
N1805 X-20.205 Z-13.442
N1810 X-17.099 Z-13.309
N1815 X-16.838 Z-13.282
N1820 X-11.884 Z-12.648
N1825 X-10.843 Z-12.509
N1830 X-8.266 Z-11.992
N1835 X-7.775 Z-11.897
N1840 X-0.422 Z-10.68
N1845 X-0.171 Z-10.65
N1850 X0.094 Z-10.646
N1855 X0.355 Z-10.67
N1860 X7.747 Z-11.893
N1865 X8.004 Z-11.94
N1870 X10.811 Z-12.517
N1875 X16.784 Z-13.267
N1880 X17.047 Z-13.287
N1885 X20.198 Z-13.437
N1890 X20.248 Z-13.435
N1895 X20.297 Z-13.425
N1900 X20.344 Z-13.407
N1905 X20.408 Z-13.384
N1910 X20.476 Z-13.376
N1915 X21.446
N1920 X21.473 Y-52.398 Z-13.375
N1925 X21.5 Y-52.393 Z-13.373
N1930 X21.526 Y-52.384 Z-13.368
N1935 X21.55 Y-52.372 Z-13.363
N1940 X21.572 Y-52.357 Z-13.356
N1945 X21.591 Y-52.34 Z-13.347
N1950 X21.607 Y-52.32 Z-13.338
N1955 X21.621 Y-52.299 Z-13.327
N1960 X21.63 Y-52.275 Z-13.316
N1965 X21.636 Y-52.251 Z-13.305
N1970 X21.638 Y-52.227 Z-13.293
N1975 X21.636 Y-52.202 Z-13.281
N1980 X21.63 Y-52.178 Z-13.269
N1985 X21.621 Y-52.155 Z-13.258
N1990 X21.607 Y-52.133 Z-13.248
N1995 X21.591 Y-52.113 Z-13.238
N2000 X21.572 Y-52.096 Z-13.23
N2005 X21.55 Y-52.081 Z-13.223
N2010 X21.526 Y-52.069 Z-13.217
N2015 X21.5 Y-52.061 Z-13.213
N2020 X21.473 Y-52.055 Z-13.211
N2025 X21.446 Y-52.054 Z-13.21
N2030 X21.378 Z-13.217
N2035 X21.314 Z-13.24
N2040 X21.266 Z-13.259
N2045 X21.217 Z-13.269
N2050 X21.166 Z-13.27
N2055 X20.641 Z-13.242
N2060 X16.965 Z-13.067
N2065 X11.251 Z-12.354
N2070 X10.501 Z-12.207
N2075 X8.313 Z-11.759
N2080 X0.403 Z-10.449
N2085 X0.143 Z-10.421
N2090 X-0.119 Z-10.419
N2095 X-0.411 Z-10.45
N2100 X-8.399 Z-11.775
N2105 X-11.153 Z-12.326
N2110 X-11.672 Z-12.401
N2115 X-16.887 Z-13.068
N2120 X-17.148 Z-13.094
N2125 X-21.09 Z-13.264
N2130 X-21.168 Z-13.271
N2135 G3 X-21.492 Z-12.972 I-0.025 K0.299
N2140 G1 X-21.499 Y-52.051 Z-12.889
N2145 X-21.519 Y-52.043 Z-12.808
N2150 X-21.552 Y-52.031 Z-12.732
N2155 X-21.597 Y-52.013 Z-12.664
N2160 X-21.652 Y-51.992 Z-12.605
N2165 X-21.715 Y-51.967 Z-12.557
N2170 X-21.786 Y-51.94 Z-12.522
N2175 X-21.861 Y-51.911 Z-12.5
N2180 X-21.938 Y-51.881 Z-12.493
N2185 X-22.016 Y-51.851 Z-12.5
N2190 X-22.091 Y-51.822 Z-12.522
N2195 X-22.162 Y-51.794 Z-12.557
N2200 X-22.225 Y-51.77 Z-12.605
N2205 X-22.28 Y-51.748 Z-12.664
N2210 X-22.325 Y-51.731 Z-12.732
N2215 X-22.358 Y-51.718 Z-12.808
N2220 X-22.378 Y-51.71 Z-12.889
N2225 X-22.385 Y-51.708 Z-12.972
N2230 Z-13.011
N2235 G2 X-21.98 Z-13.292 I0.3 K0.
N2240 G1 X-21.718 Z-13.195
N2245 X-21.372 Z-13.102
N2250 X-21.138 Z-13.061
N2255 X-20.89 Z-13.038
N2260 X-17.081 Z-12.872
N2265 X-11.605 Z-12.172
N2270 X-8.821 Z-11.616
N2275 X-0.431 Z-10.226
N2280 X-0.18 Z-10.195
N2285 X0.085 Z-10.19
N2290 X0.346 Z-10.213
N2295 X8.775 Z-11.607
N2300 X10.835 Z-12.029
N2305 X11.585 Z-12.176
N2310 X17.038 Z-12.855
N2315 X20.911 Z-13.039
N2320 X21.235 Z-13.076
N2325 X21.49 Z-13.129
N2330 X21.74 Z-13.202
N2335 X21.983 Z-13.293
N2340 X22.042 Z-13.309
N2345 X22.103 Z-13.312
N2350 X22.163 Z-13.303
N2355 X22.22 Z-13.282
N2360 X22.285 Z-13.259
N2365 X22.352 Z-13.251
N2370 X23.094
N2375 X23.121 Y-51.706 Z-13.252
N2380 X23.147 Y-51.701 Z-13.254
N2385 X23.172 Y-51.692 Z-13.258
N2390 X23.196 Y-51.68 Z-13.263
N2395 X23.217 Y-51.665 Z-13.269
N2400 X23.236 Y-51.648 Z-13.276
N2405 X23.252 Y-51.628 Z-13.284
N2410 X23.265 Y-51.607 Z-13.293
N2415 X23.274 Y-51.583 Z-13.302
N2420 X23.28 Y-51.559 Z-13.312
N2425 X23.281 Y-51.535 Z-13.322
N2430 X23.28 Y-51.51 Z-13.333
N2435 X23.274 Y-51.486 Z-13.342
N2440 X23.265 Y-51.463 Z-13.352
N2445 X23.252 Y-51.441 Z-13.361
N2450 X23.236 Y-51.421 Z-13.369
N2455 X23.217 Y-51.404 Z-13.376
N2460 X23.196 Y-51.389 Z-13.382
N2465 X23.172 Y-51.377 Z-13.387
N2470 X23.147 Y-51.369 Z-13.391
N2475 X23.121 Y-51.364 Z-13.393
N2480 X23.094 Y-51.362 Z-13.394
N2485 X23.027 Z-13.401
N2490 X22.962 Z-13.424
N2495 X22.903 Z-13.446
N2500 X22.84 Z-13.455
N2505 X22.777 Z-13.45
N2510 X22.716 Z-13.432
N2515 X21.744 Z-13.033
N2520 X21.499 Z-12.948
N2525 X21.247 Z-12.883
N2530 X20.99 Z-12.838
N2535 X20.73 Z-12.815
N2540 X17.053 Z-12.64
N2545 X11.861 Z-11.99
N2550 X9.244 Z-11.457
N2555 X0.362 Z-9.987
N2560 X0.101 Z-9.963
N2565 X-0.164 Z-9.966
N2570 X-0.415 Z-9.995
N2575 X-9.325 Z-11.472
N2580 X-11.85 Z-11.978
N2585 X-17.062 Z-12.65
N2590 X-17.586 Z-12.68
N2595 X-20.739 Z-12.815
N2600 X-20.975 Z-12.836
N2605 X-21.209 Z-12.875
N2610 X-21.554 Z-12.966
N2615 X-21.89 Z-13.091
N2620 X-22.71 Z-13.425
N2625 X-22.771 Z-13.443
N2630 X-22.834 Z-13.447
N2635 X-22.896 Z-13.439
N2640 X-22.955 Z-13.417
N2645 X-23.02 Z-13.394
N2650 X-23.087 Z-13.386
N2655 X-23.817
N2660 X-23.844 Y-51.36 Z-13.387
N2665 X-23.87 Y-51.355 Z-13.389
N2670 X-23.894 Y-51.346 Z-13.392
N2675 X-23.918 Y-51.334 Z-13.397
N2680 X-23.939 Y-51.319 Z-13.403
N2685 X-23.958 Y-51.302 Z-13.409
N2690 X-23.973 Y-51.282 Z-13.417
N2695 X-23.986 Y-51.261 Z-13.425
N2700 X-23.995 Y-51.237 Z-13.434
N2705 X-24.001 Y-51.213 Z-13.444
N2710 X-24.003 Y-51.189 Z-13.453
N2715 X-24.001 Y-51.164 Z-13.463
N2720 X-23.995 Y-51.14 Z-13.472
N2725 X-23.986 Y-51.117 Z-13.481
N2730 X-23.973 Y-51.095 Z-13.489
N2735 X-23.958 Y-51.075 Z-13.497
N2740 X-23.939 Y-51.058 Z-13.503
N2745 X-23.918 Y-51.043 Z-13.509
N2750 X-23.894 Y-51.031 Z-13.514
N2755 X-23.87 Y-51.023 Z-13.517
N2760 X-23.844 Y-51.018 Z-13.519
N2765 X-23.817 Y-51.016 Z-13.52
N2770 X-23.75 Z-13.527
N2775 X-23.685 Z-13.55
N2780 X-23.626 Z-13.572
N2785 X-23.564 Z-13.581
N2790 X-23.501 Z-13.576
N2795 X-23.44 Z-13.559
N2800 X-21.749 Z-12.87
N2805 X-21.415 Z-12.744
N2810 X-21.069 Z-12.653
N2815 X-20.835 Z-12.614
N2820 X-20.586 Z-12.592
N2825 X-17.301 Z-12.451
N2830 X-17.04 Z-12.426
N2835 X-12.347 Z-11.826
N2840 X-12.089 Z-11.781
N2845 X-9.692 Z-11.303
N2850 X-0.423 Z-9.769
N2855 X-0.142 Z-9.737
N2860 X0.123 Z-9.736
N2865 X0.384 Z-9.762
N2870 X9.72 Z-11.308
N2875 X12.14 Z-11.803
N2880 X17.07 Z-12.423
N2885 X20.549 Z-12.59
N2890 X20.874 Z-12.619
N2895 X21.131 Z-12.666
N2900 X21.381 Z-12.734
N2905 X21.627 Z-12.82
N2910 X23.45 Z-13.571
N2915 X23.511 Z-13.589
N2920 X23.574 Z-13.594
N2925 X23.637 Z-13.585
N2930 X23.696 Z-13.563
N2935 X23.76 Z-13.54
N2940 X23.828 Z-13.532
N2945 X24.562
N2950 X24.588 Y-51.014 Z-13.533
N2955 X24.614 Y-51.009 Z-13.535
N2960 X24.639 Y-51. Z-13.539
N2965 X24.663 Y-50.988 Z-13.543
N2970 X24.684 Y-50.973 Z-13.549
N2975 X24.703 Y-50.956 Z-13.556
N2980 X24.719 Y-50.936 Z-13.564
N2985 X24.731 Y-50.915 Z-13.573
N2990 X24.741 Y-50.891 Z-13.582
N2995 X24.746 Y-50.867 Z-13.592
N3000 X24.748 Y-50.843 Z-13.602
N3005 X24.746 Y-50.818 Z-13.612
N3010 X24.741 Y-50.794 Z-13.621
N3015 X24.731 Y-50.771 Z-13.631
N3020 X24.719 Y-50.749 Z-13.639
N3025 X24.703 Y-50.729 Z-13.647
N3030 X24.684 Y-50.712 Z-13.654
N3035 X24.663 Y-50.697 Z-13.66
N3040 X24.639 Y-50.685 Z-13.665
N3045 X24.614 Y-50.677 Z-13.669
N3050 X24.588 Y-50.672 Z-13.671
N3055 X24.562 Y-50.67
N3060 X24.494 Z-13.679
N3065 X24.43 Z-13.702
N3070 X24.37 Z-13.724
N3075 X24.307 Z-13.732
N3080 X24.244 Z-13.728
N3085 X24.183 Z-13.71
N3090 X21.51 Z-12.608
N3095 X21.266 Z-12.52
N3100 X21.016 Z-12.45
N3105 X20.76 Z-12.4
N3110 X20.434 Z-12.369
N3115 X17.086 Z-12.205
N3120 X12.678 Z-11.653
N3125 X12.417 Z-11.614
N3130 X10.384 Z-11.196
N3135 X10.126 Z-11.147
N3140 X0.4 Z-9.537
N3145 X0.139 Z-9.509
N3150 X-0.125 Z-9.508
N3155 X-0.414 Z-9.539
N3160 X-10.064 Z-11.137
N3165 X-10.324 Z-11.183
N3170 X-12.617 Z-11.64
N3175 X-17.311 Z-12.235
N3180 X-20.465 Z-12.37
N3185 X-20.7 Z-12.392
N3190 X-20.934 Z-12.432
N3195 X-21.279 Z-12.524
N3200 X-21.614 Z-12.65
N3205 X-24.17 Z-13.692
N3210 X-24.231 Z-13.709
N3215 X-24.294 Z-13.714
N3220 X-24.356 Z-13.705
N3225 X-24.415 Z-13.683
N3230 X-24.48 Z-13.661
N3235 X-24.547 Z-13.653
N3240 X-25.277
N3245 X-25.304 Y-50.668 Z-13.654
N3250 X-25.33 Y-50.663 Z-13.656
N3255 X-25.354 Y-50.654 Z-13.659
N3260 X-25.378 Y-50.642 Z-13.663
N3265 X-25.399 Y-50.628 Z-13.669
N3270 X-25.417 Y-50.61 Z-13.676
N3275 X-25.433 Y-50.59 Z-13.683
N3280 X-25.446 Y-50.569 Z-13.692
N3285 X-25.455 Y-50.546 Z-13.701
N3290 X-25.461 Y-50.521 Z-13.71
N3295 X-25.463 Y-50.497 Z-13.719
N3300 X-25.461 Y-50.472 Z-13.729
N3305 X-25.455 Y-50.448 Z-13.738
N3310 X-25.446 Y-50.425 Z-13.747
N3315 X-25.433 Y-50.403 Z-13.755
N3320 X-25.417 Y-50.383 Z-13.763
N3325 X-25.399 Y-50.366 Z-13.77
N3330 X-25.378 Y-50.351 Z-13.775
N3335 X-25.354 Y-50.339 Z-13.78
N3340 X-25.33 Y-50.331 Z-13.783
N3345 X-25.304 Y-50.326 Z-13.785
N3350 X-25.277 Y-50.324 Z-13.786
N3355 X-25.21 Z-13.794
N3360 X-25.145 Z-13.817
N3365 X-25.086 Z-13.838
N3370 X-25.024 Z-13.847
N3375 X-24.961 Z-13.843
N3380 X-24.9 Z-13.825
N3385 X-21.475 Z-12.429
N3390 X-21.141 Z-12.303
N3395 X-20.795 Z-12.21
N3400 X-20.561 Z-12.17
N3405 X-20.313 Z-12.147
N3410 X-17.293 Z-12.018
N3415 X-12.862 Z-11.448
N3420 X-11.058 Z-11.086
N3425 X-10.567 Z-10.992
N3430 X-0.39 Z-9.308
N3435 X-0.109 Z-9.279
N3440 X0.155 Z-9.282
N3445 X0.351 Z-9.302
N3450 X10.66 Z-11.008
N3455 X12.463 Z-11.376
N3460 X12.955 Z-11.468
N3465 X17.102 Z-11.987
N3470 X17.365 Z-12.007
N3475 X20.318 Z-12.148
N3480 X20.643 Z-12.182
N3485 X20.898 Z-12.234
N3490 X21.148 Z-12.305
N3495 X21.393 Z-12.396
N3500 X24.917 Z-13.849
N3505 X24.978 Z-13.867
N3510 X25.041 Z-13.871
N3515 X25.104 Z-13.862
N3520 X25.163 Z-13.841
N3525 X25.228 Z-13.818
N3530 X25.295 Z-13.81
N3535 X26.029
N3540 X26.055 Y-50.322 Z-13.811
N3545 X26.081 Y-50.317 Z-13.813
N3550 X26.106 Y-50.308 Z-13.816
N3555 X26.13 Y-50.296 Z-13.821
N3560 X26.151 Y-50.282 Z-13.827
N3565 X26.17 Y-50.264 Z-13.834
N3570 X26.186 Y-50.244 Z-13.842
N3575 X26.198 Y-50.223 Z-13.851
N3580 X26.208 Y-50.2 Z-13.86
N3585 X26.213 Y-50.175 Z-13.87
N3590 X26.215 Y-50.151 Z-13.88
N3595 X26.213 Y-50.126 Z-13.889
N3600 X26.208 Y-50.102 Z-13.899
N3605 X26.198 Y-50.079 Z-13.908
N3610 X26.186 Y-50.057 Z-13.917
N3615 X26.17 Y-50.037 Z-13.925
N3620 X26.151 Y-50.02 Z-13.932
N3625 X26.13 Y-50.005 Z-13.938
N3630 X26.106 Y-49.993 Z-13.943
N3635 X26.081 Y-49.985 Z-13.946
N3640 X26.055 Y-49.98 Z-13.948
N3645 X26.029 Y-49.978 Z-13.949
N3650 X25.961 Z-13.957
N3655 X25.897 Z-13.98
N3660 X25.837 Z-14.001
N3665 X25.774 Z-14.01
N3670 X25.711 Z-14.005
N3675 X25.65 Z-13.988
N3680 X21.154 Z-12.135
N3685 X20.908 Z-12.053
N3690 X20.656 Z-11.988
N3695 X20.399 Z-11.945
N3700 X20.138 Z-11.923
N3705 X17.381 Z-11.792
N3710 X16.885 Z-11.74
N3715 X13.233 Z-11.283
N3720 X11.082 Z-10.849
N3725 X0.368 Z-9.076
N3730 X0.173 Z-9.055
N3735 X-0.092 Z-9.051
N3740 X-0.344 Z-9.073
N3745 X-11.069 Z-10.847
N3750 X-11.817 Z-10.994
N3755 X-13.106 Z-11.252
N3760 X-13.625 Z-11.328
N3765 X-17.276 Z-11.795
N3770 X-19.376 Z-11.891
N3775 X-20.282 Z-11.932
N3780 X-20.517 Z-11.962
N3785 X-20.865 Z-12.04
N3790 X-21.204 Z-12.155
N3795 X-25.63 Z-13.958
N3800 X-25.691 Z-13.976
N3805 X-25.754 Z-13.98
N3810 X-25.816 Z-13.972
N3815 X-25.875 Z-13.95
N3820 X-25.94 Z-13.927
N3825 X-26.007 Z-13.919
N3830 X-26.726
N3835 X-26.752 Y-49.976 Z-13.92
N3840 X-26.777 Y-49.971 Z-13.922
N3845 X-26.801 Y-49.962 Z-13.924
N3850 X-26.824 Y-49.95 Z-13.928
N3855 X-26.845 Y-49.936 Z-13.933
N3860 X-26.863 Y-49.918 Z-13.938
N3865 X-26.879 Y-49.898 Z-13.945
N3870 X-26.891 Y-49.877 Z-13.952
N3875 X-26.9 Y-49.854 Z-13.959
N3880 X-26.906 Y-49.829 Z-13.967
N3885 X-26.908 Y-49.805 Z-13.975
N3890 X-26.906 Y-49.78 Z-13.983
N3895 X-26.9 Y-49.756 Z-13.99
N3900 X-26.891 Y-49.733 Z-13.998
N3905 X-26.879 Y-49.711 Z-14.005
N3910 X-26.863 Y-49.692 Z-14.011
N3915 X-26.845 Y-49.674 Z-14.017
N3920 X-26.824 Y-49.659 Z-14.021
N3925 X-26.801 Y-49.647 Z-14.025
N3930 X-26.777 Y-49.639 Z-14.028
N3935 X-26.752 Y-49.634 Z-14.03
N3940 X-26.726 Y-49.632
N3945 X-26.658 Z-14.038
N3950 X-26.594 Z-14.061
N3955 X-26.538 Z-14.082
N3960 X-26.478 Z-14.091
N3965 X-26.418 Z-14.088
N3970 X-26.36 Z-14.074
N3975 X-26.098 Z-13.979
N3980 X-21.033 Z-11.921
N3985 X-20.693 Z-11.809
N3990 X-20.345 Z-11.735
N3995 X-20.109 Z-11.707
N4000 X-17.481 Z-11.593
N4005 X-17.221 Z-11.568
N4010 X-13.57 Z-11.1
N4015 X-11.675 Z-10.721
N4020 X-0.433 Z-8.859
N4025 X-0.197 Z-8.829
N4030 X0.071 Z-8.822
N4035 X0.332 Z-8.843
N4040 X11.225 Z-10.645
N4045 X11.742 Z-10.735
N4050 X13.522 Z-11.099
N4055 X16.913 Z-11.524
N4060 X17.41 Z-11.577
N4065 X19.97 Z-11.699
N4070 X20.296 Z-11.728
N4075 X20.552 Z-11.774
N4080 X20.803 Z-11.842
N4085 X21.048 Z-11.927
N4090 X25.641 Z-13.82
N4095 X26.383 Z-14.092
N4100 X26.442 Z-14.107
N4105 X26.502 Z-14.11
N4110 X26.562 Z-14.101
N4115 X26.619 Z-14.08
N4120 X26.683 Z-14.057
N4125 X26.751 Z-14.049
N4130 X27.282
N4135 G17 G3 Y-49.286 I0. J0.173
N4140 G1 X27.214 Z-14.057
N4145 X27.15 Z-14.08
N4150 X27.145 Z-14.082
N4155 X27.088 Z-14.103
N4160 X27.029 Z-14.112
N4165 X26.969 Z-14.109
N4170 X26.911 Z-14.095
N4175 X25.179 Z-13.466
N4180 X20.95 Z-11.723
N4185 X20.705 Z-11.633
N4190 X20.456 Z-11.563
N4195 X20.2 Z-11.512
N4200 X19.875 Z-11.479
N4205 X17.447 Z-11.363
N4210 X16.689 Z-11.276
N4215 X13.819 Z-10.915
N4220 X12.172 Z-10.577
N4225 X10.228 Z-10.252
N4230 X0.372 Z-8.621
N4235 X0.112 Z-8.596
N4240 X-0.151 Z-8.598
N4245 X-0.445 Z-8.633
N4250 X-12.005 Z-10.546
N4255 X-12.754 Z-10.693
N4260 X-13.785 Z-10.9
N4265 X-14.304 Z-10.974
N4270 X-17.433 Z-11.374
N4275 X-19.927 Z-11.482
N4280 X-20.176 Z-11.508
N4285 X-20.409 Z-11.552
N4290 X-20.754 Z-11.649
N4295 X-20.977 Z-11.734
N4300 X-25.578 Z-13.605
N4305 X-26.942 Z-14.098
N4310 X-27. Z-14.112
N4315 X-27.06 Z-14.115
N4320 X-27.12 Z-14.106
N4325 X-27.176 Z-14.085
N4330 X-27.24 Z-14.062
N4335 X-27.308 Z-14.054
N4340 X-27.824
N4345 G2 Y-48.94 I0. J0.173
N4350 G1 X-27.756 Z-14.062
N4355 X-27.692 Z-14.085
N4360 X-27.636 Z-14.106
N4365 X-27.576 Z-14.115
N4370 X-27.516 Z-14.112
N4375 X-27.458 Z-14.098
N4380 X-25.028 Z-13.22
N4385 X-20.914 Z-11.544
N4390 X-20.579 Z-11.416
N4395 X-20.235 Z-11.322
N4400 X-20.001 Z-11.281
N4405 X-19.765 Z-11.258
N4410 X-18.451 Z-11.201
N4415 X-17.402 Z-11.15
N4420 X-14.273 Z-10.749
N4425 X-12.52 Z-10.404
N4430 X-0.411 Z-8.399
N4435 X-0.12 Z-8.368
N4440 X0.143 Z-8.37
N4445 X0.402 Z-8.398
N4450 X12.527 Z-10.405
N4455 X14.11 Z-10.728
N4460 X14.371 Z-10.766
N4465 X17.477 Z-11.149
N4470 X19.708 Z-11.255
N4475 X19.969 Z-11.277
N4480 X20.226 Z-11.32
N4485 X20.478 Z-11.384
N4490 X20.724 Z-11.467
N4495 X24.005 Z-12.819
N4500 X24.957 Z-13.204
N4505 X27.43 Z-14.095
N4510 X27.489 Z-14.109
N4515 X27.549 Z-14.112
N4520 X27.608 Z-14.103
N4525 X27.664 Z-14.082
N4530 X27.728 Z-14.059
N4535 X27.796 Z-14.051
N4540 X28.316
N4545 G3 Y-48.594 I0. J0.173
N4550 G1 X28.248 Z-14.059
N4555 X28.184 Z-14.082
N4560 X28.128 Z-14.103
N4565 X28.068 Z-14.112
N4570 X28.008 Z-14.109
N4575 X27.95 Z-14.095
N4580 X24.487 Z-12.848
N4585 X22.077 Z-11.86
N4590 X20.619 Z-11.26
N4595 X20.374 Z-11.174
N4600 X20.123 Z-11.107
N4605 X19.867 Z-11.06
N4610 X19.541 Z-11.031
N4615 X17.506 Z-10.934
N4620 X14.661 Z-10.582
N4625 X14.4 Z-10.541
N4630 X12.978 Z-10.252
N4635 X0.367 Z-8.165
N4640 X0.172 Z-8.144
N4645 X-0.09 Z-8.139
N4650 X-0.356 Z-8.163
N4655 X-13.071 Z-10.268
N4660 X-14.508 Z-10.556
N4665 X-17.373 Z-10.926
N4670 X-17.634 Z-10.95
N4675 X-19.605 Z-11.034
N4680 X-19.854 Z-11.058
N4685 X-20.087 Z-11.099
N4690 X-20.433 Z-11.192
N4695 X-20.876 Z-11.364
N4700 X-24.503 Z-12.842
N4705 X-27.974 Z-14.098
N4710 X-28.032 Z-14.112
N4715 X-28.092 Z-14.115
N4720 X-28.152 Z-14.106
N4725 X-28.208 Z-14.085
N4730 X-28.272 Z-14.062
N4735 X-28.34 Z-14.054
N4740 X-28.856
N4745 G2 Y-48.248 I0. J0.173
N4750 G1 X-28.788 Z-14.062
N4755 X-28.724 Z-14.085
N4760 X-28.667 Z-14.106
N4765 X-28.608 Z-14.115
N4770 X-28.548 Z-14.112
N4775 X-28.49 Z-14.098
N4780 X-24.225 Z-12.559
N4785 X-20.598 Z-11.086
N4790 X-20.262 Z-10.961
N4795 X-19.917 Z-10.87
N4800 X-19.683 Z-10.832
N4805 X-19.447 Z-10.811
N4810 X-17.607 Z-10.732
N4815 X-15.26 Z-10.435
N4820 X-14.742 Z-10.359
N4825 X-13.563 Z-10.123
N4830 X-0.446 Z-7.949
N4835 X-0.195 Z-7.917
N4840 X0.07 Z-7.911
N4845 X0.331 Z-7.932
N4850 X13.558 Z-10.122
N4855 X14.459 Z-10.307
N4860 X14.951 Z-10.398
N4865 X17.535 Z-10.72
N4870 X19.438 Z-10.811
N4875 X19.763 Z-10.843
N4880 X20.019 Z-10.893
N4885 X20.269 Z-10.963
N4890 X20.514 Z-11.052
N4895 X24.018 Z-12.491
N4900 X28.47 Z-14.095
N4905 X28.528 Z-14.109
N4910 X28.588 Z-14.112
N4915 X28.648 Z-14.103
N4920 X28.704 Z-14.082
N4925 X28.768 Z-14.059
N4930 X28.836 Z-14.051
N4935 X29.356
N4940 G3 Y-47.902 I0. J0.173
N4945 G1 X29.288 Z-14.059
N4950 X29.224 Z-14.082
N4955 X29.167 Z-14.103
N4960 X29.108 Z-14.112
N4965 X29.048 Z-14.109
N4970 X28.99 Z-14.095
N4975 X23.548 Z-12.135
N4980 X20.288 Z-10.797
N4985 X20.041 Z-10.715
N4990 X19.789 Z-10.651
N4995 X19.532 Z-10.608
N5000 X19.141 Z-10.581
N5005 X17.565 Z-10.506
N5010 X15.242 Z-10.215
N5015 X13.881 Z-9.945
N5020 X0.362 Z-7.708
N5025 X0.101 Z-7.684
N5030 X-0.164 Z-7.687
N5035 X-0.415 Z-7.716
N5040 X-13.993 Z-9.965
N5045 X-15.23 Z-10.211
N5050 X-17.577 Z-10.511
N5055 X-19.414 Z-10.596
N5060 X-19.65 Z-10.625
N5065 X-19.997 Z-10.702
N5070 X-20.337 Z-10.816
N5075 X-23.697 Z-12.182
N5080 X-29.006 Z-14.098
N5085 X-29.064 Z-14.112
N5090 X-29.124 Z-14.115
N5095 X-29.183 Z-14.106
N5100 X-29.239 Z-14.085
N5105 X-29.304 Z-14.062
N5110 X-29.371 Z-14.054
N5115 X-29.887
N5120 G2 Y-47.556 I0. J0.173
N5125 G1 X-29.82 Z-14.062
N5130 X-29.755 Z-14.085
N5135 X-29.699 Z-14.106
N5140 X-29.64 Z-14.115
N5145 X-29.58 Z-14.112
N5150 X-29.521 Z-14.098
N5155 X-23.193 Z-11.814
N5160 X-20.185 Z-10.59
N5165 X-19.846 Z-10.477
N5170 X-19.498 Z-10.401
N5175 X-19.249 Z-10.371
N5180 X-17.804 Z-10.308
N5185 X-17.543 Z-10.286
N5190 X-15.46 Z-10.014
N5195 X-14.481 Z-9.818
N5200 X-0.414 Z-7.488
N5205 X-0.133 Z-7.457
N5210 X0.132
N5215 X0.392 Z-7.485
N5220 X14.349 Z-9.795
N5225 X15.534 Z-10.031
N5230 X17.594 Z-10.289
N5235 X19.104 Z-10.363
N5240 X19.43 Z-10.391
N5245 X19.686 Z-10.437
N5250 X19.938 Z-10.504
N5255 X20.183 Z-10.589
N5260 X23.079 Z-11.779
N5265 X29.51 Z-14.095
N5270 X29.568 Z-14.109
N5275 X29.628 Z-14.112
N5280 X29.687 Z-14.103
N5285 X29.743 Z-14.082
N5290 X29.808 Z-14.059
N5295 X29.876 Z-14.051
N5300 X30.395
N5305 G3 Y-47.21 I0. J0.173
N5310 G1 X30.328 Z-14.059
N5315 X30.263 Z-14.082
N5320 X30.207 Z-14.103
N5325 X30.148 Z-14.112
N5330 X30.088 Z-14.109
N5335 X30.03 Z-14.095
N5340 X22.609 Z-11.423
N5345 X20.078 Z-10.382
N5350 X19.832 Z-10.293
N5355 X19.582 Z-10.223
N5360 X19.327 Z-10.174
N5365 X19.002 Z-10.142
N5370 X17.623 Z-10.073
N5375 X15.824 Z-9.847
N5380 X15.078 Z-9.693
N5385 X14.82 Z-9.645
N5390 X0.36 Z-7.252
N5395 X0.165 Z-7.231
N5400 X-0.1 Z-7.228
N5405 X-0.351 Z-7.251
N5410 X-14.967 Z-9.671
N5415 X-15.946 Z-9.861
N5420 X-17.771 Z-10.09
N5425 X-19.085 Z-10.147
N5430 X-19.321 Z-10.173
N5435 X-19.669 Z-10.245
N5440 X-20.01 Z-10.355
N5445 X-22.641 Z-11.426
N5450 X-30.037 Z-14.098
N5455 X-30.095 Z-14.112
N5460 X-30.155 Z-14.115
N5465 X-30.215 Z-14.106
N5470 X-30.271 Z-14.085
N5475 X-30.335 Z-14.062
N5480 X-30.403 Z-14.054
N5485 X-30.919
N5490 G2 Y-46.864 I0. J0.173
N5495 G1 X-30.851 Z-14.062
N5500 X-30.787 Z-14.085
N5505 X-30.731 Z-14.106
N5510 X-30.671 Z-14.115
N5515 X-30.611 Z-14.112
N5520 X-30.553 Z-14.098
N5525 X-22.135 Z-11.056
N5530 X-19.968 Z-10.173
N5535 X-19.745 Z-10.089
N5540 X-19.4 Z-9.992
N5545 X-19.167 Z-9.949
N5550 X-18.918 Z-9.923
N5555 X-17.738 Z-9.87
N5560 X-16.176 Z-9.669
N5565 X-15.326 Z-9.501
N5570 X-0.438 Z-7.037
N5575 X-0.203 Z-7.006
N5580 X0.065 Z-6.999
N5585 X0.326 Z-7.019
N5590 X15.369 Z-9.508
N5595 X16.115 Z-9.66
N5600 X17.653 Z-9.857
N5605 X18.704 Z-9.912
N5610 X19.095 Z-9.939
N5615 X19.353 Z-9.982
N5620 X19.605 Z-10.045
N5625 X19.851 Z-10.127
N5630 X22.14 Z-11.067
N5635 X30.55 Z-14.095
N5640 X30.608 Z-14.109
N5645 X30.668 Z-14.112
N5650 X30.727 Z-14.103
N5655 X30.783 Z-14.082
N5660 X30.847 Z-14.059
N5665 X30.915 Z-14.051
N5670 X31.435
N5675 G3 Y-46.518 I0. J0.173
N5680 G1 X31.367 Z-14.059
N5685 X31.303 Z-14.082
N5690 X31.247 Z-14.103
N5695 X31.188 Z-14.112
N5700 X31.128 Z-14.109
N5705 X31.069 Z-14.095
N5710 X21.67 Z-10.71
N5715 X19.746 Z-9.919
N5720 X19.501 Z-9.834
N5725 X19.25 Z-9.768
N5730 X18.993 Z-9.722
N5735 X18.667 Z-9.695
N5740 X17.945 Z-9.66
N5745 X17.682 Z-9.641
N5750 X16.665 Z-9.514
N5755 X16.404 Z-9.473
N5760 X15.722 Z-9.338
N5765 X0.355 Z-6.796
N5770 X0.095 Z-6.772
N5775 X-0.17 Z-6.776
N5780 X-0.464 Z-6.813
N5785 X-15.785 Z-9.349
N5790 X-16.636 Z-9.509
N5795 X-17.679 Z-9.642
N5800 X-17.939 Z-9.664
N5805 X-18.846 Z-9.705
N5810 X-19.081 Z-9.735
N5815 X-19.429 Z-9.813
N5820 X-19.768 Z-9.927
N5825 X-21.802 Z-10.754
N5830 X-31.069 Z-14.098
N5835 X-31.127 Z-14.112
N5840 X-31.187 Z-14.115
N5845 X-31.246 Z-14.106
N5850 X-31.303 Z-14.085
N5855 X-31.367 Z-14.062
N5860 X-31.435 Z-14.054
N5865 X-31.951
N5870 G2 Y-46.172 I0. J0.173
N5875 G1 X-31.883 Z-14.062
N5880 X-31.819 Z-14.085
N5885 X-31.762 Z-14.106
N5890 X-31.703 Z-14.115
N5895 X-31.643 Z-14.112
N5900 X-31.585 Z-14.098
N5905 X-21.271 Z-10.375
N5910 X-19.615 Z-9.701
N5915 X-19.275 Z-9.587
N5920 X-18.927 Z-9.511
N5925 X-18.692 Z-9.482
N5930 X-17.903 Z-9.446
N5935 X-16.86 Z-9.317
N5940 X-16.268 Z-9.201
N5945 X-0.427 Z-6.579
N5950 X-0.133 Z-6.546
N5955 X0.129
N5960 X0.389 Z-6.573
N5965 X16.211 Z-9.191
N5970 X16.96 Z-9.331
N5975 X17.716 Z-9.425
N5980 X17.979 Z-9.446
N5985 X18.569 Z-9.474
N5990 X18.894 Z-9.506
N5995 X19.15 Z-9.555
N6000 X19.4 Z-9.624
N6005 X19.646 Z-9.713
N6010 X21.201 Z-10.354
N6015 X31.589 Z-14.095
N6020 X31.647 Z-14.109
N6025 X31.707 Z-14.112
N6030 X31.767 Z-14.103
N6035 X31.823 Z-14.082
N6040 X31.887 Z-14.059
N6045 X31.955 Z-14.051
N6050 X32.475
N6055 G3 Y-45.826 I0. J0.173
N6060 G1 X32.407 Z-14.059
N6065 X32.343 Z-14.082
N6070 X32.287 Z-14.103
N6075 X32.227 Z-14.112
N6080 X32.167 Z-14.109
N6085 X32.109 Z-14.095
N6090 X20.731 Z-9.996
N6095 X19.419 Z-9.458
N6100 X19.173 Z-9.376
N6105 X18.92 Z-9.313
N6110 X18.663 Z-9.271
N6115 X18.271 Z-9.244
N6120 X18.009 Z-9.232
N6125 X17.512 Z-9.18
N6130 X17.251 Z-9.147
N6135 X16.5 Z-9.011
N6140 X0.355 Z-6.34
N6145 X0.16 Z-6.32
N6150 X-0.102 Z-6.317
N6155 X-0.395 Z-6.346
N6160 X-16.653 Z-9.037
N6165 X-16.913 Z-9.084
N6170 X-17.144 Z-9.13
N6175 X-17.924 Z-9.23
N6180 X-18.567 Z-9.261
N6185 X-18.802 Z-9.291
N6190 X-19.15 Z-9.37
N6195 X-19.488 Z-9.485
N6200 X-20.792 Z-10.016
N6205 X-32.101 Z-14.098
N6210 X-32.159 Z-14.112
N6215 X-32.219 Z-14.115
N6220 X-32.278 Z-14.106
N6225 X-32.334 Z-14.085
N6230 X-32.399 Z-14.062
N6235 X-32.466 Z-14.054
N6240 X-32.982
N6245 G2 Y-45.48 I0. J0.173
N6250 G1 X-32.915 Z-14.062
N6255 X-32.85 Z-14.085
N6260 X-32.794 Z-14.106
N6265 X-32.735 Z-14.115
N6270 X-32.675 Z-14.113
N6275 X-32.616 Z-14.098
N6280 X-20.271 Z-9.639
N6285 X-19.346 Z-9.262
N6290 X-19.006 Z-9.147
N6295 X-18.659 Z-9.068
N6300 X-18.424 Z-9.038
N6305 X-17.9 Z-9.009
N6310 X-17.639 Z-8.976
N6315 X-17.148 Z-8.891
N6320 X-0.458 Z-6.128
N6325 X-0.207 Z-6.095
N6330 X0.058 Z-6.087
N6335 X0.319 Z-6.107
N6340 X17.048 Z-8.874
N6345 X17.541 Z-8.963
N6350 X18.037 Z-9.017
N6355 X18.3 Z-9.03
N6360 X18.561 Z-9.053
N6365 X18.817 Z-9.099
N6370 X19.069 Z-9.165
N6375 X19.314 Z-9.25
N6380 X20.261 Z-9.639
N6385 X32.629 Z-14.095
N6390 X32.687 Z-14.109
N6395 X32.747 Z-14.112
N6400 X32.806 Z-14.103
N6405 X32.863 Z-14.082
N6410 X32.927 Z-14.059
N6415 X32.995 Z-14.051
N6420 X33.515
N6425 G3 Y-45.134 I0. J0.173
N6430 G1 X33.447 Z-14.059
N6435 X33.383 Z-14.082
N6440 X33.326 Z-14.103
N6445 X33.267 Z-14.112
N6450 X33.207 Z-14.109
N6455 X33.149 Z-14.095
N6460 X19.792 Z-9.282
N6465 X19.209 Z-9.042
N6470 X18.964 Z-8.954
N6475 X18.713 Z-8.885
N6480 X18.458 Z-8.836
N6485 X18.132 Z-8.806
N6490 X17.837 Z-8.781
N6495 X17.313 Z-8.69
N6500 X0.325 Z-5.88
N6505 X0.064 Z-5.86
N6510 X-0.201 Z-5.867
N6515 X-0.452 Z-5.899
N6520 X-17.777 Z-8.769
N6525 X-18.024 Z-8.801
N6530 X-18.286 Z-8.816
N6535 X-18.534 Z-8.849
N6540 X-18.882 Z-8.929
N6545 X-19.23 Z-9.051
N6550 X-20.036 Z-9.372
N6555 X-33.132 Z-14.098
N6560 X-33.191 Z-14.113
N6565 X-33.251 Z-14.115
N6570 X-33.31 Z-14.106
N6575 X-33.366 Z-14.085
N6580 X-33.43 Z-14.062
N6585 X-33.498 Z-14.054
N6590 X-34.014
N6595 G2 Y-44.788 I0. J0.173
N6600 G1 X-33.946 Z-14.062
N6605 X-33.882 Z-14.085
N6610 X-33.826 Z-14.106
N6615 X-33.766 Z-14.115
N6620 X-33.706 Z-14.113
N6625 X-33.648 Z-14.098
N6630 X-19.513 Z-8.997
N6635 X-19.082 Z-8.826
N6640 X-18.737 Z-8.706
N6645 X-18.389 Z-8.626
N6650 X-18.095 Z-8.589
N6655 X-0.429 Z-5.668
N6660 X-0.148 Z-5.635
N6665 X0.117 Z-5.634
N6670 X0.377 Z-5.659
N6675 X18.054 Z-8.585
N6680 X18.25 Z-8.605
N6685 X18.506 Z-8.649
N6690 X18.758 Z-8.713
N6695 X19.004 Z-8.796
N6700 X19.344 Z-8.934
N6705 X25.281 Z-11.074
N6710 X33.669 Z-14.084
N6715 X33.727 Z-14.098
N6720 X33.787 Z-14.101
N6725 X33.846 Z-14.092
N6730 X33.902 Z-14.071
N6735 X33.966 Z-14.048
N6740 X34.034 Z-14.04
N6745 X34.554
N6750 X34.578 Y-44.786
N6755 X34.603 Y-44.781
N6760 X34.626 Y-44.772 Z-14.039
N6765 X34.648 Y-44.76 Z-14.038
N6770 X34.668 Y-44.746 Z-14.036
N6775 X34.685 Y-44.728 Z-14.034
N6780 X34.7 Y-44.708 Z-14.032
N6785 X34.712 Y-44.687 Z-14.03
N6790 X34.72 Y-44.664 Z-14.027
N6795 X34.726 Y-44.64 Z-14.025
N6800 X34.728 Y-44.615 Z-14.022
N6805 X34.726 Y-44.59 Z-14.02
N6810 X34.72 Y-44.566 Z-14.017
N6815 X34.712 Y-44.543 Z-14.015
N6820 X34.7 Y-44.521 Z-14.013
N6825 X34.685 Y-44.502 Z-14.011
N6830 X34.668 Y-44.484 Z-14.009
N6835 X34.648 Y-44.469 Z-14.007
N6840 X34.626 Y-44.458 Z-14.006
N6845 X34.603 Y-44.449 Z-14.005
N6850 X34.578 Y-44.444
N6855 X34.554 Y-44.442 Z-14.004
N6860 X34.486 Z-14.012
N6865 X34.422 Z-14.035
N6870 X34.366 Z-14.056
N6875 X34.306 Z-14.065
N6880 X34.247 Z-14.062
N6885 X34.189 Z-14.048
N6890 X19.249 Z-8.709
N6895 X18.583 Z-8.481
N6900 X18.186 Z-8.389
N6905 X17.67 Z-8.293
N6910 X0.357 Z-5.428
N6915 X0.162 Z-5.408
N6920 X-0.103 Z-5.405
N6925 X-0.384 Z-5.432
N6930 X-17.823 Z-8.32
N6935 X-18.461 Z-8.448
N6940 X-18.747 Z-8.532
N6945 X-20.704 Z-9.228
N6950 X-34.164 Z-14.058
N6955 X-34.222 Z-14.073
N6960 X-34.282 Z-14.076
N6965 X-34.341 Z-14.066
N6970 X-34.397 Z-14.045
N6975 X-34.462 Z-14.023
N6980 X-34.529 Z-14.015
N6985 X-35.045
N6990 X-35.07 Y-44.44
N6995 X-35.094 Y-44.435 Z-14.014
N7000 X-35.117 Y-44.426 Z-14.013
N7005 X-35.139 Y-44.414 Z-14.012
N7010 X-35.159 Y-44.4 Z-14.01
N7015 X-35.177 Y-44.382 Z-14.008
N7020 X-35.192 Y-44.362 Z-14.006
N7025 X-35.203 Y-44.341 Z-14.003
N7030 X-35.212 Y-44.318 Z-14.001
N7035 X-35.217 Y-44.294 Z-13.998
N7040 X-35.219 Y-44.269 Z-13.995
N7045 X-35.217 Y-44.244 Z-13.992
N7050 X-35.212 Y-44.22 Z-13.989
N7055 X-35.203 Y-44.197 Z-13.987
N7060 X-35.192 Y-44.175 Z-13.984
N7065 X-35.177 Y-44.156 Z-13.982
N7070 X-35.159 Y-44.138 Z-13.98
N7075 X-35.139 Y-44.123 Z-13.978
N7080 X-35.117 Y-44.112 Z-13.977
N7085 X-35.094 Y-44.103 Z-13.976
N7090 X-35.07 Y-44.098 Z-13.975
N7095 X-35.045 Y-44.096
N7100 X-34.977 Z-13.983
N7105 X-34.913 Z-14.006
N7110 X-34.857 Z-14.027
N7115 X-34.798 Z-14.036
N7120 X-34.738 Z-14.033
N7125 X-34.68 Z-14.019
N7130 X-22.021 Z-9.476
N7135 X-18.887 Z-8.381
N7140 X-18.589 Z-8.292
N7145 X-17.717 Z-8.1
N7150 X-17.021 Z-7.959
N7155 X-0.448 Z-5.215
N7160 X-0.213 Z-5.184
N7165 X0.055 Z-5.176
N7170 X0.316 Z-5.195
N7175 X16.786 Z-7.919
N7180 X17.431 Z-8.038
N7185 X18.537 Z-8.28
N7190 X18.835 Z-8.363
N7195 X21.502 Z-9.293
N7200 X34.708 Z-14.012
N7205 X34.767 Z-14.027
N7210 X34.826 Z-14.029
N7215 X34.885 Z-14.02
N7220 X34.941 Z-13.999
N7225 X35.006 Z-13.976
N7230 X35.073 Z-13.968
N7235 X35.593
N7240 X35.618 Y-44.094
N7245 X35.642 Y-44.089
N7250 X35.666 Y-44.08 Z-13.967
N7255 X35.687 Y-44.069 Z-13.966
N7260 X35.707 Y-44.054 Z-13.964
N7265 X35.725 Y-44.036 Z-13.962
N7270 X35.74 Y-44.016 Z-13.96
N7275 X35.752 Y-43.995 Z-13.958
N7280 X35.76 Y-43.972 Z-13.956
N7285 X35.765 Y-43.948 Z-13.953
N7290 X35.767 Y-43.923 Z-13.951
N7295 X35.765 Y-43.898 Z-13.948
N7300 X35.76 Y-43.874 Z-13.945
N7305 X35.752 Y-43.851 Z-13.943
N7310 X35.74 Y-43.829 Z-13.941
N7315 X35.725 Y-43.81 Z-13.939
N7320 X35.707 Y-43.792 Z-13.937
N7325 X35.687 Y-43.777 Z-13.935
N7330 X35.666 Y-43.766 Z-13.934
N7335 X35.642 Y-43.757 Z-13.933
N7340 X35.618 Y-43.752
N7345 X35.593 Y-43.75
N7350 X35.526 Z-13.94
N7355 X35.461 Z-13.963
N7360 X35.405 Z-13.984
N7365 X35.346 Z-13.993
N7370 X35.286 Z-13.991
N7375 X35.228 Z-13.976
N7380 X23.78 Z-9.886
N7385 X18.977 Z-8.211
N7390 X18.677 Z-8.127
N7395 X16.547 Z-7.66
N7400 X15.901 Z-7.545
N7405 X0.339 Z-4.97
N7410 X0.079 Z-4.948
N7415 X-0.19 Z-4.954
N7420 X-0.425 Z-4.983
N7425 X-16.22 Z-7.598
N7430 X-16.915 Z-7.739
N7435 X-18.686 Z-8.129
N7440 X-18.998 Z-8.218
N7445 X-24.205 Z-10.035
N7450 X-35.196 Z-13.979
N7455 X-35.254 Z-13.994
N7460 X-35.314 Z-13.996
N7465 X-35.373 Z-13.987
N7470 X-35.429 Z-13.966
N7475 X-35.493 Z-13.943
N7480 X-35.561 Z-13.935
N7485 X-36.076
N7490 X-36.1 Y-43.748
N7495 X-36.125 Y-43.743
N7500 X-36.148 Y-43.734 Z-13.934
N7505 X-36.17 Y-43.723 Z-13.932
N7510 X-36.19 Y-43.708 Z-13.931
N7515 X-36.207 Y-43.69 Z-13.929
N7520 X-36.222 Y-43.671 Z-13.926
N7525 X-36.234 Y-43.649 Z-13.924
N7530 X-36.243 Y-43.626 Z-13.921
N7535 X-36.248 Y-43.602 Z-13.918
N7540 X-36.25 Y-43.577 Z-13.915
N7545 X-36.248 Y-43.552 Z-13.913
N7550 X-36.243 Y-43.528 Z-13.91
N7555 X-36.234 Y-43.505 Z-13.907
N7560 X-36.222 Y-43.483 Z-13.905
N7565 X-36.207 Y-43.464 Z-13.902
N7570 X-36.19 Y-43.446 Z-13.9
N7575 X-36.17 Y-43.431 Z-13.899
N7580 X-36.148 Y-43.42 Z-13.897
N7585 X-36.125 Y-43.411 Z-13.896
N7590 X-36.1 Y-43.406
N7595 X-36.076 Y-43.404 Z-13.895
N7600 X-36.008 Z-13.903
N7605 X-35.944 Z-13.926
N7610 X-35.888 Z-13.947
N7615 X-35.828 Z-13.956
N7620 X-35.768 Z-13.953
N7625 X-35.71 Z-13.939
N7630 X-26.485 Z-10.629
N7635 X-19.13 Z-8.062
N7640 X-18.831 Z-7.977
N7645 X-16.162 Z-7.389
N7650 X-15.467 Z-7.247
N7655 X-0.45 Z-4.76
N7660 X-0.215 Z-4.728
N7665 X0.053 Z-4.72
N7670 X0.314 Z-4.739
N7675 X15.228 Z-7.205
N7680 X15.873 Z-7.326
N7685 X18.76 Z-7.961
N7690 X19.074 Z-8.044
N7695 X26.098 Z-10.492
N7700 X35.703 Z-13.924
N7705 X35.761 Z-13.939
N7710 X35.82 Z-13.941
N7715 X35.88 Z-13.932
N7720 X35.936 Z-13.911
N7725 X36. Z-13.888
N7730 X36.068 Z-13.88
N7735 X36.45
N7740 X36.476 Y-43.402
N7745 X36.5 Y-43.397 Z-13.879
N7750 X36.524 Y-43.388 Z-13.877
N7755 X36.547 Y-43.377 Z-13.874
N7760 X36.567 Y-43.362 Z-13.87
N7765 X36.585 Y-43.344 Z-13.866
N7770 X36.6 Y-43.325 Z-13.861
N7775 X36.612 Y-43.303 Z-13.856
N7780 X36.621 Y-43.28 Z-13.85
N7785 X36.627 Y-43.256 Z-13.844
N7790 X36.628 Y-43.231 Z-13.838
N7795 X36.627 Y-43.206 Z-13.832
N7800 X36.621 Y-43.182 Z-13.826
N7805 X36.612 Y-43.159 Z-13.82
N7810 X36.6 Y-43.137 Z-13.815
N7815 X36.585 Y-43.118 Z-13.81
N7820 X36.567 Y-43.1 Z-13.806
N7825 X36.547 Y-43.085 Z-13.802
N7830 X36.524 Y-43.074 Z-13.799
N7835 X36.5 Y-43.065 Z-13.797
N7840 X36.476 Y-43.06 Z-13.796
N7845 X36.45 Y-43.058 Z-13.795
N7850 X36.382 Z-13.803
N7855 X36.318 Z-13.826
N7860 X36.262 Z-13.847
N7865 X36.203 Z-13.856
N7870 X36.143 Z-13.854
N7875 X36.085 Z-13.839
N7880 X28.35 Z-11.076
N7885 X19.203 Z-7.887
N7890 X18.952 Z-7.82
N7895 X14.974 Z-6.945
N7900 X14.458 Z-6.85
N7905 X0.323 Z-4.512
N7910 X0.062 Z-4.492
N7915 X-0.203 Z-4.5
N7920 X-0.454 Z-4.532
N7925 X-14.667 Z-6.886
N7930 X-15.246 Z-7.003
N7935 X-19.007 Z-7.832
N7940 X-19.299 Z-7.92
N7945 X-28.831 Z-11.246
N7950 X-36.098 Z-13.853
N7955 X-36.156 Z-13.868
N7960 X-36.216 Z-13.87
N7965 X-36.275 Z-13.861
N7970 X-36.331 Z-13.84
N7975 X-36.396 Z-13.817
N7980 X-36.463 Z-13.81
N7985 X-36.845
N7990 X-36.871 Y-43.056 Z-13.809
N7995 X-36.896 Y-43.051 Z-13.808
N8000 X-36.919 Y-43.042 Z-13.806
N8005 X-36.942 Y-43.031 Z-13.803
N8010 X-36.962 Y-43.016 Z-13.799
N8015 X-36.98 Y-42.998 Z-13.795
N8020 X-36.995 Y-42.979 Z-13.79
N8025 X-37.008 Y-42.957 Z-13.784
N8030 X-37.016 Y-42.934 Z-13.778
N8035 X-37.022 Y-42.91 Z-13.772
N8040 X-37.024 Y-42.885 Z-13.766
N8045 X-37.022 Y-42.86 Z-13.76
N8050 X-37.016 Y-42.836 Z-13.753
N8055 X-37.008 Y-42.813 Z-13.748
N8060 X-36.995 Y-42.791 Z-13.742
N8065 X-36.98 Y-42.772 Z-13.737
N8070 X-36.962 Y-42.754 Z-13.733
N8075 X-36.942 Y-42.739 Z-13.729
N8080 X-36.919 Y-42.728 Z-13.726
N8085 X-36.896 Y-42.719 Z-13.724
N8090 X-36.871 Y-42.714 Z-13.722
N8095 X-36.845 Y-42.712
N8100 X-36.777 Z-13.73
N8105 X-36.713 Z-13.753
N8110 X-36.657 Z-13.773
N8115 X-36.598 Z-13.783
N8120 X-36.538 Z-13.78
N8125 X-36.48 Z-13.766
N8130 X-31.053 Z-11.819
N8135 X-19.412 Z-7.757
N8140 X-19.183 Z-7.688
N8145 X-14.588 Z-6.674
N8150 X-13.893 Z-6.531
N8155 X-0.433 Z-4.301
N8160 X-0.197 Z-4.271
N8165 X0.071 Z-4.264
N8170 X0.331 Z-4.285
N8175 X13.559 Z-6.474
N8180 X14.204 Z-6.591
N8185 X19.081 Z-7.664
N8190 X19.332 Z-7.731
N8195 X30.688 Z-11.69
N8200 X36.468 Z-13.754
N8205 X36.526 Z-13.769
N8210 X36.586 Z-13.771
N8215 X36.645 Z-13.762
N8220 X36.701 Z-13.741
N8225 X36.765 Z-13.718
N8230 X36.833 Z-13.71
N8235 X37.215
N8240 X37.241 Y-42.71
N8245 X37.265 Y-42.705 Z-13.709
N8250 X37.289 Y-42.696 Z-13.707
N8255 X37.312 Y-42.685 Z-13.704
N8260 X37.332 Y-42.67 Z-13.7
N8265 X37.35 Y-42.652 Z-13.696
N8270 X37.365 Y-42.633 Z-13.691
N8275 X37.377 Y-42.611 Z-13.686
N8280 X37.386 Y-42.588 Z-13.68
N8285 X37.392 Y-42.564 Z-13.674
N8290 X37.393 Y-42.539 Z-13.668
N8295 X37.392 Y-42.514 Z-13.662
N8300 X37.386 Y-42.49 Z-13.656
N8305 X37.377 Y-42.467 Z-13.65
N8310 X37.365 Y-42.445 Z-13.645
N8315 X37.35 Y-42.426 Z-13.64
N8320 X37.332 Y-42.408 Z-13.636
N8325 X37.312 Y-42.393 Z-13.632
N8330 X37.289 Y-42.382 Z-13.629
N8335 X37.265 Y-42.373 Z-13.627
N8340 X37.241 Y-42.368 Z-13.626
N8345 X37.215 Y-42.366 Z-13.625
N8350 X37.147 Z-13.633
N8355 X37.083 Z-13.656
N8360 X37.027 Z-13.677
N8365 X36.968 Z-13.686
N8370 X36.908 Z-13.684
N8375 X36.85 Z-13.669
N8380 X32.94 Z-12.273
N8385 X19.462 Z-7.575
N8390 X19.21 Z-7.509
N8395 X13.435 Z-6.237
N8400 X12.79 Z-6.118
N8405 X0.34 Z-4.059
N8410 X0.079 Z-4.037
N8415 X-0.186 Z-4.042
N8420 X-0.437 Z-4.074
N8425 X-13.093 Z-6.17
N8430 X-13.673 Z-6.288
N8435 X-19.295 Z-7.528
N8440 X-19.58 Z-7.614
N8445 X-33.375 Z-12.427
N8450 X-36.862 Z-13.678
N8455 X-36.92 Z-13.692
N8460 X-36.98 Z-13.695
N8465 X-37.039 Z-13.686
N8470 X-37.095 Z-13.665
N8475 X-37.159 Z-13.642
N8480 X-37.227 Z-13.634
N8485 X-37.608
N8490 X-37.633 Y-42.364
N8495 X-37.658 Y-42.359 Z-13.632
N8500 X-37.682 Y-42.35 Z-13.63
N8505 X-37.704 Y-42.339 Z-13.627
N8510 X-37.725 Y-42.324 Z-13.623
N8515 X-37.743 Y-42.306 Z-13.619
N8520 X-37.758 Y-42.287 Z-13.614
N8525 X-37.77 Y-42.265 Z-13.608
N8530 X-37.779 Y-42.242 Z-13.602
N8535 X-37.785 Y-42.218 Z-13.596
N8540 X-37.786 Y-42.193 Z-13.59
N8545 X-37.785 Y-42.168 Z-13.584
N8550 X-37.779 Y-42.144 Z-13.578
N8555 X-37.77 Y-42.121 Z-13.572
N8560 X-37.758 Y-42.099 Z-13.566
N8565 X-37.743 Y-42.08 Z-13.561
N8570 X-37.725 Y-42.062 Z-13.557
N8575 X-37.704 Y-42.047 Z-13.553
N8580 X-37.682 Y-42.036 Z-13.55
N8585 X-37.658 Y-42.027 Z-13.548
N8590 X-37.633 Y-42.022 Z-13.546
N8595 X-37.608 Y-42.02
N8600 X-37.54 Z-13.554
N8605 X-37.476 Z-13.577
N8610 X-37.42 Z-13.597
N8615 X-37.361 Z-13.607
N8620 X-37.301 Z-13.604
N8625 X-37.243 Z-13.59
N8630 X-35.596 Z-12.999
N8635 X-19.69 Z-7.451
N8640 X-19.404 Z-7.368
N8645 X-12.897 Z-5.933
N8650 X-12.188 Z-5.791
N8655 X-0.414 Z-3.842
N8660 X-0.178 Z-3.814
N8665 X0.088 Z-3.809
N8670 X0.349 Z-3.832
N8675 X12.02 Z-5.763
N8680 X12.665 Z-5.883
N8685 X19.339 Z-7.353
N8690 X19.591 Z-7.418
N8695 X35.08 Z-12.818
N8700 X37.233 Z-13.584
N8705 X37.291 Z-13.599
N8710 X37.35 Z-13.601
N8715 X37.409 Z-13.592
N8720 X37.465 Z-13.571
N8725 X37.53 Z-13.548
N8730 X37.597 Z-13.54
N8735 X37.978
N8740 X38.004 Y-42.018
N8745 X38.028 Y-42.013 Z-13.539
N8750 X38.052 Y-42.004 Z-13.537
N8755 X38.074 Y-41.993 Z-13.534
N8760 X38.095 Y-41.978 Z-13.53
N8765 X38.113 Y-41.96 Z-13.526
N8770 X38.128 Y-41.941 Z-13.521
N8775 X38.14 Y-41.919 Z-13.516
N8780 X38.149 Y-41.896 Z-13.51
N8785 X38.154 Y-41.872 Z-13.504
N8790 X38.156 Y-41.847 Z-13.498
N8795 X38.154 Y-41.822 Z-13.492
N8800 X38.149 Y-41.798 Z-13.486
N8805 X38.14 Y-41.775 Z-13.481
N8810 X38.128 Y-41.754 Z-13.475
N8815 X38.113 Y-41.734 Z-13.471
N8820 X38.095 Y-41.716 Z-13.466
N8825 X38.074 Y-41.702 Z-13.463
N8830 X38.052 Y-41.69 Z-13.46
N8835 X38.028 Y-41.681 Z-13.458
N8840 X38.004 Y-41.676 Z-13.457
N8845 X37.978 Y-41.674 Z-13.456
N8850 X37.91 Z-13.464
N8855 X37.846 Z-13.487
N8860 X37.791 Z-13.507
N8865 X37.732 Z-13.517
N8870 X37.673 Z-13.515
N8875 X37.615 Z-13.501
N8880 X19.768 Z-7.277
N8885 X19.486 Z-7.201
N8890 X11.816 Z-5.513
N8895 X11.171 Z-5.395
N8900 X0.407 Z-3.613
N8905 X0.148 Z-3.584
N8910 X-0.115 Z-3.582
N8915 X-0.407 Z-3.613
N8920 X-11.478 Z-5.447
N8925 X-12.172 Z-5.59
N8930 X-19.592 Z-7.226
N8935 X-19.82 Z-7.295
N8940 X-37.624 Z-13.504
N8945 X-37.681 Z-13.517
N8950 X-37.74 Z-13.52
N8955 X-37.799 Z-13.51
N8960 X-37.854 Z-13.49
N8965 X-37.919 Z-13.467
N8970 X-37.986 Z-13.459
N8975 X-38.368
N8980 X-38.393 Y-41.672
N8985 X-38.417 Y-41.667 Z-13.458
N8990 X-38.441 Y-41.658 Z-13.456
N8995 X-38.463 Y-41.647 Z-13.454
N9000 X-38.483 Y-41.632 Z-13.451
N9005 X-38.501 Y-41.614 Z-13.447
N9010 X-38.516 Y-41.595 Z-13.443
N9015 X-38.528 Y-41.573 Z-13.439
N9020 X-38.537 Y-41.55 Z-13.434
N9025 X-38.542 Y-41.526 Z-13.429
N9030 X-38.544 Y-41.501 Z-13.424
N9035 X-38.542 Y-41.476 Z-13.42
N9040 X-38.537 Y-41.452 Z-13.415
N9045 X-38.528 Y-41.429 Z-13.41
N9050 X-38.516 Y-41.408 Z-13.406
N9055 X-38.501 Y-41.388 Z-13.402
N9060 X-38.483 Y-41.37 Z-13.398
N9065 X-38.463 Y-41.356 Z-13.395
N9070 X-38.441 Y-41.344 Z-13.393
N9075 X-38.417 Y-41.335 Z-13.391
N9080 X-38.393 Y-41.33 Z-13.39
N9085 X-38.368 Y-41.328
N9090 X-38.3 Z-13.398
N9095 X-38.235 Z-13.421
N9100 X-38.18 Z-13.441
N9105 X-38.121 Z-13.451
N9110 X-38.062 Z-13.448
N9115 X-38.005 Z-13.434
N9120 X-19.959 Z-7.142
N9125 X-19.73 Z-7.073
N9130 X-11.515 Z-5.261
N9135 X-10.705 Z-5.092
N9140 X-0.412 Z-3.386
N9145 X-0.131 Z-3.355
N9150 X0.134
N9155 X0.394 Z-3.383
N9160 X10.38 Z-5.036
N9165 X11.025 Z-5.154
N9170 X19.626 Z-7.048
N9175 X19.877 Z-7.114
N9180 X37.998 Z-13.432
N9185 X38.055 Z-13.446
N9190 X38.115 Z-13.448
N9195 X38.173 Z-13.439
N9200 X38.229 Z-13.418
N9205 X38.293 Z-13.395
N9210 X38.361 Z-13.388
N9215 X38.743
N9220 X38.768 Y-41.326 Z-13.387
N9225 X38.793 Y-41.321 Z-13.386
N9230 X38.816 Y-41.312 Z-13.384
N9235 X38.839 Y-41.301 Z-13.382
N9240 X38.859 Y-41.286 Z-13.379
N9245 X38.876 Y-41.268 Z-13.376
N9250 X38.892 Y-41.249 Z-13.372
N9255 X38.904 Y-41.227 Z-13.368
N9260 X38.912 Y-41.204 Z-13.363
N9265 X38.918 Y-41.18 Z-13.358
N9270 X38.92 Y-41.155 Z-13.353
N9275 X38.918 Y-41.13 Z-13.349
N9280 X38.912 Y-41.106 Z-13.344
N9285 X38.904 Y-41.083 Z-13.339
N9290 X38.892 Y-41.062 Z-13.335
N9295 X38.876 Y-41.042 Z-13.331
N9300 X38.859 Y-41.024 Z-13.328
N9305 X38.839 Y-41.01 Z-13.325
N9310 X38.816 Y-40.998 Z-13.322
N9315 X38.793 Y-40.989 Z-13.321
N9320 X38.768 Y-40.984 Z-13.32
N9325 X38.743 Y-40.982 Z-13.319
N9330 X38.675 Z-13.327
N9335 X38.611 Z-13.35
N9340 X38.556 Z-13.371
N9345 X38.497 Z-13.38
N9350 X38.438 Z-13.378
N9355 X38.38 Z-13.364
N9360 X20.011 Z-6.96
N9365 X19.76 Z-6.893
N9370 X10.261 Z-4.801
N9375 X9.616 Z-4.681
N9380 X0.408 Z-3.157
N9385 X0.149 Z-3.128
N9390 X-0.114 Z-3.127
N9395 X-0.405 Z-3.157
N9400 X-9.791 Z-4.711
N9405 X-10.499 Z-4.853
N9410 X-19.831 Z-6.91
N9415 X-20.116 Z-6.995
N9420 X-38.386 Z-13.366
N9425 X-38.443 Z-13.38
N9430 X-38.503 Z-13.382
N9435 X-38.561 Z-13.372
N9440 X-38.617 Z-13.352
N9445 X-38.681 Z-13.329
N9450 X-38.749 Z-13.321
N9455 X-39.13
N9460 X-39.155 Y-40.98
N9465 X-39.179 Y-40.975 Z-13.32
N9470 X-39.203 Y-40.966 Z-13.318
N9475 X-39.225 Y-40.955 Z-13.316
N9480 X-39.245 Y-40.94 Z-13.313
N9485 X-39.263 Y-40.922 Z-13.309
N9490 X-39.278 Y-40.903 Z-13.305
N9495 X-39.29 Y-40.881 Z-13.301
N9500 X-39.299 Y-40.858 Z-13.296
N9505 X-39.304 Y-40.834 Z-13.292
N9510 X-39.306 Y-40.809 Z-13.287
N9515 X-39.304 Y-40.784 Z-13.282
N9520 X-39.299 Y-40.76 Z-13.277
N9525 X-39.29 Y-40.737 Z-13.272
N9530 X-39.278 Y-40.716 Z-13.268
N9535 X-39.263 Y-40.696 Z-13.264
N9540 X-39.245 Y-40.678 Z-13.261
N9545 X-39.225 Y-40.664 Z-13.258
N9550 X-39.203 Y-40.652 Z-13.255
N9555 X-39.179 Y-40.643 Z-13.254
N9560 X-39.155 Y-40.638 Z-13.253
N9565 X-39.13 Y-40.636 Z-13.252
N9570 X-39.062 Z-13.26
N9575 X-38.998 Z-13.283
N9580 X-38.942 Z-13.304
N9585 X-38.884 Z-13.313
N9590 X-38.824 Z-13.311
N9595 X-38.767 Z-13.297
N9600 X-20.243 Z-6.837
N9605 X-19.943 Z-6.75
N9610 X-9.7 Z-4.493
N9615 X-9.004 Z-4.353
N9620 X-0.383 Z-2.926
N9625 X-0.102 Z-2.898
N9630 X0.162 Z-2.901
N9635 X0.358 Z-2.922
N9640 X8.852 Z-4.327
N9645 X9.368 Z-4.422
N9650 X19.894 Z-6.739
N9655 X20.145 Z-6.805
N9660 X38.763 Z-13.296
N9665 X38.821 Z-13.309
N9670 X38.88 Z-13.312
N9675 X38.938 Z-13.302
N9680 X38.994 Z-13.282
N9685 X39.058 Z-13.259
N9690 X39.126 Z-13.251
N9695 X39.508
N9700 X39.533 Y-40.634
N9705 X39.558 Y-40.629 Z-13.25
N9710 X39.582 Y-40.62 Z-13.248
N9715 X39.604 Y-40.609 Z-13.246
N9720 X39.624 Y-40.594 Z-13.243
N9725 X39.642 Y-40.576 Z-13.239
N9730 X39.657 Y-40.557 Z-13.235
N9735 X39.669 Y-40.535 Z-13.231
N9740 X39.677 Y-40.512 Z-13.227
N9745 X39.683 Y-40.488 Z-13.222
N9750 X39.685 Y-40.463 Z-13.217
N9755 X39.683 Y-40.438 Z-13.212
N9760 X39.677 Y-40.414 Z-13.207
N9765 X39.669 Y-40.391 Z-13.203
N9770 X39.657 Y-40.37 Z-13.198
N9775 X39.642 Y-40.35 Z-13.195
N9780 X39.624 Y-40.332 Z-13.191
N9785 X39.604 Y-40.318 Z-13.188
N9790 X39.582 Y-40.306 Z-13.186
N9795 X39.558 Y-40.297 Z-13.184
N9800 X39.533 Y-40.292 Z-13.183
N9805 X39.508 Y-40.29
N9810 X39.441 Z-13.191
N9815 X39.376 Z-13.213
N9820 X39.321 Z-13.234
N9825 X39.262 Z-13.243
N9830 X39.203 Z-13.241
N9835 X39.146 Z-13.227
N9840 X20.28 Z-6.65
N9845 X20.029 Z-6.585
N9850 X8.604 Z-4.069
N9855 X7.958 Z-3.951
N9860 X0.372 Z-2.696
N9865 X0.177 Z-2.674
N9870 X-0.085 Z-2.67
N9875 X-0.353 Z-2.693
N9880 X-8.198 Z-3.992
N9885 X-8.894 Z-4.131
N9890 X-20.151 Z-6.613
N9895 X-20.392 Z-6.688
N9900 X-39.148 Z-13.228
N9905 X-39.205 Z-13.242
N9910 X-39.265 Z-13.244
N9915 X-39.323 Z-13.235
N9920 X-39.379 Z-13.214
N9925 X-39.443 Z-13.191
N9930 X-39.511 Z-13.184
N9935 X-39.899
N9940 X-39.924 Y-40.288 Z-13.183
N9945 X-39.948 Y-40.283 Z-13.182
N9950 X-39.972 Y-40.274 Z-13.181
N9955 X-39.994 Y-40.263 Z-13.179
N9960 X-40.014 Y-40.248 Z-13.176
N9965 X-40.032 Y-40.23 Z-13.173
N9970 X-40.047 Y-40.211 Z-13.169
N9975 X-40.059 Y-40.189 Z-13.165
N9980 X-40.067 Y-40.166 Z-13.161
N9985 X-40.073 Y-40.142 Z-13.156
N9990 X-40.075 Y-40.117 Z-13.152
N9995 X-40.073 Y-40.092 Z-13.147
N10000 X-40.067 Y-40.068 Z-13.143
N10005 X-40.059 Y-40.045 Z-13.139
N10010 X-40.047 Y-40.024 Z-13.135
N10015 X-40.032 Y-40.004 Z-13.131
N10020 X-40.014 Y-39.986 Z-13.128
N10025 X-39.994 Y-39.972 Z-13.125
N10030 X-39.972 Y-39.96 Z-13.123
N10035 X-39.948 Y-39.951 Z-13.121
N10040 X-39.924 Y-39.946
N10045 X-39.899 Y-39.944 Z-13.12
N10050 X-39.831 Z-13.128
N10055 X-39.767 Z-13.151
N10060 X-39.709 Z-13.172
N10065 X-39.649 Z-13.181
N10070 X-39.588 Z-13.178
N10075 X-39.529 Z-13.162
N10080 X-39.476 Z-13.142
N10085 X-20.522 Z-6.531
N10090 X-20.281 Z-6.458
N10095 X-8.112 Z-3.775
N10100 X-7.417 Z-3.635
N10105 X-0.441 Z-2.479
N10110 X-0.205 Z-2.449
N10115 X0.063 Z-2.441
N10120 X0.324 Z-2.461
N10125 X7.197 Z-3.597
N10130 X7.842 Z-3.716
N10135 X20.166 Z-6.431
N10140 X20.417 Z-6.496
N10145 X38.29 Z-12.727
N10150 X39.528 Z-13.162
N10155 G18 G2 X39.927 Z-12.879 I0.099 K0.283
N10160 G1 X39.933 Y-39.939 Z-12.817
N10165 X39.949 Y-39.924 Z-12.759
N10170 X39.976 Y-39.901 Z-12.707
N10175 X40.01 Y-39.869 Z-12.666
N10180 X40.052 Y-39.832 Z-12.637
N10185 X40.097 Y-39.792 Z-12.622
N10190 X40.143 Y-39.75
N10195 X40.188 Y-39.71 Z-12.637
N10200 X40.229 Y-39.673 Z-12.666
N10205 X40.264 Y-39.642 Z-12.707
N10210 X40.29 Y-39.618 Z-12.759
N10215 X40.307 Y-39.603 Z-12.817
N10220 X40.312 Y-39.598 Z-12.879
N10225 Z-12.886
N10230 G3 X39.881 Z-13.156 I-0.3 K0.
N10235 G1 X39.529 Z-12.984
N10240 X39.169 Z-12.834
N10245 X33.462 Z-10.842
N10250 X20.553 Z-6.342
N10255 X20.302 Z-6.277
N10260 X7.08 Z-3.364
N10265 X6.436 Z-3.243
N10270 X0.341 Z-2.236
N10275 X0.08 Z-2.214
N10280 X-0.185 Z-2.219
N10285 X-0.436 Z-2.25
N10290 X-6.609 Z-3.273
N10295 X-7.304 Z-3.413
N10300 X-20.359 Z-6.289
N10305 X-20.657 Z-6.377
N10310 X-39.058 Z-12.794
N10315 X-39.39 Z-12.923
N10320 X-39.715 Z-13.072
N10325 X-39.88 Z-13.155
N10330 X-39.924 Z-13.173
N10335 X-39.969 Z-13.184
N10340 X-40.016 Z-13.188
N10345 X-40.343
N10350 X-40.368 Y-39.596
N10355 X-40.392 Y-39.591 Z-13.189
N10360 X-40.415 Y-39.582 Z-13.19
N10365 X-40.437 Y-39.571 Z-13.193
N10370 X-40.457 Y-39.556 Z-13.195
N10375 X-40.475 Y-39.538 Z-13.198
N10380 X-40.49 Y-39.519 Z-13.202
N10385 X-40.502 Y-39.497 Z-13.205
N10390 X-40.511 Y-39.474 Z-13.209
N10395 X-40.516 Y-39.45 Z-13.214
N10400 X-40.518 Y-39.425 Z-13.218
N10405 X-40.516 Y-39.4 Z-13.222
N10410 X-40.511 Y-39.376 Z-13.226
N10415 X-40.502 Y-39.353 Z-13.23
N10420 X-40.49 Y-39.332 Z-13.234
N10425 X-40.475 Y-39.312 Z-13.237
N10430 X-40.457 Y-39.294 Z-13.24
N10435 X-40.437 Y-39.28 Z-13.243
N10440 X-40.415 Y-39.268 Z-13.245
N10445 X-40.392 Y-39.259 Z-13.247
N10450 X-40.368 Y-39.254 Z-13.248
N10455 X-40.343 Y-39.252
N10460 X-40.291 Z-13.243
N10465 X-40.241 Z-13.23
N10470 X-40.194 Z-13.208
N10475 X-39.571 Z-12.852
N10480 X-39.143 Z-12.644
N10485 X-38.813 Z-12.508
N10490 X-20.797 Z-6.224
N10495 X-20.498 Z-6.136
N10500 X-6.532 Z-3.059
N10505 X-5.837 Z-2.918
N10510 X-0.417 Z-2.019
N10515 X-0.182 Z-1.991
N10520 X0.086 Z-1.986
N10525 X0.346 Z-2.008
N10530 X5.533 Z-2.866
N10535 X6.179 Z-2.983
N10540 X20.428 Z-6.12
N10545 X20.68 Z-6.185
N10550 X38.553 Z-12.416
N10555 X38.92 Z-12.55
N10560 X39.279 Z-12.706
N10565 X39.627 Z-12.882
N10570 X40.195 Z-13.209
N10575 X40.243 Z-13.231
N10580 X40.293 Z-13.245
N10585 X40.345 Z-13.249
N10590 X40.66
N10595 X40.685 Y-39.25 Z-13.25
N10600 X40.71 Y-39.245
N10605 X40.733 Y-39.236 Z-13.252
N10610 X40.755 Y-39.225 Z-13.254
N10615 X40.776 Y-39.21 Z-13.257
N10620 X40.793 Y-39.192 Z-13.26
N10625 X40.808 Y-39.173 Z-13.264
N10630 X40.82 Y-39.151 Z-13.268
N10635 X40.829 Y-39.128 Z-13.272
N10640 X40.834 Y-39.104 Z-13.276
N10645 X40.836 Y-39.079 Z-13.281
N10650 X40.834 Y-39.055 Z-13.285
N10655 X40.829 Y-39.03 Z-13.29
N10660 X40.82 Y-39.007 Z-13.294
N10665 X40.808 Y-38.986 Z-13.298
N10670 X40.793 Y-38.966 Z-13.301
N10675 X40.776 Y-38.948 Z-13.305
N10680 X40.755 Y-38.934 Z-13.307
N10685 X40.733 Y-38.922 Z-13.31
N10690 X40.71 Y-38.913 Z-13.311
N10695 X40.685 Y-38.908 Z-13.312
N10700 X40.66 Y-38.906
N10705 X40.608 Z-13.308
N10710 X40.557 Z-13.294
N10715 X40.51 Z-13.272
N10720 X39.374 Z-12.611
N10725 X39.027 Z-12.429
N10730 X38.672 Z-12.268
N10735 X38.307 Z-12.128
N10740 X20.869 Z-6.048
N10745 X20.587 Z-5.971
N10750 X5.408 Z-2.628
N10755 X4.762 Z-2.511
N10760 X0.353 Z-1.782
N10765 X0.092 Z-1.758
N10770 X-0.173 Z-1.763
N10775 X-0.424 Z-1.793
N10780 X-5.04 Z-2.558
N10785 X-5.62 Z-2.674
N10790 X-20.613 Z-5.977
N10795 X-20.912 Z-6.062
N10800 X-38.444 Z-12.178
N10805 X-38.788 Z-12.318
N10810 X-39.216 Z-12.525
N10815 X-39.834 Z-12.878
N10820 X-40.507 Z-13.27
N10825 X-40.554 Z-13.292
N10830 X-40.605 Z-13.306
N10835 X-40.658 Z-13.311
N10840 X-40.971
N10845 X-40.996 Y-38.904
N10850 X-41.02 Y-38.899 Z-13.312
N10855 X-41.044 Y-38.89 Z-13.314
N10860 X-41.066 Y-38.879 Z-13.316
N10865 X-41.086 Y-38.864 Z-13.318
N10870 X-41.103 Y-38.846 Z-13.321
N10875 X-41.118 Y-38.827 Z-13.325
N10880 X-41.13 Y-38.805 Z-13.329
N10885 X-41.139 Y-38.782 Z-13.333
N10890 X-41.145 Y-38.758 Z-13.337
N10895 X-41.146 Y-38.733 Z-13.342
N10900 X-41.145 Y-38.709 Z-13.346
N10905 X-41.139 Y-38.684 Z-13.35
N10910 X-41.13 Y-38.661 Z-13.354
N10915 X-41.118 Y-38.64 Z-13.358
N10920 X-41.103 Y-38.62 Z-13.362
N10925 X-41.086 Y-38.602 Z-13.365
N10930 X-41.066 Y-38.588 Z-13.368
N10935 X-41.044 Y-38.576 Z-13.37
N10940 X-41.02 Y-38.567 Z-13.371
N10945 X-40.996 Y-38.562 Z-13.372
N10950 X-40.971 Y-38.56 Z-13.373
N10955 X-40.918 Z-13.368
N10960 X-40.867 Z-13.354
N10965 X-40.82 Z-13.332
N10970 X-39.199 Z-12.387
N10975 X-38.782 Z-12.158
N10980 X-38.351 Z-11.956
N10985 X-38.006 Z-11.822
N10990 X-21.164 Z-5.949
N10995 X-20.824 Z-5.841
N11000 X-4.932 Z-2.338
N11005 X-4.237 Z-2.197
N11010 X-0.458 Z-1.57
N11015 X-0.164 Z-1.534
N11020 X0.099 Z-1.531
N11025 X0.36 Z-1.555
N11030 X3.991 Z-2.155
N11035 X4.636 Z-2.274
N11040 X20.682 Z-5.808
N11045 X20.996 Z-5.891
N11050 X37.938 Z-11.798
N11055 X38.304 Z-11.936
N11060 X38.66 Z-12.096
N11065 X39.007 Z-12.277
N11070 X40.824 Z-13.334
N11075 X40.871 Z-13.357
N11080 X40.922 Z-13.37
N11085 X40.975 Z-13.375
N11090 X41.289
N11095 X41.314 Y-38.558
N11100 X41.338 Y-38.553 Z-13.376
N11105 X41.362 Y-38.545 Z-13.378
N11110 X41.384 Y-38.533 Z-13.38
N11115 X41.404 Y-38.518 Z-13.382
N11120 X41.422 Y-38.5 Z-13.386
N11125 X41.437 Y-38.481 Z-13.389
N11130 X41.449 Y-38.459 Z-13.393
N11135 X41.457 Y-38.436 Z-13.397
N11140 X41.463 Y-38.412 Z-13.402
N11145 X41.465 Y-38.387 Z-13.406
N11150 X41.463 Y-38.363 Z-13.411
N11155 X41.457 Y-38.338 Z-13.415
N11160 X41.449 Y-38.315 Z-13.419
N11165 X41.437 Y-38.294 Z-13.423
N11170 X41.422 Y-38.274 Z-13.427
N11175 X41.404 Y-38.256 Z-13.43
N11180 X41.384 Y-38.242 Z-13.432
N11185 X41.362 Y-38.23 Z-13.434
N11190 X41.338 Y-38.221 Z-13.436
N11195 X41.314 Y-38.216 Z-13.437
N11200 X41.289 Y-38.214
N11205 X41.236 Z-13.433
N11210 X41.185 Z-13.419
N11215 X41.138 Z-13.397
N11220 X38.639 Z-11.943
N11225 X38.292 Z-11.764
N11230 X37.935 Z-11.605
N11235 X37.445 Z-11.424
N11240 X21.185 Z-5.754
N11245 X20.888 Z-5.67
N11250 X3.864 Z-1.919
N11255 X3.219 Z-1.8
N11260 X0.366 Z-1.328
N11265 X0.106 Z-1.303
N11270 X-0.159 Z-1.306
N11275 X-0.44 Z-1.339
N11280 X-3.471 Z-1.843
N11285 X-4.05 Z-1.96
N11290 X-20.969 Z-5.689
N11295 X-21.197 Z-5.759
N11300 X-37.68 Z-11.506
N11305 X-38.024 Z-11.642
N11310 X-38.455 Z-11.845
N11315 X-38.871 Z-12.075
N11320 X-41.132 Z-13.393
N11325 X-41.18 Z-13.416
N11330 X-41.231 Z-13.43
N11335 X-41.284 Z-13.434
N11340 X-41.596
N11345 X-41.621 Y-38.212 Z-13.435
N11350 X-41.646 Y-38.207
N11355 X-41.669 Y-38.199 Z-13.437
N11360 X-41.691 Y-38.187 Z-13.439
N11365 X-41.712 Y-38.172 Z-13.442
N11370 X-41.729 Y-38.154 Z-13.445
N11375 X-41.744 Y-38.135 Z-13.448
N11380 X-41.756 Y-38.113 Z-13.452
N11385 X-41.765 Y-38.09 Z-13.456
N11390 X-41.77 Y-38.066 Z-13.461
N11395 X-41.772 Y-38.041 Z-13.465
N11400 X-41.77 Y-38.017 Z-13.47
N11405 X-41.765 Y-37.992 Z-13.474
N11410 X-41.756 Y-37.969 Z-13.478
N11415 X-41.744 Y-37.948 Z-13.482
N11420 X-41.729 Y-37.928 Z-13.485
N11425 X-41.712 Y-37.91 Z-13.488
N11430 X-41.691 Y-37.896 Z-13.491
N11435 X-41.669 Y-37.884 Z-13.493
N11440 X-41.646 Y-37.875 Z-13.495
N11445 X-41.621 Y-37.87 Z-13.496
N11450 X-41.596 Y-37.868
N11455 X-41.544 Z-13.491
N11460 X-41.493 Z-13.478
N11465 X-41.445 Z-13.455
N11470 X-38.645 Z-11.823
N11475 X-38.127 Z-11.532
N11480 X-37.697 Z-11.328
N11485 X-37.366 Z-11.196
N11490 X-21.336 Z-5.605
N11495 X-21.05 Z-5.522
N11500 X-3.362 Z-1.624
N11505 X-2.667 Z-1.482
N11510 X-0.443 Z-1.112
N11515 X-0.149 Z-1.077
N11520 X0.113 Z-1.075
N11525 X0.373 Z-1.101
N11530 X2.448 Z-1.444
N11535 X3.093 Z-1.565
N11540 X21.011 Z-5.513
N11545 X21.313 Z-5.597
N11550 X37.261 Z-11.159
N11555 X37.687 Z-11.323
N11560 X38.041 Z-11.488
N11565 X38.386 Z-11.672
N11570 X41.452 Z-13.459
N11575 X41.5 Z-13.481
N11580 X41.551 Z-13.495
N11585 X41.603 Z-13.5
N11590 X41.918
N11595 X41.943 Y-37.866
N11600 X41.968 Y-37.861 Z-13.501
N11605 X41.991 Y-37.853 Z-13.503
N11610 X42.014 Y-37.841 Z-13.505
N11615 X42.034 Y-37.826 Z-13.508
N11620 X42.051 Y-37.808 Z-13.511
N11625 X42.066 Y-37.789 Z-13.515
N11630 X42.079 Y-37.767 Z-13.519
N11635 X42.087 Y-37.744 Z-13.524
N11640 X42.093 Y-37.72 Z-13.528
N11645 X42.094 Y-37.695 Z-13.533
N11650 X42.093 Y-37.671 Z-13.538
N11655 X42.087 Y-37.646 Z-13.543
N11660 X42.079 Y-37.623 Z-13.547
N11665 X42.066 Y-37.602 Z-13.551
N11670 X42.051 Y-37.582 Z-13.555
N11675 X42.034 Y-37.564 Z-13.558
N11680 X42.014 Y-37.55 Z-13.561
N11685 X41.991 Y-37.538 Z-13.563
N11690 X41.968 Y-37.529 Z-13.565
N11695 X41.943 Y-37.524 Z-13.566
N11700 X41.918 Y-37.522
N11705 X41.865 Z-13.562
N11710 X41.814 Z-13.548
N11715 X41.766 Z-13.525
N11720 X41.091 Z-13.128
N11725 X38.025 Z-11.342
N11730 X37.68 Z-11.158
N11735 X37.325 Z-10.994
N11740 X36.899 Z-10.831
N11745 X21.447 Z-5.442
N11750 X21.145 Z-5.358
N11755 X2.2 Z-1.185
N11760 X1.554 Z-1.068
N11765 X0.387 Z-0.875
N11770 X0.127 Z-0.848
N11775 X-0.138 Z-0.849
N11780 X-0.419 Z-0.88
N11785 X-1.894 Z-1.126
N11790 X-2.473 Z-1.244
N11795 X-21.188 Z-5.368
N11800 X-21.474 Z-5.452
N11805 X-37.008 Z-10.869
N11810 X-37.339 Z-11.
N11815 X-37.769 Z-11.203
N11820 X-38.185 Z-11.435
N11825 X-41.747 Z-13.513
N11830 X-41.758 Z-13.52
N11835 X-41.809 Z-13.546
N11840 X-41.863 Z-13.562
N11845 X-41.92 Z-13.567
N11850 X-42.233
N11855 X-42.258 Y-37.52 Z-13.568
N11860 X-42.283 Y-37.515 Z-13.569
N11865 X-42.307 Y-37.507 Z-13.571
N11870 X-42.329 Y-37.495 Z-13.573
N11875 X-42.349 Y-37.48 Z-13.577
N11880 X-42.367 Y-37.462 Z-13.58
N11885 X-42.382 Y-37.443 Z-13.585
N11890 X-42.394 Y-37.421 Z-13.59
N11895 X-42.403 Y-37.398 Z-13.595
N11900 X-42.409 Y-37.374 Z-13.6
N11905 X-42.41 Y-37.349 Z-13.606
N11910 X-42.409 Y-37.325 Z-13.611
N11915 X-42.403 Y-37.3 Z-13.617
N11920 X-42.394 Y-37.277 Z-13.622
N11925 X-42.382 Y-37.256 Z-13.627
N11930 X-42.367 Y-37.236 Z-13.631
N11935 X-42.349 Y-37.218 Z-13.635
N11940 X-42.329 Y-37.204 Z-13.638
N11945 X-42.307 Y-37.192 Z-13.641
N11950 X-42.283 Y-37.183 Z-13.643
N11955 X-42.258 Y-37.178 Z-13.644
N11960 X-42.233 Y-37.176
N11965 X-42.176 Z-13.639
N11970 X-42.122 Z-13.623
N11975 X-42.071 Z-13.597
N11980 X-41.799 Z-13.422
N11985 X-38.101 Z-11.265
N11990 X-37.483 Z-10.912
N11995 X-37.055 Z-10.705
N12000 X-36.724 Z-10.57
N12005 X-21.601 Z-5.294
N12010 X-21.288 Z-5.206
N12015 X-1.615 Z-0.871
N12020 X-0.914 Z-0.734
N12025 X-0.251 Z-0.63
N12030 X0.011 Z-0.617
N12035 X0.272 Z-0.632
N12040 X0.791 Z-0.714
N12045 X1.436 Z-0.833
N12050 X21.28 Z-5.204
N12055 X21.582 Z-5.288
N12060 X36.538 Z-10.503
N12065 X36.964 Z-10.666
N12070 X37.32 Z-10.829
N12075 X37.665 Z-11.011
N12080 X41.639 Z-13.327
N12085 X41.86 Z-13.462
N12090 X42.08 Z-13.605
N12095 X42.131 Z-13.632
N12100 X42.187 Z-13.648
N12105 X42.244 Z-13.653
N12110 X42.558
N12115 X42.583 Y-37.174 Z-13.654
N12120 X42.608 Y-37.169 Z-13.655
N12125 X42.632 Y-37.161 Z-13.657
N12130 X42.654 Y-37.149 Z-13.66
N12135 X42.674 Y-37.134 Z-13.663
N12140 X42.692 Y-37.116 Z-13.667
N12145 X42.707 Y-37.097 Z-13.672
N12150 X42.719 Y-37.075 Z-13.677
N12155 X42.728 Y-37.052 Z-13.682
N12160 X42.734 Y-37.028 Z-13.688
N12165 X42.736 Y-37.003 Z-13.693
N12170 X42.734 Y-36.979 Z-13.699
N12175 X42.728 Y-36.954 Z-13.705
N12180 X42.719 Y-36.931 Z-13.71
N12185 X42.707 Y-36.91 Z-13.715
N12190 X42.692 Y-36.89 Z-13.72
N12195 X42.674 Y-36.872 Z-13.724
N12200 X42.654 Y-36.858 Z-13.727
N12205 X42.632 Y-36.846 Z-13.73
N12210 X42.608 Y-36.837 Z-13.732
N12215 X42.583 Y-36.832 Z-13.733
N12220 X42.558 Y-36.83
N12225 X42.501 Z-13.728
N12230 X42.446 Z-13.712
N12235 X42.395 Z-13.685
N12240 X41.954 Z-13.398
N12245 X41.733 Z-13.261
N12250 X37.304 Z-10.681
N12255 X36.959 Z-10.499
N12260 X36.603 Z-10.337
N12265 X36.238 Z-10.197
N12270 X21.716 Z-5.133
N12275 X21.419 Z-5.05
N12280 X0.672 Z-0.48
N12285 X0.415 Z-0.43
N12290 X0.155 Z-0.401
N12295 X-0.109 Z-0.399
N12300 X-0.361 Z-0.421
N12305 X-0.826 Z-0.513
N12310 X-21.454 Z-5.058
N12315 X-21.74 Z-5.141
N12320 X-36.392 Z-10.253
N12325 X-36.723 Z-10.389
N12330 X-37.15 Z-10.597
N12335 X-37.768 Z-10.95
N12340 X-41.8 Z-13.3
N12345 X-42.384 Z-13.674
N12350 X-42.435 Z-13.7
N12355 X-42.489 Z-13.716
N12360 X-42.546 Z-13.721
N12365 X-42.859
N12370 X-42.884 Y-36.828
N12375 X-42.909 Y-36.823 Z-13.722
N12380 X-42.933 Y-36.815 Z-13.724
N12385 X-42.955 Y-36.803 Z-13.727
N12390 X-42.975 Y-36.788 Z-13.73
N12395 X-42.993 Y-36.77 Z-13.734
N12400 X-43.008 Y-36.751 Z-13.739
N12405 X-43.02 Y-36.729 Z-13.743
N12410 X-43.029 Y-36.706 Z-13.749
N12415 X-43.034 Y-36.682 Z-13.754
N12420 X-43.036 Y-36.657 Z-13.759
N12425 X-43.034 Y-36.633 Z-13.765
N12430 X-43.029 Y-36.608 Z-13.77
N12435 X-43.02 Y-36.585 Z-13.775
N12440 X-43.008 Y-36.564 Z-13.78
N12445 X-42.993 Y-36.544 Z-13.785
N12450 X-42.975 Y-36.526 Z-13.789
N12455 X-42.955 Y-36.512 Z-13.792
N12460 X-42.933 Y-36.5 Z-13.795
N12465 X-42.909 Y-36.491 Z-13.796
N12470 X-42.884 Y-36.486 Z-13.798
N12475 X-42.859 Y-36.484
N12480 X-42.802 Z-13.793
N12485 X-42.748 Z-13.777
N12490 X-42.697 Z-13.751
N12495 X-41.942 Z-13.267
N12500 X-41.715 Z-13.13
N12505 X-37.399 Z-10.615
N12510 X-36.781 Z-10.262
N12515 X-36.352 Z-10.056
N12520 X-36.021 Z-9.921
N12525 X-21.922 Z-5.003
N12530 X-21.617 Z-4.911
N12535 X-0.95 Z-0.358
N12540 X-0.368 Z-0.251
N12545 X-0.103 Z-0.229
N12550 X0.16 Z-0.231
N12555 X0.42 Z-0.259
N12560 X0.936 Z-0.355
N12565 X21.554 Z-4.896
N12570 X21.851 Z-4.979
N12575 X35.877 Z-9.869
N12580 X36.242 Z-10.008
N12585 X36.598 Z-10.17
N12590 X36.944 Z-10.35
N12595 X41.826 Z-13.195
N12600 X42.708 Z-13.765
N12605 X42.759 Z-13.791
N12610 X42.814 Z-13.807
N12615 X42.871 Z-13.813
N12620 X43.185
N12625 X43.21 Y-36.482
N12630 X43.235 Y-36.477 Z-13.814
N12635 X43.259 Y-36.469 Z-13.816
N12640 X43.281 Y-36.457 Z-13.819
N12645 X43.301 Y-36.442 Z-13.822
N12650 X43.319 Y-36.424 Z-13.826
N12655 X43.334 Y-36.405 Z-13.831
N12660 X43.346 Y-36.383 Z-13.836
N12665 X43.355 Y-36.36 Z-13.841
N12670 X43.361 Y-36.336 Z-13.847
N12675 X43.362 Y-36.311 Z-13.852
N12680 X43.361 Y-36.287 Z-13.858
N12685 X43.355 Y-36.262 Z-13.864
N12690 X43.346 Y-36.239 Z-13.869
N12695 X43.334 Y-36.218 Z-13.874
N12700 X43.319 Y-36.198 Z-13.879
N12705 X43.301 Y-36.18 Z-13.883
N12710 X43.281 Y-36.166 Z-13.886
N12715 X43.259 Y-36.154 Z-13.889
N12720 X43.235 Y-36.145 Z-13.891
N12725 X43.21 Y-36.14 Z-13.892
N12730 X43.185 Y-36.138
N12735 X43.128 Z-13.887
N12740 X43.073 Z-13.871
N12745 X43.022 Z-13.844
N12750 X41.919 Z-13.129
N12755 X36.584 Z-10.021
N12760 X36.239 Z-9.841
N12765 X35.882 Z-9.68
N12770 X35.517 Z-9.542
N12775 X21.988 Z-4.825
N12780 X21.69 Z-4.742
N12785 X1.842 Z-0.369
N12790 X1.197 Z-0.249
N12795 X0.548 Z-0.153
N12800 X0.156 Z-0.112
N12805 X-0.109 Z-0.11
N12810 X-0.361 Z-0.131
N12815 X-1.063 Z-0.227
N12820 X-1.761 Z-0.353
N12825 X-21.722 Z-4.749
N12830 X-22.021 Z-4.836
N12835 X-35.705 Z-9.61
N12840 X-36.035 Z-9.746
N12845 X-36.462 Z-9.955
N12850 X-36.978 Z-10.248
N12855 X-41.748 Z-13.028
N12860 X-41.975 Z-13.164
N12865 X-43.01 Z-13.827
N12870 X-43.061 Z-13.853
N12875 X-43.115 Z-13.869
N12880 X-43.172 Z-13.875
N12885 X-43.485
N12890 X-43.51 Y-36.136
N12895 X-43.535 Y-36.131 Z-13.876
N12900 X-43.558 Y-36.123 Z-13.878
N12905 X-43.581 Y-36.111 Z-13.881
N12910 X-43.601 Y-36.096 Z-13.884
N12915 X-43.619 Y-36.079 Z-13.888
N12920 X-43.634 Y-36.059 Z-13.892
N12925 X-43.646 Y-36.037 Z-13.897
N12930 X-43.655 Y-36.014 Z-13.902
N12935 X-43.66 Y-35.99 Z-13.908
N12940 X-43.662 Y-35.965 Z-13.913
N12945 X-43.66 Y-35.941 Z-13.919
N12950 X-43.655 Y-35.916 Z-13.924
N12955 X-43.646 Y-35.893 Z-13.929
N12960 X-43.634 Y-35.872 Z-13.934
N12965 X-43.619 Y-35.852 Z-13.938
N12970 X-43.601 Y-35.834 Z-13.942
N12975 X-43.581 Y-35.82 Z-13.946
N12980 X-43.558 Y-35.808 Z-13.948
N12985 X-43.535 Y-35.799 Z-13.95
N12990 X-43.51 Y-35.794 Z-13.951
N12995 X-43.485 Y-35.792 Z-13.952
N13000 X-43.428 Z-13.946
N13005 X-43.374 Z-13.93
N13010 X-43.323 Z-13.904
N13015 X-41.988 Z-13.049
N13020 X-36.458 Z-9.825
N13025 X-36.042 Z-9.593
N13030 X-35.612 Z-9.39
N13035 X-35.281 Z-9.259
N13040 X-22.15 Z-4.679
N13045 X-21.921 Z-4.61
N13050 X-2.602 Z-0.354
N13055 X-1.904 Z-0.228
N13060 X-1.202 Z-0.131
N13065 X-0.379 Z-0.053
N13070 X0.017 Z-0.034
N13075 X0.541 Z-0.066
N13080 X1.325 Z-0.146
N13085 X1.975 Z-0.239
N13090 X2.62 Z-0.358
N13095 X21.826 Z-4.588
N13100 X22.124 Z-4.67
N13105 X35.156 Z-9.215
N13110 X35.522 Z-9.352
N13115 X35.879 Z-9.512
N13120 X36.225 Z-9.691
N13125 X41.929 Z-13.013
N13130 X43.335 Z-13.924
N13135 X43.386 Z-13.95
N13140 X43.441 Z-13.966
N13145 X43.498 Z-13.972
N13150 X43.745
N13155 X43.77 Y-35.79
N13160 X43.794 Y-35.785
N13165 X43.817 Y-35.777 Z-13.973
N13170 X43.839 Y-35.765 Z-13.975
N13175 X43.859 Y-35.75 Z-13.976
N13180 X43.876 Y-35.733 Z-13.978
N13185 X43.891 Y-35.713 Z-13.98
N13190 X43.903 Y-35.691 Z-13.982
N13195 X43.912 Y-35.668 Z-13.985
N13200 X43.917 Y-35.644 Z-13.987
N13205 X43.919 Y-35.619 Z-13.99
N13210 X43.917 Y-35.595 Z-13.992
N13215 X43.912 Y-35.57 Z-13.995
N13220 X43.903 Y-35.547 Z-13.997
N13225 X43.891 Y-35.526 Z-14.
N13230 X43.876 Y-35.506 Z-14.002
N13235 X43.859 Y-35.488 Z-14.004
N13240 X43.839 Y-35.474 Z-14.005
N13245 X43.817 Y-35.462 Z-14.006
N13250 X43.794 Y-35.453 Z-14.007
N13255 X43.77 Y-35.448 Z-14.008
N13260 X43.745 Y-35.446
N13265 X43.688 Z-14.002
N13270 X43.633 Z-13.986
N13275 X43.582 Z-13.96
N13280 X41.983 Z-12.924
N13285 X35.91 Z-9.386
N13290 X35.563 Z-9.204
N13295 X35.208 Z-9.043
N13300 X34.842 Z-8.904
N13305 X22.183 Z-4.492
N13310 X21.932 Z-4.427
N13315 X3.447 Z-0.356
N13320 X2.802 Z-0.238
N13325 X2.152 Z-0.145
N13330 X1.368 Z-0.065
N13335 X0.581 Z-0.017
N13340 X-0.085 Z-0.003
N13345 X-0.835 Z-0.029
N13350 X-1.66 Z-0.091
N13355 X-2.364 Z-0.173
N13360 X-3.064 Z-0.282
N13365 X-3.759 Z-0.423
N13370 X-22.012 Z-4.445
N13375 X-22.305 Z-4.532
N13380 X-34.939 Z-8.938
N13385 X-35.271 Z-9.07
N13390 X-35.701 Z-9.273
N13395 X-36.116 Z-9.505
N13400 X-41.874 Z-12.86
N13405 X-42.101 Z-12.997
N13410 X-43.604 Z-13.961
N13415 X-43.642 Z-13.985
N13420 X-43.693 Z-14.011
N13425 X-43.747 Z-14.027
N13430 X-43.804 Z-14.033
N13435 X-43.997
N13440 G17 G2 Y-35.1 I0. J0.173
N13445 G1 X-43.94 Z-14.027
N13450 X-43.886 Z-14.011
N13455 X-43.835 Z-13.985
N13460 X-42.114 Z-12.882
N13465 X-35.765 Z-9.179
N13470 X-35.349 Z-8.948
N13475 X-34.919 Z-8.745
N13480 X-34.574 Z-8.609
N13485 X-22.447 Z-4.38
N13490 X-22.206 Z-4.306
N13495 X-4.646 Z-0.434
N13500 X-3.951 Z-0.292
N13505 X-3.251 Z-0.18
N13510 X-2.548 Z-0.096
N13515 X-1.724 Z-0.032
N13520 X-0.981 Z-0.004
N13525 X0.563 Z0.
N13530 X1.389 Z-0.016
N13535 X2.176 Z-0.063
N13540 X2.96 Z-0.142
N13545 X3.61 Z-0.233
N13550 X4.256 Z-0.35
N13555 X22.099 Z-4.28
N13560 X22.35 Z-4.347
N13565 X34.513 Z-8.587
N13570 X34.878 Z-8.727
N13575 X35.234 Z-8.89
N13580 X35.579 Z-9.072
N13585 X42.05 Z-12.843
N13590 X43.814 Z-13.986
N13595 X43.855 Z-14.013
N13600 X43.906 Z-14.039
N13605 X43.961 Z-14.056
N13610 X44.018 Z-14.061
N13615 X44.209
N13620 G3 Y-34.754 I0. J0.173
N13625 G1 X44.152 Z-14.056
N13630 X44.097 Z-14.04
N13635 X44.046 Z-14.013
N13640 X42.282 Z-12.867
N13645 X42.062 Z-12.729
N13650 X35.248 Z-8.758
N13655 X34.902 Z-8.575
N13660 X34.548 Z-8.412
N13665 X34.121 Z-8.249
N13670 X22.517 Z-4.203
N13675 X22.234 Z-4.126
N13680 X5.195 Z-0.372
N13685 X4.55 Z-0.25
N13690 X3.9 Z-0.155
N13695 X3.117 Z-0.072
N13700 X2.33 Z-0.021
N13705 X1.531 Z0.
N13710 X-1.817 Z-0.004
N13715 X-2.559 Z-0.032
N13720 X-3.383 Z-0.096
N13725 X-4.087 Z-0.18
N13730 X-4.787 Z-0.292
N13735 X-5.481 Z-0.434
N13740 X-22.271 Z-4.134
N13745 X-22.57 Z-4.221
N13750 X-34.269 Z-8.301
N13755 X-34.599 Z-8.434
N13760 X-35.029 Z-8.639
N13765 X-35.342 Z-8.812
N13770 X-42.158 Z-12.787
N13775 X-44.065 Z-14.009
N13780 X-44.103 Z-14.033
N13785 X-44.153 Z-14.059
N13790 X-44.208 Z-14.075
N13795 X-44.265 Z-14.08
N13800 X-44.458
N13805 G2 Y-34.408 I0. J0.173
N13810 G1 X-44.401 Z-14.075
N13815 X-44.346 Z-14.059
N13820 X-44.296 Z-14.033
N13825 X-42.218 Z-12.702
N13830 X-35.328 Z-8.684
N13835 X-34.71 Z-8.331
N13840 X-34.281 Z-8.124
N13845 X-33.938 Z-7.985
N13850 X-22.805 Z-4.101
N13855 X-22.465 Z-3.994
N13860 X-6.317 Z-0.434
N13865 X-5.622 Z-0.292
N13870 X-4.922 Z-0.18
N13875 X-4.218 Z-0.096
N13880 X-3.394 Z-0.032
N13885 X-2.652 Z-0.004
N13890 X2.343 Z0.
N13895 X3.142 Z-0.02
N13900 X3.929 Z-0.07
N13905 X4.712 Z-0.152
N13910 X5.362 Z-0.247
N13915 X6.007 Z-0.367
N13920 X22.389 Z-3.976
N13925 X22.686 Z-4.06
N13930 X33.794 Z-7.933
N13935 X34.219 Z-8.097
N13940 X34.574 Z-8.262
N13945 X34.919 Z-8.445
N13950 X42.074 Z-12.615
N13955 X42.294 Z-12.751
N13960 X44.278 Z-14.04
N13965 X44.319 Z-14.066
N13970 X44.37 Z-14.093
N13975 X44.425 Z-14.109
N13980 X44.482 Z-14.115
N13985 X44.674
N13990 G3 Y-34.062 I0. J0.173
N13995 G1 X44.616 Z-14.109
N14000 X44.561 Z-14.093
N14005 X44.51 Z-14.066
N14010 X42.306 Z-12.634
N14015 X41.858 Z-12.368
N14020 X34.59 Z-8.133
N14025 X34.245 Z-7.948
N14030 X33.892 Z-7.783
N14035 X33.466 Z-7.617
N14040 X22.731 Z-3.876
N14045 X22.479 Z-3.812
N14050 X6.818 Z-0.362
N14055 X6.173 Z-0.243
N14060 X5.523 Z-0.149
N14065 X4.739 Z-0.068
N14070 X3.953 Z-0.018
N14075 X3.153 Z0.
N14080 X-3.353 Z-0.002
N14085 X-4.111 Z-0.026
N14090 X-4.936 Z-0.085
N14095 X-5.64 Z-0.164
N14100 X-6.341 Z-0.271
N14105 X-7.036 Z-0.409
N14110 X-22.53 Z-3.823
N14115 X-22.837 Z-3.911
N14120 X-33.51 Z-7.633
N14125 X-33.855 Z-7.767
N14130 X-34.286 Z-7.968
N14135 X-34.703 Z-8.198
N14140 X-42.175 Z-12.553
N14145 X-43.044 Z-13.107
N14150 X-44.526 Z-14.057
N14155 X-44.563 Z-14.081
N14160 X-44.614 Z-14.107
N14165 X-44.669 Z-14.123
N14170 X-44.725 Z-14.128
N14175 X-44.918
N14180 G2 Y-33.716 I0. J0.173
N14185 G1 X-44.861 Z-14.123
N14190 X-44.807 Z-14.107
N14195 X-44.756 Z-14.081
N14200 X-42.23 Z-12.465
N14205 X-34.304 Z-7.845
N14210 X-33.99 Z-7.672
N14215 X-33.561 Z-7.467
N14220 X-33.23 Z-7.334
N14225 X-23.021 Z-3.773
N14230 X-22.723 Z-3.682
N14235 X-7.987 Z-0.434
N14240 X-7.293 Z-0.292
N14245 X-6.593 Z-0.18
N14250 X-5.889 Z-0.096
N14255 X-5.065 Z-0.032
N14260 X-4.322 Z-0.004
N14265 X3.963 Z0.
N14270 X4.762 Z-0.017
N14275 X5.549 Z-0.066
N14280 X6.333 Z-0.146
N14285 X6.983 Z-0.238
N14290 X7.629 Z-0.357
N14295 X22.646 Z-3.664
N14300 X22.897 Z-3.731
N14305 X32.951 Z-7.236
N14310 X33.441 Z-7.417
N14315 X33.798 Z-7.576
N14320 X34.145 Z-7.755
N14325 X42.262 Z-12.483
N14330 X44.742 Z-14.093
N14335 G18 G2 X45.205 Z-13.841 I0.163 K0.252
N14340 G1 Z-13.836
N14345 X45.209 Y-33.71 Z-13.783
N14350 X45.22 Y-33.693 Z-13.734
N14355 X45.237 Y-33.666 Z-13.692
N14360 X45.259 Y-33.63 Z-13.659
N14365 X45.285 Y-33.588 Z-13.639
N14370 X45.313 Y-33.543 Z-13.632
N14375 X45.341 Y-33.499 Z-13.639
N14380 X45.367 Y-33.457 Z-13.659
N14385 X45.389 Y-33.421 Z-13.692
N14390 X45.406 Y-33.393 Z-13.734
N14395 X45.417 Y-33.376 Z-13.783
N14400 X45.42 Y-33.37 Z-13.836
N14405 G3 X44.974 Z-14.098 I-0.3 K0.
N14410 G1 X44.743 Z-13.969
N14415 X42.34 Z-12.409
N14420 X33.826 Z-7.448
N14425 X33.48 Z-7.267
N14430 X33.124 Z-7.106
N14435 X32.758 Z-6.967
N14440 X23.077 Z-3.591
N14445 X22.78 Z-3.51
N14450 X8.452 Z-0.354
N14455 X7.806 Z-0.236
N14460 X7.156 Z-0.144
N14465 X6.372 Z-0.064
N14470 X5.585 Z-0.017
N14475 X4.755 Z0.
N14480 X-5.158 Z-0.004
N14485 X-5.9 Z-0.032
N14490 X-6.724 Z-0.096
N14495 X-7.428 Z-0.18
N14500 X-8.128 Z-0.292
N14505 X-8.822 Z-0.434
N14510 X-22.853 Z-3.527
N14515 X-23.145 Z-3.615
N14520 X-32.912 Z-7.022
N14525 X-33.243 Z-7.157
N14530 X-33.671 Z-7.364
N14535 X-34.29 Z-7.716
N14540 X-42.239 Z-12.349
N14545 X-42.467 Z-12.49
N14550 X-44.879 Z-14.035
N14555 X-44.987 Z-14.095
N14560 X-45.032 Z-14.115
N14565 X-45.081 Z-14.127
N14570 X-45.131 Z-14.132
N14575 X-45.36
N14580 X-45.384 Y-33.369
N14585 X-45.408 Y-33.363
N14590 X-45.431 Y-33.355
N14595 X-45.453 Y-33.343 Z-14.131
N14600 X-45.473 Y-33.328
N14605 X-45.49 Y-33.311
N14610 X-45.505 Y-33.291
N14615 X-45.517 Y-33.269
N14620 X-45.526 Y-33.246
N14625 X-45.531 Y-33.222
N14630 X-45.533 Y-33.197
N14635 X-45.531 Y-33.173
N14640 X-45.526 Y-33.149
N14645 X-45.517 Y-33.125
N14650 X-45.505 Y-33.104
N14655 X-45.49 Y-33.084
N14660 X-45.473 Y-33.067
N14665 X-45.453 Y-33.052
N14670 X-45.431 Y-33.04
N14675 X-45.408 Y-33.031
N14680 X-45.384 Y-33.026
N14685 X-45.36 Y-33.024
N14690 X-45.31 Z-14.127
N14695 X-45.262 Z-14.114
N14700 X-45.217 Z-14.095
N14705 X-44.911 Z-13.929
N14710 X-42.499 Z-12.386
N14715 X-42.272 Z-12.248
N14720 X-33.663 Z-7.231
N14725 X-33.247 Z-7.001
N14730 X-32.815 Z-6.8
N14735 X-32.471 Z-6.665
N14740 X-23.267 Z-3.456
N14745 X-22.982 Z-3.371
N14750 X-9.542 Z-0.409
N14755 X-8.847 Z-0.271
N14760 X-8.146 Z-0.164
N14765 X-7.442 Z-0.085
N14770 X-6.617 Z-0.026
N14775 X-5.859 Z-0.002
N14780 X5.719 Z0.
N14785 X6.511 Z-0.021
N14790 X7.298 Z-0.072
N14795 X8.081 Z-0.155
N14800 X8.731 Z-0.251
N14805 X9.375 Z-0.373
N14810 X22.929 Z-3.359
N14815 X23.231 Z-3.443
N14820 X32.415 Z-6.646
N14825 X32.781 Z-6.785
N14830 X33.136 Z-6.946
N14835 X33.483 Z-7.127
N14840 X41.66 Z-11.891
N14845 X42.451 Z-12.356
N14850 X44.743 Z-13.845
N14855 X45.206 Z-14.098
N14860 X45.252 Z-14.118
N14865 X45.3 Z-14.13
N14870 X45.35 Z-14.135
N14875 X45.581
N14880 X45.606 Y-33.023
N14885 X45.63 Y-33.017
N14890 X45.653 Y-33.009
N14895 X45.675 Y-32.997
N14900 X45.695 Y-32.982 Z-14.134
N14905 X45.712 Y-32.965
N14910 X45.727 Y-32.945
N14915 X45.739 Y-32.923
N14920 X45.747 Y-32.9
N14925 X45.753 Y-32.876
N14930 X45.754 Y-32.851
N14935 X45.753 Y-32.827
N14940 X45.747 Y-32.803
N14945 X45.739 Y-32.779
N14950 X45.727 Y-32.758
N14955 X45.712 Y-32.738
N14960 X45.695 Y-32.721
N14965 X45.675 Y-32.706
N14970 X45.653 Y-32.694
N14975 X45.63 Y-32.685
N14980 X45.606 Y-32.68
N14985 X45.581 Y-32.678
N14990 X45.532 Z-14.13
N14995 X45.484 Z-14.118
N15000 X45.438 Z-14.098
N15005 X44.744 Z-13.721
N15010 X42.562 Z-12.304
N15015 X42.341 Z-12.168
N15020 X33.142 Z-6.808
N15025 X32.797 Z-6.627
N15030 X32.441 Z-6.465
N15035 X32.076 Z-6.326
N15040 X23.325 Z-3.275
N15045 X23.012 Z-3.193
N15050 X10.176 Z-0.365
N15055 X9.531 Z-0.245
N15060 X8.881 Z-0.151
N15065 X8.097 Z-0.069
N15070 X7.311 Z-0.019
N15075 X6.536 Z0.
N15080 X-6.828 Z-0.004
N15085 X-7.571 Z-0.032
N15090 X-8.395 Z-0.096
N15095 X-9.098 Z-0.18
N15100 X-9.798 Z-0.292
N15105 X-10.493 Z-0.434
N15110 X-23.111 Z-3.215
N15115 X-23.416 Z-3.306
N15120 X-32.192 Z-6.367
N15125 X-32.522 Z-6.5
N15130 X-32.952 Z-6.705
N15135 X-33.265 Z-6.878
N15140 X-42.327 Z-12.159
N15145 X-42.555 Z-12.299
N15150 X-44.745 Z-13.703
N15155 X-44.967 Z-13.835
N15160 X-45.447 Z-14.095
N15165 X-45.492 Z-14.114
N15170 X-45.54 Z-14.127
N15175 X-45.59 Z-14.131
N15180 X-45.82
N15185 G17 G2 Y-32.332 I0. J0.173
N15190 G1 X-45.771 Z-14.127
N15195 X-45.723 Z-14.114
N15200 X-45.677 Z-14.095
N15205 X-45.207 Z-13.84
N15210 X-44.755 Z-13.585
N15215 X-42.564 Z-12.181
N15220 X-42.337 Z-12.044
N15225 X-33.251 Z-6.749
N15230 X-32.633 Z-6.397
N15235 X-32.204 Z-6.19
N15240 X-31.874 Z-6.055
N15245 X-23.539 Z-3.147
N15250 X-23.24 Z-3.059
N15255 X-11.328 Z-0.434
N15260 X-10.634 Z-0.292
N15265 X-9.934 Z-0.18
N15270 X-9.23 Z-0.096
N15275 X-8.406 Z-0.032
N15280 X-7.664 Z-0.004
N15285 X7.441 Z-0.001
N15290 X8.108 Z-0.018
N15295 X8.894 Z-0.066
N15300 X9.678 Z-0.146
N15305 X10.328 Z-0.239
N15310 X10.973 Z-0.358
N15315 X23.169 Z-3.043
N15320 X23.42 Z-3.108
N15325 X31.735 Z-6.005
N15330 X32.101 Z-6.145
N15335 X32.456 Z-6.307
N15340 X32.802 Z-6.489
N15345 X42.115 Z-11.915
N15350 X42.562 Z-12.18
N15355 X44.744 Z-13.598
N15360 X45.67 Z-14.098
N15365 X45.716 Z-14.118
N15370 X45.764 Z-14.13
N15375 X45.813 Z-14.134
N15380 X46.045
N15385 G3 Y-31.986 I0. J0.173
N15390 G1 X45.996 Z-14.13
N15395 X45.948 Z-14.118
N15400 X45.903 Z-14.098
N15405 X44.745 Z-13.474
N15410 X42.563 Z-12.057
N15415 X32.459 Z-6.168
N15420 X32.114 Z-5.987
N15425 X31.758 Z-5.824
N15430 X31.393 Z-5.685
N15435 X23.574 Z-2.959
N15440 X23.323 Z-2.893
N15445 X11.771 Z-0.35
N15450 X11.125 Z-0.233
N15455 X10.475 Z-0.141
N15460 X9.691 Z-0.063
N15465 X8.904 Z-0.016
N15470 X8.096 Z0.
N15475 X-8.365 Z-0.002
N15480 X-9.123 Z-0.026
N15485 X-9.948 Z-0.085
N15490 X-10.652 Z-0.164
N15495 X-11.353 Z-0.271
N15500 X-12.048 Z-0.409
N15505 X-23.434 Z-2.919
N15510 X-23.663 Z-2.989
N15515 X-31.457 Z-5.707
N15520 X-31.801 Z-5.843
N15525 X-32.232 Z-6.046
N15530 X-32.648 Z-6.277
N15535 X-42.391 Z-11.955
N15540 X-42.619 Z-12.092
N15545 X-44.809 Z-13.496
N15550 X-45.908 Z-14.095
N15555 X-45.953 Z-14.115
N15560 X-46.002 Z-14.127
N15565 X-46.051 Z-14.131
N15570 X-46.282
N15575 G2 Y-31.64 I0. J0.173
N15580 G1 X-46.232 Z-14.127
N15585 X-46.184 Z-14.115
N15590 X-46.138 Z-14.095
N15595 X-44.775 Z-13.351
N15600 X-42.63 Z-11.976
N15605 X-32.305 Z-5.956
N15610 X-31.889 Z-5.725
N15615 X-31.459 Z-5.522
N15620 X-31.127 Z-5.391
N15625 X-23.799 Z-2.835
N15630 X-23.499 Z-2.748
N15635 X-12.999 Z-0.434
N15640 X-12.304 Z-0.292
N15645 X-11.604 Z-0.18
N15650 X-10.901 Z-0.096
N15655 X-10.076 Z-0.032
N15660 X-9.334 Z-0.004
N15665 X9.03 Z0.
N15670 X9.829 Z-0.02
N15675 X10.616 Z-0.07
N15680 X11.4 Z-0.153
N15685 X12.049 Z-0.247
N15690 X12.694 Z-0.368
N15695 X23.413 Z-2.729
N15700 X23.728 Z-2.811
N15705 X31.05 Z-5.363
N15710 X31.415 Z-5.503
N15715 X31.77 Z-5.665
N15720 X32.116 Z-5.848
N15725 X42.563 Z-11.935
N15730 X44.745 Z-13.35
N15735 X46.135 Z-14.098
N15740 X46.18 Z-14.118
N15745 X46.228 Z-14.13
N15750 X46.277 Z-14.134
N15755 X46.509
N15760 G3 Y-31.294 I0. J0.173
N15765 G1 X46.46 Z-14.13
N15770 X46.412 Z-14.118
N15775 X46.367 Z-14.098
N15780 X44.746 Z-13.226
N15785 X42.773 Z-11.945
N15790 X42.553 Z-11.808
N15795 X31.764 Z-5.522
N15800 X31.419 Z-5.34
N15805 X31.062 Z-5.178
N15810 X30.698 Z-5.039
N15815 X23.871 Z-2.659
N15820 X23.589 Z-2.584
N15825 X13.481 Z-0.358
N15830 X12.835 Z-0.239
N15835 X12.186 Z-0.146
N15840 X11.402 Z-0.066
N15845 X10.615 Z-0.018
N15850 X9.815 Z0.
N15855 X-10.169 Z-0.004
N15860 X-10.912 Z-0.032
N15865 X-11.736 Z-0.096
N15870 X-12.44 Z-0.18
N15875 X-13.14 Z-0.292
N15880 X-13.834 Z-0.434
N15885 X-23.692 Z-2.608
N15890 X-23.934 Z-2.68
N15895 X-30.835 Z-5.088
N15900 X-31.166 Z-5.223
N15905 X-31.595 Z-5.43
N15910 X-32.213 Z-5.782
N15915 X-42.686 Z-11.888
N15920 X-44.831 Z-13.263
N15925 X-46.368 Z-14.095
N15930 X-46.414 Z-14.114
N15935 X-46.462 Z-14.127
N15940 X-46.511 Z-14.131
N15945 X-46.741
N15950 G2 Y-30.948 I0. J0.173
N15955 G1 X-46.692 Z-14.127
N15960 X-46.644 Z-14.114
N15965 X-46.598 Z-14.095
N15970 X-44.886 Z-13.168
N15975 X-42.741 Z-11.8
N15980 X-31.609 Z-5.31
N15985 X-31.193 Z-5.079
N15990 X-30.763 Z-4.876
N15995 X-30.418 Z-4.74
N16000 X-24.057 Z-2.521
N16005 X-23.757 Z-2.437
N16010 X-14.67 Z-0.434
N16015 X-13.975 Z-0.292
N16020 X-13.275 Z-0.18
N16025 X-12.571 Z-0.096
N16030 X-11.747 Z-0.032
N16035 X-11.005 Z-0.004
N16040 X10.602 Z0.
N16045 X11.413 Z-0.016
N16050 X12.2 Z-0.063
N16055 X12.984 Z-0.142
N16060 X13.634 Z-0.233
N16065 X14.28 Z-0.351
N16070 X23.746 Z-2.434
N16075 X24.028 Z-2.512
N16080 X30.357 Z-4.718
N16085 X30.723 Z-4.859
N16090 X31.078 Z-5.021
N16095 X31.424 Z-5.203
N16100 X42.326 Z-11.555
N16105 X42.774 Z-11.821
N16110 X44.747 Z-13.101
N16115 X46.599 Z-14.098
N16120 X46.644 Z-14.117
N16125 X46.692 Z-14.13
N16130 X46.741 Z-14.134
N16135 X46.973
N16140 G3 Y-30.602 I0. J0.173
N16145 G1 X46.924 Z-14.13
N16150 X46.876 Z-14.117
N16155 X46.831 Z-14.098
N16160 X44.747 Z-12.977
N16165 X42.719 Z-11.664
N16170 X31.081 Z-4.882
N16175 X30.736 Z-4.7
N16180 X30.38 Z-4.538
N16185 X30.016 Z-4.398
N16190 X24.182 Z-2.364
N16195 X23.884 Z-2.281
N16200 X15.205 Z-0.369
N16205 X14.56 Z-0.248
N16210 X13.91 Z-0.153
N16215 X13.126 Z-0.07
N16220 X12.34 Z-0.02
N16225 X11.557 Z0.
N16230 X-11.84 Z-0.004
N16235 X-12.582 Z-0.032
N16240 X-13.406 Z-0.096
N16245 X-14.11 Z-0.18
N16250 X-14.81 Z-0.292
N16255 X-15.505 Z-0.434
N16260 X-23.951 Z-2.296
N16265 X-24.236 Z-2.382
N16270 X-30.088 Z-4.423
N16275 X-30.419 Z-4.554
N16280 X-30.85 Z-4.758
N16285 X-31.266 Z-4.989
N16290 X-42.701 Z-11.653
N16295 X-44.875 Z-13.038
N16300 X-46.829 Z-14.095
N16305 X-46.874 Z-14.114
N16310 X-46.922 Z-14.127
N16315 X-46.971 Z-14.131
N16320 X-47.202
N16325 G2 Y-30.256 I0. J0.173
N16330 G1 X-47.152 Z-14.127
N16335 X-47.104 Z-14.114
N16340 X-47.059 Z-14.095
N16345 X-45.163 Z-13.069
N16350 X-44.71 Z-12.814
N16355 X-42.847 Z-11.62
N16360 X-31.174 Z-4.815
N16365 X-30.556 Z-4.463
N16370 X-30.127 Z-4.256
N16375 X-29.797 Z-4.121
N16380 X-24.385 Z-2.233
N16385 X-24.08 Z-2.14
N16390 X-16.34 Z-0.434
N16395 X-15.645 Z-0.292
N16400 X-14.945 Z-0.18
N16405 X-14.242 Z-0.096
N16410 X-13.418 Z-0.032
N16415 X-12.675 Z-0.004
N16420 X12.372 Z0.
N16425 X13.136 Z-0.018
N16430 X13.923 Z-0.067
N16435 X14.706 Z-0.148
N16440 X15.356 Z-0.242
N16445 X16.001 Z-0.361
N16450 X24.039 Z-2.131
N16455 X24.336 Z-2.215
N16460 X29.672 Z-4.076
N16465 X30.037 Z-4.217
N16470 X30.392 Z-4.379
N16475 X30.738 Z-4.562
N16480 X42.775 Z-11.576
N16485 X44.748 Z-12.852
N16490 X47.063 Z-14.098
N16495 X47.108 Z-14.117
N16500 X47.156 Z-14.129
N16505 X47.205 Z-14.134
N16510 X47.437
N16515 G3 Y-29.91 I0. J0.173
N16520 G1 X47.388 Z-14.129
N16525 X47.34 Z-14.117
N16530 X47.295 Z-14.098
N16535 X44.748 Z-12.728
N16540 X42.996 Z-11.593
N16545 X42.776 Z-11.455
N16550 X30.396 Z-4.242
N16555 X30.052 Z-4.06
N16560 X29.696 Z-3.897
N16565 X29.27 Z-3.734
N16570 X24.429 Z-2.047
N16575 X24.115 Z-1.964
N16580 X16.798 Z-0.353
N16585 X16.153 Z-0.235
N16590 X15.503 Z-0.143
N16595 X14.719 Z-0.064
N16600 X13.932 Z-0.017
N16605 X13.108 Z0.
N16610 X-13.511 Z-0.004
N16615 X-14.253 Z-0.032
N16620 X-15.077 Z-0.096
N16625 X-15.781 Z-0.18
N16630 X-16.481 Z-0.292
N16635 X-17.175 Z-0.434
N16640 X-24.209 Z-1.985
N16645 X-24.508 Z-2.074
N16650 X-29.38 Z-3.773
N16655 X-29.724 Z-3.909
N16660 X-30.155 Z-4.112
N16665 X-30.571 Z-4.343
N16670 X-42.89 Z-11.524
N16675 X-44.765 Z-12.726
N16680 X-47.289 Z-14.095
N16685 X-47.335 Z-14.115
N16690 X-47.383 Z-14.127
N16695 X-47.432 Z-14.131
N16700 X-47.662
N16705 G2 Y-29.564 I0. J0.173
N16710 G1 X-47.613 Z-14.127
N16715 X-47.565 Z-14.114
N16720 X-47.52 Z-14.095
N16725 X-44.82 Z-12.634
N16730 X-43.27 Z-11.644
N16735 X-42.844 Z-11.375
N16740 X-30.148 Z-3.975
N16745 X-29.835 Z-3.803
N16750 X-29.405 Z-3.598
N16755 X-29.074 Z-3.465
N16760 X-24.631 Z-1.915
N16765 X-24.403 Z-1.845
N16770 X-18.011 Z-0.434
N16775 X-17.316 Z-0.292
N16780 X-16.616 Z-0.18
N16785 X-15.912 Z-0.096
N16790 X-15.088 Z-0.032
N16795 X-14.346 Z-0.004
N16800 X14.063 Z0.
N16805 X14.863 Z-0.021
N16810 X15.649 Z-0.072
N16815 X16.433 Z-0.155
N16820 X17.082 Z-0.251
N16825 X17.727 Z-0.373
N16830 X24.273 Z-1.814
N16835 X24.524 Z-1.88
N16840 X28.93 Z-3.414
N16845 X29.356 Z-3.577
N16850 X29.711 Z-3.74
N16855 X30.056 Z-3.923
N16860 X42.776 Z-11.335
N16865 X42.996 Z-11.469
N16870 X44.749 Z-12.603
N16875 X47.527 Z-14.098
N16880 X47.572 Z-14.117
N16885 X47.62 Z-14.129
N16890 X47.669 Z-14.134
N16895 X47.901
N16900 G3 Y-29.218 I0. J0.173
N16905 G1 X47.852 Z-14.129
N16910 X47.804 Z-14.117
N16915 X47.759 Z-14.098
N16920 X44.749 Z-12.479
N16925 X42.914 Z-11.295
N16930 X29.714 Z-3.603
N16935 X29.37 Z-3.42
N16940 X29.014 Z-3.256
N16945 X28.588 Z-3.093
N16950 X24.679 Z-1.731
N16955 X24.428 Z-1.664
N16960 X18.523 Z-0.364
N16965 X17.878 Z-0.244
N16970 X17.228 Z-0.15
N16975 X16.445 Z-0.069
N16980 X15.658 Z-0.019
N16985 X14.859 Z0.
N16990 X-15.181 Z-0.004
N16995 X-15.923 Z-0.032
N17000 X-16.748 Z-0.096
N17005 X-17.451 Z-0.18
N17010 X-18.151 Z-0.292
N17015 X-18.846 Z-0.434
N17020 X-24.468 Z-1.673
N17025 X-24.754 Z-1.756
N17030 X-28.745 Z-3.149
N17035 X-29.088 Z-3.288
N17040 X-29.517 Z-3.495
N17045 X-30.135 Z-3.847
N17050 X-42.855 Z-11.26
N17055 X-43.082 Z-11.4
N17060 X-44.83 Z-12.515
N17065 X-47.75 Z-14.095
N17070 X-47.795 Z-14.114
N17075 X-47.843 Z-14.127
N17080 X-47.893 Z-14.131
N17085 X-48.123
N17090 G2 Y-28.872 I0. J0.173
N17095 G1 X-48.073 Z-14.127
N17100 X-48.025 Z-14.114
N17105 X-47.98 Z-14.095
N17110 X-45.117 Z-12.546
N17115 X-44.664 Z-12.29
N17120 X-43.138 Z-11.312
N17125 X-42.91 Z-11.172
N17130 X-29.533 Z-3.376
N17135 X-29.116 Z-3.145
N17140 X-28.686 Z-2.942
N17145 X-28.341 Z-2.806
N17150 X-24.903 Z-1.607
N17155 X-24.661 Z-1.533
N17160 X-19.681 Z-0.434
N17165 X-18.987 Z-0.292
N17170 X-18.287 Z-0.18
N17175 X-17.583 Z-0.096
N17180 X-16.759 Z-0.032
N17185 X-16.016 Z-0.004
N17190 X15.654 Z0.
N17195 X16.454 Z-0.017
N17200 X17.241 Z-0.065
N17205 X18.025 Z-0.145
N17210 X18.675 Z-0.238
N17215 X19.32 Z-0.356
N17220 X24.55 Z-1.507
N17225 X24.832 Z-1.583
N17230 X28.245 Z-2.772
N17235 X28.672 Z-2.935
N17240 X29.026 Z-3.099
N17245 X29.371 Z-3.282
N17250 X42.969 Z-11.206
N17255 X44.75 Z-12.354
N17260 X47.991 Z-14.098
N17265 X48.036 Z-14.117
N17270 X48.084 Z-14.129
N17275 X48.133 Z-14.133
N17280 X48.365
N17285 G3 Y-28.526 I0. J0.173
N17290 G1 X48.316 Z-14.129
N17295 X48.268 Z-14.117
N17300 X48.223 Z-14.098
N17305 X44.75 Z-12.229
N17310 X43.219 Z-11.241
N17315 X42.998 Z-11.102
N17320 X29.029 Z-2.962
N17325 X28.685 Z-2.779
N17330 X28.329 Z-2.615
N17335 X27.904 Z-2.451
N17340 X24.987 Z-1.435
N17345 X24.706 Z-1.357
N17350 X20.117 Z-0.349
N17355 X19.471 Z-0.232
N17360 X18.821 Z-0.141
N17365 X18.037 Z-0.062
N17370 X17.25 Z-0.016
N17375 X16.449 Z0.
N17380 X-16.852 Z-0.004
N17385 X-17.594 Z-0.032
N17390 X-18.418 Z-0.096
N17395 X-19.122 Z-0.18
N17400 X-19.822 Z-0.292
N17405 X-20.517 Z-0.434
N17410 X-24.727 Z-1.362
N17415 X-25.026 Z-1.448
N17420 X-28.036 Z-2.498
N17425 X-28.367 Z-2.631
N17430 X-28.796 Z-2.836
N17435 X-29.109 Z-3.008
N17440 X-42.942 Z-11.07
N17445 X-43.169 Z-11.208
N17450 X-44.696 Z-12.186
N17455 X-46.073 Z-12.938
N17460 X-48.21 Z-14.095
N17465 X-48.256 Z-14.114
N17470 X-48.304 Z-14.127
N17475 X-48.353 Z-14.131
N17480 X-48.584
N17485 G2 Y-28.18 I0. J0.173
N17490 G1 X-48.534 Z-14.127
N17495 X-48.486 Z-14.115
N17500 X-48.441 Z-14.095
N17505 X-44.705 Z-12.069
N17510 X-43.178 Z-11.09
N17515 X-42.951 Z-10.955
N17520 X-29.096 Z-2.88
N17525 X-28.478 Z-2.528
N17530 X-28.049 Z-2.321
N17535 X-27.705 Z-2.182
N17540 X-25.205 Z-1.309
N17545 X-24.92 Z-1.222
N17550 X-21.352 Z-0.434
N17555 X-20.657 Z-0.292
N17560 X-19.957 Z-0.18
N17565 X-19.253 Z-0.096
N17570 X-18.429 Z-0.032
N17575 X-17.687 Z-0.004
N17580 X17.4 Z0.
N17585 X18.18 Z-0.02
N17590 X18.966 Z-0.07
N17595 X19.75 Z-0.152
N17600 X20.4 Z-0.247
N17605 X21.045 Z-0.368
N17610 X24.842 Z-1.204
N17615 X25.144 Z-1.287
N17620 X27.564 Z-2.131
N17625 X27.99 Z-2.295
N17630 X28.344 Z-2.459
N17635 X28.689 Z-2.643
N17640 X42.999 Z-10.982
N17645 X43.219 Z-11.117
N17650 X44.101 Z-11.69
N17655 X44.751 Z-12.105
N17660 X48.455 Z-14.098
N17665 X48.5 Z-14.117
N17670 X48.548 Z-14.129
N17675 X48.597 Z-14.133
N17680 X48.83 Z-14.134
N17685 G3 Y-27.834 I0. J0.173
N17690 G1 X48.781 Z-14.13
N17695 X48.733 Z-14.117
N17700 X48.687 Z-14.098
N17705 X44.636 Z-11.913
N17710 X43.137 Z-10.942
N17715 X28.348 Z-2.324
N17720 X28.003 Z-2.14
N17725 X27.648 Z-1.975
N17730 X27.223 Z-1.811
N17735 X25.3 Z-1.14
N17740 X25.051 Z-1.066
N17745 X21.844 Z-0.36
N17750 X21.198 Z-0.241
N17755 X20.549 Z-0.148
N17760 X19.765 Z-0.067
N17765 X18.978 Z-0.018
N17770 X18.216 Z0.
N17775 X-18.522 Z-0.004
N17780 X-19.265 Z-0.032
N17785 X-20.089 Z-0.096
N17790 X-20.792 Z-0.18
N17795 X-21.493 Z-0.292
N17800 X-22.187 Z-0.434
N17805 X-24.985 Z-1.051
N17810 X-25.272 Z-1.131
N17815 X-27.401 Z-1.875
N17820 X-27.731 Z-2.011
N17825 X-28.159 Z-2.22
N17830 X-28.674 Z-2.514
N17835 X-43.211 Z-10.988
N17840 X-44.716 Z-11.952
N17845 X-48.671 Z-14.095
N17850 X-48.716 Z-14.115
N17855 X-48.764 Z-14.127
N17860 X-48.814 Z-14.131
N17865 X-49.044
N17870 G2 Y-27.488 I0. J0.173
N17875 G1 X-48.995 Z-14.127
N17880 X-48.947 Z-14.114
N17885 X-48.901 Z-14.095
N17890 X-44.771 Z-11.86
N17895 X-43.266 Z-10.899
N17900 X-28.071 Z-2.041
N17905 X-27.758 Z-1.869
N17910 X-27.328 Z-1.664
N17915 X-26.997 Z-1.531
N17920 X-25.477 Z-1.
N17925 X-25.178 Z-0.91
N17930 X-22.907 Z-0.409
N17935 X-22.211 Z-0.271
N17940 X-21.511 Z-0.164
N17945 X-20.806 Z-0.085
N17950 X-19.982 Z-0.026
N17955 X-19.224 Z-0.002
N17960 X18.955 Z0.
N17965 X19.772 Z-0.016
N17970 X20.559 Z-0.063
N17975 X21.343 Z-0.143
N17980 X21.993 Z-0.234
N17985 X22.638 Z-0.352
N17990 X25.078 Z-0.887
N17995 X25.329 Z-0.951
N18000 X26.88 Z-1.49
N18005 X27.306 Z-1.654
N18010 X27.66 Z-1.819
N18015 X28.005 Z-2.003
N18020 X43.192 Z-10.854
N18025 X44.636 Z-11.789
N18030 X48.919 Z-14.098
N18035 X48.965 Z-14.117
N18040 X49.013 Z-14.129
N18045 X49.062 Z-14.134
N18050 X49.294 Z-14.133
N18055 G3 Y-27.142 I0. J0.173
N18060 G1 X49.245 Z-14.129
N18065 X49.197 Z-14.117
N18070 X49.151 Z-14.098
N18075 X44.637 Z-11.665
N18080 X43.441 Z-10.889
N18085 X43.221 Z-10.75
N18090 X27.662 Z-1.682
N18095 X27.318 Z-1.498
N18100 X26.963 Z-1.333
N18105 X26.538 Z-1.168
N18110 X25.483 Z-0.803
N18115 X25.232 Z-0.737
N18120 X23.435 Z-0.344
N18125 X22.79 Z-0.228
N18130 X22.139 Z-0.138
N18135 X21.355 Z-0.06
N18140 X20.568 Z-0.015
N18145 X19.791 Z0.
N18150 X-20.193 Z-0.004
N18155 X-20.935 Z-0.032
N18160 X-21.759 Z-0.096
N18165 X-22.463 Z-0.18
N18170 X-23.163 Z-0.292
N18175 X-23.858 Z-0.434
N18180 X-25.372 Z-0.771
N18185 X-25.6 Z-0.842
N18190 X-26.679 Z-1.219
N18195 X-27.01 Z-1.354
N18200 X-27.439 Z-1.56
N18205 X-28.057 Z-1.912
N18210 X-43.275 Z-10.782
N18215 X-44.782 Z-11.742
N18220 X-49.131 Z-14.095
N18225 X-49.177 Z-14.114
N18230 X-49.225 Z-14.127
N18235 X-49.274 Z-14.131
N18240 X-49.504
N18245 G2 Y-26.796 I0. J0.173
N18250 G1 X-49.455 Z-14.127
N18255 X-49.407 Z-14.114
N18260 X-49.362 Z-14.095
N18265 X-44.816 Z-11.635
N18270 X-44.594 Z-11.503
N18275 X-43.371 Z-10.719
N18280 X-27.635 Z-1.546
N18285 X-27.119 Z-1.252
N18290 X-26.692 Z-1.043
N18295 X-26.362 Z-0.908
N18300 X-25.723 Z-0.683
N18305 X-25.437 Z-0.599
N18310 X-24.693 Z-0.434
N18315 X-23.998 Z-0.292
N18320 X-23.298 Z-0.18
N18325 X-22.595 Z-0.096
N18330 X-21.771 Z-0.032
N18335 X-21.028 Z-0.004
N18340 X20.698 Z0.
N18345 X21.497 Z-0.019
N18350 X22.284 Z-0.068
N18355 X23.068 Z-0.149
N18360 X23.717 Z-0.243
N18365 X24.363 Z-0.363
N18370 X25.39 Z-0.588
N18375 X25.64 Z-0.655
N18380 X26.198 Z-0.848
N18385 X26.623 Z-1.014
N18390 X26.977 Z-1.179
N18395 X27.322 Z-1.363
N18400 X43.221 Z-10.629
N18405 X43.442 Z-10.765
N18410 X44.637 Z-11.542
N18415 X49.384 Z-14.098
N18420 X49.429 Z-14.117
N18425 X49.477 Z-14.129
N18430 X49.526 Z-14.133
N18435 X49.731
N18440 X49.756 Y-26.795
N18445 X49.78 Y-26.789
N18450 X49.803 Y-26.781
N18455 X49.825 Y-26.769 Z-14.132
N18460 X49.845 Y-26.754
N18465 X49.862 Y-26.737 Z-14.131
N18470 X49.877 Y-26.717 Z-14.13
N18475 X49.889 Y-26.695 Z-14.129
N18480 X49.897 Y-26.672 Z-14.128
N18485 X49.903 Y-26.648 Z-14.127
N18490 X49.904 Y-26.624 Z-14.126
N18495 X49.903 Y-26.599 Z-14.125
N18500 X49.897 Y-26.575 Z-14.124
N18505 X49.889 Y-26.552 Z-14.123
N18510 X49.877 Y-26.53 Z-14.122
N18515 X49.862 Y-26.51
N18520 X49.845 Y-26.493 Z-14.121
N18525 X49.825 Y-26.478 Z-14.12
N18530 X49.803 Y-26.466
N18535 X49.78 Y-26.458 Z-14.119
N18540 X49.756 Y-26.452
N18545 X49.731 Y-26.451
N18550 X49.682 Z-14.115
N18555 X49.634 Z-14.103
N18560 X49.589 Z-14.083
N18565 X44.611 Z-11.4
N18570 X43.36 Z-10.59
N18575 X26.953 Z-1.028
N18580 X26.608 Z-0.845
N18585 X26.253 Z-0.681
N18590 X25.827 Z-0.518
N18595 X25.53 Z-0.435
N18600 X24.873 Z-0.299
N18605 X24.225 Z-0.193
N18610 X23.574 Z-0.111
N18615 X22.789 Z-0.043
N18620 X22. Z-0.007
N18625 X20.925 Z0.
N18630 X-21.864 Z-0.004
N18635 X-22.606 Z-0.032
N18640 X-23.43 Z-0.096
N18645 X-24.134 Z-0.18
N18650 X-24.834 Z-0.292
N18655 X-25.557 Z-0.441
N18660 X-25.87 Z-0.532
N18665 X-26.206 Z-0.661
N18670 X-26.638 Z-0.86
N18675 X-27.056 Z-1.088
N18680 X-43.412 Z-10.622
N18685 X-44.672 Z-11.429
N18690 X-49.59 Z-14.094
N18695 X-49.636 Z-14.114
N18700 X-49.684 Z-14.126
N18705 X-49.733 Z-14.13
N18710 X-49.906
N18715 X-49.931 Y-26.449
N18720 X-49.955 Y-26.444 Z-14.129
N18725 X-49.979 Y-26.435
N18730 X-50. Y-26.423 Z-14.128
N18735 X-50.02 Y-26.408 Z-14.126
N18740 X-50.038 Y-26.391 Z-14.125
N18745 X-50.052 Y-26.371 Z-14.123
N18750 X-50.064 Y-26.349 Z-14.121
N18755 X-50.073 Y-26.326 Z-14.119
N18760 X-50.078 Y-26.302 Z-14.117
N18765 X-50.08 Y-26.278 Z-14.115
N18770 X-50.078 Y-26.253 Z-14.112
N18775 X-50.073 Y-26.229 Z-14.11
N18780 X-50.064 Y-26.206 Z-14.108
N18785 X-50.052 Y-26.184 Z-14.106
N18790 X-50.038 Y-26.164 Z-14.104
N18795 X-50.02 Y-26.147 Z-14.103
N18800 X-50. Y-26.132 Z-14.101
N18805 X-49.979 Y-26.12 Z-14.1
N18810 X-49.955 Y-26.112
N18815 X-49.931 Y-26.106 Z-14.099
N18820 X-49.906 Y-26.105
N18825 X-49.857 Z-14.095
N18830 X-49.809 Z-14.083
N18835 X-49.764 Z-14.063
N18840 X-45.306 Z-11.651
N18845 X-44.622 Z-11.274
N18850 X-43.538 Z-10.579
N18855 X-43.311 Z-10.44
N18860 X-26.65 Z-0.731
N18865 X-26.229 Z-0.506
N18870 X-26.009 Z-0.409
N18875 X-25.783 Z-0.331
N18880 X-25.553 Z-0.273
N18885 X-24.969 Z-0.18
N18890 X-24.265 Z-0.096
N18895 X-23.441 Z-0.032
N18900 X-22.699 Z-0.004
N18905 X22.296 Z0.
N18910 X23.125 Z-0.017
N18915 X23.912 Z-0.064
N18920 X24.696 Z-0.144
N18925 X25.442 Z-0.252
N18930 X25.727 Z-0.315
N18935 X25.973 Z-0.395
N18940 X26.152 Z-0.47
N18945 X26.558 Z-0.678
N18950 X43.366 Z-10.472
N18955 X43.586 Z-10.61
N18960 X44.677 Z-11.316
N18965 X49.753 Z-14.045
N18970 G18 G2 X50.027 Z-14.05 I0.142 K0.264
N18975 G1 X50.091 Z-14.027
N18980 X50.159 Z-14.019
N18985 X50.31
N18990 X50.336 Y-26.103
N18995 X50.36 Y-26.098 Z-14.018
N19000 X50.384 Y-26.089 Z-14.016
N19005 X50.406 Y-26.077 Z-14.014
N19010 X50.426 Y-26.062 Z-14.011
N19015 X50.444 Y-26.045 Z-14.007
