%
O01003
(Using high feed G1 F5000. instead of G0.)
(T2 D=5. CR=2.5 - ZMIN=-95.502 - fresa con punta de bola)
N10 G90 G94 G17
N15 G21
(When using Fusion for Personal Use, the feedrate of rapid)
(moves is reduced to match the feedrate of cutting moves,)
(which can increase machining time. Unrestricted rapid moves)
(are available with a Fusion Subscription.)
N20 G53 G0 Z0.

(Paralelo4)
N25 T2 M6
N30 S5000 M3
N35 G17 G90 G94
N40 G54
N45 M8
N50 G1 X6.889 Y-58.392 F5000.
N55 G0 G43 Z15. H2
N60 G1 Z-39.961 F1000.
N65 Z-95.003 F333.33
N70 G18 G3 X5.889 I-0.5 K0. F1000.
N75 G1 X5.888 Z-43.552
N80 X5.853 Z-43.383
N85 X5.817 Z-43.313
N90 X5.73 Z-43.209
N95 X5.618 Z-43.133
N100 X5.113 Z-42.926
N105 X4.303 Z-42.637
N110 X3.277 Z-42.31
N115 X1.829 Z-41.89
N120 X0.269 Z-41.469
N125 X0.152 Z-41.448
N130 X0.036 Z-41.439
N135 X-0.087 Z-41.442
N140 X-0.289 Z-41.474
N145 X-1.905 Z-41.907
N150 X-3.173 Z-42.275
N155 X-4.203 Z-42.603
N160 X-4.882 Z-42.846
N165 X-5.329 Z-43.026
N170 X-5.659 Z-43.179
N175 X-5.82 Z-43.266
N180 X-5.873 Z-43.312
N185 X-5.924 Z-43.379
N190 X-5.95 Z-43.431
N195 X-5.976 Z-43.566
N200 Z-95.003
N205 X-6.175 Y-58.356
N210 X-7.566 Y-58.076
N215 Z-43.562
N220 X-7.554 Z-43.456
N225 X-7.517 Z-43.347
N230 X-7.469 Z-43.257
N235 X-7.392 Z-43.153
N240 X-7.314 Z-43.07
N245 X-7.228 Z-42.993
N250 X-7.049 Z-42.86
N255 X-6.767 Z-42.693
N260 X-6.472 Z-42.551
N265 X-6.017 Z-42.37
N270 X-5.15 Z-42.148
N275 X-2.7 Z-41.561
N280 X-0.276 Z-41.011
N285 X-0.049 Z-40.989
N290 X0.072 Z-40.99
N295 X0.189 Z-40.999
N300 X0.36 Z-41.028
N305 X3.245 Z-41.699
N310 X5.685 Z-42.298
N315 X5.912 Z-42.368
N320 X6.356 Z-42.541
N325 X6.678 Z-42.693
N330 X6.98 Z-42.869
N335 X7.162 Z-43.004
N340 X7.286 Z-43.121
N345 X7.389 Z-43.25
N350 X7.44 Z-43.342
N355 X7.466 Z-43.406
N360 X7.492 Z-43.541
N365 Z-95.003
N370 X9.096 Y-57.76
N375 Z-43.549
N380 X9.072 Z-43.413
N385 X9.048 Z-43.35
N390 X9. Z-43.262
N395 X8.926 Z-43.161
N400 X8.851 Z-43.082
N405 X8.68 Z-42.937
N410 X8.487 Z-42.808
N415 X8.176 Z-42.64
N420 X7.851 Z-42.496
N425 X7.404 Z-42.329
N430 X6.832 Z-42.153
N435 X6.136 Z-41.974
N440 X2.499 Z-41.175
N445 X0.286 Z-40.708
N450 X0.049 Z-40.687
N455 X-0.196 Z-40.697
N460 X-0.411 Z-40.73
N465 X-4.144 Z-41.516
N470 X-6.23 Z-41.973
N475 X-6.857 Z-42.136
N480 X-7.374 Z-42.294
N485 X-7.882 Z-42.481
N490 X-8.277 Z-42.66
N495 X-8.563 Z-42.821
N500 X-8.745 Z-42.947
N505 X-8.914 Z-43.097
N510 X-8.995 Z-43.189
N515 X-9.061 Z-43.288
N520 X-9.094 Z-43.353
N525 X-9.127 Z-43.453
N530 X-9.14 Z-43.566
N535 Z-95.003
N540 X-10.713 Y-57.444
N545 Z-43.562
N550 X-10.696 Z-43.434
N555 X-10.643 Z-43.303
N560 X-10.568 Z-43.189
N565 X-10.494 Z-43.103
N570 X-10.324 Z-42.951
N575 X-10.142 Z-42.824
N580 X-9.855 Z-42.662
N585 X-9.459 Z-42.483
N590 X-8.952 Z-42.296
N595 X-8.435 Z-42.137
N600 X-7.809 Z-41.975
N605 X-6.965 Z-41.792
N610 X-5.868 Z-41.597
N615 X-0.649 Z-40.547
N620 X-0.195 Z-40.475
N625 X0.05 Z-40.467
N630 X0.288 Z-40.486
N635 X0.642 Z-40.546
N640 X5.738 Z-41.596
N645 X6.094 Z-41.653
N650 X7.038 Z-41.823
N655 X7.857 Z-42.002
N660 X8.551 Z-42.186
N665 X9.12 Z-42.368
N670 X9.564 Z-42.541
N675 X9.886 Z-42.693
N680 X10.188 Z-42.869
N685 X10.37 Z-43.004
N690 X10.47 Z-43.096
N695 X10.585 Z-43.232
N700 X10.642 Z-43.329
N705 X10.671 Z-43.397
N710 X10.7 Z-43.54
N715 Z-95.003
N720 X12.304 Y-57.128
N725 Z-43.547
N730 X12.274 Z-43.395
N735 X12.244 Z-43.325
N740 X12.184 Z-43.226
N745 X12.059 Z-43.082
N750 X11.888 Z-42.937
N755 X11.695 Z-42.808
N760 X11.384 Z-42.64
N765 X11.059 Z-42.496
N770 X10.611 Z-42.329
N775 X10.04 Z-42.153
N780 X9.344 Z-41.974
N785 X8.524 Z-41.8
N790 X7.579 Z-41.634
N795 X6.511 Z-41.481
N800 X5.915 Z-41.405
N805 X1.003 Z-40.396
N810 X0.294 Z-40.279
N815 X0.056 Z-40.259
N820 X-0.189 Z-40.266
N825 X-0.404 Z-40.296
N830 X-1.09 Z-40.413
N835 X-6.007 Z-41.398
N840 X-7.572 Z-41.622
N845 X-8.527 Z-41.79
N850 X-9.371 Z-41.972
N855 X-9.997 Z-42.134
N860 X-10.514 Z-42.292
N865 X-11.022 Z-42.478
N870 X-11.418 Z-42.657
N875 X-11.705 Z-42.818
N880 X-11.887 Z-42.944
N885 X-12.058 Z-43.094
N890 X-12.134 Z-43.179
N895 X-12.209 Z-43.289
N900 X-12.267 Z-43.427
N905 X-12.287 Z-43.563
N910 Z-95.003
N915 X-13.664 Y-56.852
N920 X-13.861 Y-56.812
N925 Z-43.566
N930 X-13.845 Z-43.44
N935 X-13.778 Z-43.281
N940 X-13.711 Z-43.184
N945 X-13.63 Z-43.092
N950 X-13.46 Z-42.943
N955 X-13.278 Z-42.818
N960 X-12.993 Z-42.658
N965 X-12.597 Z-42.479
N970 X-12.191 Z-42.327
N975 X-11.676 Z-42.164
N980 X-11.05 Z-41.997
N985 X-10.313 Z-41.833
N990 X-9.465 Z-41.674
N995 X-8.506 Z-41.526
N1000 X-6.758 Z-41.3
N1005 X-6.284 Z-41.231
N1010 X-1.523 Z-40.276
N1015 X-0.36 Z-40.081
N1020 X-0.131 Z-40.054
N1025 X0.111 Z-40.053
N1030 X0.289 Z-40.07
N1035 X1.413 Z-40.256
N1040 X5.644 Z-41.124
N1045 X6.329 Z-41.258
N1050 X8.115 Z-41.481
N1055 X9.183 Z-41.634
N1060 X10.128 Z-41.8
N1065 X10.948 Z-41.974
N1070 X11.644 Z-42.153
N1075 X12.215 Z-42.329
N1080 X12.663 Z-42.496
N1085 X12.987 Z-42.64
N1090 X13.299 Z-42.808
N1095 X13.492 Z-42.937
N1100 X13.663 Z-43.082
N1105 X13.78 Z-43.216
N1110 X13.839 Z-43.308
N1115 X13.898 Z-43.467
N1120 X13.908 Z-43.56
N1125 Z-95.003
N1130 X15.512 Y-56.496
N1135 X15.511 Z-43.545
N1140 X15.475 Z-43.378
N1145 X15.439 Z-43.301
N1150 X15.367 Z-43.193
N1155 X15.267 Z-43.082
N1160 X15.096 Z-42.937
N1165 X14.903 Z-42.808
N1170 X14.591 Z-42.64
N1175 X14.266 Z-42.496
N1180 X13.819 Z-42.329
N1185 X13.248 Z-42.153
N1190 X12.552 Z-41.974
N1195 X11.732 Z-41.8
N1200 X10.787 Z-41.634
N1205 X9.718 Z-41.481
N1210 X6.504 Z-41.076
N1215 X1.827 Z-40.116
N1220 X0.288 Z-39.862
N1225 X0.05 Z-39.842
N1230 X-0.192 Z-39.85
N1235 X-0.74 Z-39.936
N1240 X-1.937 Z-40.136
N1245 X-6.582 Z-41.067
N1250 X-7.055 Z-41.137
N1255 X-10.101 Z-41.529
N1260 X-11.06 Z-41.678
N1265 X-11.907 Z-41.837
N1270 X-12.644 Z-42.002
N1275 X-13.27 Z-42.17
N1280 X-13.784 Z-42.334
N1285 X-14.19 Z-42.487
N1290 X-14.488 Z-42.619
N1295 X-14.776 Z-42.772
N1300 X-14.962 Z-42.89
N1305 X-15.137 Z-43.029
N1310 X-15.222 Z-43.111
N1315 X-15.296 Z-43.198
N1320 X-15.37 Z-43.314
N1325 X-15.418 Z-43.44
N1330 X-15.434 Z-43.564
N1335 Z-95.003
N1340 X-16.608 Y-56.261
N1345 X-16.803 Y-56.222
N1350 X-16.998 Y-56.18
N1355 Z-43.565
N1360 X-16.975 Z-43.401
N1365 X-16.905 Z-43.249
N1370 X-16.87 Z-43.199
N1375 X-16.753 Z-43.067
N1380 X-16.581 Z-42.923
N1385 X-16.397 Z-42.8
N1390 X-16.11 Z-42.643
N1395 X-15.713 Z-42.466
N1400 X-15.307 Z-42.316
N1405 X-14.792 Z-42.155
N1410 X-14.165 Z-41.99
N1415 X-13.428 Z-41.826
N1420 X-12.58 Z-41.669
N1425 X-11.621 Z-41.522
N1430 X-7.016 Z-40.931
N1435 X-2.36 Z-39.998
N1440 X-0.381 Z-39.668
N1445 X-0.152 Z-39.639
N1450 X0.09 Z-39.635
N1455 X0.327 Z-39.659
N1460 X2.339 Z-39.994
N1465 X6.781 Z-40.907
N1470 X7.019 Z-40.942
N1475 X11.305 Z-41.479
N1480 X12.373 Z-41.631
N1485 X13.318 Z-41.796
N1490 X14.139 Z-41.97
N1495 X14.835 Z-42.148
N1500 X15.406 Z-42.324
N1505 X15.854 Z-42.489
N1510 X16.18 Z-42.632
N1515 X16.491 Z-42.798
N1520 X16.721 Z-42.954
N1525 X16.836 Z-43.071
N1530 X16.923 Z-43.205
N1535 X16.966 Z-43.306
N1540 X16.987 Z-43.38
N1545 X17.009 Z-43.537
N1550 Z-95.003
N1555 X17.231 Y-56.102
N1560 X17.896 Y-55.864
N1565 Z-43.419
N1570 X17.886 Z-43.289
N1575 X17.856 Z-43.162
N1580 X17.816 Z-43.059
N1585 X17.734 Z-42.917
N1590 X17.652 Z-42.812
N1595 X17.493 Z-42.659
N1600 X17.309 Z-42.523
N1605 X17.108 Z-42.406
N1610 X16.785 Z-42.259
N1615 X16.562 Z-42.183
N1620 X15.869 Z-42.
N1625 X15.049 Z-41.821
N1630 X14.105 Z-41.652
N1635 X13.037 Z-41.496
N1640 X7.203 Z-40.765
N1645 X2.67 Z-39.839
N1650 X0.273 Z-39.443
N1655 X0.035 Z-39.426
N1660 X-0.205 Z-39.435
N1665 X-0.989 Z-39.561
N1670 X-2.792 Z-39.862
N1675 X-7.305 Z-40.766
N1680 X-13.122 Z-41.512
N1685 X-14.188 Z-41.675
N1690 X-15.036 Z-41.833
N1695 X-15.772 Z-41.998
N1700 X-16.398 Z-42.164
N1705 X-16.862 Z-42.31
N1710 X-17.113 Z-42.422
N1715 X-17.305 Z-42.53
N1720 X-17.487 Z-42.658
N1725 X-17.654 Z-42.812
N1730 X-17.734 Z-42.907
N1735 X-17.799 Z-43.004
N1740 X-17.863 Z-43.136
N1745 X-17.907 Z-43.287
N1750 X-17.922 Z-43.444
N1755 Z-95.003
N1760 X-18.803 Y-55.549
N1765 Z-43.284
N1770 X-18.786 Z-43.119
N1775 X-18.738 Z-42.96
N1780 X-18.672 Z-42.832
N1785 X-18.606 Z-42.736
N1790 X-18.526 Z-42.643
N1795 X-18.446 Z-42.565
N1800 X-18.269 Z-42.425
N1805 X-18.081 Z-42.309
N1810 X-17.785 Z-42.165
N1815 X-17.48 Z-42.051
N1820 X-17.063 Z-41.932
N1825 X-16.511 Z-41.813
N1830 X-15.663 Z-41.658
N1835 X-14.704 Z-41.513
N1840 X-7.59 Z-40.6
N1845 X-3.213 Z-39.723
N1850 X-0.35 Z-39.247
N1855 X-0.135 Z-39.222
N1860 X0.105 Z-39.22
N1865 X0.342 Z-39.245
N1870 X3.123 Z-39.706
N1875 X7.389 Z-40.582
N1880 X7.627 Z-40.617
N1885 X14.532 Z-41.482
N1890 X15.601 Z-41.634
N1895 X16.522 Z-41.796
N1900 X16.99 Z-41.893
N1905 X17.335 Z-41.987
N1910 X17.671 Z-42.104
N1915 X17.994 Z-42.251
N1920 X18.195 Z-42.368
N1925 X18.379 Z-42.504
N1930 X18.537 Z-42.657
N1935 X18.608 Z-42.746
N1940 X18.666 Z-42.836
N1945 X18.724 Z-42.956
N1950 X18.767 Z-43.105
N1955 X18.781 Z-43.229
N1960 X18.782 Z-95.003
N1965 X19.668 Y-55.233
N1970 X19.667 Z-43.082
N1975 X19.65 Z-42.937
N1980 X19.599 Z-42.775
N1985 X19.53 Z-42.645
N1990 X19.423 Z-42.502
N1995 X19.265 Z-42.349
N2000 X19.08 Z-42.213
N2005 X18.879 Z-42.096
N2010 X18.557 Z-41.949
N2015 X18.221 Z-41.832
N2020 X17.876 Z-41.738
N2025 X17.407 Z-41.641
N2030 X16.934 Z-41.571
N2035 X16.337 Z-41.508
N2040 X7.79 Z-40.436
N2045 X3.579 Z-39.574
N2050 X0.266 Z-39.026
N2055 X0.028 Z-39.009
N2060 X-0.217 Z-39.02
N2065 X-0.881 Z-39.126
N2070 X-3.485 Z-39.557
N2075 X-4.169 Z-39.691
N2080 X-7.933 Z-40.444
N2085 X-16.347 Z-41.523
N2090 X-16.667 Z-41.567
N2095 X-17.227 Z-41.633
N2100 X-17.759 Z-41.729
N2105 X-18.178 Z-41.834
N2110 X-18.487 Z-41.935
N2115 X-18.79 Z-42.061
N2120 X-18.985 Z-42.162
N2125 X-19.172 Z-42.281
N2130 X-19.347 Z-42.424
N2135 X-19.426 Z-42.503
N2140 X-19.504 Z-42.6
N2145 X-19.568 Z-42.698
N2150 X-19.631 Z-42.834
N2155 X-19.67 Z-42.977
N2160 X-19.683 Z-43.124
N2165 Z-95.003
N2170 X-20.564 Y-54.917
N2175 Z-42.964
N2180 X-20.555 Z-42.846
N2185 X-20.529 Z-42.725
N2190 X-20.502 Z-42.649
N2195 X-20.449 Z-42.539
N2200 X-20.377 Z-42.428
N2205 X-20.304 Z-42.341
N2210 X-20.22 Z-42.256
N2215 X-20.045 Z-42.115
N2220 X-19.858 Z-41.998
N2225 X-19.564 Z-41.853
N2230 X-19.259 Z-41.737
N2235 X-18.948 Z-41.643
N2240 X-18.526 Z-41.545
N2245 X-17.994 Z-41.457
N2250 X-17.458 Z-41.4
N2255 X-16.549 Z-41.345
N2260 X-8.217 Z-40.279
N2265 X-4.069 Z-39.448
N2270 X-0.502 Z-38.856
N2275 X-0.166 Z-38.808
N2280 X0.075 Z-38.802
N2285 X0.313 Z-38.825
N2290 X3.983 Z-39.432
N2295 X7.743 Z-40.204
N2300 X8.193 Z-40.286
N2305 X14.384 Z-41.061
N2310 X16.504 Z-41.321
N2315 X17.223 Z-41.359
N2320 X17.819 Z-41.416
N2325 X18.293 Z-41.486
N2330 X18.761 Z-41.583
N2335 X19.107 Z-41.677
N2340 X19.442 Z-41.794
N2345 X19.765 Z-41.941
N2350 X19.966 Z-42.058
N2355 X20.15 Z-42.194
N2360 X20.309 Z-42.347
N2365 X20.409 Z-42.479
N2370 X20.459 Z-42.566
N2375 X20.509 Z-42.685
N2380 X20.542 Z-42.818
N2385 X20.553 Z-42.954
N2390 Z-95.003
N2395 X21.439 Y-54.601
N2400 Z-42.799
N2405 X21.427 Z-42.656
N2410 X21.39 Z-42.517
N2415 X21.342 Z-42.405
N2420 X21.244 Z-42.253
N2425 X21.115 Z-42.109
N2430 X20.944 Z-41.967
N2435 X20.751 Z-41.842
N2440 X20.544 Z-41.733
N2445 X20.218 Z-41.598
N2450 X19.878 Z-41.488
N2455 X19.531 Z-41.401
N2460 X19.061 Z-41.311
N2465 X18.586 Z-41.247
N2470 X17.989 Z-41.196
N2475 X16.431 Z-41.117
N2480 X8.359 Z-40.105
N2485 X4.505 Z-39.312
N2490 X2.02 Z-38.899
N2495 X0.303 Z-38.615
N2500 X0.126 Z-38.597
N2505 X-0.114 Z-38.596
N2510 X-0.353 Z-38.623
N2515 X-4.354 Z-39.285
N2520 X-5.273 Z-39.466
N2525 X-8.567 Z-40.122
N2530 X-16.66 Z-41.158
N2535 X-18.08 Z-41.221
N2540 X-18.617 Z-41.266
N2545 X-19.152 Z-41.339
N2550 X-19.576 Z-41.421
N2555 X-19.995 Z-41.531
N2560 X-20.303 Z-41.635
N2565 X-20.603 Z-41.766
N2570 X-20.796 Z-41.871
N2575 X-20.981 Z-41.996
N2580 X-21.152 Z-42.146
N2585 X-21.228 Z-42.231
N2590 X-21.303 Z-42.334
N2595 X-21.361 Z-42.439
N2600 X-21.419 Z-42.599
N2605 X-21.432 Z-42.658
N2610 X-21.444 Z-42.804
N2615 Z-95.003
N2620 X-22.325 Y-54.285
N2625 Z-42.644
N2630 X-22.306 Z-42.465
N2635 X-22.287 Z-42.393
N2640 X-22.249 Z-42.294
N2645 X-22.181 Z-42.17
N2650 X-22.113 Z-42.077
N2655 X-22.032 Z-41.986
N2660 X-21.862 Z-41.836
N2665 X-21.678 Z-41.712
N2670 X-21.485 Z-41.607
N2675 X-21.186 Z-41.476
N2680 X-20.877 Z-41.371
N2685 X-20.459 Z-41.262
N2690 X-20.035 Z-41.179
N2695 X-19.5 Z-41.106
N2700 X-18.963 Z-41.061
N2705 X-16.691 Z-40.96
N2710 X-8.835 Z-39.955
N2715 X-4.923 Z-39.173
N2720 X-0.621 Z-38.459
N2725 X-0.194 Z-38.394
N2730 X0.051 Z-38.385
N2735 X0.288 Z-38.405
N2740 X4.787 Z-39.149
N2745 X5.022 Z-39.193
N2750 X7.843 Z-39.773
N2755 X8.762 Z-39.956
N2760 X13.762 Z-40.582
N2765 X16.597 Z-40.931
N2770 X17.796 Z-40.988
N2775 X18.994 Z-41.049
N2780 X19.591 Z-41.106
N2785 X20.064 Z-41.176
N2790 X20.533 Z-41.273
N2795 X20.878 Z-41.367
N2800 X21.214 Z-41.484
N2805 X21.536 Z-41.631
N2810 X21.738 Z-41.748
N2815 X21.922 Z-41.884
N2820 X22.08 Z-42.037
N2825 X22.152 Z-42.127
N2830 X22.224 Z-42.243
N2835 X22.274 Z-42.356
N2840 X22.312 Z-42.496
N2845 X22.324 Z-42.62
N2850 X22.325 Z-95.003
N2855 X22.505 Y-54.214
N2860 X22.679 Y-54.133
N2865 X23.028 Y-53.969
N2870 Z-42.704
N2875 X23.01 Z-42.527
N2880 X22.958 Z-42.324
N2885 X22.871 Z-42.118
N2890 X22.726 Z-41.876
N2895 X22.605 Z-41.714
N2900 X22.457 Z-41.563
N2905 X22.373 Z-41.495
N2910 X22.278 Z-41.429
N2915 X22.182 Z-41.373
N2920 X21.997 Z-41.29
N2925 X21.629 Z-41.173
N2930 X21.282 Z-41.086
N2935 X20.812 Z-40.998
N2940 X20.218 Z-40.922
N2945 X19.56 Z-40.875
N2950 X16.743 Z-40.741
N2955 X16.503 Z-40.724
N2960 X9.146 Z-39.803
N2965 X8.908 Z-39.767
N2970 X5.406 Z-39.047
N2975 X4.934 Z-38.965
N2980 X0.317 Z-38.201
N2985 X0.08 Z-38.178
N2990 X-0.162 Z-38.183
N2995 X-0.498 Z-38.231
N3000 X-5.209 Z-39.01
N3005 X-6.128 Z-39.192
N3010 X-9.187 Z-39.799
N3015 X-16.566 Z-40.743
N3020 X-16.804 Z-40.768
N3025 X-19.802 Z-40.898
N3030 X-20.339 Z-40.942
N3035 X-20.874 Z-41.012
N3040 X-21.298 Z-41.092
N3045 X-21.718 Z-41.199
N3050 X-22.027 Z-41.302
N3055 X-22.228 Z-41.398
N3060 X-22.321 Z-41.457
N3065 X-22.414 Z-41.527
N3070 X-22.498 Z-41.601
N3075 X-22.644 Z-41.763
N3080 X-22.785 Z-41.966
N3085 X-22.847 Z-42.072
N3090 X-22.904 Z-42.187
N3095 X-22.96 Z-42.333
N3100 X-23.009 Z-42.529
N3105 X-23.026 Z-42.721
N3110 Z-95.003
N3115 X-23.692 Y-53.653
N3120 Z-42.842
N3125 X-23.678 Z-42.666
N3130 X-23.637 Z-42.486
N3135 X-23.582 Z-42.335
N3140 X-23.526 Z-42.219
N3145 X-23.406 Z-42.017
N3150 X-23.27 Z-41.834
N3155 X-23.043 Z-41.585
N3160 X-22.799 Z-41.363
N3165 X-22.536 Z-41.158
N3170 X-22.346 Z-41.043
N3175 X-22.145 Z-40.952
N3180 X-21.936 Z-40.887
N3185 X-21.723 Z-40.847
N3190 X-21.188 Z-40.779
N3195 X-20.651 Z-40.736
N3200 X-17.171 Z-40.586
N3205 X-16.692 Z-40.558
N3210 X-10.027 Z-39.705
N3215 X-9.316 Z-39.607
N3220 X-5.81 Z-38.905
N3225 X-5.574 Z-38.862
N3230 X-0.389 Z-38.004
N3235 X-0.174 Z-37.976
N3240 X0.07 Z-37.97
N3245 X0.308 Z-37.991
N3250 X5.693 Z-38.883
N3255 X9.254 Z-39.613
N3260 X16.611 Z-40.537
N3265 X20.208 Z-40.709
N3270 X20.807 Z-40.742
N3275 X21.403 Z-40.801
N3280 X21.875 Z-40.874
N3285 X22.102 Z-40.937
N3290 X22.316 Z-41.027
N3295 X22.515 Z-41.144
N3300 X22.703 Z-41.285
N3305 X22.967 Z-41.513
N3310 X23.21 Z-41.764
N3315 X23.396 Z-42.002
N3320 X23.513 Z-42.192
N3325 X23.573 Z-42.312
N3330 X23.633 Z-42.466
N3335 X23.663 Z-42.57
N3340 X23.693 Z-42.747
N3345 X23.698 Z-42.847
N3350 Z-95.003
N3355 X24.367 Y-53.337
N3360 Z-42.944
N3365 X24.344 Z-42.748
N3370 X24.321 Z-42.653
N3375 X24.275 Z-42.515
N3380 X24.183 Z-42.318
N3385 X24.066 Z-42.129
N3390 X23.879 Z-41.89
N3395 X23.637 Z-41.64
N3400 X23.372 Z-41.411
N3405 X23.088 Z-41.199
N3410 X22.689 Z-40.943
N3415 X22.379 Z-40.772
N3420 X22.162 Z-40.685
N3425 X21.934 Z-40.623
N3430 X21.67 Z-40.585
N3435 X20.742 Z-40.537
N3440 X16.666 Z-40.343
N3445 X9.546 Z-39.448
N3450 X6.28 Z-38.776
N3455 X6.044 Z-38.732
N3460 X0.303 Z-37.782
N3465 X0.126 Z-37.764
N3470 X-0.114 Z-37.763
N3475 X-0.354 Z-37.79
N3480 X-6.012 Z-38.727
N3485 X-6.248 Z-38.769
N3490 X-9.754 Z-39.469
N3495 X-16.657 Z-40.352
N3500 X-16.895 Z-40.377
N3505 X-21.579 Z-40.579
N3510 X-21.794 Z-40.599
N3515 X-22.007 Z-40.64
N3520 X-22.216 Z-40.704
N3525 X-22.418 Z-40.791
N3530 X-22.798 Z-41.007
N3535 X-23.161 Z-41.248
N3540 X-23.422 Z-41.448
N3545 X-23.668 Z-41.666
N3550 X-23.899 Z-41.91
N3555 X-24.038 Z-42.089
N3560 X-24.163 Z-42.285
N3565 X-24.222 Z-42.399
N3570 X-24.281 Z-42.54
N3575 X-24.32 Z-42.666
N3580 X-24.349 Z-42.815
N3585 X-24.359 Z-42.964
N3590 Z-95.003
N3595 X-25.026 Y-53.021
N3600 Z-43.086
N3605 X-25.015 Z-42.935
N3610 X-24.985 Z-42.783
N3615 X-24.933 Z-42.623
N3620 X-24.88 Z-42.503
N3625 X-24.763 Z-42.297
N3630 X-24.63 Z-42.111
N3635 X-24.484 Z-41.94
N3640 X-24.246 Z-41.706
N3645 X-23.994 Z-41.495
N3650 X-23.639 Z-41.241
N3655 X-23.269 Z-41.013
N3660 X-22.887 Z-40.807
N3665 X-22.445 Z-40.599
N3670 X-22.189 Z-40.5
N3675 X-21.98 Z-40.443
N3680 X-21.767 Z-40.402
N3685 X-21.539 Z-40.378
N3690 X-16.845 Z-40.175
N3695 X-9.945 Z-39.287
N3700 X-6.675 Z-38.632
N3705 X-6.438 Z-38.589
N3710 X-0.993 Z-37.688
N3715 X-0.21 Z-37.563
N3720 X0.03 Z-37.552
N3725 X0.268 Z-37.569
N3730 X6.542 Z-38.607
N3735 X9.809 Z-39.276
N3740 X10.047 Z-39.313
N3745 X16.69 Z-40.145
N3750 X21.485 Z-40.375
N3755 X21.723 Z-40.395
N3760 X21.957 Z-40.437
N3765 X22.179 Z-40.497
N3770 X22.433 Z-40.594
N3775 X22.943 Z-40.839
N3780 X23.359 Z-41.069
N3785 X23.758 Z-41.326
N3790 X24.042 Z-41.538
N3795 X24.307 Z-41.766
N3800 X24.549 Z-42.017
N3805 X24.735 Z-42.256
N3810 X24.855 Z-42.45
N3815 X24.917 Z-42.577
N3820 X24.977 Z-42.734
N3825 X25.022 Z-42.92
N3830 X25.037 Z-43.078
N3835 Z-95.003
N3840 X25.707 Y-52.705
N3845 Z-43.214
N3850 X25.693 Z-43.056
N3855 X25.652 Z-42.877
N3860 X25.604 Z-42.744
N3865 X25.509 Z-42.549
N3870 X25.348 Z-42.303
N3875 X25.14 Z-42.056
N3880 X24.891 Z-41.816
N3885 X24.618 Z-41.591
N3890 X24.33 Z-41.386
N3895 X23.927 Z-41.136
N3900 X23.507 Z-40.911
N3905 X23.075 Z-40.709
N3910 X22.246 Z-40.364
N3915 X21.965 Z-40.269
N3920 X21.734 Z-40.215
N3925 X21.439 Z-40.177
N3930 X16.704 Z-39.946
N3935 X10.299 Z-39.144
N3940 X9.85 Z-39.06
N3945 X6.97 Z-38.469
N3950 X0.283 Z-37.363
N3955 X0.045 Z-37.344
N3960 X-0.197 Z-37.353
N3965 X-0.745 Z-37.439
N3970 X-6.901 Z-38.458
N3975 X-7.349 Z-38.544
N3980 X-10.173 Z-39.11
N3985 X-10.408 Z-39.15
N3990 X-16.835 Z-39.972
N3995 X-18.037 Z-40.03
N4000 X-21.409 Z-40.175
N4005 X-21.624 Z-40.196
N4010 X-21.942 Z-40.263
N4015 X-22.253 Z-40.367
N4020 X-23.074 Z-40.704
N4025 X-23.564 Z-40.934
N4030 X-23.946 Z-41.14
N4035 X-24.316 Z-41.369
N4040 X-24.67 Z-41.624
N4045 X-24.923 Z-41.836
N4050 X-25.158 Z-42.069
N4055 X-25.303 Z-42.24
N4060 X-25.435 Z-42.426
N4065 X-25.556 Z-42.644
N4070 X-25.615 Z-42.785
N4075 X-25.653 Z-42.91
N4080 X-25.682 Z-43.059
N4085 X-25.692 Z-43.207
N4090 Z-95.003
N4095 X-26.359 Y-52.389
N4100 Z-43.328
N4105 X-26.349 Z-43.181
N4110 X-26.32 Z-43.032
N4115 X-26.281 Z-42.906
N4120 X-26.222 Z-42.765
N4125 X-26.101 Z-42.547
N4130 X-25.969 Z-42.361
N4135 X-25.749 Z-42.111
N4140 X-25.506 Z-41.884
N4145 X-25.25 Z-41.679
N4150 X-24.891 Z-41.431
N4155 X-24.518 Z-41.208
N4160 X-24.035 Z-40.96
N4165 X-23.541 Z-40.741
N4170 X-22.027 Z-40.127
N4175 X-21.713 Z-40.035
N4180 X-21.5 Z-39.994
N4185 X-21.273 Z-39.971
N4190 X-17.058 Z-39.79
N4195 X-16.82 Z-39.769
N4200 X-10.631 Z-38.977
N4205 X-8.513 Z-38.554
N4210 X-7.359 Z-38.325
N4215 X-0.517 Z-37.193
N4220 X-0.182 Z-37.144
N4225 X0.06 Z-37.137
N4230 X0.298 Z-37.157
N4235 X7.4 Z-38.332
N4240 X10.553 Z-38.975
N4245 X16.719 Z-39.747
N4250 X16.959 Z-39.766
N4255 X20.795 Z-39.948
N4260 X21.393 Z-39.981
N4265 X21.628 Z-40.016
N4270 X21.859 Z-40.073
N4275 X22.083 Z-40.148
N4280 X23.082 Z-40.559
N4285 X23.854 Z-40.884
N4290 X24.283 Z-41.092
N4295 X24.699 Z-41.323
N4300 X25.097 Z-41.579
N4305 X25.381 Z-41.791
N4310 X25.646 Z-42.02
N4315 X25.888 Z-42.27
N4320 X26.075 Z-42.509
N4325 X26.2 Z-42.714
N4330 X26.259 Z-42.835
N4335 X26.317 Z-42.99
N4340 X26.361 Z-43.173
N4345 X26.376 Z-43.32
N4350 X26.377 Z-95.003
N4355 X27.046 Y-52.073
N4360 Z-43.452
N4365 X27.024 Z-43.265
N4370 X27.003 Z-43.173
N4375 X26.961 Z-43.042
N4380 X26.876 Z-42.853
N4385 X26.744 Z-42.636
N4390 X26.558 Z-42.397
N4395 X26.316 Z-42.146
N4400 X26.051 Z-41.918
N4405 X25.767 Z-41.706
N4410 X25.368 Z-41.449
N4415 X24.952 Z-41.219
N4420 X24.523 Z-41.011
N4425 X23.751 Z-40.685
N4430 X21.977 Z-39.954
N4435 X21.753 Z-39.877
N4440 X21.523 Z-39.818
N4445 X21.288 Z-39.78
N4450 X21.05 Z-39.763
N4455 X16.974 Z-39.569
N4460 X16.52 Z-39.521
N4465 X10.806 Z-38.805
N4470 X8.009 Z-38.23
N4475 X7.774 Z-38.186
N4480 X0.316 Z-36.952
N4485 X0.078 Z-36.929
N4490 X-0.164 Z-36.934
N4495 X-0.5 Z-36.982
N4500 X-7.921 Z-38.212
N4505 X-10.827 Z-38.795
N4510 X-11.776 Z-38.922
N4515 X-17.013 Z-39.591
N4520 X-21.168 Z-39.769
N4525 X-21.455 Z-39.805
N4530 X-21.772 Z-39.883
N4535 X-22.079 Z-39.995
N4540 X-24.379 Z-40.935
N4545 X-24.869 Z-41.164
N4550 X-25.252 Z-41.368
N4555 X-25.623 Z-41.595
N4560 X-25.979 Z-41.848
N4565 X-26.233 Z-42.058
N4570 X-26.469 Z-42.289
N4575 X-26.616 Z-42.458
N4580 X-26.75 Z-42.642
N4585 X-26.874 Z-42.856
N4590 X-26.934 Z-42.993
N4595 X-26.978 Z-43.122
N4600 X-26.999 Z-43.21
N4605 X-27.021 Z-43.356
N4610 X-27.025 Z-95.003
N4615 X-27.525 Y-51.836
N4620 X-27.691 Y-51.757
N4625 Z-43.565
N4630 X-27.678 Z-43.395
N4635 X-27.631 Z-43.198
N4640 X-27.575 Z-43.05
N4645 X-27.519 Z-42.934
N4650 X-27.458 Z-42.828
N4655 X-27.328 Z-42.639
N4660 X-27.186 Z-42.465
N4665 X-26.953 Z-42.229
N4670 X-26.702 Z-42.014
N4675 X-26.349 Z-41.756
N4680 X-25.981 Z-41.526
N4685 X-25.503 Z-41.269
N4690 X-25.011 Z-41.042
N4695 X-21.945 Z-39.791
N4700 X-21.639 Z-39.679
N4705 X-21.322 Z-39.601
N4710 X-21.034 Z-39.566
N4715 X-17.12 Z-39.397
N4720 X-16.882 Z-39.374
N4725 X-11.172 Z-38.641
N4730 X-8.373 Z-38.08
N4735 X-8.136 Z-38.038
N4740 X-0.796 Z-36.823
N4745 X-0.227 Z-36.732
N4750 X0.012 Z-36.72
N4755 X0.251 Z-36.735
N4760 X8.182 Z-38.045
N4765 X8.417 Z-38.089
N4770 X10.768 Z-38.572
N4775 X11.217 Z-38.656
N4780 X16.909 Z-39.369
N4785 X21.044 Z-39.566
N4790 X21.339 Z-39.604
N4795 X21.57 Z-39.658
N4800 X21.795 Z-39.732
N4805 X25.011 Z-41.057
N4810 X25.444 Z-41.256
N4815 X25.866 Z-41.477
N4820 X26.273 Z-41.722
N4825 X26.564 Z-41.924
N4830 X26.841 Z-42.144
N4835 X27.095 Z-42.381
N4840 X27.31 Z-42.623
N4845 X27.442 Z-42.804
N4850 X27.527 Z-42.944
N4855 X27.611 Z-43.13
N4860 X27.649 Z-43.255
N4865 X27.678 Z-43.41
N4870 X27.687 Z-43.566
N4875 Z-95.003
N4880 X27.928 Y-51.6
N4885 X28.167 Y-51.441
N4890 Z-43.542
N4895 X28.15 Z-43.351
N4900 X28.101 Z-43.138
N4905 X28.056 Z-43.015
N4910 X27.967 Z-42.829
N4915 X27.859 Z-42.658
N4920 X27.722 Z-42.483
N4925 X27.565 Z-42.319
N4930 X27.299 Z-42.1
N4935 X27.01 Z-41.894
N4940 X26.606 Z-41.644
N4945 X26.187 Z-41.419
N4950 X25.755 Z-41.216
N4955 X24.76 Z-40.802
N4960 X21.765 Z-39.567
N4965 X21.541 Z-39.486
N4970 X21.313 Z-39.423
N4975 X21.079 Z-39.38
N4980 X20.841 Z-39.359
N4985 X16.886 Z-39.165
N4990 X11.433 Z-38.483
N4995 X8.869 Z-37.956
N5000 X8.634 Z-37.912
N5005 X0.288 Z-36.531
N5010 X0.11 Z-36.514
N5015 X-0.129 Z-36.515
N5020 X-0.344 Z-36.54
N5025 X-8.607 Z-37.908
N5030 X-9.055 Z-37.993
N5035 X-11.408 Z-38.465
N5040 X-11.881 Z-38.533
N5045 X-17.118 Z-39.2
N5050 X-20.851 Z-39.359
N5055 X-21.079 Z-39.38
N5060 X-21.292 Z-39.418
N5065 X-21.607 Z-39.508
N5070 X-22.01 Z-39.667
N5075 X-25.665 Z-41.158
N5080 X-26.157 Z-41.384
N5085 X-26.635 Z-41.64
N5090 X-27.004 Z-41.87
N5095 X-27.358 Z-42.127
N5100 X-27.609 Z-42.341
N5105 X-27.768 Z-42.498
N5110 X-27.912 Z-42.684
N5115 X-28.033 Z-42.889
N5120 X-28.082 Z-42.993
N5125 X-28.13 Z-43.124
N5130 X-28.18 Z-43.324
N5135 X-28.196 Z-43.453
N5140 X-28.201 Z-43.566
N5145 Z-95.003
N5150 X-28.672 Y-51.125
N5155 Z-43.566
N5160 X-28.666 Z-43.442
N5165 X-28.643 Z-43.283
N5170 X-28.59 Z-43.091
N5175 X-28.54 Z-42.964
N5180 X-28.489 Z-42.86
N5185 X-28.366 Z-42.659
N5190 X-28.225 Z-42.478
N5195 X-28.07 Z-42.315
N5200 X-27.903 Z-42.167
N5205 X-27.671 Z-41.992
N5210 X-27.267 Z-41.742
N5215 X-26.788 Z-41.488
N5220 X-26.295 Z-41.264
N5225 X-21.673 Z-39.38
N5230 X-21.366 Z-39.268
N5235 X-21.049 Z-39.192
N5240 X-20.821 Z-39.163
N5245 X-17.091 Z-38.998
N5250 X-11.854 Z-38.328
N5255 X-9.501 Z-37.86
N5260 X-9.053 Z-37.773
N5265 X-1.477 Z-36.519
N5270 X-0.221 Z-36.315
N5275 X0.018 Z-36.303
N5280 X0.256 Z-36.319
N5285 X9.105 Z-37.782
N5290 X11.696 Z-38.312
N5295 X16.91 Z-38.968
N5300 X17.15 Z-38.986
N5305 X20.267 Z-39.134
N5310 X20.865 Z-39.167
N5315 X21.1 Z-39.202
N5320 X21.33 Z-39.258
N5325 X21.555 Z-39.333
N5330 X26.214 Z-41.252
N5335 X26.758 Z-41.497
N5340 X27.181 Z-41.716
N5345 X27.587 Z-41.96
N5350 X27.868 Z-42.166
N5355 X28.04 Z-42.319
N5360 X28.197 Z-42.483
N5365 X28.334 Z-42.658
N5370 X28.445 Z-42.836
N5375 X28.542 Z-43.043
N5380 X28.59 Z-43.189
N5385 X28.629 Z-43.376
N5390 X28.642 Z-43.545
N5395 Z-95.003
N5400 X29.117 Y-50.809
N5405 X29.116 Z-43.549
N5410 X29.098 Z-43.341
N5415 X29.054 Z-43.151
N5420 X28.976 Z-42.947
N5425 X28.872 Z-42.754
N5430 X28.745 Z-42.573
N5435 X28.597 Z-42.402
N5440 X28.432 Z-42.242
N5445 X28.253 Z-42.095
N5450 X27.962 Z-41.896
N5455 X27.654 Z-41.723
N5460 X27.221 Z-41.526
N5465 X26.805 Z-41.346
N5470 X21.48 Z-39.151
N5475 X21.257 Z-39.072
N5480 X21.028 Z-39.011
N5485 X20.794 Z-38.97
N5490 X20.556 Z-38.951
N5495 X17.199 Z-38.791
N5500 X16.959 Z-38.773
N5505 X11.983 Z-38.146
N5510 X9.539 Z-37.646
N5515 X0.306 Z-36.118
N5520 X0.068 Z-36.096
N5525 X-0.174 Z-36.102
N5530 X-0.51 Z-36.151
N5535 X-9.482 Z-37.636
N5540 X-9.93 Z-37.723
N5545 X-12.048 Z-38.147
N5550 X-17.044 Z-38.791
N5555 X-17.523 Z-38.821
N5560 X-20.654 Z-38.956
N5565 X-20.869 Z-38.981
N5570 X-21.187 Z-39.051
N5575 X-21.496 Z-39.158
N5580 X-27.029 Z-41.415
N5585 X-27.617 Z-41.688
N5590 X-27.927 Z-41.855
N5595 X-28.203 Z-42.035
N5600 X-28.461 Z-42.241
N5605 X-28.622 Z-42.396
N5610 X-28.769 Z-42.567
N5615 X-28.901 Z-42.757
N5620 X-29.013 Z-42.969
N5625 X-29.063 Z-43.096
N5630 X-29.115 Z-43.29
N5635 X-29.133 Z-43.4
N5640 X-29.143 Z-43.566
N5645 Z-95.003
N5650 X-29.614 Y-50.493
N5655 Z-43.566
N5660 X-29.608 Z-43.441
N5665 X-29.592 Z-43.317
N5670 X-29.553 Z-43.155
N5675 X-29.514 Z-43.042
N5680 X-29.462 Z-42.92
N5685 X-29.345 Z-42.713
N5690 X-29.209 Z-42.528
N5695 X-29.058 Z-42.361
N5700 X-28.895 Z-42.209
N5705 X-28.635 Z-42.007
N5710 X-28.357 Z-41.83
N5715 X-28.068 Z-41.678
N5720 X-27.769 Z-41.545
N5725 X-27.221 Z-41.341
N5730 X-21.364 Z-38.954
N5735 X-21.056 Z-38.848
N5740 X-20.737 Z-38.777
N5745 X-20.51 Z-38.752
N5750 X-17.258 Z-38.612
N5755 X-12.497 Z-38.008
N5760 X-11.086 Z-37.731
N5765 X-9.932 Z-37.502
N5770 X-0.379 Z-35.921
N5775 X-0.149 Z-35.892
N5780 X0.092 Z-35.889
N5785 X0.33 Z-35.913
N5790 X9.919 Z-37.5
N5795 X10.154 Z-37.545
N5800 X12.245 Z-37.975
N5805 X12.483 Z-38.012
N5810 X16.77 Z-38.548
N5815 X17.223 Z-38.595
N5820 X20.519 Z-38.753
N5825 X20.815 Z-38.791
N5830 X21.046 Z-38.845
N5835 X21.271 Z-38.918
N5840 X27.021 Z-41.283
N5845 X27.472 Z-41.446
N5850 X27.805 Z-41.574
N5855 X28.129 Z-41.723
N5860 X28.436 Z-41.896
N5865 X28.728 Z-42.095
N5870 X28.907 Z-42.242
N5875 X29.072 Z-42.402
N5880 X29.22 Z-42.573
N5885 X29.346 Z-42.754
N5890 X29.458 Z-42.963
N5895 X29.514 Z-43.105
N5900 X29.542 Z-43.197
N5905 X29.581 Z-43.393
N5910 X29.591 Z-43.553
N5915 Z-95.003
N5920 X30.066 Y-50.177
N5925 Z-43.559
N5930 X30.06 Z-43.431
N5935 X30.03 Z-43.249
N5940 X30. Z-43.139
N5945 X29.94 Z-42.98
N5950 X29.881 Z-42.857
N5955 X29.758 Z-42.658
N5960 X29.621 Z-42.483
N5965 X29.464 Z-42.319
N5970 X29.292 Z-42.166
N5975 X29.011 Z-41.96
N5980 X28.707 Z-41.778
N5985 X28.389 Z-41.621
N5990 X28.003 Z-41.466
N5995 X26.592 Z-40.958
N6000 X21.175 Z-38.728
N6005 X20.951 Z-38.652
N6010 X20.721 Z-38.595
N6015 X20.486 Z-38.558
N6020 X19.888 Z-38.525
N6025 X17.251 Z-38.4
N6030 X16.797 Z-38.351
N6035 X12.749 Z-37.844
N6040 X12.3 Z-37.761
N6045 X10.39 Z-37.37
N6050 X0.299 Z-35.7
N6055 X0.12 Z-35.682
N6060 X-0.121
N6065 X-0.351 Z-35.709
N6070 X-10.497 Z-37.39
N6075 X-12.684 Z-37.828
N6080 X-17.204 Z-38.409
N6085 X-20.44 Z-38.553
N6090 X-20.654 Z-38.582
N6095 X-20.972 Z-38.658
N6100 X-21.279 Z-38.769
N6105 X-26.912 Z-41.062
N6110 X-28.142 Z-41.507
N6115 X-28.443 Z-41.633
N6120 X-28.735 Z-41.779
N6125 X-29.017 Z-41.947
N6130 X-29.284 Z-42.14
N6135 X-29.452 Z-42.285
N6140 X-29.609 Z-42.445
N6145 X-29.752 Z-42.621
N6150 X-29.879 Z-42.817
N6155 X-29.937 Z-42.929
N6160 X-29.983 Z-43.036
N6165 X-30.029 Z-43.173
N6170 X-30.071 Z-43.368
N6175 X-30.085 Z-43.565
N6180 Z-95.003
N6185 X-30.556 Y-49.861
N6190 Z-43.565
N6195 X-30.542 Z-43.366
N6200 X-30.499 Z-43.169
N6205 X-30.453 Z-43.033
N6210 X-30.407 Z-42.927
N6215 X-30.348 Z-42.814
N6220 X-30.222 Z-42.619
N6225 X-30.078 Z-42.443
N6230 X-29.921 Z-42.283
N6235 X-29.753 Z-42.139
N6240 X-29.486 Z-41.946
N6245 X-29.204 Z-41.777
N6250 X-28.912 Z-41.632
N6255 X-28.599 Z-41.501
N6260 X-26.455 Z-40.727
N6265 X-21.144 Z-38.564
N6270 X-20.836 Z-38.453
N6275 X-20.519 Z-38.378
N6280 X-20.244 Z-38.345
N6285 X-17.655 Z-38.234
N6290 X-17.176 Z-38.204
N6295 X-13.367 Z-37.717
N6300 X-12.894 Z-37.647
N6305 X-10.823 Z-37.234
N6310 X-0.88 Z-35.588
N6315 X-0.216 Z-35.482
N6320 X0.029 Z-35.471
N6325 X0.267 Z-35.488
N6330 X10.787 Z-37.228
N6335 X13.014 Z-37.677
N6340 X16.348 Z-38.094
N6345 X17.278 Z-38.204
N6350 X20.155 Z-38.341
N6355 X20.393 Z-38.359
N6360 X20.628 Z-38.399
N6365 X20.857 Z-38.46
N6370 X21.08 Z-38.538
N6375 X26.164 Z-40.633
N6380 X28.478 Z-41.466
N6385 X28.864 Z-41.621
N6390 X29.182 Z-41.778
N6395 X29.486 Z-41.96
N6400 X29.767 Z-42.166
N6405 X29.939 Z-42.319
N6410 X30.096 Z-42.483
N6415 X30.233 Z-42.658
N6420 X30.363 Z-42.872
N6425 X30.422 Z-42.996
N6430 X30.481 Z-43.161
N6435 X30.525 Z-43.359
N6440 X30.54 Z-43.522
N6445 X30.541 Z-95.003
N6450 X31.016 Y-49.545
N6455 Z-43.566
N6460 X31.002 Z-43.37
N6465 X30.96 Z-43.175
N6470 X30.905 Z-43.015
N6475 X30.85 Z-42.894
N6480 X30.771 Z-42.754
N6485 X30.644 Z-42.573
N6490 X30.497 Z-42.402
N6495 X30.331 Z-42.242
N6500 X30.152 Z-42.095
N6505 X29.861 Z-41.896
N6510 X29.553 Z-41.723
N6515 X29.23 Z-41.574
N6520 X28.897 Z-41.446
N6525 X25.736 Z-40.308
N6530 X20.873 Z-38.306
N6535 X20.648 Z-38.233
N6540 X20.417 Z-38.18
N6545 X20.121 Z-38.142
N6550 X17.305 Z-38.008
N6555 X13.279 Z-37.509
N6560 X11.42 Z-37.129
N6565 X11.185 Z-37.085
N6570 X0.294 Z-35.283
N6575 X0.056 Z-35.263
N6580 X-0.189 Z-35.271
N6585 X-0.403 Z-35.301
N6590 X-11.349 Z-37.115
N6595 X-13.34 Z-37.512
N6600 X-17.387 Z-38.025
N6605 X-20.157 Z-38.145
N6610 X-20.384 Z-38.174
N6615 X-20.702 Z-38.249
N6620 X-21.009 Z-38.359
N6625 X-25.976 Z-40.383
N6630 X-29.02 Z-41.482
N6635 X-29.333 Z-41.609
N6640 X-29.627 Z-41.751
N6645 X-29.911 Z-41.916
N6650 X-30.18 Z-42.104
N6655 X-30.433 Z-42.323
N6660 X-30.588 Z-42.487
N6665 X-30.728 Z-42.669
N6670 X-30.851 Z-42.872
N6675 X-30.9 Z-42.976
N6680 X-30.95 Z-43.104
N6685 X-31.002 Z-43.299
N6690 X-31.019 Z-43.414
N6695 X-31.027 Z-43.565
N6700 Z-95.003
N6705 X-31.498 Y-49.229
N6710 Z-43.565
N6715 X-31.49 Z-43.412
N6720 X-31.464 Z-43.259
N6725 X-31.423 Z-43.109
N6730 X-31.381 Z-42.998
N6735 X-31.326 Z-42.88
N6740 X-31.206 Z-42.678
N6745 X-31.067 Z-42.496
N6750 X-30.913 Z-42.332
N6755 X-30.664 Z-42.114
N6760 X-30.393 Z-41.923
N6765 X-30.111 Z-41.758
N6770 X-29.817 Z-41.615
N6775 X-29.516 Z-41.492
N6780 X-25.678 Z-40.106
N6785 X-20.841 Z-38.141
N6790 X-20.524 Z-38.032
N6795 X-20.207 Z-37.963
N6800 X-19.992 Z-37.939
N6805 X-17.345 Z-37.823
N6810 X-15.679 Z-37.61
N6815 X-13.539 Z-37.33
N6820 X-11.783 Z-36.979
N6825 X-0.364 Z-35.086
N6830 X-0.149 Z-35.06
N6835 X0.092 Z-35.057
N6840 X0.329 Z-35.08
N6845 X11.693 Z-36.962
N6850 X13.549 Z-37.342
N6855 X17.336 Z-37.812
N6860 X19.494 Z-37.915
N6865 X20.092 Z-37.948
N6870 X20.327 Z-37.984
N6875 X20.557 Z-38.041
N6880 X20.782 Z-38.117
N6885 X25.307 Z-39.982
N6890 X29.427 Z-41.466
N6895 X29.814 Z-41.621
N6900 X30.132 Z-41.778
N6905 X30.436 Z-41.96
N6910 X30.716 Z-42.166
N6915 X30.889 Z-42.319
N6920 X31.045 Z-42.483
N6925 X31.182 Z-42.658
N6930 X31.284 Z-42.818
N6935 X31.387 Z-43.033
N6940 X31.438 Z-43.187
N6945 X31.477 Z-43.373
N6950 X31.49 Z-43.524
N6955 X31.491 Z-95.003
N6960 X31.965 Y-48.913
N6965 Z-43.526
N6970 X31.941 Z-43.306
N6975 X31.917 Z-43.201
N6980 X31.869 Z-43.053
N6985 X31.774 Z-42.845
N6990 X31.657 Z-42.658
N6995 X31.52 Z-42.483
N7000 X31.364 Z-42.319
N7005 X31.191 Z-42.166
N7010 X30.911 Z-41.96
N7015 X30.606 Z-41.778
N7020 X30.289 Z-41.621
N7025 X29.902 Z-41.466
N7030 X24.879 Z-39.656
N7035 X20.686 Z-37.928
N7040 X20.463 Z-37.849
N7045 X20.234 Z-37.789
N7050 X19.999 Z-37.749
N7055 X19.761 Z-37.731
N7060 X17.364 Z-37.616
N7065 X13.815 Z-37.171
N7070 X12.105 Z-36.821
N7075 X0.297 Z-34.868
N7080 X0.12 Z-34.85
N7085 X-0.12
N7090 X-0.388 Z-34.882
N7095 X-12.204 Z-36.84
N7100 X-13.96 Z-37.188
N7105 X-17.293 Z-37.615
N7110 X-17.531 Z-37.635
N7115 X-19.819 Z-37.733
N7120 X-20.046 Z-37.755
N7125 X-20.26 Z-37.795
N7130 X-20.574 Z-37.886
N7135 X-21.421 Z-38.227
N7140 X-25.199 Z-39.764
N7145 X-30.04 Z-41.512
N7150 X-30.341 Z-41.639
N7155 X-30.632 Z-41.786
N7160 X-30.914 Z-41.956
N7165 X-31.18 Z-42.15
N7170 X-31.347 Z-42.296
N7175 X-31.503 Z-42.457
N7180 X-31.646 Z-42.634
N7185 X-31.771 Z-42.831
N7190 X-31.829 Z-42.945
N7195 X-31.874 Z-43.053
N7200 X-31.919 Z-43.192
N7205 X-31.956 Z-43.378
N7210 X-31.969 Z-43.565
N7215 Z-95.003
N7220 X-32.44 Y-48.597
N7225 Z-43.565
N7230 X-32.425 Z-43.359
N7235 X-32.379 Z-43.155
N7240 X-32.332 Z-43.021
N7245 X-32.285 Z-42.915
N7250 X-32.226 Z-42.803
N7255 X-32.098 Z-42.609
N7260 X-31.954 Z-42.434
N7265 X-31.796 Z-42.275
N7270 X-31.628 Z-42.131
N7275 X-31.36 Z-41.939
N7280 X-31.078 Z-41.772
N7285 X-30.785 Z-41.627
N7290 X-30.473 Z-41.497
N7295 X-24.716 Z-39.419
N7300 X-21.383 Z-38.062
N7305 X-20.435 Z-37.68
N7310 X-20.122 Z-37.59
N7315 X-19.909 Z-37.551
N7320 X-19.693 Z-37.53
N7325 X-17.526 Z-37.437
N7330 X-17.288 Z-37.413
N7335 X-14.196 Z-37.016
N7340 X-12.596 Z-36.696
N7345 X-0.995 Z-34.775
N7350 X-0.213 Z-34.649
N7355 X0.027 Z-34.638
N7360 X0.265 Z-34.655
N7365 X12.221 Z-36.633
N7370 X12.693 Z-36.715
N7375 X14.079 Z-37.
N7380 X14.317 Z-37.036
N7385 X17.39 Z-37.421
N7390 X19.727 Z-37.532
N7395 X20.023 Z-37.569
N7400 X20.254 Z-37.623
N7405 X20.48 Z-37.696
N7410 X24.451 Z-39.33
N7415 X30.321 Z-41.446
N7420 X30.654 Z-41.574
N7425 X30.977 Z-41.723
N7430 X31.285 Z-41.896
N7435 X31.576 Z-42.095
N7440 X31.756 Z-42.242
N7445 X31.921 Z-42.402
N7450 X32.069 Z-42.573
N7455 X32.195 Z-42.754
N7460 X32.263 Z-42.873
N7465 X32.352 Z-43.073
N7470 X32.396 Z-43.215
N7475 X32.418 Z-43.316
N7480 X32.44 Z-43.528
N7485 Z-95.003
N7490 X32.915 Y-48.281
N7495 X32.914 Z-43.529
N7500 X32.894 Z-43.327
N7505 X32.874 Z-43.231
N7510 X32.834 Z-43.094
N7515 X32.753 Z-42.903
N7520 X32.67 Z-42.754
N7525 X32.544 Z-42.573
N7530 X32.396 Z-42.402
N7535 X32.231 Z-42.242
N7540 X32.051 Z-42.095
N7545 X31.76 Z-41.896
N7550 X31.452 Z-41.723
N7555 X31.129 Z-41.574
N7560 X30.796 Z-41.446
N7565 X24.022 Z-39.004
N7570 X20.384 Z-37.505
N7575 X20.159 Z-37.43
N7580 X19.929 Z-37.373
N7585 X19.694 Z-37.337
N7590 X19.096 Z-37.305
N7595 X17.418 Z-37.224
N7600 X14.585 Z-36.869
N7605 X14.136 Z-36.786
N7610 X12.96 Z-36.547
N7615 X0.294 Z-34.451
N7620 X0.056 Z-34.431
N7625 X-0.186 Z-34.438
N7630 X-0.522 Z-34.488
N7635 X-13.045 Z-36.562
N7640 X-14.41 Z-36.835
N7645 X-14.883 Z-36.904
N7650 X-17.501 Z-37.238
N7655 X-19.549 Z-37.326
N7660 X-19.776 Z-37.347
N7665 X-19.99 Z-37.386
N7670 X-20.304 Z-37.476
N7675 X-20.929 Z-37.727
N7680 X-24.263 Z-39.085
N7685 X-30.918 Z-41.488
N7690 X-31.231 Z-41.616
N7695 X-31.524 Z-41.759
N7700 X-31.808 Z-41.924
N7705 X-32.077 Z-42.114
N7710 X-32.329 Z-42.334
N7715 X-32.482 Z-42.499
N7720 X-32.622 Z-42.682
N7725 X-32.743 Z-42.887
N7730 X-32.791 Z-42.992
N7735 X-32.84 Z-43.122
N7740 X-32.89 Z-43.321
N7745 X-32.906 Z-43.449
N7750 X-32.911 Z-43.566
N7755 Z-95.003
N7760 X-33.382 Y-47.965
N7765 Z-43.565
N7770 X-33.364 Z-43.342
N7775 X-33.327 Z-43.174
N7780 X-33.289 Z-43.06
N7785 X-33.238 Z-42.936
N7790 X-33.123 Z-42.728
N7795 X-32.988 Z-42.541
N7800 X-32.838 Z-42.373
N7805 X-32.592 Z-42.149
N7810 X-32.325 Z-41.954
N7815 X-32.044 Z-41.785
N7820 X-31.752 Z-41.638
N7825 X-31.452 Z-41.511
N7830 X-23.781 Z-38.739
N7835 X-20.369 Z-37.349
N7840 X-20.063 Z-37.237
N7845 X-19.746 Z-37.16
N7850 X-19.518 Z-37.13
N7855 X-17.474 Z-37.034
N7860 X-14.855 Z-36.699
N7865 X-13.492 Z-36.428
N7870 X-0.387 Z-34.258
N7875 X-0.158 Z-34.228
N7880 X0.084 Z-34.224
N7885 X0.322 Z-34.247
N7890 X13.343 Z-36.402
N7895 X14.85 Z-36.701
N7900 X17.445 Z-37.026
N7905 X19.363 Z-37.12
N7910 X19.601 Z-37.138
N7915 X19.836 Z-37.178
N7920 X20.065 Z-37.237
N7925 X20.289 Z-37.316
N7930 X23.594 Z-38.678
N7935 X31.271 Z-41.446
N7940 X31.603 Z-41.574
N7945 X31.927 Z-41.723
N7950 X32.235 Z-41.896
N7955 X32.526 Z-42.095
N7960 X32.705 Z-42.242
N7965 X32.871 Z-42.402
N7970 X33.018 Z-42.573
N7975 X33.145 Z-42.754
N7980 X33.243 Z-42.934
N7985 X33.316 Z-43.116
N7990 X33.353 Z-43.246
N7995 X33.371 Z-43.338
N8000 X33.389 Z-43.531
N8005 X33.39 Z-95.003
N8010 X33.864 Y-47.649
N8015 Z-43.533
N8020 X33.848 Z-43.35
N8025 X33.798 Z-43.14
N8030 X33.733 Z-42.966
N8035 X33.62 Z-42.754
N8040 X33.493 Z-42.573
N8045 X33.345 Z-42.402
N8050 X33.18 Z-42.242
N8055 X33.001 Z-42.095
N8060 X32.71 Z-41.896
N8065 X32.402 Z-41.723
N8070 X32.078 Z-41.574
N8075 X31.745 Z-41.446
N8080 X23.166 Z-38.352
N8085 X20.193 Z-37.127
N8090 X19.969 Z-37.045
N8095 X19.741 Z-36.982
N8100 X19.507 Z-36.94
N8105 X19.27 Z-36.919
N8110 X17.472 Z-36.829
N8115 X15.115 Z-36.534
N8120 X13.961 Z-36.299
N8125 X13.489 Z-36.218
N8130 X0.29 Z-34.034
N8135 X0.111 Z-34.017
N8140 X-0.131 Z-34.018
N8145 X-0.36 Z-34.045
N8150 X-13.701 Z-36.253
N8155 X-13.938 Z-36.295
N8160 X-15.09 Z-36.526
N8165 X-17.468 Z-36.832
N8170 X-17.947 Z-36.862
N8175 X-19.332 Z-36.922
N8180 X-19.607 Z-36.955
N8185 X-19.923 Z-37.031
N8190 X-20.231 Z-37.142
N8195 X-23.542 Z-38.486
N8200 X-31.894 Z-41.5
N8205 X-32.195 Z-41.625
N8210 X-32.488 Z-41.77
N8215 X-32.77 Z-41.937
N8220 X-33.039 Z-42.13
N8225 X-33.287 Z-42.35
N8230 X-33.439 Z-42.516
N8235 X-33.576 Z-42.7
N8240 X-33.694 Z-42.905
N8245 X-33.747 Z-43.025
N8250 X-33.787 Z-43.138
N8255 X-33.827 Z-43.294
N8260 X-33.847 Z-43.429
N8265 X-33.853 Z-43.565
N8270 Z-95.003
N8275 X-34.324 Y-47.333
N8280 Z-43.565
N8285 X-34.314 Z-43.392
N8290 X-34.281 Z-43.22
N8295 X-34.238 Z-43.077
N8300 X-34.194 Z-42.968
N8305 X-34.138 Z-42.852
N8310 X-34.015 Z-42.653
N8315 X-33.874 Z-42.474
N8320 X-33.719 Z-42.312
N8325 X-33.553 Z-42.164
N8330 X-33.288 Z-41.968
N8335 X-33.007 Z-41.797
N8340 X-32.716 Z-41.648
N8345 X-32.416 Z-41.52
N8350 X-23.06 Z-38.142
N8355 X-20.093 Z-36.936
N8360 X-19.786 Z-36.825
N8365 X-19.469 Z-36.75
N8370 X-19.241 Z-36.722
N8375 X-17.676 Z-36.653
N8380 X-15.772 Z-36.414
N8385 X-15.298 Z-36.344
N8390 X-14.381 Z-36.16
N8395 X-14.144 Z-36.118
N8400 X-1.123 Z-33.963
N8405 X-0.222 Z-33.818
N8410 X0.023 Z-33.806
N8415 X0.261 Z-33.822
N8420 X14.347 Z-36.154
N8425 X15.381 Z-36.366
N8430 X17.499 Z-36.632
N8435 X18.698 Z-36.694
N8440 X19.296 Z-36.727
N8445 X19.531 Z-36.762
N8450 X19.762 Z-36.818
N8455 X19.986 Z-36.893
N8460 X22.737 Z-38.026
N8465 X32.276 Z-41.466
N8470 X32.663 Z-41.621
N8475 X32.98 Z-41.778
N8480 X33.284 Z-41.96
N8485 X33.565 Z-42.166
N8490 X33.738 Z-42.319
N8495 X33.894 Z-42.483
N8500 X34.031 Z-42.658
N8505 X34.158 Z-42.865
N8510 X34.222 Z-43.001
N8515 X34.281 Z-43.164
N8520 X34.324 Z-43.363
N8525 X34.339 Z-43.535
N8530 Z-95.003
N8535 X34.814 Y-47.017
N8540 Z-43.537
N8545 X34.801 Z-43.376
N8550 X34.763 Z-43.191
N8555 X34.712 Z-43.038
N8560 X34.641 Z-42.88
N8565 X34.569 Z-42.754
N8570 X34.443 Z-42.573
N8575 X34.295 Z-42.402
N8580 X34.13 Z-42.242
N8585 X33.95 Z-42.095
N8590 X33.659 Z-41.896
N8595 X33.351 Z-41.723
N8600 X33.028 Z-41.574
N8605 X32.695 Z-41.446
N8610 X22.535 Z-37.788
N8615 X19.891 Z-36.704
N8620 X19.668 Z-36.626
N8625 X19.438 Z-36.566
N8630 X19.203 Z-36.527
N8635 X18.965 Z-36.51
N8640 X17.766 Z-36.453
N8645 X17.527 Z-36.434
N8650 X15.646 Z-36.195
N8655 X14.671 Z-35.997
N8660 X0.288 Z-33.618
N8665 X0.051 Z-33.598
N8670 X-0.194 Z-33.607
N8675 X-0.622 Z-33.672
N8680 X-14.59 Z-35.984
N8685 X-14.827 Z-36.027
N8690 X-15.744 Z-36.209
N8695 X-17.648 Z-36.452
N8700 X-19.091 Z-36.517
N8705 X-19.306 Z-36.542
N8710 X-19.623 Z-36.613
N8715 X-19.933 Z-36.721
N8720 X-22.577 Z-37.797
N8725 X-32.847 Z-41.505
N8730 X-33.16 Z-41.636
N8735 X-33.451 Z-41.782
N8740 X-33.734 Z-41.951
N8745 X-34. Z-42.145
N8750 X-34.167 Z-42.29
N8755 X-34.324 Z-42.45
N8760 X-34.467 Z-42.627
N8765 X-34.593 Z-42.823
N8770 X-34.651 Z-42.936
N8775 X-34.696 Z-43.043
N8780 X-34.742 Z-43.181
N8785 X-34.782 Z-43.372
N8790 X-34.796 Z-43.565
N8795 Z-95.003
N8800 X-35.267 Y-46.701
N8805 Z-43.566
N8810 X-35.26 Z-43.427
N8815 X-35.243 Z-43.308
N8820 X-35.192 Z-43.111
N8825 X-35.142 Z-42.982
N8830 X-35.093 Z-42.878
N8835 X-34.971 Z-42.674
N8840 X-34.831 Z-42.492
N8845 X-34.677 Z-42.327
N8850 X-34.425 Z-42.108
N8855 X-34.156 Z-41.919
N8860 X-33.871 Z-41.754
N8865 X-33.578 Z-41.612
N8870 X-33.265 Z-41.485
N8875 X-22.095 Z-37.452
N8880 X-19.794 Z-36.514
N8885 X-19.485 Z-36.407
N8890 X-19.167 Z-36.337
N8895 X-18.94 Z-36.312
N8900 X-18.097 Z-36.275
N8905 X-17.618 Z-36.247
N8910 X-15.954 Z-36.03
N8915 X-15.484 Z-35.935
N8920 X-15.035 Z-35.85
N8925 X-0.381 Z-33.424
N8930 X-0.166 Z-33.396
N8935 X0.078 Z-33.391
N8940 X0.315 Z-33.413
N8945 X15.068 Z-35.855
N8950 X15.911 Z-36.024
N8955 X16.149 Z-36.061
N8960 X17.34 Z-36.21
N8965 X17.793 Z-36.257
N8970 X18.931 Z-36.311
N8975 X19.227 Z-36.347
N8980 X19.459 Z-36.4
N8985 X19.684 Z-36.472
N8990 X22.106 Z-37.463
N8995 X33.17 Z-41.446
N9000 X33.503 Z-41.574
N9005 X33.826 Z-41.723
N9010 X34.134 Z-41.896
N9015 X34.425 Z-42.095
N9020 X34.604 Z-42.242
N9025 X34.77 Z-42.402
N9030 X34.917 Z-42.573
N9035 X35.044 Z-42.754
N9040 X35.123 Z-42.894
N9045 X35.202 Z-43.078
N9050 X35.245 Z-43.219
N9055 X35.267 Z-43.32
N9060 X35.289 Z-43.539
N9065 Z-95.003
N9070 X35.764 Y-46.385
N9075 X35.763 Z-43.541
N9080 X35.745 Z-43.342
N9085 X35.728 Z-43.25
N9090 X35.692 Z-43.121
N9095 X35.605 Z-42.909
N9100 X35.519 Z-42.754
N9105 X35.392 Z-42.573
N9110 X35.245 Z-42.402
N9115 X35.079 Z-42.242
N9120 X34.9 Z-42.095
N9125 X34.609 Z-41.896
N9130 X34.301 Z-41.723
N9135 X33.977 Z-41.574
N9140 X33.645 Z-41.446
N9145 X21.678 Z-37.137
N9150 X19.589 Z-36.281
N9155 X19.364 Z-36.207
N9160 X19.134 Z-36.151
N9165 X18.898 Z-36.116
N9170 X18.061 Z-36.073
N9175 X17.821 Z-36.061
N9180 X17.367 Z-36.013
N9185 X16.415 Z-35.893
N9190 X15.965 Z-35.81
N9195 X15.495 Z-35.718
N9200 X0.284 Z-33.201
N9205 X0.106 Z-33.184
N9210 X-0.133 Z-33.186
N9215 X-0.349 Z-33.211
N9220 X-15.477 Z-35.714
N9225 X-15.925 Z-35.801
N9230 X-16.395 Z-35.889
N9235 X-17.586 Z-36.042
N9240 X-17.824 Z-36.066
N9245 X-18.787 Z-36.107
N9250 X-19.002 Z-36.129
N9255 X-19.321 Z-36.195
N9260 X-19.631 Z-36.298
N9265 X-21.809 Z-37.18
N9270 X-33.773 Z-41.498
N9275 X-34.074 Z-41.623
N9280 X-34.367 Z-41.767
N9285 X-34.649 Z-41.934
N9290 X-34.918 Z-42.126
N9295 X-35.167 Z-42.346
N9300 X-35.319 Z-42.512
N9305 X-35.456 Z-42.695
N9310 X-35.575 Z-42.899
N9315 X-35.629 Z-43.019
N9320 X-35.669 Z-43.131
N9325 X-35.709 Z-43.286
N9330 X-35.731 Z-43.426
N9335 X-35.738 Z-43.566
N9340 Z-95.003
N9345 X-36.209 Y-46.069
N9350 Z-43.565
N9355 X-36.199 Z-43.405
N9360 X-36.172 Z-43.246
N9365 X-36.129 Z-43.098
N9370 X-36.087 Z-42.988
N9375 X-36.032 Z-42.871
N9380 X-35.91 Z-42.67
N9385 X-35.771 Z-42.489
N9390 X-35.617 Z-42.325
N9395 X-35.367 Z-42.108
N9400 X-35.096 Z-41.918
N9405 X-34.813 Z-41.754
N9410 X-34.519 Z-41.611
N9415 X-34.217 Z-41.488
N9420 X-21.351 Z-36.845
N9425 X-20.017 Z-36.305
N9430 X-19.392 Z-36.054
N9435 X-19.078 Z-35.964
N9440 X-18.865 Z-35.924
N9445 X-18.637 Z-35.903
N9450 X-17.794 Z-35.867
N9455 X-16.607 Z-35.714
N9460 X-16.054 Z-35.603
N9465 X-0.795 Z-33.076
N9470 X-0.226 Z-32.985
N9475 X0.014 Z-32.973
N9480 X0.252 Z-32.988
N9485 X15.759 Z-35.553
N9490 X16.68 Z-35.726
N9495 X16.918 Z-35.755
N9500 X17.848 Z-35.865
N9505 X18.567 Z-35.9
N9510 X18.805 Z-35.917
N9515 X19.04 Z-35.955
N9520 X19.27 Z-36.014
N9525 X19.493 Z-36.092
N9530 X21.249 Z-36.812
N9535 X34.175 Z-41.466
N9540 X34.562 Z-41.621
N9545 X34.88 Z-41.778
N9550 X35.184 Z-41.96
N9555 X35.464 Z-42.166
N9560 X35.637 Z-42.319
N9565 X35.793 Z-42.483
N9570 X35.93 Z-42.658
N9575 X36.041 Z-42.834
N9580 X36.134 Z-43.032
N9585 X36.181 Z-43.17
N9590 X36.224 Z-43.367
N9595 X36.238 Z-43.544
N9600 Z-95.003
N9605 X36.713 Y-45.753
N9610 Z-43.547
N9615 X36.703 Z-43.395
N9620 X36.671 Z-43.226
N9625 X36.62 Z-43.062
N9630 X36.57 Z-42.941
N9635 X36.468 Z-42.754
N9640 X36.342 Z-42.573
N9645 X36.194 Z-42.402
N9650 X36.029 Z-42.242
N9655 X35.849 Z-42.095
N9660 X35.558 Z-41.896
N9665 X35.25 Z-41.723
N9670 X34.927 Z-41.574
N9675 X34.594 Z-41.446
N9680 X20.821 Z-36.487
N9685 X19.398 Z-35.903
N9690 X19.174 Z-35.822
N9695 X18.945 Z-35.76
N9700 X18.711 Z-35.718
N9705 X18.354 Z-35.692
N9710 X17.875 Z-35.669
N9715 X16.945 Z-35.558
N9720 X16.26 Z-35.428
N9725 X0.279 Z-32.784
N9730 X0.041 Z-32.765
N9735 X-0.201 Z-32.775
N9740 X-0.748 Z-32.86
N9745 X-16.48 Z-35.466
N9750 X-17.033 Z-35.568
N9755 X-17.747 Z-35.66
N9760 X-18.587 Z-35.705
N9765 X-18.815 Z-35.734
N9770 X-19.132 Z-35.809
N9775 X-19.439 Z-35.919
N9780 X-20.851 Z-36.495
N9785 X-34.73 Z-41.504
N9790 X-35.042 Z-41.635
N9795 X-35.334 Z-41.781
N9800 X-35.616 Z-41.95
N9805 X-35.882 Z-42.143
N9810 X-36.05 Z-42.288
N9815 X-36.206 Z-42.448
N9820 X-36.35 Z-42.625
N9825 X-36.476 Z-42.821
N9830 X-36.534 Z-42.934
N9835 X-36.58 Z-43.041
N9840 X-36.625 Z-43.178
N9845 X-36.666 Z-43.372
N9850 X-36.68 Z-43.566
N9855 Z-95.003
N9860 X-36.915 Y-45.595
N9865 X-37.15 Y-45.437
N9870 Z-43.565
N9875 X-37.143 Z-43.418
N9880 X-37.105 Z-43.209
N9885 X-37.042 Z-43.02
N9890 X-36.995 Z-42.914
N9895 X-36.936 Z-42.802
N9900 X-36.808 Z-42.608
N9905 X-36.664 Z-42.433
N9910 X-36.506 Z-42.275
N9915 X-36.338 Z-42.131
N9920 X-36.07 Z-41.939
N9925 X-35.787 Z-41.771
N9930 X-35.495 Z-41.627
N9935 X-35.182 Z-41.497
N9940 X-20.401 Z-36.161
N9945 X-19.312 Z-35.718
N9950 X-19.004 Z-35.606
N9955 X-18.687 Z-35.531
N9960 X-18.473 Z-35.503
N9965 X-17.991 Z-35.48
N9970 X-17.753 Z-35.459
N9975 X-17.277 Z-35.398
N9980 X-16.906 Z-35.328
N9985 X-0.991 Z-32.692
N9990 X-0.208 Z-32.567
N9995 X0.032 Z-32.557
N10000 X0.27 Z-32.574
N10005 X16.488 Z-35.257
N10010 X16.96 Z-35.339
N10015 X17.171 Z-35.382
N10020 X17.863 Z-35.472
N10025 X18.342 Z-35.495
N10030 X18.58 Z-35.515
N10035 X18.814 Z-35.556
N10040 X19.043 Z-35.618
N10045 X19.266 Z-35.699
N10050 X20.352 Z-36.147
N10055 X35.084 Z-41.452
N10060 X35.472 Z-41.604
N10065 X35.792 Z-41.758
N10070 X36.098 Z-41.936
N10075 X36.381 Z-42.14
N10080 X36.556 Z-42.29
N10085 X36.716 Z-42.453
N10090 X36.856 Z-42.625
N10095 X36.98 Z-42.822
N10100 X37.07 Z-43.027
N10105 X37.131 Z-43.241
N10110 X37.161 Z-43.463
N10115 X37.164 Z-95.003
N10120 X37.342 Y-45.28
N10125 X37.517 Y-45.121
N10130 Z-43.473
N10135 X37.503 Z-43.287
N10140 X37.461 Z-43.076
N10145 X37.406 Z-42.905
N10150 X37.339 Z-42.754
N10155 X37.273 Z-42.633
N10160 X37.149 Z-42.453
N10165 X37.002 Z-42.284
N10170 X36.835 Z-42.128
N10175 X36.601 Z-41.955
N10180 X36.35 Z-41.803
N10185 X36.034 Z-41.643
N10190 X35.649 Z-41.484
N10195 X20.014 Z-35.855
N10200 X19.034 Z-35.457
N10205 X18.809 Z-35.384
N10210 X18.578 Z-35.332
N10215 X18.283 Z-35.295
N10220 X17.984 Z-35.28
N10225 X17.53 Z-35.23
N10230 X17.08 Z-35.147
N10235 X0.27 Z-32.366
N10240 X0.032 Z-32.349
N10245 X-0.213 Z-32.36
N10250 X-0.64 Z-32.426
N10255 X-17.213 Z-35.169
N10260 X-17.661 Z-35.246
N10265 X-17.899 Z-35.276
N10270 X-18.378 Z-35.303
N10275 X-18.592 Z-35.334
N10280 X-18.908 Z-35.414
N10285 X-19.215 Z-35.528
N10290 X-20.081 Z-35.877
N10295 X-35.656 Z-41.498
N10300 X-35.957 Z-41.622
N10305 X-36.251 Z-41.767
N10310 X-36.532 Z-41.933
N10315 X-36.802 Z-42.125
N10320 X-37.01 Z-42.309
N10325 X-37.127 Z-42.439
N10330 X-37.264 Z-42.627
N10335 X-37.38 Z-42.84
N10340 X-37.424 Z-42.947
N10345 X-37.469 Z-43.083
N10350 X-37.513 Z-43.287
N10355 X-37.528 Z-43.421
N10360 X-37.532 Z-95.003
N10365 X-37.88 Y-44.805
N10370 Z-43.458
N10375 X-37.875 Z-43.333
N10380 X-37.86 Z-43.202
N10385 X-37.816 Z-42.999
N10390 X-37.771 Z-42.863
N10395 X-37.726 Z-42.756
N10400 X-37.61 Z-42.544
N10405 X-37.473 Z-42.356
N10410 X-37.318 Z-42.189
N10415 X-37.149 Z-42.041
N10420 X-36.969 Z-41.911
N10425 X-36.78 Z-41.797
N10430 X-36.489 Z-41.65
N10435 X-36.19 Z-41.522
N10440 X-19.711 Z-35.573
N10445 X-18.864 Z-35.239
N10450 X-18.55 Z-35.149
N10455 X-18.336 Z-35.11
N10460 X-18.048 Z-35.087
N10465 X-17.777 Z-35.056
N10470 X-0.518 Z-32.198
N10475 X-0.182 Z-32.149
N10480 X0.06 Z-32.141
N10485 X0.298 Z-32.162
N10490 X16.753 Z-34.885
N10495 X17.809 Z-35.063
N10500 X18.247 Z-35.1
N10505 X18.483 Z-35.135
N10510 X18.713 Z-35.191
N10515 X18.938 Z-35.266
N10520 X19.47 Z-35.484
N10525 X36.104 Z-41.477
N10530 X36.595 Z-41.678
N10535 X36.803 Z-41.786
N10540 X37. Z-41.911
N10545 X37.184 Z-42.051
N10550 X37.351 Z-42.206
N10555 X37.498 Z-42.375
N10560 X37.622 Z-42.556
N10565 X37.705 Z-42.709
N10570 X37.758 Z-42.836
N10575 X37.812 Z-43.004
N10580 X37.853 Z-43.21
N10585 X37.866 Z-43.382
N10590 X37.867 Z-95.003
N10595 X38.216 Y-44.489
N10600 Z-43.323
N10605 X38.197 Z-43.098
N10610 X38.178 Z-42.996
N10615 X38.14 Z-42.853
N10620 X38.056 Z-42.636
N10625 X37.971 Z-42.478
N10630 X37.847 Z-42.298
N10635 X37.7 Z-42.128
N10640 X37.533 Z-41.973
N10645 X37.35 Z-41.833
N10650 X37.152 Z-41.709
N10655 X36.944 Z-41.6
N10660 X36.615 Z-41.466
N10665 X24.552 Z-37.146
N10670 X19.133 Z-35.195
N10675 X18.808 Z-35.063
N10680 X18.594 Z-34.991
N10685 X18.364 Z-34.934
N10690 X18.07 Z-34.892
N10695 X0.278 Z-31.951
N10700 X0.04 Z-31.933
N10705 X-0.205 Z-31.943
N10710 X-0.632 Z-32.009
N10715 X-18.063 Z-34.891
N10720 X-18.271 Z-34.917
N10725 X-18.495 Z-34.964
N10730 X-18.807 Z-35.063
N10735 X-19.434 Z-35.304
N10740 X-33.883 Z-40.511
N10745 X-36.707 Z-41.524
N10750 X-37.019 Z-41.659
N10755 X-37.304 Z-41.822
N10760 X-37.484 Z-41.95
N10765 X-37.654 Z-42.096
N10770 X-37.809 Z-42.261
N10775 X-37.947 Z-42.447
N10780 X-38.064 Z-42.654
N10785 X-38.117 Z-42.777
N10790 X-38.155 Z-42.889
N10795 X-38.194 Z-43.041
N10800 X-38.219 Z-43.207
N10805 X-38.228 Z-43.377
N10810 Z-95.003
N10815 X-38.576 Y-44.173
N10820 Z-43.296
N10825 X-38.563 Z-43.085
N10830 X-38.523 Z-42.879
N10835 X-38.48 Z-42.739
N10840 X-38.438 Z-42.63
N10845 X-38.381 Z-42.513
N10850 X-38.258 Z-42.312
N10855 X-38.115 Z-42.132
N10860 X-37.955 Z-41.973
N10865 X-37.782 Z-41.832
N10870 X-37.599 Z-41.708
N10875 X-37.408 Z-41.6
N10880 X-37.11 Z-41.465
N10885 X-20.17 Z-35.384
N10890 X-18.608 Z-34.833
N10895 X-18.4 Z-34.769
N10900 X-17.766 Z-34.637
N10905 X-0.506 Z-31.78
N10910 X-0.171 Z-31.731
N10915 X0.071 Z-31.726
N10920 X0.309 Z-31.747
N10925 X17.592 Z-34.608
N10930 X18.209 Z-34.726
N10935 X18.526 Z-34.805
N10940 X19.171 Z-35.029
N10945 X36.964 Z-41.388
N10950 X37.293 Z-41.523
N10955 X37.502 Z-41.631
N10960 X37.699 Z-41.755
N10965 X37.883 Z-41.895
N10970 X38.05 Z-42.051
N10975 X38.197 Z-42.22
N10980 X38.32 Z-42.4
N10985 X38.385 Z-42.518
N10990 X38.475 Z-42.73
N10995 X38.52 Z-42.885
N11000 X38.542 Z-42.996
N11005 X38.565 Z-43.231
N11010 Z-95.003
N11015 X38.915 Y-43.857
N11020 X38.914 Z-43.176
N11025 X38.905 Z-43.012
N11030 X38.875 Z-42.833
N11035 X38.824 Z-42.651
N11040 X38.772 Z-42.52
N11045 X38.67 Z-42.323
N11050 X38.546 Z-42.142
N11055 X38.399 Z-41.973
N11060 X38.232 Z-41.818
N11065 X38.048 Z-41.678
N11070 X37.851 Z-41.553
N11075 X37.643 Z-41.445
N11080 X37.314 Z-41.311
N11085 X21.254 Z-35.571
N11090 X18.621 Z-34.655
N11095 X18.274 Z-34.572
N11100 X17.337 Z-34.367
N11105 X16.866 Z-34.279
N11110 X0.293 Z-31.537
N11115 X0.055 Z-31.517
N11120 X-0.189 Z-31.525
N11125 X-0.404 Z-31.555
N11130 X-17.059 Z-34.313
N11135 X-17.798 Z-34.467
N11140 X-18.501 Z-34.623
N11145 X-18.812 Z-34.72
N11150 X-21.836 Z-35.777
N11155 X-37.422 Z-41.371
N11160 X-37.721 Z-41.501
N11165 X-38.008 Z-41.666
N11170 X-38.188 Z-41.796
N11175 X-38.358 Z-41.943
N11180 X-38.513 Z-42.11
N11185 X-38.651 Z-42.297
N11190 X-38.767 Z-42.508
N11195 X-38.813 Z-42.616
N11200 X-38.858 Z-42.751
N11205 X-38.903 Z-42.952
N11210 X-38.918 Z-43.077
N11215 X-38.924 Z-43.216
N11220 Z-95.003
N11225 X-39.272 Y-43.541
N11230 Z-43.136
N11235 X-39.265 Z-42.984
N11240 X-39.242 Z-42.819
N11245 X-39.193 Z-42.626
N11250 X-39.145 Z-42.495
N11255 X-39.097 Z-42.39
N11260 X-38.976 Z-42.183
N11265 X-38.835 Z-41.999
N11270 X-38.677 Z-41.836
N11275 X-38.506 Z-41.692
N11280 X-38.324 Z-41.565
N11285 X-38.035 Z-41.404
N11290 X-37.735 Z-41.277
N11295 X-23.843 Z-36.292
N11300 X-18.841 Z-34.546
N11305 X-18.579 Z-34.471
N11310 X-16.963 Z-34.115
N11315 X-16.329 Z-33.984
N11320 X-0.384 Z-31.343
N11325 X-0.154 Z-31.314
N11330 X0.087 Z-31.31
N11335 X0.325 Z-31.334
N11340 X16.07 Z-33.939
N11345 X16.541 Z-34.024
N11350 X18.416 Z-34.435
N11355 X18.762 Z-34.52
N11360 X23.335 Z-36.113
N11365 X37.663 Z-41.233
N11370 X37.992 Z-41.367
N11375 X38.2 Z-41.476
N11380 X38.397 Z-41.6
N11385 X38.581 Z-41.74
N11390 X38.748 Z-41.895
N11395 X38.895 Z-42.065
N11400 X39.019 Z-42.245
N11405 X39.12 Z-42.439
N11410 X39.192 Z-42.631
N11415 X39.228 Z-42.77
N11420 X39.246 Z-42.869
N11425 X39.263 Z-43.08
N11430 X39.264 Z-95.003
N11435 X39.613 Y-43.225
N11440 X39.61 Z-42.932
N11445 X39.58 Z-42.705
N11450 X39.519 Z-42.487
N11455 X39.429 Z-42.276
N11460 X39.306 Z-42.072
N11465 X39.171 Z-41.898
N11470 X39.014 Z-41.736
N11475 X38.839 Z-41.589
N11480 X38.648 Z-41.457
N11485 X38.445 Z-41.341
N11490 X38.124 Z-41.197
N11495 X25.518 Z-36.69
N11500 X18.88 Z-34.377
N11505 X18.534 Z-34.293
N11510 X15.838 Z-33.701
N11515 X15.249 Z-33.595
N11520 X0.333 Z-31.127
N11525 X0.096 Z-31.102
N11530 X-0.144 Z-31.105
N11535 X-0.359 Z-31.131
N11540 X-15.593 Z-33.654
N11545 X-16.332 Z-33.808
N11550 X-18.793 Z-34.352
N11555 X-19.116 Z-34.457
N11560 X-25.89 Z-36.821
N11565 X-38.087 Z-41.198
N11570 X-38.388 Z-41.326
N11575 X-38.677 Z-41.487
N11580 X-38.858 Z-41.615
N11585 X-39.029 Z-41.759
N11590 X-39.187 Z-41.923
N11595 X-39.327 Z-42.107
N11600 X-39.447 Z-42.315
N11605 X-39.495 Z-42.42
N11610 X-39.543 Z-42.551
N11615 X-39.591 Z-42.745
N11620 X-39.614 Z-42.91
N11625 X-39.62 Z-43.056
N11630 Z-95.003
N11635 X-39.968 Y-42.909
N11640 Z-42.975
N11645 X-39.959 Z-42.8
N11650 X-39.943 Z-42.687
N11655 X-39.896 Z-42.49
N11660 X-39.85 Z-42.357
N11665 X-39.803 Z-42.25
N11670 X-39.685 Z-42.041
N11675 X-39.546 Z-41.855
N11680 X-39.389 Z-41.69
N11685 X-39.219 Z-41.544
N11690 X-39.038 Z-41.416
N11695 X-38.75 Z-41.253
N11700 X-38.45 Z-41.123
N11705 X-27.947 Z-37.354
N11710 X-19.093 Z-34.265
N11715 X-18.831 Z-34.191
N11720 X-15.339 Z-33.421
N11725 X-14.798 Z-33.313
N11730 X-0.499 Z-30.946
N11735 X-0.163 Z-30.898
N11740 X0.079 Z-30.893
N11745 X0.317 Z-30.916
N11750 X14.641 Z-33.287
N11755 X15.112 Z-33.373
N11760 X18.817 Z-34.188
N11765 X19.088 Z-34.263
N11770 X27.55 Z-37.214
N11775 X38.362 Z-41.078
N11780 X38.69 Z-41.212
N11785 X38.899 Z-41.321
N11790 X39.096 Z-41.445
N11795 X39.28 Z-41.585
N11800 X39.447 Z-41.74
N11805 X39.594 Z-41.909
N11810 X39.718 Z-42.09
N11815 X39.786 Z-42.214
N11820 X39.855 Z-42.371
N11825 X39.908 Z-42.54
N11830 X39.949 Z-42.747
N11835 X39.962 Z-42.93
N11840 Z-95.003
N11845 X40.312 Y-42.593
N11850 X40.311 Z-42.839
N11855 X40.298 Z-42.669
N11860 X40.258 Z-42.464
N11865 X40.205 Z-42.297
N11870 X40.152 Z-42.172
N11875 X40.067 Z-42.012
N11880 X39.943 Z-41.832
N11885 X39.796 Z-41.662
N11890 X39.629 Z-41.507
N11895 X39.445 Z-41.367
N11900 X39.248 Z-41.243
N11905 X39.04 Z-41.134
N11910 X38.711 Z-41.
N11915 X29.606 Z-37.747
N11920 X19.172 Z-34.109
N11925 X18.885 Z-34.035
N11930 X14.433 Z-33.054
N11935 X13.844 Z-32.947
N11940 X0.29 Z-30.704
N11945 X0.112 Z-30.687
N11950 X-0.127 Z-30.688
N11955 X-0.342 Z-30.712
N11960 X-14.156 Z-33.
N11965 X-14.895 Z-33.155
N11970 X-18.996 Z-34.059
N11975 X-19.217 Z-34.124
N11980 X-30.06 Z-37.907
N11985 X-38.858 Z-41.066
N11990 X-39.157 Z-41.202
N11995 X-39.439 Z-41.371
N12000 X-39.617 Z-41.504
N12005 X-39.783 Z-41.654
N12010 X-39.934 Z-41.824
N12015 X-40.067 Z-42.015
N12020 X-40.178 Z-42.229
N12025 X-40.228 Z-42.357
N12030 X-40.262 Z-42.473
N12035 X-40.297 Z-42.641
N12040 X-40.306 Z-42.715
N12045 X-40.316 Z-42.894
N12050 Z-95.003
N12055 X-40.664 Y-42.277
N12060 Z-42.814
N12065 X-40.656 Z-42.654
N12070 X-40.632 Z-42.488
N12075 X-40.582 Z-42.296
N12080 X-40.534 Z-42.166
N12085 X-40.485 Z-42.061
N12090 X-40.364 Z-41.855
N12095 X-40.222 Z-41.672
N12100 X-40.064 Z-41.509
N12105 X-39.892 Z-41.366
N12110 X-39.71 Z-41.24
N12115 X-39.421 Z-41.08
N12120 X-39.12 Z-40.953
N12125 X-32.118 Z-38.44
N12130 X-19.348 Z-33.986
N12135 X-19.128 Z-33.921
N12140 X-13.879 Z-32.763
N12145 X-13.338 Z-32.655
N12150 X-0.352 Z-30.505
N12155 X-0.122 Z-30.479
N12160 X0.12
N12165 X0.298 Z-30.497
N12170 X12.787 Z-32.563
N12175 X13.613 Z-32.707
N12180 X19.003 Z-33.892
N12185 X19.29 Z-33.966
N12190 X31.763 Z-38.315
N12195 X39.172 Z-40.964
N12200 X39.493 Z-41.108
N12205 X39.696 Z-41.224
N12210 X39.886 Z-41.356
N12215 X40.062 Z-41.503
N12220 X40.219 Z-41.665
N12225 X40.354 Z-41.839
N12230 X40.459 Z-42.01
N12235 X40.546 Z-42.197
N12240 X40.589 Z-42.322
N12245 X40.625 Z-42.461
N12250 X40.652 Z-42.633
N12255 X40.661 Z-42.808
N12260 Z-95.003
N12265 X41.01 Y-41.961
N12270 Z-42.688
N12275 X40.988 Z-42.455
N12280 X40.966 Z-42.345
N12285 X40.922 Z-42.193
N12290 X40.834 Z-41.982
N12295 X40.765 Z-41.857
N12300 X40.642 Z-41.676
N12305 X40.495 Z-41.507
N12310 X40.328 Z-41.352
N12315 X40.144 Z-41.212
N12320 X39.946 Z-41.088
N12325 X39.738 Z-40.979
N12330 X39.409 Z-40.845
N12335 X33.757 Z-38.826
N12340 X19.441 Z-33.834
N12345 X19.185 Z-33.764
N12350 X12.886 Z-32.379
N12355 X12.415 Z-32.294
N12360 X0.34 Z-30.295
N12365 X0.104 Z-30.27
N12370 X-0.136 Z-30.272
N12375 X-0.351 Z-30.297
N12380 X-12.638 Z-32.332
N12385 X-13.272 Z-32.462
N12390 X-19.225 Z-33.773
N12395 X-19.497 Z-33.854
N12400 X-34.254 Z-39.002
N12405 X-39.562 Z-40.909
N12410 X-39.872 Z-41.052
N12415 X-40.063 Z-41.162
N12420 X-40.245 Z-41.289
N12425 X-40.416 Z-41.433
N12430 X-40.574 Z-41.596
N12435 X-40.715 Z-41.779
N12440 X-40.836 Z-41.986
N12445 X-40.884 Z-42.091
N12450 X-40.932 Z-42.222
N12455 X-40.981 Z-42.415
N12460 X-41.005 Z-42.58
N12465 X-41.012 Z-42.734
N12470 Z-95.003
N12475 X-41.36 Y-41.645
N12480 Z-42.654
N12485 X-41.354 Z-42.517
N12490 X-41.338 Z-42.381
N12495 X-41.302 Z-42.217
N12500 X-41.267 Z-42.102
N12505 X-41.217 Z-41.975
N12510 X-41.105 Z-41.763
N12515 X-40.97 Z-41.573
N12520 X-40.818 Z-41.404
N12525 X-40.652 Z-41.255
N12530 X-40.473 Z-41.123
N12535 X-40.19 Z-40.955
N12540 X-39.879 Z-40.816
N12545 X-36.378 Z-39.558
N12550 X-19.634 Z-33.717
N12555 X-19.425 Z-33.651
N12560 X-12.418 Z-32.105
N12565 X-11.889 Z-31.999
N12570 X-1.366 Z-30.257
N12575 X-0.229 Z-30.072
N12580 X0.016 Z-30.059
N12585 X0.254 Z-30.075
N12590 X11.619 Z-31.954
N12595 X12.208 Z-32.06
N12600 X19.326 Z-33.627
N12605 X19.582 Z-33.699
N12610 X35.826 Z-39.364
N12615 X39.759 Z-40.767
N12620 X40.087 Z-40.902
N12625 X40.296 Z-41.01
N12630 X40.493 Z-41.134
N12635 X40.677 Z-41.274
N12640 X40.844 Z-41.43
N12645 X40.991 Z-41.599
N12650 X41.115 Z-41.779
N12655 X41.219 Z-41.981
N12660 X41.298 Z-42.2
N12665 X41.341 Z-42.401
N12670 X41.358 Z-42.574
N12675 X41.36 Z-95.003
N12680 X41.522 Y-41.492
N12685 X41.673 Y-41.329
N12690 X41.669 Z-42.538
N12695 X41.644 Z-42.326
N12700 X41.594 Z-42.106
N12705 X41.498 Z-41.847
N12710 X41.428 Z-41.706
N12715 X41.312 Z-41.522
N12720 X41.173 Z-41.348
N12725 X41.012 Z-41.19
N12730 X40.807 Z-41.033
N12735 X40.53 Z-40.87
N12740 X40.208 Z-40.726
N12745 X37.894 Z-39.901
N12750 X19.688 Z-33.552
N12755 X19.431 Z-33.482
N12760 X11.492 Z-31.734
N12765 X11.021 Z-31.647
N12770 X0.249 Z-29.866
N12775 X0.011 Z-29.851
N12780 X-0.229 Z-29.864
N12785 X-1.035 Z-29.994
N12790 X-11.215 Z-31.68
N12795 X-11.849 Z-31.812
N12800 X-19.5 Z-33.498
N12805 X-19.767 Z-33.579
N12810 X-38.438 Z-40.092
N12815 X-40.245 Z-40.742
N12820 X-40.555 Z-40.884
N12825 X-40.814 Z-41.038
N12830 X-41.013 Z-41.191
N12835 X-41.175 Z-41.35
N12840 X-41.318 Z-41.531
N12845 X-41.441 Z-41.731
N12850 X-41.542 Z-41.952
N12855 X-41.614 Z-42.181
N12860 X-41.649 Z-42.356
N12865 X-41.667 Z-42.508
N12870 X-41.673 Z-42.659
N12875 Z-95.003
N12880 X-41.959 Y-41.013
N12885 Z-42.727
N12890 X-41.946 Z-42.514
N12895 X-41.912 Z-42.305
N12900 X-41.841 Z-42.055
N12905 X-41.751 Z-41.83
N12910 X-41.642 Z-41.623
N12915 X-41.519 Z-41.43
N12920 X-41.38 Z-41.248
N12925 X-41.224 Z-41.083
N12930 X-41.053 Z-40.936
N12935 X-40.87 Z-40.809
N12940 X-40.676 Z-40.703
N12945 X-40.478 Z-40.619
N12950 X-19.853 Z-33.425
N12955 X-19.644 Z-33.362
N12960 X-11.207 Z-31.502
N12965 X-10.467 Z-31.348
N12970 X-1.365 Z-29.84
N12975 X-0.227 Z-29.655
N12980 X0.017 Z-29.643
N12985 X0.256 Z-29.659
N12990 X10.199 Z-31.303
N12995 X10.788 Z-31.411
N13000 X19.577 Z-33.346
N13005 X19.805 Z-33.409
N13010 X39.999 Z-40.451
N13015 X40.598 Z-40.667
N13020 X40.806 Z-40.772
N13025 X41.001 Z-40.897
N13030 X41.179 Z-41.041
N13035 X41.34 Z-41.202
N13040 X41.446 Z-41.33
N13045 X41.607 Z-41.564
N13050 X41.715 Z-41.758
N13055 X41.814 Z-41.979
N13060 X41.887 Z-42.2
N13065 X41.923 Z-42.356
N13070 X41.941 Z-42.466
N13075 X41.959 Z-42.693
N13080 X41.96 Z-95.003
N13085 X42.247 Y-40.697
N13090 X42.246 Z-42.761
N13095 X42.234 Z-42.589
N13100 X42.199 Z-42.378
N13105 X42.152 Z-42.2
N13110 X42.058 Z-41.95
N13115 X41.948 Z-41.729
N13120 X41.768 Z-41.45
N13125 X41.549 Z-41.183
N13130 X41.303 Z-40.94
N13135 X41.124 Z-40.792
N13140 X40.932 Z-40.663
N13145 X40.673 Z-40.527
N13150 X40.289 Z-40.368
N13155 X19.897 Z-33.258
N13160 X19.668 Z-33.198
N13165 X10.059 Z-31.082
N13170 X9.47 Z-30.974
N13175 X0.296 Z-29.456
N13180 X0.118 Z-29.438
N13185 X-0.122
N13190 X-0.39 Z-29.471
N13195 X-9.759 Z-31.023
N13200 X-10.603 Z-31.201
N13205 X-19.743 Z-33.215
N13210 X-20.003 Z-33.294
N13215 X-40.3 Z-40.372
N13220 X-40.602 Z-40.495
N13225 X-40.799 Z-40.588
N13230 X-40.99 Z-40.698
N13235 X-41.214 Z-40.863
N13240 X-41.421 Z-41.05
N13245 X-41.647 Z-41.294
N13250 X-41.785 Z-41.472
N13255 X-41.91 Z-41.662
N13260 X-42.02 Z-41.866
N13265 X-42.113 Z-42.085
N13270 X-42.186 Z-42.325
N13275 X-42.231 Z-42.572
N13280 X-42.244 Z-42.799
N13285 Z-95.003
N13290 X-42.53 Y-40.381
N13295 Z-42.869
N13300 X-42.519 Z-42.659
N13305 X-42.485 Z-42.45
N13310 X-42.45 Z-42.31
N13315 X-42.369 Z-42.078
N13320 X-42.27 Z-41.865
N13325 X-42.154 Z-41.666
N13330 X-42.025 Z-41.48
N13335 X-41.809 Z-41.225
N13340 X-41.569 Z-40.992
N13345 X-41.312 Z-40.786
N13350 X-41.085 Z-40.631
N13355 X-40.662 Z-40.384
N13360 X-40.271 Z-40.194
N13365 X-39.969 Z-40.072
N13370 X-20.125 Z-33.152
N13375 X-19.864 Z-33.074
N13380 X-9.787 Z-30.853
N13385 X-9.048 Z-30.698
N13390 X-1.366 Z-29.424
N13395 X-0.229 Z-29.239
N13400 X0.016 Z-29.227
N13405 X0.255 Z-29.242
N13410 X8.778 Z-30.651
N13415 X9.249 Z-30.737
N13420 X19.795 Z-33.058
N13425 X20.024 Z-33.118
N13430 X39.907 Z-40.05
N13435 X40.293 Z-40.204
N13440 X40.615 Z-40.359
N13445 X40.975 Z-40.562
N13450 X41.317 Z-40.791
N13455 X41.59 Z-41.013
N13460 X41.836 Z-41.256
N13465 X42.055 Z-41.523
N13470 X42.235 Z-41.802
N13475 X42.361 Z-42.059
N13480 X42.418 Z-42.209
N13485 X42.476 Z-42.405
N13490 X42.519 Z-42.639
N13495 X42.533 Z-42.829
N13500 X42.534 Z-95.003
N13505 X42.821 Y-40.065
N13510 Z-42.935
N13515 X42.807 Z-42.722
N13520 X42.766 Z-42.492
N13525 X42.739 Z-42.388
N13530 X42.684 Z-42.224
N13535 X42.576 Z-41.977
N13540 X42.468 Z-41.783
N13545 X42.342 Z-41.596
N13550 X42.123 Z-41.329
N13555 X41.877 Z-41.086
N13560 X41.604 Z-40.864
N13565 X41.313 Z-40.666
N13570 X41.112 Z-40.535
N13575 X40.548 Z-40.202
N13580 X40.181 Z-40.005
N13585 X39.857 Z-39.858
N13590 X39.41 Z-39.693
N13595 X20.149 Z-32.977
N13600 X19.92 Z-32.918
N13605 X8.554 Z-30.415
N13610 X7.964 Z-30.308
N13615 X0.27 Z-29.036
N13620 X0.032 Z-29.019
N13625 X-0.208 Z-29.029
N13630 X-0.991 Z-29.154
N13635 X-8.331 Z-30.371
N13640 X-8.964 Z-30.504
N13645 X-19.979 Z-32.931
N13650 X-20.24 Z-33.008
N13655 X-39.631 Z-39.77
N13660 X-39.933 Z-39.89
N13665 X-40.325 Z-40.079
N13670 X-40.796 Z-40.347
N13675 X-41.003 Z-40.468
N13680 X-41.483 Z-40.774
N13685 X-41.748 Z-40.972
N13690 X-41.994 Z-41.192
N13695 X-42.223 Z-41.439
N13700 X-42.423 Z-41.709
N13705 X-42.54 Z-41.906
N13710 X-42.642 Z-42.118
N13715 X-42.725 Z-42.346
N13720 X-42.762 Z-42.482
N13725 X-42.799 Z-42.683
N13730 X-42.816 Z-42.933
N13735 Z-95.003
N13740 X-43.102 Y-39.749
N13745 Z-43.01
N13750 X-43.098 Z-42.881
N13755 X-43.067 Z-42.644
N13760 X-43.003 Z-42.392
N13765 X-42.918 Z-42.165
N13770 X-42.815 Z-41.955
N13775 X-42.696 Z-41.759
N13780 X-42.493 Z-41.491
N13785 X-42.264 Z-41.246
N13790 X-42.016 Z-41.028
N13795 X-41.739 Z-40.825
N13800 X-41.07 Z-40.397
N13805 X-40.072 Z-39.818
N13810 X-39.683 Z-39.625
N13815 X-39.381 Z-39.5
N13820 X-20.495 Z-32.913
N13825 X-20.173 Z-32.807
N13830 X-8.338 Z-30.198
N13835 X-7.599 Z-30.042
N13840 X-0.627 Z-28.886
N13845 X-0.2 Z-28.82
N13850 X0.045 Z-28.811
N13855 X0.283 Z-28.83
N13860 X7.267 Z-29.985
N13865 X7.856 Z-30.093
N13870 X20.043 Z-32.777
N13875 X20.272 Z-32.836
N13880 X37.946 Z-38.998
N13885 X39.416 Z-39.514
N13890 X39.745 Z-39.653
N13895 X40.062 Z-39.813
N13900 X40.996 Z-40.354
N13905 X41.197 Z-40.477
N13910 X41.6 Z-40.739
N13915 X41.891 Z-40.937
N13920 X42.164 Z-41.159
N13925 X42.41 Z-41.402
N13930 X42.629 Z-41.669
N13935 X42.809 Z-41.948
N13940 X42.907 Z-42.141
N13945 X42.994 Z-42.361
N13950 X43.038 Z-42.506
N13955 X43.073 Z-42.658
N13960 X43.09 Z-42.766
N13965 X43.107 Z-42.998
N13970 X43.108 Z-95.003
N13975 X43.395 Y-39.433
N13980 X43.394 Z-43.063
N13985 X43.38 Z-42.865
N13990 X43.339 Z-42.633
N13995 X43.283 Z-42.439
N14000 X43.216 Z-42.265
N14005 X43.095 Z-42.021
N14010 X42.916 Z-41.742
N14015 X42.696 Z-41.475
N14020 X42.451 Z-41.232
N14025 X42.178 Z-41.01
N14030 X41.887 Z-40.812
N14035 X41.283 Z-40.42
N14040 X41.082 Z-40.293
N14045 X39.838 Z-39.569
N14050 X39.522 Z-39.403
N14055 X39.197 Z-39.258
N14060 X38.749 Z-39.094
N14065 X20.395 Z-32.695
N14070 X20.166 Z-32.636
N14075 X7.159 Z-29.77
N14080 X6.57 Z-29.661
N14085 X0.296 Z-28.623
N14090 X0.058 Z-28.603
N14095 X-0.184 Z-28.61
N14100 X-0.519 Z-28.66
N14105 X-6.769 Z-29.695
N14110 X-7.311 Z-29.803
N14115 X-20.293 Z-32.666
N14120 X-20.616 Z-32.771
N14125 X-39.06 Z-39.204
N14130 X-39.373 Z-39.334
N14135 X-39.763 Z-39.527
N14140 X-41.123 Z-40.317
N14145 X-42.043 Z-40.907
N14150 X-42.319 Z-41.112
N14155 X-42.566 Z-41.332
N14160 X-42.794 Z-41.579
N14165 X-42.994 Z-41.849
N14170 X-43.112 Z-42.046
N14175 X-43.214 Z-42.257
N14180 X-43.297 Z-42.486
N14185 X-43.334 Z-42.622
N14190 X-43.371 Z-42.822
N14195 X-43.388 Z-43.073
N14200 Z-95.003
N14205 X-43.674 Y-39.117
N14210 Z-43.151
N14215 X-43.664 Z-42.957
N14220 X-43.625 Z-42.716
N14225 X-43.555 Z-42.472
N14230 X-43.465 Z-42.25
N14235 X-43.357 Z-42.044
N14240 X-43.235 Z-41.852
N14245 X-43.099 Z-41.672
N14250 X-42.875 Z-41.425
N14255 X-42.628 Z-41.201
N14260 X-42.366 Z-41.003
N14265 X-41.239 Z-40.277
N14270 X-40.156 Z-39.644
N14275 X-39.386 Z-39.2
N14280 X-38.994 Z-39.011
N14285 X-38.68 Z-38.886
N14290 X-20.637 Z-32.594
N14295 X-20.365 Z-32.512
N14300 X-6.679 Z-29.496
N14305 X-6.044 Z-29.367
N14310 X-0.386 Z-28.43
N14315 X-0.172 Z-28.401
N14320 X0.073 Z-28.395
N14325 X0.311 Z-28.417
N14330 X5.756 Z-29.318
N14335 X6.345 Z-29.424
N14340 X20.29 Z-32.495
N14345 X20.519 Z-32.554
N14350 X38.42 Z-38.795
N14355 X38.869 Z-38.958
N14360 X39.194 Z-39.103
N14365 X39.51 Z-39.268
N14370 X41.155 Z-40.226
N14375 X42.174 Z-40.885
N14380 X42.465 Z-41.083
N14385 X42.738 Z-41.305
N14390 X42.983 Z-41.548
N14395 X43.203 Z-41.815
N14400 X43.328 Z-42.002
N14405 X43.437 Z-42.196
N14410 X43.528 Z-42.398
N14415 X43.604 Z-42.624
N14420 X43.643 Z-42.784
N14425 X43.662 Z-42.897
N14430 X43.681 Z-43.13
N14435 Z-95.003
N14440 X43.968 Y-38.801
N14445 Z-43.198
N14450 X43.943 Z-42.934
N14455 X43.895 Z-42.709
N14460 X43.821 Z-42.488
N14465 X43.723 Z-42.269
N14470 X43.615 Z-42.075
N14475 X43.489 Z-41.888
N14480 X43.27 Z-41.621
N14485 X43.025 Z-41.378
N14490 X42.752 Z-41.156
N14495 X42.461 Z-40.958
N14500 X41.199 Z-40.141
N14505 X39.183 Z-38.968
N14510 X38.867 Z-38.803
N14515 X38.541 Z-38.659
N14520 X37.866 Z-38.418
N14525 X20.644 Z-32.414
N14530 X20.415 Z-32.355
N14535 X5.651 Z-29.102
N14540 X5.18 Z-29.015
N14545 X0.326 Z-28.212
N14550 X0.089 Z-28.188
N14555 X-0.153 Z-28.192
N14560 X-0.383 Z-28.221
N14565 X-5.413 Z-29.056
N14570 X-6.046 Z-29.189
N14575 X-20.459 Z-32.364
N14580 X-20.732 Z-32.443
N14585 X-38.435 Z-38.618
N14590 X-38.736 Z-38.742
N14595 X-39.125 Z-38.936
N14600 X-41.202 Z-40.143
N14605 X-42.628 Z-41.057
N14610 X-42.892 Z-41.253
N14615 X-43.14 Z-41.475
N14620 X-43.366 Z-41.719
N14625 X-43.503 Z-41.898
N14630 X-43.628 Z-42.088
N14635 X-43.738 Z-42.292
N14640 X-43.83 Z-42.512
N14645 X-43.903 Z-42.752
N14650 X-43.947 Z-42.998
N14655 X-43.96 Z-43.22
N14660 Z-95.003
N14665 X-44.246 Y-38.485
N14670 Z-43.291
N14675 X-44.237 Z-43.109
N14680 X-44.211 Z-42.927
N14685 X-44.178 Z-42.781
N14690 X-44.102 Z-42.545
N14695 X-44.007 Z-42.328
N14700 X-43.894 Z-42.126
N14705 X-43.767 Z-41.938
N14710 X-43.628 Z-41.762
N14715 X-43.4 Z-41.52
N14720 X-43.149 Z-41.301
N14725 X-42.884 Z-41.107
N14730 X-41.331 Z-40.11
N14735 X-39.442 Z-39.007
N14740 X-38.764 Z-38.617
N14745 X-38.373 Z-38.427
N14750 X-38.071 Z-38.306
N14755 X-20.873 Z-32.308
N14760 X-20.664 Z-32.243
N14765 X-5.221 Z-28.839
N14770 X-4.586 Z-28.709
N14775 X-0.349 Z-28.007
N14780 X-0.134 Z-27.982
N14785 X0.106 Z-27.981
N14790 X0.283 Z-27.997
N14795 X4.367 Z-28.672
N14800 X4.956 Z-28.781
N14805 X20.541 Z-32.214
N14810 X20.77 Z-32.273
N14815 X37.991 Z-38.277
N14820 X38.214 Z-38.36
N14825 X38.54 Z-38.504
N14830 X38.857 Z-38.668
N14835 X41.251 Z-40.061
N14840 X42.748 Z-41.031
N14845 X43.039 Z-41.229
N14850 X43.312 Z-41.451
N14855 X43.557 Z-41.694
N14860 X43.776 Z-41.961
N14865 X43.956 Z-42.24
N14870 X44.077 Z-42.484
N14875 X44.136 Z-42.636
N14880 X44.195 Z-42.835
N14885 X44.24 Z-43.073
N14890 X44.255 Z-43.266
N14895 Z-95.003
N14900 X44.542 Y-38.169
N14905 Z-43.371
N14910 X44.525 Z-43.131
N14915 X44.481 Z-42.903
N14920 X44.402 Z-42.653
N14925 X44.297 Z-42.415
N14930 X44.189 Z-42.221
N14935 X44.063 Z-42.034
N14940 X43.844 Z-41.767
N14945 X43.599 Z-41.524
N14950 X43.326 Z-41.302
N14955 X43.034 Z-41.104
N14960 X41.425 Z-40.058
N14965 X41.223 Z-39.935
N14970 X38.528 Z-38.366
N14975 X38.211 Z-38.203
N14980 X37.885 Z-38.061
N14985 X37.662 Z-37.978
N14990 X20.893 Z-32.132
N14995 X20.664 Z-32.073
N15000 X4.142 Z-28.435
N15005 X3.552 Z-28.329
N15010 X0.297 Z-27.791
N15015 X0.119 Z-27.773
N15020 X-0.123
N15025 X-0.353 Z-27.8
N15030 X-3.856 Z-28.38
N15035 X-4.385 Z-28.486
N15040 X-20.766 Z-32.097
N15045 X-20.976 Z-32.159
N15050 X-37.721 Z-37.999
N15055 X-38.023 Z-38.118
N15060 X-38.415 Z-38.306
N15065 X-38.887 Z-38.573
N15070 X-41.381 Z-40.029
N15075 X-43.152 Z-41.165
N15080 X-43.419 Z-41.358
N15085 X-43.67 Z-41.575
N15090 X-43.9 Z-41.815
N15095 X-44.04 Z-41.99
N15100 X-44.168 Z-42.178
N15105 X-44.282 Z-42.378
N15110 X-44.38 Z-42.593
N15115 X-44.458 Z-42.827
N15120 X-44.492 Z-42.97
N15125 X-44.526 Z-43.223
N15130 X-44.531 Z-43.361
N15135 Z-95.003
N15140 X-44.817 Y-37.853
N15145 Z-43.431
N15150 X-44.808 Z-43.248
N15155 X-44.782 Z-43.064
N15160 X-44.749 Z-42.918
N15165 X-44.673 Z-42.682
N15170 X-44.577 Z-42.466
N15175 X-44.464 Z-42.264
N15180 X-44.337 Z-42.076
N15185 X-44.198 Z-41.9
N15190 X-43.97 Z-41.658
N15195 X-43.719 Z-41.439
N15200 X-43.454 Z-41.246
N15205 X-41.454 Z-39.963
N15210 X-41.246 Z-39.838
N15215 X-39.588 Z-38.872
N15220 X-38.175 Z-38.052
N15225 X-37.786 Z-37.858
N15230 X-37.473 Z-37.729
N15235 X-21.192 Z-32.051
N15240 X-20.881 Z-31.954
N15245 X-3.797 Z-28.189
N15250 X-3.163 Z-28.058
N15255 X-0.796 Z-27.665
N15260 X-0.226 Z-27.574
N15265 X0.013 Z-27.562
N15270 X0.251 Z-27.577
N15275 X2.974 Z-28.025
N15280 X3.445 Z-28.112
N15285 X20.787 Z-31.932
N15290 X21.017 Z-31.991
N15295 X37.105 Z-37.6
N15300 X37.555 Z-37.761
N15305 X37.881 Z-37.902
N15310 X38.199 Z-38.065
N15315 X41.309 Z-39.875
N15320 X41.51 Z-40.
N15325 X43.321 Z-41.177
N15330 X43.613 Z-41.375
N15335 X43.886 Z-41.597
N15340 X44.131 Z-41.84
N15345 X44.35 Z-42.107
N15350 X44.476 Z-42.294
N15355 X44.584 Z-42.488
N15360 X44.668 Z-42.672
N15365 X44.752 Z-42.917
N15370 X44.79 Z-43.077
N15375 X44.81 Z-43.19
N15380 X44.829 Z-43.434
N15385 Z-95.003
N15390 X45.116 Y-37.537
N15395 Z-43.5
N15400 X45.101 Z-43.295
N15405 X45.056 Z-43.055
N15410 X44.997 Z-42.856
N15415 X44.934 Z-42.695
N15420 X44.817 Z-42.459
N15425 X44.637 Z-42.18
N15430 X44.418 Z-41.913
N15435 X44.173 Z-41.67
N15440 X43.9 Z-41.448
N15445 X43.608 Z-41.25
N15450 X41.445 Z-39.845
N15455 X37.974 Z-37.821
N15460 X37.66 Z-37.654
N15465 X37.335 Z-37.506
N15470 X37.002 Z-37.38
N15475 X21.14 Z-31.85
N15480 X20.911 Z-31.791
N15485 X2.748 Z-27.79
N15490 X2.159 Z-27.682
N15495 X1.229 Z-27.528
N15500 Z-3.49
N15505 X1.212 Z-3.322
N15510 X1.173 Z-3.173
N15515 X1.095 Z-2.996
N15520 X0.981 Z-2.818
N15525 X0.838 Z-2.651
N15530 X0.753 Z-2.574
N15535 X0.667 Z-2.511
N15540 X0.568 Z-2.451
N15545 X0.468 Z-2.403
N15550 X0.358 Z-2.362
N15555 X0.247 Z-2.333
N15560 X0.13 Z-2.314
N15565 X0.013 Z-2.307
N15570 X-0.11 Z-2.312
N15575 X-0.232 Z-2.33
N15580 X-0.338 Z-2.356
N15585 X-0.444 Z-2.393
N15590 X-0.544 Z-2.438
N15595 X-0.644 Z-2.496
N15600 X-0.734 Z-2.56
N15605 X-0.825 Z-2.638
N15610 X-0.942 Z-2.767
N15615 X-1.045 Z-2.911
N15620 X-1.109 Z-3.023
N15625 X-1.158 Z-3.132
N15630 X-1.207 Z-3.294
N15635 X-1.218 Z-3.354
N15640 X-1.229 Z-3.499
N15645 Z-27.528
N15650 X-2.436 Z-27.729
N15655 X-3.07 Z-27.86
N15660 X-20.974 Z-31.805
N15665 X-21.247 Z-31.886
N15670 X-37.137 Z-37.428
N15675 X-37.439 Z-37.55
N15680 X-37.829 Z-37.741
N15685 X-38.714 Z-38.252
N15690 X-41.476 Z-39.865
N15695 X-43.695 Z-41.287
N15700 X-43.974 Z-41.485
N15705 X-44.224 Z-41.699
N15710 X-44.458 Z-41.94
N15715 X-44.664 Z-42.204
N15720 X-44.787 Z-42.396
N15725 X-44.895 Z-42.602
N15730 X-44.985 Z-42.824
N15735 X-45.055 Z-43.068
N15740 X-45.093 Z-43.309
N15745 X-45.103 Z-43.501
N15750 Z-95.003
N15755 X-45.246 Y-37.379
N15760 X-45.389 Y-37.221
N15765 Z-43.566
N15770 X-45.378 Z-43.369
N15775 X-45.337 Z-43.121
N15780 X-45.265 Z-42.879
N15785 X-45.174 Z-42.658
N15790 X-45.065 Z-42.453
N15795 X-44.942 Z-42.262
N15800 X-44.805 Z-42.083
N15805 X-44.581 Z-41.837
N15810 X-44.333 Z-41.614
N15815 X-44.07 Z-41.417
N15820 X-41.523 Z-39.782
N15825 X-37.958 Z-37.701
N15830 X-37.487 Z-37.433
N15835 X-37.096 Z-37.244
N15840 X-36.793 Z-37.123
N15845 X-21.356 Z-31.74
N15850 X-21.083 Z-31.661
N15855 X-1.992 Z-27.456
N15860 Z-3.499
N15865 X-1.978 Z-3.337
N15870 X-1.937 Z-3.176
N15875 X-1.881 Z-3.042
N15880 X-1.826 Z-2.94
N15885 X-1.757 Z-2.836
N15890 X-1.611 Z-2.659
N15895 X-1.45 Z-2.503
N15900 X-1.278 Z-2.364
N15905 X-1.006 Z-2.18
N15910 X-0.718 Z-2.018
N15915 X-0.513 Z-1.935
N15920 X-0.302 Z-1.881
N15925 X-0.073 Z-1.855
N15930 X0.05 Z-1.854
N15935 X0.286 Z-1.878
N15940 X0.514 Z-1.936
N15945 X0.729 Z-2.024
N15950 X0.936 Z-2.137
N15955 X1.23 Z-2.328
N15960 X1.412 Z-2.471
N15965 X1.579 Z-2.625
N15970 X1.718 Z-2.785
N15975 X1.838 Z-2.961
N15980 X1.897 Z-3.075
N15985 X1.944 Z-3.199
N15990 X1.968 Z-3.286
N15995 X1.991 Z-3.477
N16000 X1.992 Z-27.456
N16005 X21.069 Z-31.658
N16010 X21.341 Z-31.734
N16015 X36.636 Z-37.068
N16020 X36.971 Z-37.191
N16025 X37.297 Z-37.336
N16030 X37.612 Z-37.501
N16035 X41.447 Z-39.735
N16040 X43.862 Z-41.301
N16045 X44.155 Z-41.498
N16050 X44.431 Z-41.718
N16055 X44.679 Z-41.958
N16060 X44.902 Z-42.223
N16065 X45.03 Z-42.409
N16070 X45.141 Z-42.602
N16075 X45.229 Z-42.787
N16080 X45.314 Z-43.031
N16085 X45.35 Z-43.185
N16090 X45.368 Z-43.294
N16095 X45.386 Z-43.524
N16100 Z-95.003
N16105 X45.495 Y-37.064
N16110 X45.602 Y-36.905
N16115 X45.601 Z-43.528
N16120 X45.587 Z-43.319
N16125 X45.544 Z-43.079
N16130 X45.487 Z-42.882
N16135 X45.422 Z-42.715
N16140 X45.302 Z-42.478
N16145 X45.149 Z-42.248
N16150 X44.969 Z-42.034
N16155 X44.717 Z-41.79
N16160 X44.444 Z-41.573
N16165 X44.25 Z-41.44
N16170 X41.634 Z-39.741
N16175 X41.433 Z-39.616
N16180 X37.286 Z-37.201
N16185 X36.97 Z-37.037
N16190 X36.644 Z-36.893
N16195 X35.968 Z-36.651
N16200 X21.466 Z-31.594
N16205 X21.196 Z-31.518
N16210 X2.755 Z-27.455
N16215 X2.754 Z-3.487
N16220 X2.74 Z-3.335
N16225 X2.726 Z-3.268
N16230 X2.675 Z-3.112
N16235 X2.584 Z-2.933
N16240 X2.459 Z-2.757
N16245 X2.308 Z-2.591
N16250 X2.136 Z-2.439
N16255 X1.852 Z-2.232
N16260 X1.549 Z-2.053
N16265 X1.23 Z-1.895
N16270 X0.79 Z-1.713
N16275 X0.565 Z-1.634
N16280 X0.335 Z-1.579
N16285 X0.099 Z-1.553
N16290 X-0.142 Z-1.556
N16295 X-0.372 Z-1.586
N16300 X-0.583 Z-1.64
N16305 X-0.99 Z-1.791
N16310 X-1.386 Z-1.969
N16315 X-1.675 Z-2.124
N16320 X-1.952 Z-2.299
N16325 X-2.214 Z-2.504
N16330 X-2.376 Z-2.661
N16335 X-2.523 Z-2.84
N16340 X-2.585 Z-2.935
N16345 X-2.648 Z-3.05
N16350 X-2.718 Z-3.235
N16355 X-2.741 Z-3.339
N16360 X-2.755 Z-3.5
N16365 Z-27.455
N16370 X-21.291 Z-31.541
N16375 X-21.5 Z-31.605
N16380 X-36.533 Z-36.85
N16385 X-36.835 Z-36.974
N16390 X-37.225 Z-37.167
N16395 X-38.637 Z-37.987
N16400 X-41.571 Z-39.7
N16405 X-44.329 Z-41.468
N16410 X-44.593 Z-41.663
N16415 X-44.843 Z-41.884
N16420 X-45.069 Z-42.127
N16425 X-45.27 Z-42.394
N16430 X-45.393 Z-42.604
N16435 X-45.491 Z-42.826
N16440 X-45.566 Z-43.072
N16445 X-45.604 Z-43.27
N16450 X-45.621 Z-43.433
N16455 X-45.625 Z-95.003
N16460 X-45.835 Y-36.589
N16465 Z-43.565
N16470 X-45.829 Z-43.408
N16475 X-45.817 Z-43.291
N16480 X-45.78 Z-43.09
N16485 X-45.744 Z-42.953
N16490 X-45.659 Z-42.723
N16495 X-45.555 Z-42.511
N16500 X-45.433 Z-42.315
N16505 X-45.295 Z-42.135
N16510 X-45.143 Z-41.969
N16515 X-44.897 Z-41.748
N16520 X-44.631 Z-41.55
N16525 X-41.619 Z-39.617
N16530 X-37.401 Z-37.156
N16535 X-36.837 Z-36.835
N16540 X-36.445 Z-36.647
N16545 X-36.13 Z-36.523
N16550 X-21.611 Z-31.46
N16555 X-21.35 Z-31.384
N16560 X-3.517 Z-27.455
N16565 Z-3.499
N16570 X-3.499 Z-3.314
N16575 X-3.481 Z-3.237
N16580 X-3.429 Z-3.091
N16585 X-3.377 Z-2.985
N16590 X-3.311 Z-2.877
N16595 X-3.169 Z-2.694
N16600 X-3.011 Z-2.535
N16605 X-2.841 Z-2.392
N16610 X-2.571 Z-2.204
N16615 X-2.287 Z-2.04
N16620 X-1.895 Z-1.851
N16625 X-1.493 Z-1.691
N16630 X-0.979 Z-1.522
N16635 X-0.456 Z-1.383
N16640 X-0.23 Z-1.347
N16645 X0.01 Z-1.334
N16650 X0.248 Z-1.349
N16655 X0.482 Z-1.389
N16660 X0.945 Z-1.512
N16665 X1.4 Z-1.657
N16670 X1.844 Z-1.829
N16675 X2.168 Z-1.979
N16680 X2.479 Z-2.148
N16685 X2.774 Z-2.342
N16690 X2.956 Z-2.486
N16695 X3.121 Z-2.643
N16700 X3.265 Z-2.812
N16705 X3.38 Z-2.99
N16710 X3.454 Z-3.153
N16715 X3.502 Z-3.326
N16720 X3.517 Z-3.49
N16725 Z-27.455
N16730 X21.265 Z-31.365
N16735 X21.552 Z-31.44
N16740 X35.997 Z-36.477
N16745 X36.332 Z-36.6
N16750 X36.658 Z-36.745
N16755 X36.974 Z-36.909
N16760 X41.017 Z-39.264
N16765 X41.633 Z-39.626
N16770 X44.549 Z-41.521
N16775 X44.839 Z-41.724
N16780 X45.017 Z-41.872
N16785 X45.181 Z-42.032
N16790 X45.329 Z-42.205
N16795 X45.458 Z-42.388
N16800 X45.569 Z-42.578
N16805 X45.65 Z-42.753
N16810 X45.732 Z-42.986
N16815 X45.773 Z-43.155
N16820 X45.803 Z-43.36
N16825 X45.814 Z-43.566
N16830 Z-95.003
N16835 X46.026 Y-36.273
N16840 X46.025 Z-43.541
N16845 X46.013 Z-43.339
N16850 X45.976 Z-43.116
N16855 X45.928 Z-42.933
N16860 X45.879 Z-42.794
N16865 X45.781 Z-42.578
N16870 X45.67 Z-42.388
N16875 X45.541 Z-42.205
N16880 X45.393 Z-42.032
N16885 X45.229 Z-41.872
N16890 X45.051 Z-41.724
N16895 X44.86 Z-41.59
N16900 X44.552 Z-41.41
N16905 X41.599 Z-39.493
N16910 X36.678 Z-36.626
N16915 X36.362 Z-36.46
N16920 X36.038 Z-36.314
N16925 X35.59 Z-36.151
N16930 X21.654 Z-31.292
N16935 X21.425 Z-31.232
N16940 X4.28 Z-27.455
N16945 Z-3.489
N16950 X4.26 Z-3.305
N16955 X4.24 Z-3.224
N16960 X4.2 Z-3.11
N16965 X4.118 Z-2.947
N16970 X3.996 Z-2.77
N16975 X3.846 Z-2.604
N16980 X3.676 Z-2.45
N16985 X3.491 Z-2.309
N16990 X3.193 Z-2.119
N16995 X2.88 Z-1.953
N17000 X2.554 Z-1.807
N17005 X2.108 Z-1.639
N17010 X1.652 Z-1.496
N17015 X1.073 Z-1.348
N17020 X0.427 Z-1.22
N17025 X0.25 Z-1.194
N17030 X0.011 Z-1.181
N17035 X-0.228 Z-1.192
N17040 X-0.561 Z-1.244
N17045 X-1.195 Z-1.377
N17050 X-1.717 Z-1.515
N17055 X-2.232 Z-1.682
N17060 X-2.635 Z-1.841
N17065 X-3.027 Z-2.028
N17070 X-3.311 Z-2.19
N17075 X-3.584 Z-2.377
N17080 X-3.755 Z-2.518
N17085 X-3.916 Z-2.676
N17090 X-4.061 Z-2.857
N17095 X-4.122 Z-2.954
N17100 X-4.184 Z-3.072
N17105 X-4.228 Z-3.185
N17110 X-4.251 Z-3.262
N17115 X-4.273 Z-3.381
N17120 X-4.28 Z-3.5
N17125 Z-27.455
N17130 X-21.525 Z-31.255
N17135 X-21.745 Z-31.323
N17140 X-35.874 Z-36.25
N17145 X-36.175 Z-36.373
N17150 X-36.566 Z-36.564
N17155 X-37.45 Z-37.075
N17160 X-41.667 Z-39.535
N17165 X-44.792 Z-41.534
N17170 X-44.999 Z-41.669
N17175 X-45.256 Z-41.877
N17180 X-45.416 Z-42.034
N17185 X-45.562 Z-42.205
N17190 X-45.694 Z-42.392
N17195 X-45.81 Z-42.594
N17200 X-45.906 Z-42.813
N17205 X-45.982 Z-43.052
N17210 X-46.014 Z-43.202
N17215 X-46.038 Z-43.383
N17220 X-46.046 Z-43.565
N17225 Z-95.003
N17230 X-46.256 Y-35.957
N17235 Z-43.566
N17240 X-46.241 Z-43.32
N17245 X-46.195 Z-43.066
N17250 X-46.164 Z-42.952
N17255 X-46.079 Z-42.719
N17260 X-45.973 Z-42.506
N17265 X-45.85 Z-42.31
N17270 X-45.711 Z-42.129
N17275 X-45.558 Z-41.964
N17280 X-45.394 Z-41.813
N17285 X-45.127 Z-41.612
N17290 X-44.622 Z-41.316
N17295 X-41.715 Z-39.453
N17300 X-37.689 Z-37.104
N17305 X-36.276 Z-36.284
N17310 X-35.887 Z-36.091
N17315 X-35.585 Z-35.966
N17320 X-21.859 Z-31.178
N17325 X-21.586 Z-31.1
N17330 X-5.043 Z-27.455
N17335 Z-3.499
N17340 X-5.034 Z-3.364
N17345 X-5.005 Z-3.23
N17350 X-4.953 Z-3.085
N17355 X-4.9 Z-2.98
N17360 X-4.834 Z-2.872
N17365 X-4.691 Z-2.691
N17370 X-4.533 Z-2.531
N17375 X-4.362 Z-2.389
N17380 X-4.093 Z-2.201
N17385 X-3.808 Z-2.037
N17390 X-3.516 Z-1.894
N17395 X-3.116 Z-1.727
N17400 X-2.604 Z-1.552
N17405 X-2.083 Z-1.407
N17410 X-1.557 Z-1.288
N17415 X-0.919 Z-1.176
N17420 X-0.277 Z-1.093
N17425 X-0.047 Z-1.078
N17430 X0.194 Z-1.085
N17435 X0.789 Z-1.157
N17440 X1.38 Z-1.254
N17445 X1.966 Z-1.378
N17450 X2.543 Z-1.533
N17455 X2.997 Z-1.683
N17460 X3.439 Z-1.859
N17465 X3.761 Z-2.013
N17470 X4.069 Z-2.186
N17475 X4.359 Z-2.386
N17480 X4.536 Z-2.534
N17485 X4.695 Z-2.695
N17490 X4.831 Z-2.868
N17495 X4.927 Z-3.031
N17500 X4.985 Z-3.167
N17505 X5.028 Z-3.332
N17510 X5.043 Z-3.474
N17515 Z-27.455
N17520 X21.566 Z-31.095
N17525 X21.795 Z-31.157
N17530 X35.39 Z-35.897
N17535 X35.725 Z-36.021
N17540 X36.05 Z-36.167
N17545 X36.365 Z-36.333
N17550 X41.638 Z-39.405
N17555 X44.553 Z-41.297
N17560 X44.971 Z-41.528
N17565 X45.167 Z-41.654
N17570 X45.352 Z-41.795
N17575 X45.523 Z-41.949
N17580 X45.679 Z-42.115
N17585 X45.817 Z-42.292
N17590 X45.938 Z-42.478
N17595 X46.05 Z-42.697
N17600 X46.136 Z-42.921
N17605 X46.193 Z-43.136
N17610 X46.221 Z-43.307
N17615 X46.234 Z-43.436
N17620 X46.238 Z-95.003
N17625 X46.45 Y-35.641
N17630 X46.449 Z-43.513
N17635 X46.435 Z-43.317
N17640 X46.392 Z-43.079
N17645 X46.335 Z-42.883
N17650 X46.278 Z-42.735
N17655 X46.205 Z-42.578
N17660 X46.094 Z-42.388
N17665 X45.964 Z-42.205
N17670 X45.817 Z-42.032
N17675 X45.653 Z-41.872
N17680 X45.475 Z-41.724
N17685 X45.284 Z-41.59
N17690 X44.976 Z-41.414
N17695 X44.554 Z-41.184
N17700 X41.853 Z-39.429
N17705 X41.651 Z-39.303
N17710 X36.053 Z-36.041
N17715 X35.738 Z-35.875
N17720 X35.413 Z-35.729
N17725 X34.965 Z-35.565
N17730 X21.936 Z-31.021
N17735 X21.649 Z-30.946
N17740 X5.806 Z-27.455
N17745 Z-3.49
N17750 X5.789 Z-3.32
N17755 X5.743 Z-3.153
N17760 X5.655 Z-2.966
N17765 X5.548 Z-2.804
N17770 X5.403 Z-2.636
N17775 X5.237 Z-2.479
N17780 X5.055 Z-2.336
N17785 X4.759 Z-2.142
N17790 X4.448 Z-1.974
N17795 X4.123 Z-1.825
N17800 X3.679 Z-1.654
N17805 X3.224 Z-1.509
N17810 X2.645 Z-1.359
N17815 X2.058 Z-1.239
N17820 X1.467 Z-1.145
N17825 X0.752 Z-1.065
N17830 X0.094 Z-1.02
N17835 X-0.211 Z-1.026
N17840 X-0.963 Z-1.085
N17845 X-1.605 Z-1.165
N17850 X-2.243 Z-1.273
N17855 X-2.771 Z-1.388
N17860 X-3.292 Z-1.529
N17865 X-3.805 Z-1.699
N17870 X-4.207 Z-1.862
N17875 X-4.598 Z-2.052
N17880 X-4.88 Z-2.217
N17885 X-5.151 Z-2.409
N17890 X-5.32 Z-2.554
N17895 X-5.477 Z-2.717
N17900 X-5.618 Z-2.904
N17905 X-5.676 Z-3.004
N17910 X-5.734 Z-3.13
N17915 X-5.788 Z-3.314
N17920 X-5.806 Z-3.499
N17925 Z-27.455
N17930 X-21.749 Z-30.968
N17935 X-22.009 Z-31.047
N17940 X-35.282 Z-35.677
N17945 X-35.582 Z-35.802
N17950 X-35.971 Z-35.996
N17955 X-38.928 Z-37.716
N17960 X-41.624 Z-39.287
N17965 X-41.831 Z-39.414
N17970 X-44.639 Z-41.214
N17975 X-45.263 Z-41.565
N17980 X-45.533 Z-41.755
N17985 X-45.702 Z-41.899
N17990 X-45.859 Z-42.059
N17995 X-46.004 Z-42.233
N18000 X-46.133 Z-42.422
N18005 X-46.246 Z-42.626
N18010 X-46.34 Z-42.848
N18015 X-46.412 Z-43.091
N18020 X-46.454 Z-43.34
N18025 X-46.466 Z-43.566
N18030 Z-95.003
N18035 X-46.677 Y-35.325
N18040 Z-43.565
N18045 X-46.668 Z-43.378
N18050 X-46.631 Z-43.134
N18055 X-46.603 Z-43.017
N18060 X-46.524 Z-42.778
N18065 X-46.423 Z-42.56
N18070 X-46.304 Z-42.36
N18075 X-46.169 Z-42.175
N18080 X-46.02 Z-42.005
N18085 X-45.858 Z-41.851
N18090 X-45.686 Z-41.71
N18095 X-45.41 Z-41.526
N18100 X-44.691 Z-41.134
N18105 X-41.883 Z-39.335
N18110 X-41.676 Z-39.207
N18115 X-36.285 Z-36.065
N18120 X-35.607 Z-35.675
N18125 X-35.216 Z-35.485
N18130 X-34.914 Z-35.363
N18135 X-22.248 Z-30.946
N18140 X-21.926 Z-30.84
N18145 X-6.569 Z-27.455
N18150 Z-3.499
N18155 X-6.551 Z-3.314
N18160 X-6.497 Z-3.13
N18165 X-6.439 Z-3.003
N18170 X-6.381 Z-2.904
N18175 X-6.24 Z-2.716
N18180 X-6.082 Z-2.553
N18185 X-5.913 Z-2.408
N18190 X-5.643 Z-2.217
N18195 X-5.361 Z-2.052
N18200 X-5.068 Z-1.906
N18205 X-4.669 Z-1.737
N18210 X-4.261 Z-1.593
N18215 X-3.742 Z-1.441
N18220 X-3.217 Z-1.316
N18225 X-2.581 Z-1.197
N18230 X-1.94 Z-1.109
N18235 X-1.296 Z-1.047
N18240 X-0.526 Z-1.007
N18245 X0.138 Z-1.
N18250 X0.845 Z-1.019
N18255 X1.563 Z-1.069
N18260 X2.277 Z-1.152
N18265 X2.869 Z-1.247
N18270 X3.454 Z-1.37
N18275 X4.033 Z-1.522
N18280 X4.487 Z-1.67
N18285 X4.931 Z-1.844
N18290 X5.253 Z-1.995
N18295 X5.564 Z-2.167
N18300 X5.854 Z-2.363
N18305 X6.033 Z-2.508
N18310 X6.194 Z-2.666
N18315 X6.328 Z-2.827
N18320 X6.444 Z-3.014
N18325 X6.503 Z-3.145
N18330 X6.552 Z-3.322
N18335 X6.569 Z-3.486
N18340 Z-27.455
N18345 X21.823 Z-30.816
N18350 X22.08 Z-30.887
N18355 X34.769 Z-35.312
N18360 X35.103 Z-35.437
N18365 X35.428 Z-35.584
N18370 X35.743 Z-35.75
N18375 X41.652 Z-39.193
N18380 X41.853 Z-39.316
N18385 X44.554 Z-41.071
N18390 X45.188 Z-41.414
N18395 X45.496 Z-41.59
N18400 X45.687 Z-41.724
N18405 X45.865 Z-41.872
N18410 X46.029 Z-42.032
N18415 X46.176 Z-42.205
N18420 X46.306 Z-42.388
N18425 X46.417 Z-42.578
N18430 X46.515 Z-42.796
N18435 X46.564 Z-42.934
N18440 X46.613 Z-43.117
N18445 X46.649 Z-43.341
N18450 X46.662 Z-43.566
N18455 Z-95.003
N18460 X46.874 Y-35.009
N18465 X46.873 Z-43.521
N18470 X46.853 Z-43.273
N18475 X46.833 Z-43.155
N18480 X46.792 Z-42.988
N18485 X46.711 Z-42.756
N18490 X46.629 Z-42.578
N18495 X46.518 Z-42.388
N18500 X46.388 Z-42.205
N18505 X46.241 Z-42.032
N18510 X46.077 Z-41.872
N18515 X45.898 Z-41.724
N18520 X45.708 Z-41.59
N18525 X45.4 Z-41.414
N18530 X44.555 Z-40.958
N18535 X41.803 Z-39.172
N18540 X35.432 Z-35.458
N18545 X35.116 Z-35.291
N18550 X34.792 Z-35.145
N18555 X34.345 Z-34.98
N18560 X22.165 Z-30.733
N18565 X21.878 Z-30.66
N18570 X7.332 Z-27.455
N18575 X7.331 Z-3.476
N18580 X7.319 Z-3.343
N18585 X7.281 Z-3.189
N18590 X7.231 Z-3.062
N18595 X7.172 Z-2.951
N18600 X7.052 Z-2.777
N18605 X6.912 Z-2.618
N18610 X6.744 Z-2.464
N18615 X6.466 Z-2.256
N18620 X6.163 Z-2.073
N18625 X5.847 Z-1.913
N18630 X5.408 Z-1.728
N18635 X4.957 Z-1.572
N18640 X4.497 Z-1.439
N18645 X3.915 Z-1.303
N18650 X3.326 Z-1.195
N18655 X2.732 Z-1.112
N18660 X2.016 Z-1.044
N18665 X1.295 Z-1.007
N18670 X0.309 Z-1.
N18675 X-1.166 Z-1.004
N18680 X-1.844 Z-1.032
N18685 X-2.596 Z-1.096
N18690 X-3.237 Z-1.181
N18695 X-3.874 Z-1.294
N18700 X-4.401 Z-1.414
N18705 X-4.921 Z-1.56
N18710 X-5.432 Z-1.737
N18715 X-5.831 Z-1.906
N18720 X-6.124 Z-2.052
N18725 X-6.406 Z-2.217
N18730 X-6.676 Z-2.408
N18735 X-6.845 Z-2.553
N18740 X-7.003 Z-2.716
N18745 X-7.143 Z-2.904
N18750 X-7.202 Z-3.003
N18755 X-7.26 Z-3.13
N18760 X-7.314 Z-3.314
N18765 X-7.332 Z-3.499
N18770 Z-27.455
N18775 X-21.986 Z-30.684
N18780 X-22.258 Z-30.765
N18785 X-34.636 Z-35.083
N18790 X-34.949 Z-35.213
N18795 X-35.338 Z-35.406
N18800 X-37.58 Z-36.71
N18805 X-41.727 Z-39.126
N18810 X-42.115 Z-39.371
N18815 X-44.742 Z-41.049
N18820 X-45.586 Z-41.506
N18825 X-45.863 Z-41.685
N18830 X-46.036 Z-41.823
N18835 X-46.2 Z-41.975
N18840 X-46.351 Z-42.141
N18845 X-46.489 Z-42.322
N18850 X-46.611 Z-42.518
N18855 X-46.714 Z-42.731
N18860 X-46.798 Z-42.962
N18865 X-46.834 Z-43.1
N18870 X-46.87 Z-43.302
N18875 X-46.887 Z-43.558
N18880 Z-95.003
N18885 X-47.097 Y-34.693
N18890 Z-43.56
N18895 X-47.082 Z-43.317
N18900 X-47.047 Z-43.112
N18905 X-47.011 Z-42.972
N18910 X-46.929 Z-42.741
N18915 X-46.826 Z-42.527
N18920 X-46.705 Z-42.33
N18925 X-46.568 Z-42.149
N18930 X-46.417 Z-41.982
N18935 X-46.254 Z-41.829
N18940 X-46.081 Z-41.691
N18945 X-45.805 Z-41.511
N18950 X-44.75 Z-40.939
N18955 X-44.548 Z-40.816
N18960 X-41.942 Z-39.146
N18965 X-41.734 Z-39.021
N18970 X-35.514 Z-35.396
N18975 X-34.951 Z-35.074
N18980 X-34.559 Z-34.885
N18985 X-34.244 Z-34.761
N18990 X-22.371 Z-30.62
N18995 X-22.163 Z-30.556
N19000 X-8.095 Z-27.455
N19005 Z-3.499
N19010 X-8.076 Z-3.314
N19015 X-8.023 Z-3.13
N19020 X-7.964 Z-3.003
N19025 X-7.906 Z-2.904
N19030 X-7.766 Z-2.716
N19035 X-7.608 Z-2.553
N19040 X-7.439 Z-2.408
N19045 X-7.169 Z-2.217
N19050 X-6.887 Z-2.052
N19055 X-6.594 Z-1.906
N19060 X-6.195 Z-1.737
N19065 X-5.684 Z-1.56
N19070 X-5.163 Z-1.414
N19075 X-4.637 Z-1.294
N19080 X-4. Z-1.181
N19085 X-3.358 Z-1.096
N19090 X-2.607 Z-1.032
N19095 X-1.929 Z-1.004
N19100 X1.558 Z-1.
N19105 X2.318 Z-1.017
N19110 X3.036 Z-1.064
N19115 X3.751 Z-1.145
N19120 X4.343 Z-1.238
N19125 X4.929 Z-1.358
N19130 X5.508 Z-1.508
N19135 X5.963 Z-1.653
N19140 X6.408 Z-1.824
N19145 X6.733 Z-1.972
N19150 X7.044 Z-2.14
N19155 X7.34 Z-2.333
N19160 X7.522 Z-2.477
N19165 X7.689 Z-2.633
N19170 X7.834 Z-2.801
N19175 X7.951 Z-2.979
N19180 X8.033 Z-3.157
N19185 X8.075 Z-3.308
N19190 X8.095 Z-3.489
N19195 Z-27.455
N19200 X22.019 Z-30.523
N19205 X22.305 Z-30.598
N19210 X34.145 Z-34.726
N19215 X34.479 Z-34.851
N19220 X34.804 Z-34.999
N19225 X35.118 Z-35.165
N19230 X41.829 Z-39.076
N19235 X44.556 Z-40.845
N19240 X45.819 Z-41.528
N19245 X46.015 Z-41.654
N19250 X46.2 Z-41.795
N19255 X46.371 Z-41.949
N19260 X46.527 Z-42.115
N19265 X46.665 Z-42.292
N19270 X46.785 Z-42.478
N19275 X46.898 Z-42.698
N19280 X46.956 Z-42.841
N19285 X47.021 Z-43.049
N19290 X47.053 Z-43.199
N19295 X47.069 Z-43.304
N19300 X47.085 Z-43.526
N19305 Z-95.003
N19310 X47.297 Y-34.377
N19315 Z-43.531
N19320 X47.285 Z-43.34
N19325 X47.249 Z-43.119
N19330 X47.201 Z-42.938
N19335 X47.127 Z-42.736
N19340 X47.053 Z-42.578
N19345 X46.942 Z-42.388
N19350 X46.812 Z-42.205
N19355 X46.665 Z-42.032
N19360 X46.501 Z-41.872
N19365 X46.322 Z-41.724
N19370 X46.132 Z-41.59
N19375 X45.824 Z-41.414
N19380 X44.556 Z-40.732
N19385 X42.056 Z-39.108
N19390 X41.855 Z-38.981
N19395 X34.806 Z-34.873
N19400 X34.491 Z-34.706
N19405 X34.167 Z-34.559
N19410 X33.719 Z-34.393
N19415 X22.39 Z-30.444
N19420 X22.16 Z-30.386
N19425 X8.858 Z-27.455
N19430 X8.857 Z-3.482
N19435 X8.843 Z-3.336
N19440 X8.802 Z-3.174
N19445 X8.732 Z-3.012
N19450 X8.621 Z-2.834
N19455 X8.481 Z-2.663
N19460 X8.317 Z-2.505
N19465 X8.137 Z-2.359
N19470 X7.844 Z-2.163
N19475 X7.535 Z-1.992
N19480 X7.211 Z-1.841
N19485 X6.768 Z-1.667
N19490 X6.313 Z-1.52
N19495 X5.735 Z-1.368
N19500 X5.149 Z-1.246
N19505 X4.558 Z-1.151
N19510 X3.843 Z-1.068
N19515 X3.125 Z-1.019
N19520 X2.396 Z-1.
N19525 X-2.692 Z-1.004
N19530 X-3.369 Z-1.032
N19535 X-4.121 Z-1.096
N19540 X-4.763 Z-1.181
N19545 X-5.4 Z-1.294
N19550 X-5.926 Z-1.414
N19555 X-6.447 Z-1.56
N19560 X-6.958 Z-1.737
N19565 X-7.357 Z-1.906
N19570 X-7.65 Z-2.052
N19575 X-7.932 Z-2.217
N19580 X-8.202 Z-2.408
N19585 X-8.371 Z-2.553
N19590 X-8.528 Z-2.716
N19595 X-8.669 Z-2.904
N19600 X-8.727 Z-3.003
N19605 X-8.785 Z-3.13
N19610 X-8.839 Z-3.314
N19615 X-8.858 Z-3.499
N19620 Z-27.455
N19625 X-22.222 Z-30.4
N19630 X-22.484 Z-30.475
N19635 X-33.944 Z-34.472
N19640 X-34.246 Z-34.592
N19645 X-34.638 Z-34.781
N19650 X-35.109 Z-35.049
N19655 X-41.952 Z-39.04
N19660 X-44.536 Z-40.696
N19665 X-44.738 Z-40.819
N19670 X-46.005 Z-41.505
N19675 X-46.281 Z-41.684
N19680 X-46.455 Z-41.821
N19685 X-46.619 Z-41.973
N19690 X-46.77 Z-42.139
N19695 X-46.908 Z-42.32
N19700 X-47.03 Z-42.516
N19705 X-47.134 Z-42.728
N19710 X-47.218 Z-42.959
N19715 X-47.254 Z-43.097
N19720 X-47.29 Z-43.299
N19725 X-47.308 Z-43.558
N19730 Z-95.003
N19735 X-47.518 Y-34.061
N19740 Z-43.565
N19745 X-47.505 Z-43.333
N19750 X-47.461 Z-43.083
N19755 X-47.431 Z-42.968
N19760 X-47.347 Z-42.734
N19765 X-47.242 Z-42.52
N19770 X-47.12 Z-42.322
N19775 X-46.982 Z-42.141
N19780 X-46.83 Z-41.974
N19785 X-46.666 Z-41.822
N19790 X-46.401 Z-41.62
N19795 X-46.204 Z-41.499
N19800 X-44.63 Z-40.643
N19805 X-42.024 Z-38.973
N19810 X-41.816 Z-38.848
N19815 X-36.84 Z-35.948
N19820 X-34.392 Z-34.524
N19825 X-34.002 Z-34.33
N19830 X-33.689 Z-34.2
N19835 X-22.619 Z-30.339
N19840 X-22.399 Z-30.271
N19845 X-9.62 Z-27.455
N19850 Z-3.499
N19855 X-9.602 Z-3.314
N19860 X-9.548 Z-3.13
N19865 X-9.49 Z-3.003
N19870 X-9.432 Z-2.904
N19875 X-9.291 Z-2.716
N19880 X-9.134 Z-2.553
N19885 X-8.965 Z-2.408
N19890 X-8.694 Z-2.217
N19895 X-8.412 Z-2.052
N19900 X-8.021 Z-1.861
N19905 X-7.619 Z-1.699
N19910 X-7.106 Z-1.529
N19915 X-6.584 Z-1.388
N19920 X-6.057 Z-1.273
N19925 X-5.419 Z-1.165
N19930 X-4.777 Z-1.085
N19935 X-4.025 Z-1.026
N19940 X-3.332 Z-1.002
N19945 X3.41 Z-1.003
N19950 X4.134 Z-1.032
N19955 X4.851 Z-1.093
N19960 X5.445 Z-1.169
N19965 X6.036 Z-1.269
N19970 X6.621 Z-1.397
N19975 X7.196 Z-1.556
N19980 X7.648 Z-1.71
N19985 X8.089 Z-1.891
N19990 X8.408 Z-2.049
N19995 X8.712 Z-2.228
N20000 X8.997 Z-2.434
N20005 X9.169 Z-2.586
N20010 X9.321 Z-2.751
N20015 X9.446 Z-2.927
N20020 X9.532 Z-3.091
N20025 X9.576 Z-3.21
N20030 X9.598 Z-3.294
N20035 X9.62 Z-3.477
N20040 Z-27.455
N20045 X22.304 Z-30.249
N20050 X22.533 Z-30.309
N20055 X33.523 Z-34.141
N20060 X33.856 Z-34.267
N20065 X34.181 Z-34.415
N20070 X34.495 Z-34.582
N20075 X41.856 Z-38.871
N20080 X42.057 Z-38.995
N20085 X44.557 Z-40.618
N20090 X46.243 Z-41.528
N20095 X46.439 Z-41.654
N20100 X46.624 Z-41.795
N20105 X46.795 Z-41.949
N20110 X46.95 Z-42.115
N20115 X47.089 Z-42.292
N20120 X47.209 Z-42.478
N20125 X47.31 Z-42.671
N20130 X47.4 Z-42.899
N20135 X47.446 Z-43.054
N20140 X47.493 Z-43.308
N20145 X47.509 Z-43.538
N20150 Z-95.003
N20155 X47.721 Y-33.745
N20160 Z-43.546
N20165 X47.706 Z-43.313
N20170 X47.664 Z-43.079
N20175 X47.637 Z-42.978
N20180 X47.584 Z-42.818
N20185 X47.477 Z-42.578
N20190 X47.366 Z-42.388
N20195 X47.236 Z-42.205
N20200 X47.089 Z-42.032
N20205 X46.925 Z-41.872
N20210 X46.746 Z-41.724
N20215 X46.556 Z-41.59
N20220 X46.248 Z-41.414
N20225 X44.558 Z-40.505
N20230 X41.97 Z-38.827
N20235 X34.185 Z-34.291
N20240 X33.87 Z-34.123
N20245 X33.546 Z-33.975
N20250 X33.1 Z-33.809
N20255 X22.676 Z-30.175
N20260 X22.448 Z-30.113
N20265 X10.383 Z-27.455
N20270 X10.379 Z-3.406
N20275 X10.349 Z-3.246
N20280 X10.32 Z-3.153
N20285 X10.261 Z-3.02
N20290 X10.163 Z-2.857
N20295 X10.026 Z-2.685
N20300 X9.866 Z-2.525
N20305 X9.687 Z-2.377
N20310 X9.396 Z-2.179
N20315 X9.088 Z-2.006
N20320 X8.766 Z-1.853
N20325 X8.323 Z-1.678
N20330 X7.869 Z-1.529
N20335 X7.292 Z-1.375
N20340 X6.706 Z-1.251
N20345 X6.115 Z-1.155
N20350 X5.4 Z-1.071
N20355 X4.683 Z-1.02
N20360 X3.953 Z-1.
N20365 X-4.218 Z-1.004
N20370 X-4.895 Z-1.032
N20375 X-5.647 Z-1.096
N20380 X-6.289 Z-1.181
N20385 X-6.926 Z-1.294
N20390 X-7.452 Z-1.414
N20395 X-7.972 Z-1.56
N20400 X-8.483 Z-1.737
N20405 X-8.883 Z-1.906
N20410 X-9.175 Z-2.052
N20415 X-9.457 Z-2.217
N20420 X-9.728 Z-2.408
N20425 X-9.897 Z-2.553
N20430 X-10.054 Z-2.716
N20435 X-10.195 Z-2.904
N20440 X-10.253 Z-3.003
N20445 X-10.311 Z-3.13
N20450 X-10.365 Z-3.314
N20455 X-10.383 Z-3.499
N20460 Z-27.455
N20465 X-22.459 Z-30.115
N20470 X-22.732 Z-30.194
N20475 X-33.298 Z-33.878
N20480 X-33.612 Z-34.003
N20485 X-34.004 Z-34.191
N20490 X-34.567 Z-34.513
N20495 X-42.047 Z-38.875
N20500 X-44.618 Z-40.522
N20505 X-46.403 Z-41.492
N20510 X-46.6 Z-41.613
N20515 X-46.867 Z-41.813
N20520 X-47.031 Z-41.965
N20525 X-47.184 Z-42.13
N20530 X-47.323 Z-42.311
N20535 X-47.446 Z-42.508
N20540 X-47.551 Z-42.721
N20545 X-47.637 Z-42.954
N20550 X-47.668 Z-43.068
N20555 X-47.714 Z-43.321
N20560 X-47.728 Z-43.565
N20565 Z-95.003
N20570 X-47.938 Y-33.429
N20575 Z-43.565
N20580 X-47.928 Z-43.357
N20585 X-47.888 Z-43.111
N20590 X-47.859 Z-42.995
N20595 X-47.777 Z-42.758
N20600 X-47.675 Z-42.542
N20605 X-47.555 Z-42.343
N20610 X-47.418 Z-42.16
N20615 X-47.268 Z-41.991
N20620 X-47.105 Z-41.838
N20625 X-46.841 Z-41.634
N20630 X-46.644 Z-41.51
N20635 X-44.648 Z-40.429
N20640 X-42.095 Z-38.793
N20645 X-34.39 Z-34.3
N20650 X-33.712 Z-33.91
N20655 X-33.321 Z-33.719
N20660 X-33.019 Z-33.597
N20665 X-22.845 Z-30.049
N20670 X-22.636 Z-29.987
N20675 X-11.146 Z-27.455
N20680 Z-3.499
N20685 X-11.128 Z-3.314
N20690 X-11.074 Z-3.13
