%
O01004
(Using high feed G1 F5000. instead of G0.)
(T2 D=5. CR=2.5 - ZMIN=-95.502 - fresa con punta de bola)
N10 G90 G94 G17
N15 G21
(When using Fusion for Personal Use, the feedrate of rapid)
(moves is reduced to match the feedrate of cutting moves,)
(which can increase machining time. Unrestricted rapid moves)
(are available with a Fusion Subscription.)
N20 G53 G0 Z0.

(Paralelo5)
N25 T2 M6
N30 S5000 M3
N35 G17 G90 G94
N40 G54
N45 M8
N50 G1 X6.976 Y-58.392 F5000.
N55 G0 G43 Z15. H2
N60 G1 Z-52.233 F1000.
N65 Z-95.003 F333.33
N70 G18 G3 X5.976 I-0.5 K0. F1000.
N75 G1 Z-55.86
N80 X5.939 Z-55.71
N85 X5.878 Z-55.621
N90 X5.785 Z-55.548
N95 X5.421 Z-55.37
N100 X4.926 Z-55.166
N105 X4.217 Z-54.912
N110 X3.192 Z-54.584
N115 X1.848 Z-54.195
N120 X0.287 Z-53.777
N125 X0.183 Z-53.756
N130 X0.064 Z-53.744
N135 X-0.055 Z-53.743
N140 X-0.175 Z-53.755
N145 X-0.399 Z-53.806
N150 X-2.101 Z-54.269
N155 X-3.368 Z-54.641
N160 X-4.397 Z-54.972
N165 X-5.077 Z-55.215
N170 X-5.606 Z-55.431
N175 X-5.634 Z-55.444
N180 X-5.744 Z-55.525
N185 X-5.816 Z-55.616
N190 X-5.871 Z-55.739
N195 X-5.889 Z-55.869
N200 Z-95.003
N205 X-7.492 Y-58.076
N210 Z-55.868
N215 X-7.46 Z-55.693
N220 X-7.428 Z-55.621
N225 X-7.365 Z-55.519
N230 X-7.285 Z-55.423
N235 X-7.205 Z-55.345
N240 X-7.028 Z-55.206
N245 X-6.746 Z-55.033
N250 X-6.454 Z-54.888
N255 X-6.053 Z-54.723
N260 X-5.733 Z-54.614
N265 X-3.285 Z-54.012
N270 X-0.398 Z-53.34
N275 X-0.17 Z-53.3
N280 X-0.048 Z-53.292
N285 X0.072 Z-53.293
N290 X0.296 Z-53.318
N295 X1.347 Z-53.553
N300 X4.075 Z-54.19
N305 X5.989 Z-54.664
N310 X6.324 Z-54.791
N315 X6.648 Z-54.936
N320 X6.959 Z-55.105
N325 X7.151 Z-55.235
N330 X7.321 Z-55.381
N335 X7.426 Z-55.499
N340 X7.479 Z-55.576
N345 X7.531 Z-55.683
N350 X7.549 Z-55.738
N355 X7.566 Z-55.859
N360 Z-95.003
N365 X9.14 Y-57.76
N370 Z-55.862
N375 X9.123 Z-55.74
N380 X9.061 Z-55.592
N385 X9. Z-55.5
N390 X8.895 Z-55.381
N395 X8.724 Z-55.235
N400 X8.532 Z-55.105
N405 X8.221 Z-54.936
N410 X7.897 Z-54.791
N415 X7.45 Z-54.623
N420 X6.879 Z-54.446
N425 X6.184 Z-54.266
N430 X3.177 Z-53.612
N435 X0.374 Z-53.021
N440 X0.138 Z-52.988
N445 X-0.101 Z-52.985
N450 X-0.34 Z-53.014
N455 X-4.281 Z-53.866
N460 X-6.261 Z-54.307
N465 X-6.887 Z-54.472
N470 X-7.403 Z-54.633
N475 X-7.809 Z-54.782
N480 X-8.206 Z-54.958
N485 X-8.493 Z-55.115
N490 X-8.677 Z-55.238
N495 X-8.849 Z-55.383
N500 X-8.931 Z-55.471
N505 X-9. Z-55.566
N510 X-9.069 Z-55.708
N515 X-9.096 Z-55.869
N520 Z-95.003
N525 X-10.7 Y-57.444
N530 Z-55.869
N535 X-10.682 Z-55.735
N540 X-10.626 Z-55.603
N545 X-10.551 Z-55.491
N550 X-10.476 Z-55.406
N555 X-10.305 Z-55.256
N560 X-10.122 Z-55.13
N565 X-9.834 Z-54.97
N570 X-9.438 Z-54.792
N575 X-8.93 Z-54.607
N580 X-8.413 Z-54.45
N585 X-7.786 Z-54.288
N590 X-6.943 Z-54.107
N595 X-5.916 Z-53.922
N600 X-0.438 Z-52.746
N605 X-0.212 Z-52.706
N610 X0.027 Z-52.693
N615 X0.264 Z-52.712
N620 X5.783 Z-53.873
N625 X6.937 Z-54.09
N630 X7.758 Z-54.266
N635 X8.453 Z-54.446
N640 X9.024 Z-54.623
N645 X9.471 Z-54.791
N650 X9.795 Z-54.936
N655 X10.106 Z-55.105
N660 X10.298 Z-55.235
N665 X10.469 Z-55.381
N670 X10.592 Z-55.524
N675 X10.653 Z-55.625
N680 X10.683 Z-55.696
N685 X10.713 Z-55.85
N690 Z-95.003
N695 X12.287 Y-57.128
N700 Z-55.852
N705 X12.261 Z-55.709
N710 X12.235 Z-55.644
N715 X12.184 Z-55.551
N720 X12.113 Z-55.457
N725 X12.042 Z-55.381
N730 X11.871 Z-55.235
N735 X11.679 Z-55.105
N740 X11.369 Z-54.936
N745 X11.044 Z-54.791
N750 X10.598 Z-54.623
N755 X10.027 Z-54.446
N760 X9.331 Z-54.266
N765 X8.511 Z-54.09
N770 X5.914 Z-53.614
N775 X0.327 Z-52.433
N780 X0.091 Z-52.406
N785 X-0.149 Z-52.41
N790 X-0.404 Z-52.448
N795 X-5.947 Z-53.642
N800 X-8.416 Z-54.082
N805 X-9.26 Z-54.258
N810 X-9.993 Z-54.443
N815 X-10.51 Z-54.599
N820 X-11.019 Z-54.783
N825 X-11.416 Z-54.959
N830 X-11.703 Z-55.116
N835 X-11.886 Z-55.239
N840 X-12.058 Z-55.384
N845 X-12.141 Z-55.473
N850 X-12.209 Z-55.567
N855 X-12.278 Z-55.711
N860 X-12.304 Z-55.869
N865 Z-95.003
N870 X-13.908 Y-56.812
N875 Z-55.869
N880 X-13.889 Z-55.736
N885 X-13.835 Z-55.603
N890 X-13.759 Z-55.491
N895 X-13.684 Z-55.406
N900 X-13.513 Z-55.256
N905 X-13.33 Z-55.13
N910 X-13.043 Z-54.97
N915 X-12.647 Z-54.792
N920 X-12.139 Z-54.607
N925 X-11.622 Z-54.45
N930 X-10.89 Z-54.264
N935 X-10.045 Z-54.087
N940 X-6.053 Z-53.377
N945 X-0.34 Z-52.146
N950 X-0.111 Z-52.118
N955 X0.131 Z-52.119
N960 X0.366 Z-52.151
N965 X0.694 Z-52.225
N970 X6.071 Z-53.36
N975 X10.085 Z-54.09
N980 X10.905 Z-54.266
N985 X11.6 Z-54.446
N990 X12.171 Z-54.623
N995 X12.618 Z-54.791
N1000 X12.942 Z-54.936
N1005 X13.253 Z-55.105
N1010 X13.445 Z-55.235
N1015 X13.616 Z-55.381
N1020 X13.714 Z-55.491
N1025 X13.775 Z-55.58
N1030 X13.818 Z-55.664
N1035 X13.839 Z-55.724
N1040 X13.86 Z-55.853
N1045 X13.861 Z-95.003
N1050 X15.434 Y-56.496
N1055 Z-55.855
N1060 X15.4 Z-55.687
N1065 X15.367 Z-55.613
N1070 X15.278 Z-55.479
N1075 X15.189 Z-55.381
N1080 X15.019 Z-55.235
N1085 X14.827 Z-55.105
N1090 X14.516 Z-54.936
N1095 X14.191 Z-54.791
N1100 X13.745 Z-54.623
N1105 X13.174 Z-54.446
N1110 X12.478 Z-54.266
N1115 X11.658 Z-54.09
N1120 X6.228 Z-53.106
N1125 X0.849 Z-51.971
N1130 X0.288 Z-51.848
N1135 X0.051 Z-51.826
N1140 X-0.191 Z-51.835
N1145 X-0.419 Z-51.873
N1150 X-3.08 Z-52.453
N1155 X-6.13 Z-53.106
N1160 X-11.647 Z-54.087
N1165 X-12.491 Z-54.264
N1170 X-13.223 Z-54.449
N1175 X-13.74 Z-54.606
N1180 X-14.249 Z-54.792
N1185 X-14.645 Z-54.97
N1190 X-14.931 Z-55.129
N1195 X-15.113 Z-55.254
N1200 X-15.284 Z-55.402
N1205 X-15.365 Z-55.494
N1210 X-15.432 Z-55.591
N1215 X-15.465 Z-55.657
N1220 X-15.498 Z-55.755
N1225 X-15.512 Z-55.869
N1230 Z-95.003
N1235 X-16.638 Y-56.275
N1240 X-16.825 Y-56.234
N1245 X-17.009 Y-56.18
N1250 Z-55.869
N1255 X-17.004 Z-55.78
N1260 X-16.976 Z-55.642
N1265 X-16.948 Z-55.563
N1270 X-16.891 Z-55.453
N1275 X-16.809 Z-55.342
N1280 X-16.726 Z-55.262
N1285 X-16.544 Z-55.134
N1290 X-16.257 Z-54.973
N1295 X-15.86 Z-54.795
N1300 X-15.353 Z-54.609
N1305 X-14.836 Z-54.452
N1310 X-14.104 Z-54.266
N1315 X-13.259 Z-54.088
N1320 X-6.195 Z-52.832
N1325 X-2.441 Z-52.028
N1330 X-0.419 Z-51.584
N1335 X-0.164 Z-51.544
N1340 X0.077 Z-51.538
N1345 X0.313 Z-51.563
N1350 X0.992 Z-51.714
N1355 X6.134 Z-52.799
N1360 X13.218 Z-54.088
N1365 X14.038 Z-54.263
N1370 X14.734 Z-54.442
N1375 X15.305 Z-54.619
N1380 X15.752 Z-54.785
N1385 X16.077 Z-54.93
N1390 X16.388 Z-55.098
N1395 X16.581 Z-55.227
N1400 X16.753 Z-55.372
N1405 X16.836 Z-55.46
N1410 X16.928 Z-55.591
N1415 X16.979 Z-55.718
N1420 X16.998 Z-55.869
N1425 Z-95.003
N1430 X17.233 Y-56.112
N1435 X17.462 Y-56.029
N1440 X17.922 Y-55.864
N1445 Z-55.725
N1450 X17.908 Z-55.597
N1455 X17.869 Z-55.453
N1460 X17.816 Z-55.338
N1465 X17.746 Z-55.228
N1470 X17.677 Z-55.141
N1475 X17.519 Z-54.988
N1480 X17.334 Z-54.853
N1485 X17.133 Z-54.736
N1490 X16.864 Z-54.614
N1495 X16.354 Z-54.455
N1500 X15.659 Z-54.274
N1505 X14.84 Z-54.097
N1510 X12.479 Z-53.667
N1515 X6.339 Z-52.555
N1520 X0.987 Z-51.424
N1525 X0.402 Z-51.291
N1530 X0.166 Z-51.255
N1535 X-0.075 Z-51.249
N1540 X-0.304 Z-51.272
N1545 X-2.942 Z-51.848
N1550 X-6.227 Z-52.553
N1555 X-14.839 Z-54.084
N1560 X-15.684 Z-54.26
N1565 X-16.416 Z-54.445
N1570 X-16.727 Z-54.54
N1575 X-17.029 Z-54.67
N1580 X-17.223 Z-54.774
N1585 X-17.409 Z-54.896
N1590 X-17.582 Z-55.042
N1595 X-17.659 Z-55.124
N1600 X-17.736 Z-55.224
N1605 X-17.797 Z-55.325
N1610 X-17.858 Z-55.471
N1615 X-17.877 Z-55.543
N1620 X-17.896 Z-55.721
N1625 Z-95.003
N1630 X-18.782 Y-55.549
N1635 Z-55.567
N1640 X-18.766 Z-55.405
N1645 X-18.751 Z-55.34
N1650 X-18.691 Z-55.187
N1655 X-18.632 Z-55.084
N1660 X-18.556 Z-54.982
N1665 X-18.48 Z-54.899
N1670 X-18.308 Z-54.751
N1675 X-18.123 Z-54.627
N1680 X-17.929 Z-54.522
N1685 X-17.629 Z-54.391
N1690 X-17.321 Z-54.286
N1695 X-16.903 Z-54.176
N1700 X-16.455 Z-54.086
N1705 X-6.319 Z-52.285
N1710 X-2.096 Z-51.378
N1715 X-0.374 Z-50.996
N1720 X-0.145 Z-50.964
N1725 X0.096 Z-50.96
N1730 X0.333 Z-50.988
N1735 X1.152 Z-51.172
N1740 X6.505 Z-52.302
N1745 X15.951 Z-54.011
N1750 X16.892 Z-54.195
N1755 X17.239 Z-54.281
N1760 X17.58 Z-54.389
N1765 X17.907 Z-54.523
N1770 X18.114 Z-54.631
N1775 X18.307 Z-54.756
N1780 X18.478 Z-54.898
N1785 X18.617 Z-55.054
N1790 X18.676 Z-55.143
N1795 X18.736 Z-55.26
N1800 X18.766 Z-55.341
N1805 X18.795 Z-55.477
N1810 X18.803 Z-55.582
N1815 Z-95.003
N1820 X19.683 Y-55.233
N1825 Z-55.428
N1830 X19.668 Z-55.267
N1835 X19.652 Z-55.202
N1840 X19.591 Z-55.044
N1845 X19.53 Z-54.94
N1850 X19.438 Z-54.821
N1855 X19.28 Z-54.667
N1860 X19.096 Z-54.533
N1865 X18.894 Z-54.416
N1870 X18.571 Z-54.27
N1875 X18.235 Z-54.154
N1880 X17.889 Z-54.062
N1885 X17.42 Z-53.967
N1890 X16.59 Z-53.842
N1895 X6.46 Z-52.007
N1900 X1.342 Z-50.926
N1905 X0.406 Z-50.714
N1910 X0.172 Z-50.677
N1915 X-0.067 Z-50.67
N1920 X-0.312 Z-50.695
N1925 X-2.609 Z-51.201
N1930 X-6.363 Z-52.008
N1935 X-16.523 Z-53.81
N1940 X-17.342 Z-53.933
N1945 X-17.766 Z-54.016
N1950 X-18.184 Z-54.124
N1955 X-18.493 Z-54.228
N1960 X-18.793 Z-54.356
N1965 X-18.987 Z-54.459
N1970 X-19.172 Z-54.58
N1975 X-19.345 Z-54.725
N1980 X-19.428 Z-54.812
N1985 X-19.499 Z-54.902
N1990 X-19.569 Z-55.017
N1995 X-19.618 Z-55.129
N2000 X-19.655 Z-55.267
N2005 X-19.668 Z-55.411
N2010 Z-95.003
N2015 X-20.553 Y-54.917
N2020 Z-55.256
N2025 X-20.542 Z-55.122
N2030 X-20.51 Z-54.991
N2035 X-20.448 Z-54.849
N2040 X-20.386 Z-54.749
N2045 X-20.309 Z-54.651
N2050 X-20.231 Z-54.569
N2055 X-20.057 Z-54.424
N2060 X-19.871 Z-54.303
N2065 X-19.677 Z-54.2
N2070 X-19.375 Z-54.072
N2075 X-19.067 Z-53.969
N2080 X-18.648 Z-53.86
N2085 X-18.224 Z-53.778
N2090 X-16.562 Z-53.53
N2095 X-6.404 Z-51.73
N2100 X-2.416 Z-50.872
N2105 X-0.354 Z-50.413
N2110 X-0.139 Z-50.385
N2115 X0.101 Z-50.382
N2120 X0.337 Z-50.41
N2125 X1.483 Z-50.669
N2130 X6.627 Z-51.754
N2135 X16.52 Z-53.544
N2140 X18.301 Z-53.807
N2145 X18.769 Z-53.902
N2150 X19.115 Z-53.994
N2155 X19.451 Z-54.11
N2160 X19.775 Z-54.256
N2165 X19.976 Z-54.373
N2170 X20.16 Z-54.507
N2175 X20.319 Z-54.661
N2180 X20.414 Z-54.785
N2185 X20.462 Z-54.865
N2190 X20.509 Z-54.97
N2195 X20.55 Z-55.116
N2200 X20.564 Z-55.251
N2205 Z-95.003
N2210 X21.444 Y-54.601
N2215 Z-55.088
N2220 X21.425 Z-54.927
N2225 X21.405 Z-54.854
N2230 X21.366 Z-54.754
N2235 X21.305 Z-54.641
N2240 X21.199 Z-54.501
N2245 X21.041 Z-54.347
N2250 X20.857 Z-54.212
N2255 X20.655 Z-54.096
N2260 X20.332 Z-53.95
N2265 X19.996 Z-53.834
N2270 X19.65 Z-53.742
N2275 X19.181 Z-53.647
N2280 X17.639 Z-53.422
N2285 X16.451 Z-53.247
N2290 X6.557 Z-51.453
N2295 X1.65 Z-50.417
N2300 X0.386 Z-50.131
N2305 X0.151 Z-50.096
N2310 X-0.091 Z-50.092
N2315 X-0.32 Z-50.118
N2320 X-2.511 Z-50.605
N2325 X-6.499 Z-51.463
N2330 X-16.421 Z-53.223
N2335 X-19.139 Z-53.627
N2340 X-19.563 Z-53.711
N2345 X-19.981 Z-53.822
N2350 X-20.289 Z-53.928
N2355 X-20.589 Z-54.058
N2360 X-20.782 Z-54.163
N2365 X-20.966 Z-54.286
N2370 X-21.137 Z-54.434
N2375 X-21.218 Z-54.524
N2380 X-21.287 Z-54.616
N2385 X-21.356 Z-54.737
N2390 X-21.397 Z-54.841
N2395 X-21.429 Z-54.97
N2400 X-21.439 Z-55.102
N2405 Z-95.003
N2410 X-22.325 Y-54.285
N2415 Z-54.946
N2420 X-22.305 Z-54.767
N2425 X-22.277 Z-54.669
N2430 X-22.249 Z-54.598
N2435 X-22.193 Z-54.492
N2440 X-22.118 Z-54.386
N2445 X-22.044 Z-54.301
N2450 X-21.959 Z-54.219
N2455 X-21.782 Z-54.081
N2460 X-21.594 Z-53.966
N2465 X-21.399 Z-53.867
N2470 X-21.097 Z-53.744
N2475 X-20.787 Z-53.643
N2480 X-20.367 Z-53.538
N2485 X-19.931 Z-53.457
N2490 X-16.489 Z-52.946
N2495 X-6.566 Z-51.19
N2500 X-2.578 Z-50.332
N2505 X-0.705 Z-49.914
N2510 X-0.282 Z-49.822
N2515 X-0.037 Z-49.801
N2520 X0.202 Z-49.812
N2525 X0.377 Z-49.84
N2530 X1.816 Z-50.166
N2535 X6.724 Z-51.201
N2540 X16.381 Z-52.95
N2545 X18.519 Z-53.262
N2550 X20.062 Z-53.487
N2555 X20.531 Z-53.582
N2560 X20.877 Z-53.674
N2565 X21.213 Z-53.79
N2570 X21.536 Z-53.936
N2575 X21.737 Z-54.052
N2580 X21.922 Z-54.187
N2585 X22.08 Z-54.341
N2590 X22.152 Z-54.431
N2595 X22.224 Z-54.546
N2600 X22.274 Z-54.66
N2605 X22.312 Z-54.802
N2610 X22.325 Z-54.948
N2615 Z-95.003
N2620 X22.504 Y-54.214
N2625 X22.678 Y-54.133
N2630 X23.026 Y-53.969
N2635 Z-55.004
N2640 X23.009 Z-54.829
N2645 X22.958 Z-54.63
N2650 X22.87 Z-54.419
N2655 X22.781 Z-54.262
N2660 X22.634 Z-54.054
N2665 X22.537 Z-53.943
N2670 X22.37 Z-53.796
N2675 X22.274 Z-53.73
N2680 X22.178 Z-53.674
N2685 X21.993 Z-53.592
N2690 X21.625 Z-53.476
N2695 X21.278 Z-53.391
N2700 X20.807 Z-53.305
N2705 X16.532 Z-52.689
N2710 X6.873 Z-50.944
N2715 X1.964 Z-49.91
N2720 X0.349 Z-49.545
N2725 X0.114 Z-49.515
N2730 X-0.126 Z-49.516
N2735 X-0.341 Z-49.543
N2740 X-2.636 Z-50.056
N2745 X-6.625 Z-50.915
N2750 X-16.311 Z-52.634
N2755 X-20.821 Z-53.303
N2760 X-21.246 Z-53.382
N2765 X-21.665 Z-53.486
N2770 X-22.026 Z-53.605
N2775 X-22.176 Z-53.673
N2780 X-22.275 Z-53.73
N2785 X-22.366 Z-53.793
N2790 X-22.457 Z-53.867
N2795 X-22.538 Z-53.944
N2800 X-22.687 Z-54.123
N2805 X-22.814 Z-54.317
N2810 X-22.873 Z-54.426
N2815 X-22.927 Z-54.544
N2820 X-22.98 Z-54.699
N2825 X-23.016 Z-54.865
N2830 X-23.028 Z-55.028
N2835 Z-95.003
N2840 X-23.698 Y-53.653
N2845 Z-55.156
N2850 X-23.686 Z-54.992
N2855 X-23.65 Z-54.824
N2860 X-23.576 Z-54.624
N2865 X-23.513 Z-54.495
N2870 X-23.449 Z-54.386
N2875 X-23.317 Z-54.198
N2880 X-23.095 Z-53.943
N2885 X-22.856 Z-53.716
N2890 X-22.597 Z-53.506
N2895 X-22.411 Z-53.382
N2900 X-22.214 Z-53.283
N2905 X-22.007 Z-53.21
N2910 X-21.795 Z-53.162
N2915 X-16.229 Z-52.335
N2920 X-6.778 Z-50.658
N2925 X-2.789 Z-49.802
N2930 X-0.365 Z-49.259
N2935 X-0.136 Z-49.227
N2940 X0.106 Z-49.225
N2945 X0.342 Z-49.254
N2950 X2.073 Z-49.646
N2955 X6.746 Z-50.632
N2960 X16.405 Z-52.384
N2965 X21.155 Z-53.068
N2970 X21.866 Z-53.175
N2975 X22.093 Z-53.237
N2980 X22.308 Z-53.327
N2985 X22.507 Z-53.442
N2990 X22.695 Z-53.582
N2995 X22.961 Z-53.809
N3000 X23.204 Z-54.059
N3005 X23.391 Z-54.297
N3010 X23.509 Z-54.489
N3015 X23.57 Z-54.613
N3020 X23.631 Z-54.772
N3025 X23.677 Z-54.961
N3030 X23.692 Z-55.135
N3035 Z-95.003
N3040 X24.359 Y-53.337
N3045 Z-55.249
N3050 X24.345 Z-55.093
N3055 X24.305 Z-54.916
N3060 X24.244 Z-54.75
N3065 X24.183 Z-54.624
N3070 X24.057 Z-54.419
N3075 X23.87 Z-54.181
N3080 X23.627 Z-53.931
N3085 X23.362 Z-53.703
N3090 X23.077 Z-53.492
N3095 X22.677 Z-53.238
N3100 X22.366 Z-53.069
N3105 X22.148 Z-52.979
N3110 X21.923 Z-52.907
N3115 X21.661 Z-52.854
N3120 X16.228 Z-52.068
N3125 X6.807 Z-50.358
N3130 X2.159 Z-49.376
N3135 X0.404 Z-48.977
N3140 X0.168 Z-48.941
N3145 X-0.073 Z-48.935
N3150 X-0.303 Z-48.958
N3155 X-1.532 Z-49.234
N3160 X-3.407 Z-49.647
N3165 X-6.926 Z-50.4
N3170 X-16.141 Z-52.036
N3175 X-21.718 Z-52.863
N3180 X-21.942 Z-52.913
N3185 X-22.15 Z-52.979
N3190 X-22.452 Z-53.111
N3195 X-22.829 Z-53.331
N3200 X-23.19 Z-53.576
N3205 X-23.449 Z-53.777
N3210 X-23.695 Z-53.999
N3215 X-23.921 Z-54.242
N3220 X-24.058 Z-54.422
N3225 X-24.187 Z-54.63
N3230 X-24.251 Z-54.76
N3235 X-24.323 Z-54.962
N3240 X-24.357 Z-55.13
N3245 X-24.367 Z-55.282
N3250 Z-95.003
N3255 X-25.037 Y-53.021
N3260 Z-55.408
N3265 X-25.026 Z-55.253
N3270 X-24.995 Z-55.099
N3275 X-24.953 Z-54.968
N3280 X-24.894 Z-54.829
N3285 X-24.771 Z-54.613
N3290 X-24.638 Z-54.428
N3295 X-24.418 Z-54.178
N3300 X-24.175 Z-53.951
N3305 X-23.919 Z-53.746
N3310 X-23.561 Z-53.498
N3315 X-23.188 Z-53.274
N3320 X-22.389 Z-52.841
N3325 X-22.088 Z-52.7
N3330 X-21.882 Z-52.627
N3335 X-21.6 Z-52.559
N3340 X-16.082 Z-51.74
N3345 X-6.868 Z-50.104
N3350 X-3.114 Z-49.297
N3355 X-0.351 Z-48.677
N3360 X-0.136 Z-48.649
N3365 X0.103 Z-48.647
N3370 X0.339 Z-48.675
N3375 X2.211 Z-49.098
N3380 X7.096 Z-50.13
N3385 X16.281 Z-51.793
N3390 X21.623 Z-52.564
N3395 X21.853 Z-52.619
N3400 X22.077 Z-52.695
N3405 X22.292 Z-52.791
N3410 X23.032 Z-53.186
N3415 X23.343 Z-53.36
N3420 X23.743 Z-53.614
N3425 X24.028 Z-53.825
N3430 X24.294 Z-54.052
N3435 X24.537 Z-54.302
N3440 X24.724 Z-54.54
N3445 X24.849 Z-54.745
N3450 X24.917 Z-54.888
N3455 X24.971 Z-55.037
N3460 X25.012 Z-55.213
N3465 X25.025 Z-55.363
N3470 X25.026 Z-95.003
N3475 X25.692 Y-52.705
N3480 Z-55.511
N3485 X25.682 Z-55.361
N3490 X25.652 Z-55.208
N3495 X25.601 Z-55.051
N3500 X25.498 Z-54.835
N3505 X25.39 Z-54.662
N3510 X25.203 Z-54.424
N3515 X24.96 Z-54.174
N3520 X24.695 Z-53.946
N3525 X24.41 Z-53.736
N3530 X24.01 Z-53.481
N3535 X23.699 Z-53.307
N3540 X22.218 Z-52.514
N3545 X22.005 Z-52.414
N3550 X21.784 Z-52.332
N3555 X21.556 Z-52.271
N3560 X21.321 Z-52.231
N3565 X16.095 Z-51.474
N3570 X7.146 Z-49.855
N3575 X2.472 Z-48.868
N3580 X0.39 Z-48.396
N3585 X0.155 Z-48.361
N3590 X-0.084 Z-48.356
N3595 X-0.324 Z-48.383
N3600 X-3.087 Z-49.003
N3605 X-7.076 Z-49.857
N3610 X-16.054 Z-51.451
N3615 X-21.455 Z-52.251
N3620 X-21.726 Z-52.314
N3625 X-21.933 Z-52.385
N3630 X-22.23 Z-52.521
N3635 X-23.879 Z-53.412
N3640 X-24.251 Z-53.637
N3645 X-24.608 Z-53.887
N3650 X-24.864 Z-54.095
N3655 X-25.104 Z-54.322
N3660 X-25.325 Z-54.577
N3665 X-25.457 Z-54.765
N3670 X-25.521 Z-54.873
N3675 X-25.585 Z-55.002
N3680 X-25.658 Z-55.202
N3685 X-25.695 Z-55.371
N3690 X-25.707 Z-55.535
N3695 Z-95.003
N3700 X-26.377 Y-52.389
N3705 Z-55.662
N3710 X-26.36 Z-55.471
N3715 X-26.312 Z-55.276
N3720 X-26.255 Z-55.13
N3725 X-26.199 Z-55.015
N3730 X-26.138 Z-54.909
N3735 X-26.008 Z-54.72
N3740 X-25.791 Z-54.467
N3745 X-25.55 Z-54.236
N3750 X-25.297 Z-54.028
N3755 X-24.94 Z-53.777
N3760 X-24.569 Z-53.551
N3765 X-22.076 Z-52.203
N3770 X-21.775 Z-52.069
N3775 X-21.568 Z-52.001
N3780 X-21.344 Z-51.949
N3785 X-16.003 Z-51.157
N3790 X-7.026 Z-49.563
N3795 X-3.272 Z-48.755
N3800 X-0.381 Z-48.105
N3805 X-0.152 Z-48.072
N3810 X0.09 Z-48.068
N3815 X0.326 Z-48.094
N3820 X2.55 Z-48.597
N3825 X7.198 Z-49.579
N3830 X16.147 Z-51.199
N3835 X17.097 Z-51.337
N3840 X21.371 Z-51.954
N3845 X21.601 Z-52.01
N3850 X21.824 Z-52.088
N3855 X22.039 Z-52.184
N3860 X24.47 Z-53.485
N3865 X24.879 Z-53.727
N3870 X25.173 Z-53.926
N3875 X25.452 Z-54.141
N3880 X25.712 Z-54.377
N3885 X25.935 Z-54.622
N3890 X26.114 Z-54.87
N3895 X26.203 Z-55.028
N3900 X26.264 Z-55.165
N3905 X26.311 Z-55.304
N3910 X26.347 Z-55.468
N3915 X26.358 Z-55.608
N3920 X26.359 Z-95.003
N3925 X27.025 Y-52.073
N3930 Z-55.741
N3935 X27.012 Z-55.582
N3940 X26.968 Z-55.392
N3945 X26.937 Z-55.304
N3950 X26.876 Z-55.164
N3955 X26.78 Z-54.992
N3960 X26.601 Z-54.744
N3965 X26.378 Z-54.499
N3970 X26.118 Z-54.263
N3975 X25.84 Z-54.048
N3980 X25.545 Z-53.848
N3985 X25.136 Z-53.607
N3990 X21.965 Z-51.907
N3995 X21.751 Z-51.806
N4000 X21.53 Z-51.723
N4005 X21.302 Z-51.661
N4010 X20.949 Z-51.604
N4015 X16.199 Z-50.92
N4020 X7.248 Z-49.303
N4025 X2.81 Z-48.367
N4030 X0.377 Z-47.815
N4035 X0.141 Z-47.781
N4040 X-0.1 Z-47.779
N4045 X-0.33 Z-47.806
N4050 X-3.456 Z-48.507
N4055 X-7.21 Z-49.311
N4060 X-15.953 Z-50.863
N4065 X-21.175 Z-51.637
N4070 X-21.388 Z-51.682
N4075 X-21.597 Z-51.746
N4080 X-21.898 Z-51.873
N4085 X-25.236 Z-53.676
N4090 X-25.608 Z-53.902
N4095 X-25.964 Z-54.153
N4100 X-26.219 Z-54.362
N4105 X-26.458 Z-54.591
N4110 X-26.607 Z-54.757
N4115 X-26.743 Z-54.938
N4120 X-26.871 Z-55.147
N4125 X-26.934 Z-55.278
N4130 X-27.005 Z-55.482
N4135 X-27.037 Z-55.649
N4140 X-27.046 Z-55.789
N4145 Z-95.003
N4150 X-27.369 Y-51.92
N4155 X-27.531 Y-51.843
N4160 X-27.687 Y-51.757
N4165 Z-55.868
N4170 X-27.677 Z-55.71
N4175 X-27.648 Z-55.553
N4180 X-27.591 Z-55.381
N4185 X-27.503 Z-55.206
N4190 X-27.343 Z-54.967
N4195 X-27.125 Z-54.714
N4200 X-26.884 Z-54.485
N4205 X-26.63 Z-54.277
N4210 X-26.273 Z-54.026
N4215 X-25.901 Z-53.8
N4220 X-21.813 Z-51.591
N4225 X-21.514 Z-51.458
N4230 X-21.307 Z-51.389
N4235 X-21.095 Z-51.34
N4240 X-15.874 Z-50.565
N4245 X-7.133 Z-49.011
N4250 X-3.614 Z-48.253
N4255 X-0.804 Z-47.622
N4260 X-0.276 Z-47.508
N4265 X-0.047 Z-47.487
N4270 X0.192 Z-47.497
N4275 X0.369 Z-47.524
N4280 X2.861 Z-48.089
N4285 X7.299 Z-49.027
N4290 X16.012 Z-50.605
N4295 X20.525 Z-51.256
N4300 X21.116 Z-51.344
N4305 X21.346 Z-51.401
N4310 X21.569 Z-51.479
N4315 X21.784 Z-51.576
N4320 X25.801 Z-53.728
N4325 X26.211 Z-53.969
N4330 X26.505 Z-54.168
N4335 X26.783 Z-54.383
N4340 X27.044 Z-54.619
N4345 X27.267 Z-54.864
N4350 X27.446 Z-55.112
N4355 X27.528 Z-55.257
N4360 X27.611 Z-55.444
N4365 X27.651 Z-55.571
N4370 X27.676 Z-55.688
N4375 X27.691 Z-55.869
N4380 Z-95.003
N4385 X27.951 Y-51.608
N4390 X28.201 Y-51.441
N4395 Z-55.84
N4400 X28.188 Z-55.681
N4405 X28.151 Z-55.496
N4410 X28.101 Z-55.344
N4415 X28.028 Z-55.183
N4420 X27.956 Z-55.055
N4425 X27.83 Z-54.875
N4430 X27.68 Z-54.711
N4435 X27.417 Z-54.478
N4440 X27.137 Z-54.265
N4445 X26.84 Z-54.067
N4450 X26.403 Z-53.815
N4455 X21.671 Z-51.28
N4460 X21.458 Z-51.181
N4465 X21.236 Z-51.101
N4470 X21.006 Z-51.043
N4475 X20.534 Z-50.971
N4480 X16.021 Z-50.321
N4485 X7.306 Z-48.741
N4490 X2.893 Z-47.807
N4495 X0.377 Z-47.236
N4500 X0.2 Z-47.208
N4505 X-0.038 Z-47.198
N4510 X-0.266 Z-47.217
N4515 X-0.794 Z-47.331
N4520 X-3.603 Z-47.964
N4525 X-7.357 Z-48.768
N4530 X-15.863 Z-50.277
N4535 X-20.967 Z-51.035
N4540 X-21.19 Z-51.088
N4545 X-21.397 Z-51.157
N4550 X-21.697 Z-51.293
N4555 X-26.512 Z-53.894
N4560 X-26.886 Z-54.116
N4565 X-27.245 Z-54.363
N4570 X-27.544 Z-54.603
N4575 X-27.663 Z-54.721
N4580 X-27.81 Z-54.895
N4585 X-27.94 Z-55.087
N4590 X-28.049 Z-55.301
N4595 X-28.098 Z-55.432
N4600 X-28.147 Z-55.633
N4605 X-28.163 Z-55.768
N4610 X-28.167 Z-95.003
N4615 X-28.642 Y-51.125
N4620 Z-55.862
N4625 X-28.636 Z-55.737
N4630 X-28.617 Z-55.606
N4635 X-28.577 Z-55.447
N4640 X-28.538 Z-55.335
N4645 X-28.484 Z-55.214
N4650 X-28.366 Z-55.009
N4655 X-28.229 Z-54.825
N4660 X-28.077 Z-54.659
N4665 X-27.829 Z-54.438
N4670 X-27.56 Z-54.245
N4675 X-27.187 Z-54.023
N4680 X-21.526 Z-50.966
N4685 X-21.225 Z-50.836
N4690 X-21.017 Z-50.77
N4695 X-20.805 Z-50.724
N4700 X-15.819 Z-49.984
N4705 X-7.315 Z-48.475
N4710 X-3.796 Z-47.717
N4715 X-0.331 Z-46.938
N4720 X-0.091 Z-46.911
N4725 X0.148 Z-46.914
N4730 X0.383 Z-46.948
N4735 X3.168 Z-47.58
N4740 X7.371 Z-48.468
N4745 X15.848 Z-50.006
N4750 X20.834 Z-50.729
N4755 X21.065 Z-50.784
N4760 X21.288 Z-50.86
N4765 X21.503 Z-50.955
N4770 X27.108 Z-53.956
N4775 X27.518 Z-54.196
N4780 X27.809 Z-54.395
N4785 X27.988 Z-54.543
N4790 X28.153 Z-54.703
N4795 X28.301 Z-54.874
N4800 X28.427 Z-55.055
N4805 X28.509 Z-55.201
N4810 X28.59 Z-55.395
N4815 X28.631 Z-55.533
N4820 X28.651 Z-55.63
N4825 X28.672 Z-55.843
N4830 Z-95.003
N4835 X29.143 Y-50.809
N4840 Z-55.846
N4845 X29.127 Z-55.659
N4850 X29.08 Z-55.452
N4855 X29.035 Z-55.323
N4860 X28.944 Z-55.132
N4865 X28.835 Z-54.959
N4870 X28.698 Z-54.784
N4875 X28.542 Z-54.619
N4880 X28.37 Z-54.466
N4885 X28.089 Z-54.26
N4890 X27.785 Z-54.078
N4895 X21.778 Z-50.865
N4900 X21.355 Z-50.641
N4905 X21.139 Z-50.547
N4910 X20.915 Z-50.473
N4915 X20.684 Z-50.42
N4920 X15.935 Z-49.735
N4925 X7.456 Z-48.199
N4930 X3.278 Z-47.316
N4935 X0.353 Z-46.653
N4940 X0.117 Z-46.623
N4945 X-0.125
N4950 X-0.354 Z-46.653
N4955 X-3.948 Z-47.463
N4960 X-7.467 Z-48.218
N4965 X-15.737 Z-49.686
N4970 X-20.722 Z-50.427
N4975 X-20.934 Z-50.478
N4980 X-21.141 Z-50.548
N4985 X-21.439 Z-50.683
N4990 X-27.216 Z-53.803
N4995 X-27.748 Z-54.076
N5000 X-28.041 Z-54.249
N5005 X-28.308 Z-54.442
N5010 X-28.477 Z-54.586
N5015 X-28.634 Z-54.745
N5020 X-28.779 Z-54.92
N5025 X-28.906 Z-55.114
N5030 X-28.965 Z-55.227
N5035 X-29.012 Z-55.333
N5040 X-29.058 Z-55.468
N5045 X-29.102 Z-55.668
N5050 X-29.117 Z-55.862
N5055 Z-95.003
N5060 X-29.591 Y-50.493
N5065 Z-57.129
N5070 X-29.587 Z-55.756
N5075 X-29.554 Z-55.548
N5080 X-29.512 Z-55.401
N5085 X-29.469 Z-55.291
N5090 X-29.413 Z-55.174
N5095 X-29.292 Z-54.973
N5100 X-29.152 Z-54.793
N5105 X-28.997 Z-54.63
N5110 X-28.747 Z-54.413
N5115 X-28.476 Z-54.224
N5120 X-28.193 Z-54.06
N5125 X-27.123 Z-53.515
N5130 X-21.251 Z-50.349
N5135 X-20.948 Z-50.219
N5140 X-20.74 Z-50.155
N5145 X-20.516 Z-50.108
N5150 X-15.65 Z-49.386
N5155 X-7.617 Z-47.96
N5160 X-4.098 Z-47.207
N5165 X-1.055 Z-46.522
N5170 X-0.293 Z-46.353
N5175 X-0.063 Z-46.331
N5180 X0.178 Z-46.338
N5185 X0.355 Z-46.364
N5190 X3.339 Z-47.04
N5195 X7.517 Z-47.925
N5200 X15.758 Z-49.42
N5205 X20.033 Z-50.038
N5210 X20.624 Z-50.128
N5215 X20.853 Z-50.187
N5220 X21.074 Z-50.268
N5225 X21.289 Z-50.368
N5230 X27.084 Z-53.473
N5235 X28.153 Z-54.023
N5240 X28.46 Z-54.196
N5245 X28.751 Z-54.395
N5250 X28.93 Z-54.543
N5255 X29.095 Z-54.703
N5260 X29.243 Z-54.874
N5265 X29.369 Z-55.055
N5270 X29.469 Z-55.24
N5275 X29.52 Z-55.359
N5280 X29.57 Z-55.519
N5285 X29.603 Z-55.693
N5290 X29.614 Z-55.85
N5295 Z-95.003
N5300 X30.085 Y-50.177
N5305 Z-55.855
N5310 X30.072 Z-55.681
N5315 X30.032 Z-55.487
N5320 X30.005 Z-55.398
N5325 X29.95 Z-55.26
N5330 X29.84 Z-55.055
N5335 X29.714 Z-54.874
N5340 X29.566 Z-54.703
N5345 X29.401 Z-54.543
N5350 X29.222 Z-54.395
N5355 X28.931 Z-54.196
N5360 X28.624 Z-54.023
N5365 X26.914 Z-53.146
N5370 X21.119 Z-50.042
N5375 X20.904 Z-49.946
N5380 X20.681 Z-49.869
N5385 X20.451 Z-49.814
N5390 X15.821 Z-49.145
N5395 X7.579 Z-47.651
N5400 X3.611 Z-46.813
N5405 X0.358 Z-46.076
N5410 X0.123 Z-46.045
N5415 X-0.117 Z-46.044
N5420 X-0.356 Z-46.075
N5425 X-4.289 Z-46.961
N5430 X-7.574 Z-47.668
N5435 X-15.606 Z-49.094
N5440 X-20.412 Z-49.807
N5445 X-20.694 Z-49.873
N5450 X-20.901 Z-49.945
N5455 X-21.199 Z-50.084
N5460 X-26.858 Z-53.138
N5465 X-28.676 Z-54.064
N5470 X-28.97 Z-54.236
N5475 X-29.238 Z-54.426
N5480 X-29.49 Z-54.647
N5485 X-29.643 Z-54.812
N5490 X-29.782 Z-54.996
N5495 X-29.902 Z-55.202
N5500 X-29.95 Z-55.307
N5505 X-29.999 Z-55.438
N5510 X-30.047 Z-55.641
N5515 X-30.064 Z-55.784
N5520 X-30.066 Z-95.003
N5525 X-30.541 Y-49.861
N5530 Z-55.868
N5535 X-30.532 Z-55.71
N5540 X-30.505 Z-55.553
N5545 X-30.462 Z-55.405
N5550 X-30.42 Z-55.295
N5555 X-30.365 Z-55.177
N5560 X-30.243 Z-54.976
N5565 X-30.103 Z-54.795
N5570 X-29.949 Z-54.632
N5575 X-29.699 Z-54.415
N5580 X-29.428 Z-54.225
N5585 X-29.145 Z-54.061
N5590 X-26.579 Z-52.754
N5595 X-21.012 Z-49.749
N5600 X-20.713 Z-49.618
N5605 X-20.505 Z-49.551
N5610 X-20.292 Z-49.503
N5615 X-15.546 Z-48.798
N5620 X-7.748 Z-47.414
N5625 X-4.464 Z-46.711
N5630 X-0.952 Z-45.92
N5635 X-0.295 Z-45.775
N5640 X-0.051 Z-45.752
N5645 X0.188 Z-45.761
N5650 X0.364 Z-45.787
N5655 X3.699 Z-46.543
N5660 X7.642 Z-47.377
N5665 X15.647 Z-48.83
N5670 X20.16 Z-49.483
N5675 X20.394 Z-49.523
N5680 X20.622 Z-49.586
N5685 X20.843 Z-49.669
N5690 X21.055 Z-49.771
N5695 X26.555 Z-52.718
N5700 X29.198 Z-54.078
N5705 X29.502 Z-54.26
N5710 X29.783 Z-54.466
N5715 X29.955 Z-54.619
N5720 X30.111 Z-54.784
N5725 X30.248 Z-54.959
N5730 X30.371 Z-55.158
N5735 X30.43 Z-55.282
N5740 X30.49 Z-55.441
N5745 X30.52 Z-55.551
N5750 X30.549 Z-55.732
N5755 X30.556 Z-55.862
N5760 Z-95.003
N5765 X31.027 Y-49.545
N5770 Z-55.869
N5775 X31.013 Z-55.673
N5780 X30.972 Z-55.478
N5785 X30.917 Z-55.318
N5790 X30.855 Z-55.184
N5795 X30.782 Z-55.055
N5800 X30.656 Z-54.874
N5805 X30.509 Z-54.703
N5810 X30.344 Z-54.543
N5815 X30.164 Z-54.395
N5820 X29.873 Z-54.196
N5825 X29.566 Z-54.023
N5830 X26.385 Z-52.391
N5835 X20.885 Z-49.445
N5840 X20.671 Z-49.347
N5845 X20.449 Z-49.267
N5850 X20.22 Z-49.208
N5855 X19.747 Z-49.137
N5860 X15.709 Z-48.555
N5865 X7.703 Z-47.103
N5870 X3.76 Z-46.268
N5875 X0.366 Z-45.499
N5880 X0.13 Z-45.467
N5885 X-0.111 Z-45.465
N5890 X-0.34 Z-45.494
N5895 X-4.403 Z-46.41
N5900 X-7.687 Z-47.117
N5905 X-15.483 Z-48.502
N5910 X-20.111 Z-49.189
N5915 X-20.335 Z-49.235
N5920 X-20.543 Z-49.298
N5925 X-20.847 Z-49.426
N5930 X-26.508 Z-52.476
N5935 X-29.609 Z-54.056
N5940 X-29.904 Z-54.226
N5945 X-30.173 Z-54.415
N5950 X-30.426 Z-54.634
N5955 X-30.58 Z-54.798
N5960 X-30.721 Z-54.98
N5965 X-30.843 Z-55.183
N5970 X-30.892 Z-55.288
N5975 X-30.941 Z-55.417
N5980 X-30.992 Z-55.614
N5985 X-31.009 Z-55.734
N5990 X-31.016 Z-55.862
N5995 Z-95.003
N6000 X-31.491 Y-49.229
N6005 Z-55.862
N6010 X-31.478 Z-55.682
N6015 X-31.44 Z-55.495
N6020 X-31.394 Z-55.356
N6025 X-31.349 Z-55.248
N6030 X-31.291 Z-55.134
N6035 X-31.166 Z-54.938
N6040 X-31.023 Z-54.761
N6045 X-30.866 Z-54.6
N6050 X-30.699 Z-54.455
N6055 X-30.433 Z-54.261
N6060 X-30.151 Z-54.092
N6065 X-26.206 Z-52.08
N6070 X-20.757 Z-49.141
N6075 X-20.455 Z-49.008
N6080 X-20.248 Z-48.941
N6085 X-20.024 Z-48.89
N6090 X-15.633 Z-48.239
N6095 X-7.835 Z-46.86
N6100 X-4.551 Z-46.154
N6105 X-0.806 Z-45.309
N6110 X-0.277 Z-45.194
N6115 X-0.049 Z-45.173
N6120 X0.191 Z-45.183
N6125 X0.368 Z-45.21
N6130 X4.03 Z-46.04
N6135 X7.999 Z-46.877
N6140 X15.532 Z-48.24
N6145 X20.043 Z-48.894
N6150 X20.274 Z-48.948
N6155 X20.498 Z-49.024
N6160 X20.713 Z-49.119
N6165 X26.191 Z-52.052
N6170 X30.037 Z-54.023
N6175 X30.344 Z-54.196
N6180 X30.635 Z-54.395
N6185 X30.815 Z-54.543
N6190 X30.98 Z-54.703
N6195 X31.127 Z-54.874
N6200 X31.253 Z-55.055
N6205 X31.345 Z-55.222
N6210 X31.406 Z-55.366
N6215 X31.452 Z-55.512
N6220 X31.486 Z-55.689
N6225 X31.498 Z-55.842
N6230 Z-95.003
N6235 X31.969 Y-48.913
N6240 Z-55.845
N6245 X31.951 Z-55.643
N6250 X31.933 Z-55.55
N6255 X31.896 Z-55.42
N6260 X31.835 Z-55.262
N6265 X31.724 Z-55.055
N6270 X31.598 Z-54.874
N6275 X31.451 Z-54.703
N6280 X31.286 Z-54.543
N6285 X31.106 Z-54.395
N6290 X30.816 Z-54.196
N6295 X30.508 Z-54.023
N6300 X26.021 Z-51.725
N6305 X20.649 Z-48.847
N6310 X20.435 Z-48.746
N6315 X20.214 Z-48.664
N6320 X19.985 Z-48.603
N6325 X19.633 Z-48.546
N6330 X15.595 Z-47.965
N6335 X8.061 Z-46.603
N6340 X4.116 Z-45.77
N6345 X0.371 Z-44.921
N6350 X0.136 Z-44.889
N6355 X-0.103 Z-44.886
N6360 X-0.343 Z-44.916
N6365 X-4.744 Z-45.908
N6370 X-8.028 Z-46.61
N6375 X-15.353 Z-47.91
N6380 X-19.862 Z-48.58
N6385 X-20.075 Z-48.624
N6390 X-20.284 Z-48.687
N6395 X-20.585 Z-48.815
N6400 X-25.92 Z-51.693
N6405 X-30.624 Z-54.091
N6410 X-30.905 Z-54.259
N6415 X-31.173 Z-54.454
N6420 X-31.419 Z-54.677
N6425 X-31.569 Z-54.845
N6430 X-31.704 Z-55.031
N6435 X-31.82 Z-55.239
N6440 X-31.872 Z-55.363
N6445 X-31.909 Z-55.477
N6450 X-31.947 Z-55.645
N6455 X-31.965 Z-55.863
N6460 Z-95.003
N6465 X-32.44 Y-48.597
N6470 Z-55.864
N6475 X-32.428 Z-55.683
N6480 X-32.39 Z-55.498
N6485 X-32.345 Z-55.358
N6490 X-32.3 Z-55.251
N6495 X-32.242 Z-55.137
N6500 X-32.117 Z-54.94
N6505 X-31.974 Z-54.763
N6510 X-31.818 Z-54.602
N6515 X-31.65 Z-54.456
N6520 X-31.385 Z-54.262
N6525 X-31.103 Z-54.093
N6530 X-25.875 Z-51.428
N6535 X-20.52 Z-48.542
N6540 X-20.222 Z-48.407
N6545 X-20.015 Z-48.337
N6550 X-19.803 Z-48.286
N6555 X-15.294 Z-47.615
N6560 X-7.969 Z-46.314
N6565 X-4.919 Z-45.658
N6570 X-0.706 Z-44.707
N6575 X-0.283 Z-44.616
N6580 X-0.038 Z-44.595
N6585 X0.201 Z-44.605
N6590 X0.376 Z-44.633
N6595 X4.179 Z-45.495
N6600 X8.124 Z-46.33
N6605 X15.42 Z-47.65
N6610 X19.458 Z-48.234
N6615 X19.812 Z-48.288
N6620 X20.042 Z-48.345
N6625 X20.264 Z-48.424
N6630 X20.479 Z-48.521
N6635 X25.661 Z-51.297
N6640 X30.979 Z-54.023
N6645 X31.287 Z-54.196
N6650 X31.577 Z-54.395
N6655 X31.757 Z-54.543
N6660 X31.922 Z-54.703
N6665 X32.069 Z-54.874
N6670 X32.195 Z-55.055
N6675 X32.263 Z-55.174
N6680 X32.325 Z-55.306
N6685 X32.386 Z-55.481
N6690 X32.427 Z-55.674
N6695 X32.44 Z-55.848
N6700 Z-95.003
N6705 X32.911 Y-48.281
N6710 Z-55.852
N6715 X32.893 Z-55.646
N6720 X32.845 Z-55.441
N6725 X32.814 Z-55.353
N6730 X32.753 Z-55.212
N6735 X32.666 Z-55.055
N6740 X32.54 Z-54.874
N6745 X32.393 Z-54.703
N6750 X32.228 Z-54.543
N6755 X32.048 Z-54.395
N6760 X31.758 Z-54.196
N6765 X31.45 Z-54.023
N6770 X25.492 Z-50.97
N6775 X20.415 Z-48.25
N6780 X20.203 Z-48.148
N6785 X19.983 Z-48.063
N6790 X19.756 Z-47.998
N6795 X19.522 Z-47.957
N6800 X15.484 Z-47.375
N6805 X8.186 Z-46.056
N6810 X4.452 Z-45.268
N6815 X0.38 Z-44.344
N6820 X0.144 Z-44.311
N6825 X-0.097 Z-44.308
N6830 X-0.326 Z-44.334
N6835 X-5.091 Z-45.408
N6840 X-8.141 Z-46.06
N6845 X-15.465 Z-47.355
N6850 X-19.62 Z-47.971
N6855 X-19.844 Z-48.02
N6860 X-20.051 Z-48.087
N6865 X-20.353 Z-48.218
N6870 X-25.592 Z-51.042
N6875 X-31.579 Z-54.094
N6880 X-31.86 Z-54.263
N6885 X-32.127 Z-54.458
N6890 X-32.373 Z-54.682
N6895 X-32.523 Z-54.85
N6900 X-32.657 Z-55.037
N6905 X-32.772 Z-55.245
N6910 X-32.824 Z-55.37
N6915 X-32.88 Z-55.558
N6920 X-32.911 Z-55.762
N6925 X-32.915 Z-95.003
N6930 X-33.39 Y-47.965
N6935 Z-55.864
N6940 X-33.375 Z-55.668
N6945 X-33.331 Z-55.468
N6950 X-33.284 Z-55.333
N6955 X-33.238 Z-55.226
N6960 X-33.179 Z-55.114
N6965 X-33.051 Z-54.92
N6970 X-32.907 Z-54.744
N6975 X-32.749 Z-54.586
N6980 X-32.581 Z-54.441
N6985 X-32.314 Z-54.249
N6990 X-32.02 Z-54.075
N6995 X-25.284 Z-50.644
N7000 X-20.258 Z-47.931
N7005 X-19.958 Z-47.795
N7010 X-19.751 Z-47.726
N7015 X-19.528 Z-47.673
N7020 X-15.373 Z-47.055
N7025 X-8.05 Z-45.757
N7030 X-5.235 Z-45.151
N7035 X-0.405 Z-44.061
N7040 X-0.151 Z-44.022
N7045 X0.089 Z-44.018
N7050 X0.325 Z-44.045
N7055 X4.537 Z-44.998
N7060 X8.246 Z-45.783
N7065 X15.306 Z-47.06
N7070 X19.344 Z-47.644
N7075 X19.579 Z-47.683
N7080 X19.808 Z-47.743
N7085 X20.03 Z-47.824
N7090 X20.243 Z-47.923
N7095 X25.298 Z-50.631
N7100 X31.921 Z-54.023
N7105 X32.229 Z-54.196
N7110 X32.519 Z-54.395
N7115 X32.699 Z-54.543
N7120 X32.864 Z-54.703
N7125 X33.011 Z-54.874
N7130 X33.138 Z-55.055
N7135 X33.243 Z-55.251
N7140 X33.304 Z-55.405
N7145 X33.335 Z-55.506
N7150 X33.365 Z-55.652
N7155 X33.382 Z-55.857
N7160 Z-95.003
N7165 X33.853 Y-47.649
N7170 Z-55.838
N7175 X33.838 Z-55.662
N7180 X33.793 Z-55.46
N7185 X33.733 Z-55.293
N7190 X33.671 Z-55.163
N7195 X33.545 Z-54.959
N7200 X33.409 Z-54.784
N7205 X33.252 Z-54.619
N7210 X33.08 Z-54.466
N7215 X32.8 Z-54.26
N7220 X32.496 Z-54.078
N7225 X25.128 Z-50.305
N7230 X20.073 Z-47.598
N7235 X19.858 Z-47.501
N7240 X19.635 Z-47.424
N7245 X19.405 Z-47.368
N7250 X15.369 Z-46.785
N7255 X8.307 Z-45.508
N7260 X4.599 Z-44.723
N7265 X0.386 Z-43.767
N7270 X0.151 Z-43.733
N7275 X-0.088 Z-43.729
N7280 X-0.328 Z-43.756
N7285 X-5.432 Z-44.906
N7290 X-8.247 Z-45.51
N7295 X-15.336 Z-46.764
N7300 X-19.371 Z-47.362
N7305 X-19.583 Z-47.41
N7310 X-19.791 Z-47.476
N7315 X-20.092 Z-47.607
N7320 X-25.024 Z-50.27
N7325 X-32.506 Z-54.082
N7330 X-32.788 Z-54.249
N7335 X-33.057 Z-54.442
N7340 X-33.304 Z-54.663
N7345 X-33.456 Z-54.83
N7350 X-33.592 Z-55.014
N7355 X-33.709 Z-55.22
N7360 X-33.763 Z-55.341
N7365 X-33.802 Z-55.454
N7370 X-33.841 Z-55.614
N7375 X-33.862 Z-55.779
N7380 X-33.864 Z-95.003
N7385 X-34.339 Y-47.333
N7390 Z-55.868
N7395 X-34.325 Z-55.672
N7400 X-34.283 Z-55.477
N7405 X-34.237 Z-55.34
N7410 X-34.191 Z-55.233
N7415 X-34.132 Z-55.121
N7420 X-34.005 Z-54.926
N7425 X-33.861 Z-54.75
N7430 X-33.704 Z-54.59
N7435 X-33.536 Z-54.446
N7440 X-33.269 Z-54.253
N7445 X-32.976 Z-54.079
N7450 X-24.957 Z-49.994
N7455 X-19.928 Z-47.285
N7460 X-19.625 Z-47.158
N7465 X-19.416 Z-47.094
N7470 X-19.192 Z-47.049
N7475 X-15.275 Z-46.468
N7480 X-8.188 Z-45.211
N7485 X-5.373 Z-44.605
N7490 X-0.375 Z-43.476
N7495 X-0.146 Z-43.443
N7500 X0.095 Z-43.44
N7505 X0.332 Z-43.467
N7510 X4.871 Z-44.496
N7515 X8.37 Z-45.235
N7520 X15.194 Z-46.47
N7525 X18.994 Z-47.02
N7530 X19.347 Z-47.078
N7535 X19.575 Z-47.14
N7540 X19.795 Z-47.224
N7545 X20.009 Z-47.326
N7550 X24.958 Z-49.978
N7555 X32.863 Z-54.023
N7560 X33.171 Z-54.196
N7565 X33.462 Z-54.395
N7570 X33.641 Z-54.543
N7575 X33.806 Z-54.703
N7580 X33.953 Z-54.874
N7585 X34.08 Z-55.055
N7590 X34.151 Z-55.181
N7595 X34.222 Z-55.339
N7600 X34.273 Z-55.493
N7605 X34.311 Z-55.679
N7610 X34.324 Z-55.84
N7615 Z-95.003
N7620 X34.796 Y-47.017
N7625 X34.795 Z-55.843
N7630 X34.775 Z-55.628
N7635 X34.754 Z-55.529
N7640 X34.712 Z-55.39
N7645 X34.631 Z-55.199
N7650 X34.551 Z-55.055
N7655 X34.424 Z-54.874
N7660 X34.277 Z-54.703
N7665 X34.112 Z-54.543
N7670 X33.933 Z-54.395
N7675 X33.642 Z-54.196
N7680 X33.334 Z-54.023
N7685 X24.598 Z-49.55
N7690 X19.839 Z-47.
N7695 X19.624 Z-46.901
N7700 X19.402 Z-46.822
N7705 X19.173 Z-46.763
N7710 X18.345 Z-46.64
N7715 X15.257 Z-46.195
N7720 X8.431 Z-44.961
N7725 X4.958 Z-44.226
N7730 X0.394 Z-43.19
N7735 X0.158 Z-43.155
N7740 X-0.083 Z-43.15
N7745 X-0.312 Z-43.175
N7750 X-1.566 Z-43.456
N7755 X-5.545 Z-44.355
N7760 X-8.36 Z-44.96
N7765 X-15.212 Z-46.173
N7770 X-19.129 Z-46.754
N7775 X-19.353 Z-46.807
N7780 X-19.56 Z-46.876
N7785 X-19.86 Z-47.011
N7790 X-24.675 Z-49.608
N7795 X-33.443 Z-54.074
N7800 X-33.725 Z-54.24
N7805 X-33.994 Z-54.432
N7810 X-34.243 Z-54.652
N7815 X-34.395 Z-54.818
N7820 X-34.533 Z-55.001
N7825 X-34.652 Z-55.205
N7830 X-34.706 Z-55.325
N7835 X-34.746 Z-55.437
N7840 X-34.786 Z-55.592
N7845 X-34.812 Z-55.8
N7850 X-34.814 Z-95.003
N7855 X-35.289 Y-46.701
N7860 Z-55.869
N7865 X-35.282 Z-55.73
N7870 X-35.265 Z-55.612
N7875 X-35.214 Z-55.415
N7880 X-35.164 Z-55.286
N7885 X-35.115 Z-55.182
N7890 X-34.993 Z-54.978
N7895 X-34.852 Z-54.797
N7900 X-34.698 Z-54.633
N7905 X-34.445 Z-54.414
N7910 X-34.176 Z-54.225
N7915 X-33.881 Z-54.055
N7920 X-24.367 Z-49.21
N7925 X-19.765 Z-46.724
N7930 X-19.466 Z-46.585
N7935 X-19.26 Z-46.513
N7940 X-18.978 Z-46.445
N7945 X-15.12 Z-45.873
N7950 X-8.504 Z-44.701
N7955 X-5.689 Z-44.098
N7960 X-0.352 Z-42.893
N7965 X-0.137 Z-42.864
N7970 X0.102 Z-42.862
N7975 X0.338 Z-42.89
N7980 X5.019 Z-43.951
N7985 X8.493 Z-44.687
N7990 X15.081 Z-45.88
N7995 X18.998 Z-46.449
N8000 X19.228 Z-46.503
N8005 X19.452 Z-46.579
N8010 X19.667 Z-46.674
N8015 X24.405 Z-49.21
N8020 X33.909 Z-54.078
N8025 X34.213 Z-54.26
N8030 X34.493 Z-54.466
N8035 X34.665 Z-54.619
N8040 X34.822 Z-54.784
N8045 X34.959 Z-54.959
N8050 X35.067 Z-55.132
N8055 X35.157 Z-55.32
N8060 X35.202 Z-55.447
N8065 X35.25 Z-55.657
N8070 X35.267 Z-55.869
N8075 Z-95.003
N8080 X35.738 Y-46.385
N8085 Z-55.85
N8090 X35.726 Z-55.69
N8095 X35.692 Z-55.513
N8100 X35.642 Z-55.356
N8105 X35.543 Z-55.14
N8110 X35.43 Z-54.959
N8115 X35.293 Z-54.784
N8120 X35.137 Z-54.619
N8125 X34.964 Z-54.466
N8130 X34.684 Z-54.26
N8135 X34.38 Z-54.078
N8140 X24.235 Z-48.884
N8145 X19.603 Z-46.402
N8150 X19.39 Z-46.302
N8155 X19.169 Z-46.219
N8160 X18.941 Z-46.158
N8165 X18.706 Z-46.118
N8170 X15.143 Z-45.605
N8175 X8.554 Z-44.413
N8180 X5.29 Z-43.723
N8185 X0.4 Z-42.613
N8190 X0.165 Z-42.577
N8195 X-0.074 Z-42.571
N8200 X-0.316 Z-42.597
N8205 X-2.611 Z-43.115
N8210 X-5.888 Z-43.853
N8215 X-8.468 Z-44.409
N8220 X-15.083 Z-45.581
N8225 X-18.881 Z-46.146
N8230 X-19.093 Z-46.196
N8235 X-19.3 Z-46.265
N8240 X-19.598 Z-46.4
N8245 X-24.32 Z-48.944
N8250 X-34.37 Z-54.063
N8255 X-34.653 Z-54.227
N8260 X-34.924 Z-54.417
N8265 X-35.174 Z-54.634
N8270 X-35.328 Z-54.798
N8275 X-35.468 Z-54.979
N8280 X-35.589 Z-55.18
N8285 X-35.644 Z-55.298
N8290 X-35.686 Z-55.408
N8295 X-35.728 Z-55.557
N8300 X-35.759 Z-55.759
N8305 X-35.764 Z-95.003
N8310 X-36.001 Y-46.227
N8315 X-36.238 Y-46.069
N8320 Z-55.829
N8325 X-36.217 Z-55.626
N8330 X-36.167 Z-55.426
N8335 X-36.118 Z-55.296
N8340 X-36.069 Z-55.191
N8345 X-35.948 Z-54.987
N8350 X-35.809 Z-54.804
N8355 X-35.655 Z-54.639
N8360 X-35.402 Z-54.42
N8365 X-35.133 Z-54.23
N8370 X-34.839 Z-54.059
N8375 X-24.04 Z-48.559
N8380 X-19.435 Z-46.077
N8385 X-19.133 Z-45.946
N8390 X-18.925 Z-45.88
N8395 X-18.701 Z-45.831
N8400 X-15.021 Z-45.286
N8405 X-8.642 Z-44.156
N8410 X-6.061 Z-43.603
N8415 X-0.361 Z-42.316
N8420 X-0.132 Z-42.285
N8425 X0.11 Z-42.284
N8430 X0.346 Z-42.313
N8435 X5.377 Z-43.453
N8440 X8.616 Z-44.139
N8445 X14.968 Z-45.29
N8450 X18.056 Z-45.738
N8455 X18.767 Z-45.843
N8460 X18.996 Z-45.9
N8465 X19.219 Z-45.979
N8470 X19.433 Z-46.076
N8475 X23.875 Z-48.455
N8480 X34.747 Z-54.023
N8485 X35.055 Z-54.196
N8490 X35.346 Z-54.395
N8495 X35.525 Z-54.543
N8500 X35.69 Z-54.703
N8505 X35.838 Z-54.874
N8510 X35.964 Z-55.055
N8515 X36.073 Z-55.258
N8520 X36.127 Z-55.395
N8525 X36.154 Z-55.481
N8530 X36.195 Z-55.674
N8535 X36.209 Z-55.854
N8540 Z-95.003
N8545 X36.68 Y-45.753
N8550 Z-55.861
N8555 X36.671 Z-55.715
N8560 X36.642 Z-55.544
N8565 X36.612 Z-55.437
N8570 X36.553 Z-55.279
N8575 X36.494 Z-55.157
N8580 X36.372 Z-54.959
N8585 X36.235 Z-54.784
N8590 X36.079 Z-54.619
N8595 X35.906 Z-54.466
N8600 X35.626 Z-54.26
N8605 X35.322 Z-54.078
N8610 X23.682 Z-48.116
N8615 X19.367 Z-45.804
N8620 X19.153 Z-45.701
N8625 X18.933 Z-45.616
N8630 X18.706 Z-45.552
N8635 X18.354 Z-45.494
N8640 X15.028 Z-45.015
N8645 X8.675 Z-43.864
N8650 X5.436 Z-43.177
N8655 X0.405 Z-42.036
N8660 X0.169 Z-41.999
N8665 X-0.072 Z-41.993
N8670 X-0.301 Z-42.016
N8675 X-1.531 Z-42.291
N8680 X-6.213 Z-43.348
N8685 X-8.794 Z-43.898
N8690 X-14.937 Z-44.987
N8695 X-18.616 Z-45.534
N8700 X-18.84 Z-45.587
N8705 X-19.047 Z-45.657
N8710 X-19.346 Z-45.794
N8715 X-23.739 Z-48.164
N8720 X-35.286 Z-54.045
N8725 X-35.571 Z-54.207
N8730 X-35.843 Z-54.394
N8735 X-36.096 Z-54.607
N8740 X-36.252 Z-54.768
N8745 X-36.394 Z-54.946
N8750 X-36.519 Z-55.144
N8755 X-36.576 Z-55.258
N8760 X-36.621 Z-55.366
N8765 X-36.666 Z-55.507
N8770 X-36.701 Z-55.687
N8775 X-36.713 Z-55.868
N8780 Z-95.003
N8785 X-36.943 Y-45.6
N8790 X-37.164 Y-45.437
N8795 Z-55.869
N8800 X-37.155 Z-55.698
N8805 X-37.139 Z-55.586
N8810 X-37.09 Z-55.389
N8815 X-37.041 Z-55.256
N8820 X-36.993 Z-55.15
N8825 X-36.93 Z-55.038
N8830 X-36.831 Z-54.895
N8835 X-36.646 Z-54.681
N8840 X-36.4 Z-54.458
N8845 X-36.132 Z-54.262
N8850 X-35.852 Z-54.094
N8855 X-23.663 Z-47.884
N8860 X-19.152 Z-45.455
N8865 X-18.85 Z-45.327
N8870 X-18.642 Z-45.263
N8875 X-18.429 Z-45.218
N8880 X-14.868 Z-44.69
N8885 X-8.726 Z-43.601
N8890 X-6.38 Z-43.097
N8895 X-0.34 Z-41.733
N8900 X-0.125 Z-41.706
N8905 X0.114 Z-41.705
N8910 X0.35 Z-41.735
N8915 X5.709 Z-42.95
N8920 X8.737 Z-43.59
N8925 X14.853 Z-44.7
N8930 X17.941 Z-45.148
N8935 X18.532 Z-45.237
N8940 X18.76 Z-45.297
N8945 X18.982 Z-45.378
N8950 X19.196 Z-45.478
N8955 X23.511 Z-47.789
N8960 X35.689 Z-54.023
N8965 X35.996 Z-54.196
N8970 X36.287 Z-54.395
N8975 X36.467 Z-54.543
N8980 X36.632 Z-54.702
N8985 X36.779 Z-54.873
N8990 X36.906 Z-55.054
N8995 X36.977 Z-55.181
N9000 X37.039 Z-55.314
N9005 X37.094 Z-55.474
N9010 X37.136 Z-55.669
N9015 X37.15 Z-55.839
N9020 Z-95.003
N9025 X37.347 Y-45.286
N9030 X37.532 Y-45.121
N9035 X37.528 Z-55.732
N9040 X37.498 Z-55.503
N9045 X37.436 Z-55.283
N9050 X37.346 Z-55.074
N9055 X37.225 Z-54.872
N9060 X37.089 Z-54.698
N9065 X36.911 Z-54.519
N9070 X36.663 Z-54.325
N9075 X36.365 Z-54.134
N9080 X36.052 Z-53.968
N9085 X23.233 Z-47.405
N9090 X19.024 Z-45.151
N9095 X18.809 Z-45.055
N9100 X18.586 Z-44.978
N9105 X18.356 Z-44.923
N9110 X14.795 Z-44.405
N9115 X8.916 Z-43.341
N9120 X5.677 Z-42.654
N9125 X0.411 Z-41.459
N9130 X0.175 Z-41.421
N9135 X-0.066 Z-41.414
N9140 X-0.295 Z-41.436
N9145 X-1.291 Z-41.658
N9150 X-6.44 Z-42.822
N9155 X-8.786 Z-43.327
N9160 X-14.928 Z-44.413
N9165 X-18.311 Z-44.915
N9170 X-18.593 Z-44.98
N9175 X-18.8 Z-45.052
N9180 X-19.099 Z-45.19
N9185 X-23.279 Z-47.447
N9190 X-36.324 Z-54.092
N9195 X-36.646 Z-54.289
N9200 X-36.871 Z-54.463
N9205 X-37.033 Z-54.62
N9210 X-37.179 Z-54.797
N9215 X-37.307 Z-54.996
N9220 X-37.359 Z-55.098
N9225 X-37.411 Z-55.222
N9230 X-37.449 Z-55.334
N9235 X-37.487 Z-55.489
N9240 X-37.51 Z-55.648
N9245 X-37.517 Z-55.809
N9250 Z-95.003
N9255 X-37.867 Y-44.805
N9260 Z-55.731
N9265 X-37.857 Z-55.55
N9270 X-37.828 Z-55.372
N9275 X-37.788 Z-55.224
N9280 X-37.748 Z-55.112
N9285 X-37.694 Z-54.992
N9290 X-37.576 Z-54.786
N9295 X-37.436 Z-54.602
N9300 X-37.28 Z-54.439
N9305 X-37.11 Z-54.294
N9310 X-36.929 Z-54.166
N9315 X-36.644 Z-54.005
N9320 X-23.147 Z-47.138
N9325 X-18.966 Z-44.883
N9330 X-18.667 Z-44.745
N9335 X-18.461 Z-44.674
N9340 X-18.178 Z-44.609
N9345 X-14.796 Z-44.107
N9350 X-8.89 Z-43.061
N9355 X-6.544 Z-42.557
N9360 X-0.376 Z-41.162
N9365 X-0.147 Z-41.129
N9370 X0.095 Z-41.126
N9375 X0.331 Z-41.153
N9380 X5.831 Z-42.399
N9385 X8.835 Z-43.037
N9390 X14.714 Z-44.106
N9395 X18.04 Z-44.588
N9400 X18.274 Z-44.627
N9405 X18.503 Z-44.687
N9410 X18.725 Z-44.769
N9415 X18.938 Z-44.868
N9420 X23.147 Z-47.123
N9425 X32.333 Z-51.824
N9430 X36.815 Z-54.12
N9435 X37.013 Z-54.243
N9440 X37.197 Z-54.383
N9445 X37.364 Z-54.538
N9450 X37.511 Z-54.707
N9455 X37.635 Z-54.887
N9460 X37.712 Z-55.029
N9465 X37.773 Z-55.172
N9470 X37.826 Z-55.34
N9475 X37.866 Z-55.546
N9480 X37.879 Z-55.728
N9485 X37.88 Z-95.003
N9490 X38.228 Y-44.489
N9495 Z-55.651
N9500 X38.217 Z-55.486
N9505 X38.184 Z-55.298
N9510 X38.14 Z-55.146
N9515 X38.062 Z-54.953
N9520 X37.983 Z-54.807
N9525 X37.859 Z-54.627
N9530 X37.712 Z-54.458
N9535 X37.545 Z-54.303
N9540 X37.361 Z-54.163
N9545 X37.163 Z-54.039
N9550 X36.954 Z-53.931
N9555 X35.687 Z-53.299
N9560 X22.869 Z-46.739
N9565 X18.765 Z-44.541
N9570 X18.55 Z-44.445
N9575 X18.327 Z-44.368
N9580 X18.098 Z-44.312
N9585 X14.656 Z-43.81
N9590 X9.012 Z-42.787
N9595 X6.008 Z-42.15
N9600 X0.391 Z-40.876
N9605 X0.157 Z-40.841
N9610 X-0.082 Z-40.836
N9615 X-0.323 Z-40.862
N9620 X-6.596 Z-42.28
N9625 X-8.942 Z-42.785
N9630 X-14.612 Z-43.792
N9635 X-18.053 Z-44.304
N9640 X-18.276 Z-44.353
N9645 X-18.484 Z-44.42
N9650 X-18.786 Z-44.552
N9655 X-22.968 Z-46.805
N9660 X-36.014 Z-53.445
N9665 X-37.09 Z-53.978
N9670 X-37.28 Z-54.09
N9675 X-37.461 Z-54.218
N9680 X-37.631 Z-54.364
N9685 X-37.788 Z-54.528
N9690 X-37.928 Z-54.713
N9695 X-38.047 Z-54.921
N9700 X-38.094 Z-55.027
N9705 X-38.141 Z-55.159
N9710 X-38.189 Z-55.355
N9715 X-38.211 Z-55.518
N9720 X-38.216 Z-55.654
N9725 Z-95.003
N9730 X-38.565 Y-44.173
N9735 Z-55.576
N9740 X-38.556 Z-55.403
N9745 X-38.53 Z-55.232
N9750 X-38.491 Z-55.081
N9755 X-38.452 Z-54.97
N9760 X-38.398 Z-54.848
N9765 X-38.281 Z-54.641
N9770 X-38.142 Z-54.456
N9775 X-37.987 Z-54.292
N9780 X-37.817 Z-54.146
N9785 X-37.637 Z-54.017
N9790 X-37.448 Z-53.905
N9795 X-35.415 Z-52.899
N9800 X-22.798 Z-46.476
N9805 X-18.711 Z-44.275
N9810 X-18.413 Z-44.137
N9815 X-18.207 Z-44.065
N9820 X-17.937 Z-44.001
N9825 X-14.673 Z-43.516
N9830 X-9.003 Z-42.51
N9835 X-6.892 Z-42.056
N9840 X-0.807 Z-40.681
N9845 X-0.278 Z-40.566
N9850 X-0.05 Z-40.546
N9855 X0.19 Z-40.555
N9860 X0.367 Z-40.582
N9865 X6.159 Z-41.895
N9870 X9.165 Z-42.532
N9875 X14.572 Z-43.51
N9880 X17.422 Z-43.926
N9885 X18.013 Z-44.016
N9890 X18.241 Z-44.076
N9895 X18.463 Z-44.157
N9900 X18.677 Z-44.257
N9905 X22.569 Z-46.342
N9910 X35.387 Z-52.905
N9915 X37.328 Z-53.863
N9920 X37.61 Z-54.018
N9925 X37.801 Z-54.149
N9930 X37.976 Z-54.296
N9935 X38.133 Z-54.457
N9940 X38.269 Z-54.631
N9945 X38.385 Z-54.823
N9950 X38.447 Z-54.954
N9955 X38.508 Z-55.126
N9960 X38.542 Z-55.262
N9965 X38.559 Z-55.359
N9970 X38.576 Z-55.574
N9975 Z-95.003
N9980 X38.924 Y-43.857
N9985 Z-55.498
N9990 X38.912 Z-55.316
N9995 X38.875 Z-55.117
N10000 X38.826 Z-54.955
N10005 X38.777 Z-54.833
N10010 X38.679 Z-54.646
N10015 X38.555 Z-54.466
N10020 X38.408 Z-54.297
N10025 X38.241 Z-54.142
N10030 X38.057 Z-54.002
N10035 X37.859 Z-53.878
N10040 X37.65 Z-53.77
N10045 X34.874 Z-52.401
N10050 X22.483 Z-46.061
N10055 X18.485 Z-43.921
N10060 X18.27 Z-43.826
N10065 X18.046 Z-43.751
N10070 X17.815 Z-43.697
N10075 X14.729 Z-43.251
N10080 X9.084 Z-42.228
N10085 X6.315 Z-41.641
N10090 X0.347 Z-40.288
N10095 X0.111 Z-40.259
N10100 X-0.131 Z-40.26
N10105 X-0.36 Z-40.291
N10110 X-6.996 Z-41.791
N10115 X-9.107 Z-42.245
N10120 X-14.54 Z-43.21
N10125 X-17.803 Z-43.695
N10130 X-18.074 Z-43.759
N10135 X-18.28 Z-43.831
N10140 X-18.578 Z-43.968
N10145 X-22.454 Z-46.059
N10150 X-35.072 Z-52.48
N10155 X-37.762 Z-53.808
N10160 X-37.963 Z-53.925
N10165 X-38.144 Z-54.051
N10170 X-38.315 Z-54.195
N10175 X-38.473 Z-54.357
N10180 X-38.614 Z-54.539
N10185 X-38.734 Z-54.743
N10190 X-38.789 Z-54.862
N10195 X-38.83 Z-54.972
N10200 X-38.871 Z-55.118
N10205 X-38.904 Z-55.306
N10210 X-38.915 Z-55.498
N10215 Z-95.003
N10220 X-39.264 Y-43.541
N10225 Z-55.422
N10230 X-39.259 Z-55.297
N10235 X-39.239 Z-55.134
N10240 X-39.192 Z-54.936
N10245 X-39.146 Z-54.803
N10250 X-39.099 Z-54.697
N10255 X-38.981 Z-54.488
N10260 X-38.842 Z-54.302
N10265 X-38.685 Z-54.137
N10270 X-38.516 Z-53.99
N10275 X-38.335 Z-53.862
N10280 X-38.092 Z-53.72
N10285 X-34.487 Z-51.941
N10290 X-22.296 Z-45.737
N10295 X-18.42 Z-43.648
N10300 X-18.121 Z-43.514
N10305 X-17.914 Z-43.445
N10310 X-17.702 Z-43.394
N10315 X-14.616 Z-42.935
N10320 X-9.183 Z-41.974
N10325 X-7.072 Z-41.52
N10330 X-0.33 Z-39.996
N10335 X-0.091 Z-39.969
N10340 X0.149 Z-39.972
N10345 X0.383 Z-40.006
N10350 X6.468 Z-41.387
N10355 X9.237 Z-41.974
N10360 X14.646 Z-42.952
N10365 X17.259 Z-43.328
N10370 X17.732 Z-43.4
N10375 X17.961 Z-43.459
N10380 X18.183 Z-43.538
N10385 X18.397 Z-43.637
N10390 X22.183 Z-45.664
N10395 X34.36 Z-51.898
N10400 X37.998 Z-53.69
N10405 X38.207 Z-53.798
N10410 X38.405 Z-53.922
N10415 X38.589 Z-54.061
N10420 X38.756 Z-54.216
N10425 X38.903 Z-54.385
N10430 X39.027 Z-54.566
N10435 X39.12 Z-54.742
N10440 X39.181 Z-54.895
N10445 X39.212 Z-54.994
N10450 X39.257 Z-55.216
N10455 X39.272 Z-55.422
N10460 Z-95.003
N10465 X39.62 Y-43.225
N10470 Z-55.349
N10475 X39.61 Z-55.174
N10480 X39.58 Z-54.996
N10485 X39.522 Z-54.793
N10490 X39.434 Z-54.59
N10495 X39.313 Z-54.389
N10500 X39.177 Z-54.216
N10505 X39.02 Z-54.054
N10510 X38.845 Z-53.908
N10515 X38.654 Z-53.776
N10520 X38.372 Z-53.622
N10525 X33.847 Z-51.394
N10530 X21.907 Z-45.281
N10535 X18.311 Z-43.354
N10540 X18.099 Z-43.252
N10545 X17.878 Z-43.168
N10550 X17.65 Z-43.105
N10555 X17.416 Z-43.064
N10560 X14.566 Z-42.654
N10565 X9.394 Z-41.719
N10570 X6.623 Z-41.133
N10575 X0.363 Z-39.713
N10580 X0.186 Z-39.687
N10585 X-0.055 Z-39.678
N10590 X-0.285 Z-39.699
N10595 X-1.047 Z-39.868
N10600 X-7.132 Z-41.245
N10605 X-9.244 Z-41.699
N10610 X-14.44 Z-42.623
N10615 X-17.526 Z-43.081
N10620 X-17.739 Z-43.127
N10625 X-17.947 Z-43.192
N10630 X-18.248 Z-43.322
N10635 X-22.125 Z-45.408
N10640 X-33.887 Z-51.395
N10645 X-38.406 Z-53.625
N10650 X-38.691 Z-53.788
N10655 X-38.871 Z-53.918
N10660 X-39.04 Z-54.064
N10665 X-39.195 Z-54.229
N10670 X-39.333 Z-54.415
N10675 X-39.45 Z-54.622
N10680 X-39.502 Z-54.745
N10685 X-39.541 Z-54.857
N10690 X-39.58 Z-55.009
N10695 X-39.605 Z-55.175
N10700 X-39.613 Z-55.343
N10705 Z-95.003
N10710 X-39.962 Y-42.909
N10715 Z-55.267
N10720 X-39.957 Z-55.134
N10725 X-39.921 Z-54.895
N10730 X-39.881 Z-54.749
N10735 X-39.84 Z-54.638
N10740 X-39.786 Z-54.518
N10745 X-39.666 Z-54.313
N10750 X-39.526 Z-54.13
N10755 X-39.369 Z-53.967
N10760 X-39.199 Z-53.823
N10765 X-39.018 Z-53.696
N10770 X-38.817 Z-53.579
N10775 X-33.544 Z-50.976
N10780 X-21.781 Z-44.992
N10785 X-18.115 Z-43.015
N10790 X-17.814 Z-42.886
N10795 X-17.606 Z-42.821
N10800 X-17.394 Z-42.775
N10805 X-14.545 Z-42.352
N10810 X-9.348 Z-41.434
N10815 X-7.472 Z-41.03
N10820 X-0.367 Z-39.425
N10825 X-0.138 Z-39.393
N10830 X0.104 Z-39.391
N10835 X0.34 Z-39.419
N10840 X6.752 Z-40.873
N10845 X9.311 Z-41.415
N10850 X14.482 Z-42.355
N10855 X16.858 Z-42.697
N10860 X17.449 Z-42.785
N10865 X17.679 Z-42.841
N10870 X17.901 Z-42.919
N10875 X18.117 Z-43.016
N10880 X21.797 Z-44.986
N10885 X33.334 Z-50.89
N10890 X38.694 Z-53.529
N10895 X38.903 Z-53.637
N10900 X39.101 Z-53.761
N10905 X39.285 Z-53.9
N10910 X39.452 Z-54.055
N10915 X39.599 Z-54.224
N10920 X39.723 Z-54.405
N10925 X39.789 Z-54.524
N10930 X39.855 Z-54.672
N10935 X39.911 Z-54.845
N10940 X39.953 Z-55.057
N10945 X39.967 Z-55.245
N10950 X39.968 Z-95.003
N10955 X40.316 Y-42.593
N10960 Z-55.199
N10965 X40.304 Z-54.999
N10970 X40.269 Z-54.803
N10975 X40.222 Z-54.644
N10980 X40.161 Z-54.493
N10985 X40.071 Z-54.324
N10990 X39.947 Z-54.144
N10995 X39.8 Z-53.975
N11000 X39.633 Z-53.82
N11005 X39.449 Z-53.68
N11010 X39.251 Z-53.557
N11015 X39.042 Z-53.448
N11020 X32.796 Z-50.375
N11025 X21.495 Z-44.589
N11030 X18.027 Z-42.731
N11035 X17.812 Z-42.63
N11040 X17.591 Z-42.549
N11045 X17.363 Z-42.488
N11050 X16.772 Z-42.398
N11055 X14.397 Z-42.055
N11060 X9.462 Z-41.16
N11065 X6.903 Z-40.618
N11070 X0.374 Z-39.137
N11075 X0.139 Z-39.104
N11080 X-0.101 Z-39.101
N11085 X-0.34 Z-39.13
N11090 X-7.55 Z-40.76
N11095 X-9.427 Z-41.163
N11100 X-14.387 Z-42.042
N11105 X-17.235 Z-42.465
N11110 X-17.448 Z-42.508
N11115 X-17.657 Z-42.571
N11120 X-17.959 Z-42.697
N11125 X-20.76 Z-44.207
N11130 X-21.605 Z-44.66
N11135 X-32.94 Z-50.428
N11140 X-39.181 Z-53.509
N11145 X-39.371 Z-53.621
N11150 X-39.552 Z-53.749
N11155 X-39.723 Z-53.894
N11160 X-39.88 Z-54.058
N11165 X-40.02 Z-54.242
N11170 X-40.14 Z-54.45
N11175 X-40.188 Z-54.556
N11180 X-40.235 Z-54.687
N11185 X-40.284 Z-54.881
N11190 X-40.306 Z-55.046
N11195 X-40.312 Z-55.189
N11200 Z-95.003
N11205 X-40.661 Y-42.277
N11210 Z-55.11
N11215 X-40.653 Z-54.949
N11220 X-40.63 Z-54.791
N11225 X-40.592 Z-54.636
N11230 X-40.555 Z-54.523
N11235 X-40.503 Z-54.4
N11240 X-40.387 Z-54.191
N11245 X-40.25 Z-54.005
N11250 X-40.095 Z-53.839
N11255 X-39.927 Z-53.691
N11260 X-39.748 Z-53.561
N11265 X-39.463 Z-53.397
N11270 X-32.361 Z-49.893
N11275 X-21.455 Z-44.342
N11280 X-17.907 Z-42.431
N11285 X-17.607 Z-42.295
N11290 X-17.401 Z-42.225
N11295 X-17.177 Z-42.171
N11300 X-14.447 Z-41.765
N11305 X-9.487 Z-40.889
N11310 X-7.61 Z-40.485
N11315 X-1.291 Z-39.055
N11320 X-0.295 Z-38.833
N11325 X-0.065 Z-38.811
N11330 X0.175 Z-38.818
N11335 X0.411 Z-38.856
N11340 X7.057 Z-40.363
N11345 X9.617 Z-40.905
N11350 X14.316 Z-41.755
N11355 X17.165 Z-42.169
N11360 X17.396 Z-42.224
N11365 X17.619 Z-42.3
N11370 X17.835 Z-42.394
N11375 X21.219 Z-44.206
N11380 X32.283 Z-49.871
N11385 X39.39 Z-53.368
N11390 X39.599 Z-53.476
N11395 X39.797 Z-53.6
N11400 X39.981 Z-53.74
N11405 X40.148 Z-53.895
N11410 X40.295 Z-54.064
N11415 X40.419 Z-54.244
N11420 X40.504 Z-54.403
N11425 X40.589 Z-54.622
N11430 X40.626 Z-54.764
N11435 X40.645 Z-54.866
N11440 X40.664 Z-55.09
N11445 Z-95.003
N11450 X41.012 Y-41.961
N11455 Z-55.014
N11460 X40.998 Z-54.82
N11465 X40.957 Z-54.609
N11470 X40.895 Z-54.423
N11475 X40.834 Z-54.285
N11480 X40.767 Z-54.164
N11485 X40.643 Z-53.983
N11490 X40.496 Z-53.814
N11495 X40.329 Z-53.659
N11500 X40.145 Z-53.52
N11505 X39.947 Z-53.396
N11510 X39.738 Z-53.288
N11515 X31.77 Z-49.367
N11520 X21.109 Z-43.911
N11525 X17.746 Z-42.11
N11530 X17.533 Z-42.012
N11535 X17.311 Z-41.932
N11540 X17.081 Z-41.873
N11545 X16.609 Z-41.801
N11550 X14.233 Z-41.456
N11555 X9.535 Z-40.601
N11560 X7.21 Z-40.109
N11565 X0.33 Z-38.55
N11570 X0.094 Z-38.523
N11575 X-0.147 Z-38.526
N11580 X-0.377 Z-38.559
N11585 X-7.715 Z-40.22
N11590 X-9.592 Z-40.624
N11595 X-14.317 Z-41.46
N11600 X-17.047 Z-41.866
N11605 X-17.271 Z-41.92
N11610 X-17.477 Z-41.99
N11615 X-17.777 Z-42.126
N11620 X-21.114 Z-43.926
N11625 X-32.021 Z-49.475
N11630 X-39.876 Z-53.352
N11635 X-40.077 Z-53.47
N11640 X-40.257 Z-53.598
N11645 X-40.427 Z-53.744
N11650 X-40.583 Z-53.908
N11655 X-40.722 Z-54.092
N11660 X-40.84 Z-54.298
N11665 X-40.894 Z-54.419
N11670 X-40.933 Z-54.531
N11675 X-40.973 Z-54.68
N11680 X-41.001 Z-54.855
N11685 X-41.01 Z-55.033
N11690 Z-95.003
N11695 X-41.36 Y-41.645
N11700 Z-54.956
N11705 X-41.355 Z-54.824
N11710 X-41.34 Z-54.697
N11715 X-41.295 Z-54.494
N11720 X-41.25 Z-54.359
N11725 X-41.205 Z-54.252
N11730 X-41.146 Z-54.137
N11735 X-41.02 Z-53.94
N11740 X-40.873 Z-53.764
N11745 X-40.712 Z-53.608
N11750 X-40.538 Z-53.469
N11755 X-40.353 Z-53.347
N11760 X-40.152 Z-53.236
N11765 X-31.435 Z-48.936
N11770 X-20.955 Z-43.604
N11775 X-17.618 Z-41.806
N11780 X-17.317 Z-41.673
N11785 X-17.109 Z-41.605
N11790 X-16.886 Z-41.555
N11795 X-14.157 Z-41.149
N11800 X-9.667 Z-40.352
N11805 X-8.025 Z-39.999
N11810 X-0.347 Z-38.264
N11815 X-0.108 Z-38.234
N11820 X0.132 Z-38.236
N11825 X0.367 Z-38.268
N11830 X7.364 Z-39.855
N11835 X9.688 Z-40.347
N11840 X14.151 Z-41.156
N11845 X16.764 Z-41.536
N11850 X16.998 Z-41.577
N11855 X17.226 Z-41.641
N11860 X17.446 Z-41.725
N11865 X17.658 Z-41.827
N11870 X20.809 Z-43.515
N11875 X31.256 Z-48.864
N11880 X40.086 Z-53.207
N11885 X40.295 Z-53.315
N11890 X40.493 Z-53.439
N11895 X40.677 Z-53.579
N11900 X40.844 Z-53.734
N11905 X40.991 Z-53.903
N11910 X41.115 Z-54.083
N11915 X41.219 Z-54.285
N11920 X41.298 Z-54.504
N11925 X41.342 Z-54.71
N11930 X41.36 Z-54.938
N11935 Z-95.003
N11940 X41.522 Y-41.492
N11945 X41.673 Y-41.329
N11950 X41.669 Z-54.845
N11955 X41.644 Z-54.63
N11960 X41.594 Z-54.41
N11965 X41.498 Z-54.15
N11970 X41.428 Z-54.009
N11975 X41.312 Z-53.825
N11980 X41.172 Z-53.651
N11985 X41.012 Z-53.493
N11990 X40.807 Z-53.336
N11995 X40.529 Z-53.174
N12000 X30.733 Z-48.355
N12005 X20.523 Z-43.126
N12010 X17.456 Z-41.484
N12015 X17.241 Z-41.388
N12020 X17.018 Z-41.311
N12025 X16.788 Z-41.255
N12030 X14.059 Z-40.855
N12035 X9.832 Z-40.09
N12040 X7.506 Z-39.598
N12045 X0.392 Z-37.984
N12050 X0.157 Z-37.948
N12055 X-0.084 Z-37.944
N12060 X-0.314 Z-37.968
N12065 X-1.801 Z-38.303
N12070 X-8.121 Z-39.732
N12075 X-9.763 Z-40.085
N12080 X-14.252 Z-40.877
N12085 X-16.745 Z-41.247
N12090 X-16.969 Z-41.297
N12095 X-17.176 Z-41.363
N12100 X-17.478 Z-41.495
N12105 X-20.816 Z-43.291
N12110 X-30.868 Z-48.406
N12115 X-40.553 Z-53.185
N12120 X-40.835 Z-53.355
N12125 X-41.011 Z-53.492
N12130 X-41.172 Z-53.651
N12135 X-41.316 Z-53.831
N12140 X-41.44 Z-54.031
N12145 X-41.541 Z-54.251
N12150 X-41.613 Z-54.481
N12155 X-41.648 Z-54.654
N12160 X-41.667 Z-54.81
N12165 X-41.673 Z-54.964
N12170 Z-95.003
N12175 X-41.96 Y-41.013
N12180 Z-55.036
N12185 X-41.945 Z-54.795
N12190 X-41.898 Z-54.546
N12195 X-41.823 Z-54.308
N12200 X-41.729 Z-54.09
N12205 X-41.618 Z-53.887
N12210 X-41.492 Z-53.696
N12215 X-41.35 Z-53.517
N12220 X-41.191 Z-53.356
N12225 X-41.018 Z-53.213
N12230 X-40.881 Z-53.12
N12235 X-40.55 Z-52.932
N12240 X-30.434 Z-47.943
N12245 X-20.596 Z-42.937
N12250 X-17.353 Z-41.193
N12255 X-17.053 Z-41.061
N12260 X-16.845 Z-40.993
N12265 X-16.633 Z-40.945
N12270 X-14.023 Z-40.556
N12275 X-10.006 Z-39.843
N12280 X-9.302 Z-39.699
N12285 X-7.193 Z-39.237
N12290 X-0.323 Z-37.681
N12295 X-0.093 Z-37.655
N12300 X0.148 Z-37.658
N12305 X0.384 Z-37.693
N12310 X7.522 Z-39.312
N12315 X9.821 Z-39.801
N12320 X14.048 Z-40.568
N12325 X16.659 Z-40.95
N12330 X16.889 Z-41.006
N12335 X17.112 Z-41.083
N12340 X17.327 Z-41.179
N12345 X20.288 Z-42.765
N12350 X30.284 Z-47.884
N12355 X39.954 Z-52.639
N12360 X40.597 Z-52.957
N12365 X40.901 Z-53.132
N12370 X41.087 Z-53.267
N12375 X41.257 Z-53.419
N12380 X41.408 Z-53.586
N12385 X41.542 Z-53.767
N12390 X41.659 Z-53.957
N12395 X41.764 Z-54.163
N12400 X41.844 Z-54.366
N12405 X41.905 Z-54.579
N12410 X41.947 Z-54.825
N12415 X41.959 Z-55.033
N12420 Z-95.003
N12425 X42.101 Y-40.855
N12430 X42.244 Y-40.697
N12435 X42.24 Z-54.98
N12440 X42.213 Z-54.753
N12445 X42.181 Z-54.607
N12450 X42.12 Z-54.407
N12455 X42.058 Z-54.253
N12460 X41.945 Z-54.027
N12465 X41.828 Z-53.838
N12470 X41.623 Z-53.569
N12475 X41.383 Z-53.317
N12480 X41.142 Z-53.109
N12485 X40.831 Z-52.883
N12490 X40.533 Z-52.691
N12495 X40.222 Z-52.517
N12500 X29.607 Z-47.297
N12505 X20.207 Z-42.486
N12510 X17.267 Z-40.911
N12515 X17.055 Z-40.808
N12520 X16.835 Z-40.724
N12525 X16.607 Z-40.661
N12530 X16.373 Z-40.619
N12535 X13.998 Z-40.274
N12540 X10.008 Z-39.552
N12545 X7.707 Z-39.065
N12550 X0.335 Z-37.394
N12555 X0.099 Z-37.366
N12560 X-0.143 Z-37.369
N12565 X-0.372 Z-37.401
N12570 X-8.412 Z-39.22
N12575 X-9.82 Z-39.522
N12580 X-14.072 Z-40.278
N12585 X-16.445 Z-40.63
N12590 X-16.658 Z-40.673
N12595 X-16.867 Z-40.735
N12600 X-17.17 Z-40.861
N12605 X-19.126 Z-41.915
N12610 X-20.396 Z-42.594
N12615 X-29.805 Z-47.382
N12620 X-40.234 Z-52.523
N12625 X-40.612 Z-52.74
N12630 X-40.973 Z-52.983
N12635 X-41.255 Z-53.201
N12640 X-41.476 Z-53.409
N12645 X-41.699 Z-53.662
N12650 X-41.832 Z-53.845
N12655 X-41.952 Z-54.041
N12660 X-42.057 Z-54.251
N12665 X-42.145 Z-54.479
N12670 X-42.178 Z-54.592
N12675 X-42.211 Z-54.737
N12680 X-42.238 Z-54.923
N12685 X-42.247 Z-55.109
N12690 Z-95.003
N12695 X-42.534 Y-40.381
N12700 Z-55.183
N12705 X-42.525 Z-55.003
N12710 X-42.488 Z-54.763
N12715 X-42.42 Z-54.518
N12720 X-42.331 Z-54.295
N12725 X-42.225 Z-54.088
N12730 X-42.103 Z-53.894
N12735 X-41.968 Z-53.714
N12740 X-41.747 Z-53.465
N12745 X-41.492 Z-53.231
N12750 X-40.873 Z-52.736
N12755 X-40.521 Z-52.478
N12760 X-40.154 Z-52.244
N12765 X-39.856 Z-52.082
N12770 X-39.316 Z-51.819
N12775 X-29.415 Z-46.94
N12780 X-20.004 Z-42.152
N12785 X-17.088 Z-40.58
N12790 X-16.787 Z-40.448
N12795 X-16.579 Z-40.381
N12800 X-16.356 Z-40.331
N12805 X-14.101 Z-39.996
N12810 X-10.084 Z-39.287
N12815 X-8.441 Z-38.938
N12820 X-0.952 Z-37.243
N12825 X-0.295 Z-37.098
N12830 X-0.05 Z-37.075
N12835 X0.189 Z-37.084
N12840 X0.364 Z-37.11
N12845 X7.888 Z-38.817
N12850 X9.977 Z-39.26
N12855 X13.968 Z-39.984
N12860 X16.105 Z-40.294
N12865 X16.458 Z-40.351
N12870 X16.686 Z-40.413
N12875 X16.907 Z-40.495
N12880 X17.121 Z-40.597
N12885 X19.955 Z-42.115
N12890 X29.142 Z-46.818
N12895 X39.652 Z-51.983
N12900 X40.075 Z-52.199
N12905 X40.378 Z-52.383
N12910 X40.767 Z-52.655
N12915 X41.406 Z-53.16
N12920 X41.669 Z-53.387
N12925 X41.909 Z-53.639
N12930 X42.051 Z-53.818
N12935 X42.177 Z-54.005
N12940 X42.285 Z-54.198
N12945 X42.395 Z-54.448
N12950 X42.478 Z-54.723
N12955 X42.517 Z-54.949
N12960 X42.53 Z-55.174
N12965 Z-95.003
N12970 X42.816 Y-40.065
N12975 Z-55.228
N12980 X42.805 Z-55.033
N12985 X42.765 Z-54.8
N12990 X42.71 Z-54.601
N12995 X42.627 Z-54.386
N13000 X42.517 Z-54.167
N13005 X42.4 Z-53.978
N13010 X42.195 Z-53.71
N13015 X41.955 Z-53.457
N13020 X41.691 Z-53.23
N13025 X40.396 Z-52.205
N13030 X40.104 Z-52.001
N13035 X39.802 Z-51.815
N13040 X39.434 Z-51.621
N13045 X33.8 Z-48.86
N13050 X28.631 Z-46.316
N13055 X19.68 Z-41.732
N13060 X16.951 Z-40.271
N13065 X16.737 Z-40.173
N13070 X16.515 Z-40.094
N13075 X16.285 Z-40.036
N13080 X15.813 Z-39.965
N13085 X13.912 Z-39.689
N13090 X10.158 Z-39.01
N13095 X8.067 Z-38.568
N13100 X0.368 Z-36.822
N13105 X0.133 Z-36.79
N13110 X-0.106 Z-36.788
N13115 X-0.346 Z-36.817
N13120 X-8.726 Z-38.712
N13125 X-10.134 Z-39.012
N13130 X-13.914 Z-39.682
N13135 X-16.229 Z-40.026
N13140 X-16.499 Z-40.09
N13145 X-16.706 Z-40.161
N13150 X-17.003 Z-40.298
N13155 X-19.824 Z-41.819
N13160 X-28.805 Z-46.389
N13165 X-38.492 Z-51.162
N13170 X-39.57 Z-51.689
N13175 X-39.95 Z-51.903
N13180 X-40.313 Z-52.144
N13185 X-40.659 Z-52.409
N13190 X-41.765 Z-53.293
N13195 X-42.01 Z-53.514
N13200 X-42.236 Z-53.763
N13205 X-42.435 Z-54.035
N13210 X-42.551 Z-54.233
N13215 X-42.652 Z-54.445
N13220 X-42.734 Z-54.675
N13225 X-42.77 Z-54.812
N13230 X-42.806 Z-55.016
N13235 X-42.821 Z-55.256
N13240 Z-95.003
N13245 X-43.108 Y-39.749
N13250 Z-55.328
N13255 X-43.092 Z-55.086
N13260 X-43.045 Z-54.837
N13265 X-43.013 Z-54.723
N13270 X-42.928 Z-54.493
N13275 X-42.825 Z-54.281
N13280 X-42.706 Z-54.084
N13285 X-42.574 Z-53.9
N13290 X-42.353 Z-53.645
N13295 X-42.113 Z-53.417
N13300 X-40.318 Z-51.979
N13305 X-39.926 Z-51.685
N13310 X-39.56 Z-51.449
N13315 X-39.263 Z-51.284
N13320 X-37.86 Z-50.6
N13325 X-28.389 Z-45.934
N13330 X-19.62 Z-41.473
N13335 X-16.798 Z-39.954
N13340 X-16.497 Z-39.826
N13345 X-16.288 Z-39.761
N13350 X-16.075 Z-39.716
N13355 X-13.939 Z-39.4
N13360 X-10.158 Z-38.731
N13365 X-8.751 Z-38.43
N13370 X-0.793 Z-36.628
N13375 X-0.265 Z-36.514
N13380 X-0.037 Z-36.496
N13385 X0.201 Z-36.506
N13390 X0.378 Z-36.534
N13395 X8.042 Z-38.273
N13400 X10.107 Z-38.713
N13405 X13.861 Z-39.395
N13410 X16.116 Z-39.723
N13415 X16.346 Z-39.777
N13420 X16.57 Z-39.853
N13425 X16.785 Z-39.948
N13430 X19.429 Z-41.362
N13435 X28.143 Z-45.825
N13440 X34.174 Z-48.793
N13445 X39.11 Z-51.208
N13450 X39.425 Z-51.371
N13455 X39.73 Z-51.555
N13460 X40.12 Z-51.825
N13465 X41.977 Z-53.3
N13470 X42.241 Z-53.527
N13475 X42.481 Z-53.78
N13480 X42.686 Z-54.048
N13485 X42.803 Z-54.238
N13490 X42.902 Z-54.433
N13495 X42.993 Z-54.662
N13500 X43.038 Z-54.815
N13505 X43.086 Z-55.064
N13510 X43.102 Z-55.287
N13515 Z-95.003
N13520 X43.388 Y-39.433
N13525 Z-55.384
N13530 X43.375 Z-55.159
N13535 X43.335 Z-54.933
N13540 X43.283 Z-54.745
N13545 X43.213 Z-54.559
N13550 X43.143 Z-54.409
N13555 X43.035 Z-54.216
N13560 X42.909 Z-54.029
N13565 X42.767 Z-53.85
N13570 X42.527 Z-53.598
N13575 X42.263 Z-53.371
N13580 X40.215 Z-51.742
N13585 X39.842 Z-51.445
N13590 X39.454 Z-51.171
N13595 X39.15 Z-50.985
N13600 X38.837 Z-50.82
N13605 X33.9 Z-48.407
N13610 X27.654 Z-45.334
N13615 X19.344 Z-41.081
N13620 X16.721 Z-39.676
N13625 X16.507 Z-39.575
N13630 X16.286 Z-39.493
N13635 X16.057 Z-39.432
N13640 X15.705 Z-39.376
N13645 X13.804 Z-39.1
N13650 X10.286 Z-38.463
N13655 X8.22 Z-38.024
N13660 X0.38 Z-36.246
N13665 X0.144 Z-36.212
N13670 X-0.097 Z-36.209
N13675 X-0.326 Z-36.235
N13680 X-8.835 Z-38.16
N13685 X-10.243 Z-38.461
N13690 X-13.787 Z-39.091
N13695 X-15.922 Z-39.407
N13700 X-16.135 Z-39.45
N13705 X-16.344 Z-39.513
N13710 X-16.646 Z-39.638
N13715 X-18.814 Z-40.806
N13720 X-19.661 Z-41.252
N13725 X-27.789 Z-45.388
N13730 X-37.045 Z-49.948
N13735 X-38.879 Z-50.841
N13740 X-39.178 Z-51.001
N13745 X-39.547 Z-51.233
N13750 X-39.9 Z-51.489
N13755 X-42.384 Z-53.477
N13760 X-42.628 Z-53.705
N13765 X-42.847 Z-53.955
N13770 X-42.98 Z-54.138
N13775 X-43.1 Z-54.333
N13780 X-43.204 Z-54.542
N13785 X-43.291 Z-54.767
N13790 X-43.356 Z-55.017
N13795 X-43.389 Z-55.254
N13800 X-43.395 Z-55.403
N13805 Z-95.003
N13810 X-43.681 Y-39.117
N13815 Z-55.475
N13820 X-43.667 Z-55.236
N13825 X-43.62 Z-54.987
N13830 X-43.546 Z-54.749
N13835 X-43.452 Z-54.531
N13840 X-43.341 Z-54.327
N13845 X-43.216 Z-54.137
N13850 X-43.078 Z-53.96
N13855 X-42.853 Z-53.716
N13860 X-42.596 Z-53.487
N13865 X-41.938 Z-52.964
N13870 X-39.709 Z-51.18
N13875 X-39.363 Z-50.916
N13880 X-39. Z-50.674
N13885 X-38.62 Z-50.46
N13890 X-36.247 Z-49.304
N13895 X-27.421 Z-44.956
N13900 X-19.079 Z-40.714
N13905 X-16.587 Z-39.369
N13910 X-16.287 Z-39.234
N13915 X-16.08 Z-39.165
N13920 X-15.856 Z-39.112
N13925 X-13.838 Z-38.812
N13930 X-10.294 Z-38.186
N13935 X-9.121 Z-37.934
N13940 X-0.379 Z-35.956
N13945 X-0.15 Z-35.923
N13950 X0.092 Z-35.919
N13955 X0.328 Z-35.946
N13960 X8.402 Z-37.776
N13965 X10.232 Z-38.166
N13970 X13.75 Z-38.806
N13975 X15.175 Z-39.013
N13980 X15.886 Z-39.118
N13985 X16.116 Z-39.175
N13990 X16.338 Z-39.254
N13995 X16.553 Z-39.351
N14000 X19.069 Z-40.698
N14005 X27.166 Z-44.843
N14010 X33.412 Z-47.915
N14015 X38.511 Z-50.406
N14020 X38.877 Z-50.601
N14025 X39.179 Z-50.789
N14030 X39.564 Z-51.065
N14035 X40.124 Z-51.515
N14040 X42.549 Z-53.441
N14045 X42.813 Z-53.668
N14050 X43.053 Z-53.92
N14055 X43.257 Z-54.189
N14060 X43.375 Z-54.378
N14065 X43.478 Z-54.583
N14070 X43.558 Z-54.784
N14075 X43.62 Z-54.996
N14080 X43.662 Z-55.241
N14085 X43.674 Z-55.438
N14090 Z-95.003
N14095 X43.96 Y-38.801
N14100 X43.959 Z-55.498
N14105 X43.943 Z-55.274
N14110 X43.895 Z-55.024
N14115 X43.834 Z-54.825
N14120 X43.773 Z-54.672
N14125 X43.661 Z-54.448
N14130 X43.543 Z-54.259
N14135 X43.338 Z-53.99
N14140 X43.098 Z-53.738
N14145 X42.835 Z-53.511
N14150 X40.034 Z-51.288
N14155 X39.287 Z-50.686
N14160 X38.904 Z-50.407
N14165 X38.603 Z-50.216
N14170 X38.239 Z-50.019
N14175 X32.709 Z-47.318
N14180 X26.487 Z-44.255
N14185 X18.796 Z-40.316
N14190 X16.438 Z-39.053
N14195 X16.169 Z-38.933
N14200 X15.945 Z-38.858
N14205 X15.715 Z-38.805
N14210 X13.698 Z-38.511
N14215 X10.416 Z-37.917
N14220 X8.561 Z-37.523
N14225 X0.394 Z-35.67
N14230 X0.159 Z-35.635
N14235 X-0.08 Z-35.629
N14240 X-0.321 Z-35.656
N14245 X-4.955 Z-36.705
N14250 X-9.169 Z-37.657
N14255 X-10.342 Z-37.909
N14260 X-13.648 Z-38.497
N14265 X-15.665 Z-38.797
N14270 X-15.889 Z-38.843
N14275 X-16.097 Z-38.906
N14280 X-16.4 Z-39.035
N14285 X-18.895 Z-40.378
N14290 X-26.808 Z-44.404
N14295 X-35.419 Z-48.646
N14300 X-38.321 Z-50.06
N14305 X-38.7 Z-50.275
N14310 X-39.062 Z-50.517
N14315 X-39.493 Z-50.851
N14320 X-41.72 Z-52.635
N14325 X-42.941 Z-53.609
N14330 X-43.195 Z-53.844
N14335 X-43.415 Z-54.094
N14340 X-43.549 Z-54.276
N14345 X-43.669 Z-54.47
N14350 X-43.774 Z-54.679
N14355 X-43.861 Z-54.903
N14360 X-43.928 Z-55.152
N14365 X-43.962 Z-55.389
N14370 X-43.968 Z-55.548
N14375 Z-95.003
N14380 X-44.255 Y-38.485
N14385 Z-55.62
N14390 X-44.244 Z-55.413
N14395 X-44.211 Z-55.206
N14400 X-44.176 Z-55.066
N14405 X-44.096 Z-54.834
N14410 X-43.997 Z-54.62
N14415 X-43.882 Z-54.42
N14420 X-43.686 Z-54.147
N14425 X-43.461 Z-53.896
N14430 X-43.217 Z-53.673
N14435 X-41.34 Z-52.177
N14440 X-39.113 Z-50.39
N14445 X-38.768 Z-50.124
N14450 X-38.407 Z-49.88
N14455 X-38.029 Z-49.663
N14460 X-34.576 Z-47.98
N14465 X-26.396 Z-43.951
N14470 X-18.696 Z-40.036
N14475 X-16.297 Z-38.743
N14480 X-15.997 Z-38.612
N14485 X-15.789 Z-38.545
N14490 X-15.577 Z-38.498
N14495 X-13.678 Z-38.216
N14500 X-10.372 Z-37.628
N14505 X-9.198 Z-37.375
N14510 X-0.351 Z-35.372
N14515 X-0.136 Z-35.343
N14520 X0.103 Z-35.341
N14525 X0.339 Z-35.37
N14530 X8.53 Z-37.227
N14535 X10.36 Z-37.619
N14540 X13.642 Z-38.217
N14545 X15.067 Z-38.424
N14550 X15.658 Z-38.514
N14555 X15.887 Z-38.574
N14560 X16.108 Z-38.655
N14565 X16.322 Z-38.756
N14570 X18.522 Z-39.934
N14575 X25.999 Z-43.764
N14580 X32.006 Z-46.722
N14585 X37.86 Z-49.579
N14590 X38.228 Z-49.773
N14595 X38.53 Z-49.959
N14600 X38.916 Z-50.234
N14605 X39.943 Z-51.061
N14610 X43.121 Z-53.581
N14615 X43.384 Z-53.808
N14620 X43.624 Z-54.061
N14625 X43.766 Z-54.24
N14630 X43.892 Z-54.427
N14635 X44.001 Z-54.62
N14640 X44.109 Z-54.867
N14645 X44.193 Z-55.142
N14650 X44.232 Z-55.37
N14655 X44.246 Z-55.595
N14660 Z-95.003
N14665 X44.531 Y-38.169
N14670 Z-55.649
N14675 X44.519 Z-55.449
N14680 X44.48 Z-55.217
N14685 X44.424 Z-55.02
N14690 X44.342 Z-54.806
N14695 X44.232 Z-54.589
N14700 X44.115 Z-54.399
N14705 X43.91 Z-54.131
N14710 X43.67 Z-53.879
N14715 X43.407 Z-53.652
N14720 X39.853 Z-50.834
N14725 X38.639 Z-49.855
N14730 X38.255 Z-49.578
N14735 X37.955 Z-49.389
N14740 X37.582 Z-49.189
N14745 X31.304 Z-46.125
N14750 X25.512 Z-43.274
N14755 X18.272 Z-39.565
N14760 X16.157 Z-38.432
N14765 X15.942 Z-38.335
N14770 X15.719 Z-38.257
N14775 X15.49 Z-38.2
N14780 X14.541 Z-38.061
N14785 X13.591 Z-37.923
N14790 X10.546 Z-37.371
N14795 X8.716 Z-36.98
N14800 X0.408 Z-35.095
N14805 X0.172 Z-35.057
N14810 X-0.069 Z-35.051
N14815 X-0.299 Z-35.073
N14820 X-1.528 Z-35.349
N14825 X-9.486 Z-37.15
N14830 X-10.659 Z-37.397
N14835 X-13.731 Z-37.937
N14840 X-15.392 Z-38.184
N14845 X-15.605 Z-38.226
N14850 X-15.815 Z-38.288
N14855 X-16.117 Z-38.413
N14860 X-17.652 Z-39.238
N14865 X-18.71 Z-39.801
N14870 X-25.768 Z-43.391
N14875 X-33.734 Z-47.315
N14880 X-37.714 Z-49.255
N14885 X-38.092 Z-49.472
N14890 X-38.453 Z-49.716
N14895 X-38.882 Z-50.05
N14900 X-41.108 Z-51.837
N14905 X-43.455 Z-53.705
N14910 X-43.712 Z-53.933
N14915 X-43.938 Z-54.177
N14920 X-44.076 Z-54.355
N14925 X-44.201 Z-54.545
N14930 X-44.312 Z-54.748
N14935 X-44.406 Z-54.966
N14940 X-44.48 Z-55.204
N14945 X-44.527 Z-55.453
N14950 X-44.542 Z-55.694
N14955 Z-95.003
N14960 X-44.829 Y-37.853
N14965 Z-55.761
N14970 X-44.813 Z-55.52
N14975 X-44.777 Z-55.317
N14980 X-44.741 Z-55.181
N14985 X-44.658 Z-54.952
N14990 X-44.557 Z-54.74
N14995 X-44.441 Z-54.542
N15000 X-44.242 Z-54.271
N15005 X-44.015 Z-54.022
N15010 X-43.77 Z-53.801
N15015 X-40.953 Z-51.559
N15020 X-38.456 Z-49.552
N15025 X-38.11 Z-49.287
N15030 X-37.748 Z-49.045
N15035 X-37.368 Z-48.831
N15040 X-32.956 Z-46.681
N15045 X-25.206 Z-42.864
N15050 X-18.363 Z-39.382
N15055 X-16.083 Z-38.156
N15060 X-15.783 Z-38.019
N15065 X-15.577 Z-37.948
N15070 X-15.354 Z-37.894
N15075 X-13.573 Z-37.628
N15080 X-10.738 Z-37.126
N15085 X-9.565 Z-36.879
N15090 X-0.354 Z-34.794
N15095 X-0.125 Z-34.764
N15100 X0.117
N15105 X0.353 Z-34.794
N15110 X8.895 Z-36.731
N15115 X10.49 Z-37.072
N15120 X13.536 Z-37.628
N15125 X15.198 Z-37.869
N15130 X15.432 Z-37.91
N15135 X15.66 Z-37.974
N15140 X15.88 Z-38.059
N15145 X16.092 Z-38.161
N15150 X18.186 Z-39.283
N15155 X25. Z-42.771
N15160 X30.6 Z-45.528
N15165 X37.317 Z-48.805
N15170 X37.681 Z-49.005
N15175 X37.98 Z-49.196
N15180 X38.362 Z-49.477
N15185 X39.762 Z-50.607
N15190 X43.693 Z-53.722
N15195 X43.956 Z-53.949
N15200 X44.196 Z-54.201
N15205 X44.401 Z-54.47
N15210 X44.518 Z-54.659
N15215 X44.617 Z-54.854
N15220 X44.707 Z-55.081
N15225 X44.752 Z-55.232
N15230 X44.785 Z-55.38
N15235 X44.813 Z-55.611
N15240 X44.817 Z-95.003
N15245 X45.103 Y-37.537
N15250 Z-55.771
N15255 X45.09 Z-55.577
N15260 X45.05 Z-55.351
N15265 X44.997 Z-55.163
N15270 X44.928 Z-54.979
N15275 X44.858 Z-54.831
N15280 X44.75 Z-54.637
N15285 X44.624 Z-54.45
N15290 X44.482 Z-54.271
N15295 X44.242 Z-54.019
N15300 X43.978 Z-53.792
N15305 X39.67 Z-50.379
N15310 X37.99 Z-49.024
N15315 X37.605 Z-48.748
N15320 X37.303 Z-48.559
N15325 X36.937 Z-48.364
N15330 X29.68 Z-44.824
N15335 X24.511 Z-42.28
N15340 X17.91 Z-38.9
N15345 X15.922 Z-37.835
N15350 X15.708 Z-37.735
N15355 X15.486 Z-37.655
N15360 X15.257 Z-37.595
N15365 X14.666 Z-37.505
N15370 X13.479 Z-37.333
N15375 X10.669 Z-36.823
N15380 X9.074 Z-36.482
N15385 X0.356 Z-34.505
N15390 X0.181 Z-34.48
N15395 X-0.058 Z-34.472
N15400 X-0.303 Z-34.496
N15405 X-1.194 Z-34.694
N15410 X-9.619 Z-36.603
N15415 X-10.792 Z-36.851
N15420 X-13.628 Z-37.35
N15425 X-15.171 Z-37.579
N15430 X-15.395 Z-37.628
N15435 X-15.602 Z-37.694
N15440 X-15.904 Z-37.826
N15445 X-17.975 Z-38.943
N15450 X-24.82 Z-42.423
N15455 X-32.139 Z-46.028
N15460 X-36.994 Z-48.392
N15465 X-37.292 Z-48.553
N15470 X-37.661 Z-48.785
N15475 X-38.013 Z-49.042
N15480 X-40.782 Z-51.268
N15485 X-44.068 Z-53.884
N15490 X-44.323 Z-54.117
N15495 X-44.546 Z-54.365
N15500 X-44.681 Z-54.545
N15505 X-44.803 Z-54.738
N15510 X-44.91 Z-54.944
N15515 X-45. Z-55.167
N15520 X-45.069 Z-55.411
N15525 X-45.107 Z-55.652
N15530 X-45.116 Z-55.841
N15535 Z-95.003
N15540 X-45.256 Y-37.383
N15545 X-45.386 Y-37.221
N15550 Z-55.869
N15555 X-45.375 Z-55.655
N15560 X-45.341 Z-55.443
N15565 X-45.304 Z-55.301
N15570 X-45.244 Z-55.127
N15575 X-45.117 Z-54.86
N15580 X-44.999 Z-54.664
N15585 X-44.797 Z-54.395
N15590 X-44.569 Z-54.149
N15595 X-44.322 Z-53.929
N15600 X-40.566 Z-50.941
N15605 X-37.843 Z-48.749
N15610 X-37.453 Z-48.452
N15615 X-37.09 Z-48.211
N15620 X-36.71 Z-47.999
N15625 X-31.315 Z-45.372
N15630 X-24.211 Z-41.873
N15635 X-17.794 Z-38.609
N15640 X-15.818 Z-37.543
N15645 X-15.52 Z-37.407
N15650 X-15.314 Z-37.336
N15655 X-15.043 Z-37.273
N15660 X-13.441 Z-37.036
N15665 X-10.842 Z-36.575
N15670 X-9.903 Z-36.377
N15675 X-0.354 Z-34.216
N15680 X-0.114 Z-34.185
N15685 X0.125 Z-34.186
N15690 X0.361 Z-34.217
N15695 X9.254 Z-36.234
N15700 X10.614 Z-36.524
N15705 X13.424 Z-37.038
N15710 X15.085 Z-37.281
N15715 X15.315 Z-37.337
N15720 X15.538 Z-37.414
N15725 X15.753 Z-37.51
N15730 X17.635 Z-38.517
N15735 X24.023 Z-41.789
N15740 X28.976 Z-44.227
N15745 X36.651 Z-47.969
N15750 X37.028 Z-48.174
N15755 X37.329 Z-48.365
N15760 X37.712 Z-48.644
N15765 X39.579 Z-50.151
N15770 X44.263 Z-53.862
N15775 X44.527 Z-54.089
N15780 X44.767 Z-54.341
N15785 X44.972 Z-54.609
N15790 X45.089 Z-54.799
N15795 X45.193 Z-55.002
N15800 X45.272 Z-55.203
N15805 X45.334 Z-55.413
N15810 X45.376 Z-55.656
N15815 X45.389 Z-55.869
N15820 Z-95.003
N15825 X45.513 Y-37.067
N15830 X45.625 Y-36.905
N15835 Z-55.855
N15840 X45.609 Z-55.612
N15845 X45.579 Z-55.431
N15850 X45.508 Z-55.177
N15855 X45.433 Z-54.992
N15860 X45.324 Z-54.784
N15865 X45.202 Z-54.6
N15870 X44.987 Z-54.336
N15875 X44.739 Z-54.091
N15880 X44.468 Z-53.868
N15885 X39.407 Z-49.859
N15890 X37.354 Z-48.203
N15895 X36.969 Z-47.927
N15900 X36.666 Z-47.738
N15905 X36.3 Z-47.543
N15910 X28.18 Z-43.584
N15915 X23.442 Z-41.251
N15920 X17.481 Z-38.199
N15925 X15.599 Z-37.193
N15930 X15.383 Z-37.099
N15935 X15.16 Z-37.024
N15940 X14.929 Z-36.971
N15945 X13.267 Z-36.725
N15950 X10.694 Z-36.254
N15955 X9.099 Z-35.91
N15960 X0.382 Z-33.932
N15965 X0.206 Z-33.904
N15970 X-0.032 Z-33.893
N15975 X-0.277 Z-33.913
N15980 X-0.7 Z-34.004
N15985 X-10.062 Z-36.123
N15990 X-11.001 Z-36.318
N15995 X-13.363 Z-36.738
N16000 X-14.906 Z-36.967
N16005 X-15.13 Z-37.016
N16010 X-15.338 Z-37.082
N16015 X-15.64 Z-37.213
N16020 X-17.711 Z-38.325
N16025 X-23.7 Z-41.371
N16030 X-30.589 Z-44.763
N16035 X-36.415 Z-47.601
N16040 X-36.794 Z-47.815
N16045 X-37.157 Z-48.057
N16050 X-37.503 Z-48.321
N16055 X-40.287 Z-50.563
N16060 X-44.606 Z-54.
N16065 X-44.853 Z-54.219
N16070 X-45.082 Z-54.465
N16075 X-45.219 Z-54.649
N16080 X-45.339 Z-54.849
N16085 X-45.441 Z-55.065
N16090 X-45.523 Z-55.302
N16095 X-45.552 Z-55.418
N16100 X-45.591 Z-55.664
N16105 X-45.602 Z-55.868
N16110 Z-95.003
N16115 X-45.814 Y-36.589
N16120 Z-55.869
N16125 X-45.806 Z-55.696
N16130 X-45.794 Z-55.583
N16135 X-45.756 Z-55.384
N16140 X-45.719 Z-55.248
N16145 X-45.634 Z-55.019
N16150 X-45.529 Z-54.808
N16155 X-45.406 Z-54.613
N16160 X-45.267 Z-54.433
N16165 X-45.114 Z-54.267
N16170 X-44.94 Z-54.108
N16175 X-40.15 Z-50.299
N16180 X-37.18 Z-47.906
N16185 X-36.833 Z-47.642
N16190 X-36.47 Z-47.401
N16195 X-36.09 Z-47.187
N16200 X-29.617 Z-44.035
N16205 X-23.159 Z-40.855
N16210 X-17.385 Z-37.917
N16215 X-15.526 Z-36.916
N16220 X-15.225 Z-36.783
N16225 X-15.018 Z-36.715
N16230 X-14.794 Z-36.664
N16235 X-13.488 Z-36.47
N16240 X-10.891 Z-36.014
N16245 X-10.187 Z-35.862
N16250 X-1.293 Z-33.849
N16255 X-0.298 Z-33.627
N16260 X-0.068 Z-33.604
N16265 X0.173 Z-33.611
N16270 X0.409 Z-33.649
N16275 X9.419 Z-35.693
N16280 X10.779 Z-35.985
N16285 X13.352 Z-36.456
N16290 X14.54 Z-36.627
N16295 X14.893 Z-36.684
N16300 X15.12 Z-36.746
N16305 X15.341 Z-36.829
N16310 X15.555 Z-36.931
N16315 X17.142 Z-37.781
N16320 X22.886 Z-40.726
N16325 X27.386 Z-42.942
N16330 X36.045 Z-47.164
N16335 X36.409 Z-47.364
N16340 X36.708 Z-47.555
N16345 X37.09 Z-47.835
N16350 X39.237 Z-49.568
N16355 X44.673 Z-53.874
N16360 X45.039 Z-54.174
N16365 X45.203 Z-54.335
N16370 X45.351 Z-54.507
N16375 X45.48 Z-54.69
N16380 X45.591 Z-54.881
N16385 X45.661 Z-55.03
N16390 X45.732 Z-55.218
N16395 X45.784 Z-55.407
N16400 X45.822 Z-55.637
N16405 X45.835 Z-55.869
N16410 Z-95.003
N16415 X46.046 Y-36.273
N16420 Z-55.84
N16425 X46.028 Z-55.6
N16430 X46.011 Z-55.49
N16435 X45.976 Z-55.336
N16440 X45.933 Z-55.19
N16445 X45.845 Z-54.97
N16450 X45.746 Z-54.78
N16455 X45.626 Z-54.594
N16460 X45.487 Z-54.417
N16465 X45.331 Z-54.251
N16470 X45.093 Z-54.043
N16475 X42.451 Z-51.96
N16480 X39.085 Z-49.291
N16485 X36.751 Z-47.407
N16490 X36.367 Z-47.129
N16495 X36.068 Z-46.94
N16500 X35.691 Z-46.736
N16505 X26.611 Z-42.31
N16510 X22.328 Z-40.199
N16515 X16.986 Z-37.463
N16520 X15.422 Z-36.624
N16525 X15.207 Z-36.522
N16530 X14.987 Z-36.44
N16535 X14.759 Z-36.377
N16540 X14.406 Z-36.321
N16545 X13.219 Z-36.147
N16550 X10.881 Z-35.72
N16555 X9.521 Z-35.427
N16560 X0.394 Z-33.356
N16565 X0.159 Z-33.321
N16570 X-0.08 Z-33.315
N16575 X-0.321 Z-33.342
N16580 X-4.955 Z-34.391
N16585 X-10.339 Z-35.607
N16590 X-11.043 Z-35.756
N16595 X-13.405 Z-36.171
N16600 X-14.652 Z-36.357
N16605 X-14.934 Z-36.423
N16610 X-15.14 Z-36.495
N16615 X-15.439 Z-36.634
N16620 X-17.297 Z-37.631
N16625 X-22.643 Z-40.35
N16630 X-28.887 Z-43.424
N16635 X-35.791 Z-46.787
N16640 X-36.17 Z-47.002
N16645 X-36.532 Z-47.244
N16650 X-36.879 Z-47.509
N16655 X-40.035 Z-50.052
N16660 X-44.73 Z-53.783
N16665 X-45.112 Z-54.075
N16670 X-45.279 Z-54.222
N16675 X-45.436 Z-54.383
N16680 X-45.579 Z-54.559
N16685 X-45.707 Z-54.751
N16690 X-45.819 Z-54.958
N16695 X-45.91 Z-55.184
N16700 X-45.945 Z-55.296
N16705 X-45.98 Z-55.437
N16710 X-46.014 Z-55.648
N16715 X-46.026 Z-55.866
N16720 Z-95.003
N16725 X-46.238 Y-35.957
N16730 Z-55.869
N16735 X-46.225 Z-55.638
N16740 X-46.181 Z-55.388
N16745 X-46.109 Z-55.145
N16750 X-46.014 Z-54.924
N16755 X-45.901 Z-54.72
N16760 X-45.771 Z-54.532
N16765 X-45.626 Z-54.359
N16770 X-45.468 Z-54.2
N16775 X-45.291 Z-54.049
N16780 X-44.432 Z-53.394
N16785 X-39.925 Z-49.809
N16790 X-36.582 Z-47.115
N16795 X-36.236 Z-46.849
N16800 X-35.875 Z-46.606
N16805 X-35.497 Z-46.389
N16810 X-28.161 Z-42.815
N16815 X-22.133 Z-39.848
N16820 X-17. Z-37.238
N16825 X-15.235 Z-36.29
N16830 X-14.934 Z-36.161
N16835 X-14.725 Z-36.095
N16840 X-14.513 Z-36.05
N16845 X-13.326 Z-35.873
N16850 X-11.199 Z-35.5
N16855 X-10.495 Z-35.354
N16860 X-0.349 Z-33.058
N16865 X-0.119 Z-33.028
N16870 X0.122 Z-33.029
N16875 X0.358 Z-33.059
N16880 X9.602 Z-35.156
N16885 X10.962 Z-35.45
N16890 X13.3 Z-35.875
N16895 X14.013 Z-35.977
N16900 X14.604 Z-36.067
N16905 X14.833 Z-36.126
N16910 X15.054 Z-36.207
N16915 X15.269 Z-36.307
N16920 X16.833 Z-37.145
N16925 X21.939 Z-39.76
N16930 X25.6 Z-41.562
N16935 X35.498 Z-46.389
N16940 X35.807 Z-46.564
N16945 X36.106 Z-46.757
N16950 X36.487 Z-47.039
N16955 X39.101 Z-49.15
N16960 X44.162 Z-53.158
N16965 X45.281 Z-54.026
N16970 X45.46 Z-54.174
N16975 X45.624 Z-54.335
N16980 X45.771 Z-54.507
N16985 X45.901 Z-54.69
N16990 X46.011 Z-54.881
N16995 X46.116 Z-55.116
N17000 X46.169 Z-55.271
N17005 X46.221 Z-55.49
N17010 X46.247 Z-55.68
N17015 X46.256 Z-55.869
N17020 Z-95.003
N17025 X46.466 Y-35.641
N17030 Z-55.848
N17035 X46.451 Z-55.616
N17040 X46.405 Z-55.367
N17045 X46.344 Z-55.163
N17050 X46.283 Z-55.008
N17055 X46.166 Z-54.78
N17060 X46.046 Z-54.594
N17065 X45.908 Z-54.417
N17070 X45.752 Z-54.251
N17075 X45.514 Z-54.043
N17080 X44.179 Z-53.016
N17085 X38.93 Z-48.858
N17090 X36.129 Z-46.597
N17095 X35.746 Z-46.318
N17100 X35.446 Z-46.127
N17105 X35.081 Z-45.929
N17110 X25.02 Z-41.025
N17115 X21.359 Z-39.222
N17120 X16.49 Z-36.726
N17125 X15.115 Z-35.99
N17130 X14.9 Z-35.892
N17135 X14.678 Z-35.814
N17140 X14.449 Z-35.756
N17145 X14.095 Z-35.702
N17150 X13.145 Z-35.564
N17155 X11.044 Z-35.18
N17160 X9.684 Z-34.885
N17165 X0.381 Z-32.775
N17170 X0.205 Z-32.747
N17175 X-0.033 Z-32.736
N17180 X-0.261 Z-32.754
N17185 X-0.579 Z-32.82
N17190 X-10.619 Z-35.093
N17195 X-11.323 Z-35.237
N17200 X-13.213 Z-35.57
N17205 X-14.4 Z-35.747
N17210 X-14.613 Z-35.795
N17215 X-14.82 Z-35.861
N17220 X-15.12 Z-35.993
N17225 X-16.889 Z-36.939
N17230 X-21.809 Z-39.438
N17235 X-27.191 Z-42.088
N17240 X-35.174 Z-45.976
N17245 X-35.552 Z-46.192
N17250 X-35.914 Z-46.435
N17255 X-36.259 Z-46.701
N17260 X-39.79 Z-49.546
N17265 X-44.296 Z-53.129
N17270 X-45.537 Z-54.076
N17275 X-45.713 Z-54.231
N17280 X-45.868 Z-54.393
N17285 X-46.01 Z-54.569
N17290 X-46.137 Z-54.761
N17295 X-46.247 Z-54.968
N17300 X-46.337 Z-55.193
N17305 X-46.405 Z-55.441
N17310 X-46.441 Z-55.684
N17315 X-46.45 Z-55.869
N17320 Z-95.003
N17325 X-46.662 Y-35.325
N17330 Z-55.863
N17335 X-46.647 Z-55.621
N17340 X-46.612 Z-55.416
N17345 X-46.54 Z-55.166
N17350 X-46.446 Z-54.941
N17355 X-46.334 Z-54.735
N17360 X-46.204 Z-54.545
N17365 X-46.06 Z-54.37
N17370 X-45.902 Z-54.21
N17375 X-45.734 Z-54.064
N17380 X-44.207 Z-52.899
N17385 X-39.697 Z-49.317
N17390 X-35.811 Z-46.186
N17395 X-35.459 Z-45.929
N17400 X-35.091 Z-45.695
N17405 X-34.792 Z-45.534
N17410 X-26.485 Z-41.489
N17415 X-21.103 Z-38.84
N17420 X-16.612 Z-36.556
N17425 X-14.962 Z-35.673
N17430 X-14.659 Z-35.545
N17435 X-14.451 Z-35.481
N17440 X-14.227 Z-35.434
N17445 X-13.159 Z-35.276
N17450 X-11.268 Z-34.942
N17455 X-10.564 Z-34.793
N17460 X-2.139 Z-32.884
N17465 X-0.313 Z-32.473
N17470 X-0.068 Z-32.447
N17475 X0.171 Z-32.454
N17480 X0.405 Z-32.491
N17485 X9.766 Z-34.615
N17490 X11.126 Z-34.91
N17495 X12.991 Z-35.251
N17500 X14.295 Z-35.446
N17505 X14.525 Z-35.501
N17510 X14.748 Z-35.578
N17515 X14.964 Z-35.674
N17520 X16.317 Z-36.397
N17525 X20.804 Z-38.697
N17530 X24.226 Z-40.383
N17535 X34.72 Z-45.498
N17540 X35.086 Z-45.693
N17545 X35.388 Z-45.881
N17550 X35.773 Z-46.157
N17555 X38.76 Z-48.567
N17560 X44.008 Z-52.725
N17565 X45.702 Z-54.026
N17570 X45.88 Z-54.174
N17575 X46.044 Z-54.335
N17580 X46.192 Z-54.507
N17585 X46.322 Z-54.69
N17590 X46.466 Z-54.95
N17595 X46.558 Z-55.174
N17600 X46.633 Z-55.442
N17605 X46.665 Z-55.653
N17610 X46.676 Z-55.836
N17615 X46.677 Z-95.003
N17620 X46.887 Y-35.009
N17625 Z-55.869
N17630 X46.874 Z-55.634
N17635 X46.834 Z-55.4
N17640 X46.772 Z-55.185
N17645 X46.711 Z-55.026
N17650 X46.642 Z-54.881
N17655 X46.532 Z-54.69
N17660 X46.402 Z-54.507
N17665 X46.254 Z-54.335
N17670 X46.091 Z-54.174
N17675 X45.912 Z-54.026
N17680 X43.838 Z-52.434
N17685 X38.59 Z-48.275
N17690 X35.509 Z-45.788
N17695 X35.127 Z-45.509
N17700 X34.828 Z-45.318
N17705 X34.463 Z-45.118
N17710 X23.43 Z-39.741
N17715 X20.223 Z-38.159
N17720 X16.164 Z-36.08
N17725 X14.811 Z-35.357
N17730 X14.595 Z-35.264
N17735 X14.371 Z-35.189
N17740 X14.14 Z-35.136
N17745 X13.073 Z-34.981
N17750 X11.208 Z-34.641
N17755 X9.849 Z-34.344
N17760 X0.371 Z-32.194
N17765 X0.135 Z-32.162
N17770 X-0.107 Z-32.16
N17775 X-0.336 Z-32.188
N17780 X-10.717 Z-34.538
N17785 X-11.421 Z-34.685
N17790 X-13.075 Z-34.977
N17795 X-14.143 Z-35.137
N17800 X-14.367 Z-35.188
N17805 X-14.574 Z-35.256
N17810 X-14.875 Z-35.389
N17815 X-16.312 Z-36.162
N17820 X-20.589 Z-38.337
N17825 X-25.756 Z-40.879
N17830 X-34.495 Z-45.134
N17835 X-34.793 Z-45.297
N17840 X-35.16 Z-45.531
N17845 X-35.553 Z-45.823
N17850 X-39.585 Z-49.073
N17855 X-43.904 Z-52.506
N17860 X-45.908 Z-54.034
N17865 X-46.086 Z-54.183
N17870 X-46.245 Z-54.34
N17875 X-46.391 Z-54.512
N17880 X-46.523 Z-54.699
N17885 X-46.638 Z-54.901
N17890 X-46.735 Z-55.12
N17895 X-46.81 Z-55.359
N17900 X-46.842 Z-55.509
N17905 X-46.866 Z-55.688
N17910 X-46.873 Z-55.868
N17915 Z-95.003
N17920 X-47.085 Y-34.693
N17925 Z-55.868
N17930 X-47.075 Z-55.657
N17935 X-47.034 Z-55.411
N17940 X-46.964 Z-55.166
N17945 X-46.871 Z-54.943
N17950 X-46.759 Z-54.738
N17955 X-46.631 Z-54.548
N17960 X-46.487 Z-54.373
N17965 X-46.33 Z-54.213
N17970 X-46.153 Z-54.061
N17975 X-43.768 Z-52.241
N17980 X-39.449 Z-48.809
N17985 X-35.189 Z-45.376
N17990 X-34.838 Z-45.118
N17995 X-34.47 Z-44.884
N18000 X-34.172 Z-44.722
N18005 X-25.002 Z-40.257
N18010 X-20.265 Z-37.927
N18015 X-16.2 Z-35.863
N18020 X-14.764 Z-35.094
N18025 X-14.464 Z-34.958
N18030 X-14.257 Z-34.888
N18035 X-14.034 Z-34.835
N18040 X-12.967 Z-34.674
N18045 X-11.549 Z-34.423
N18050 X-10.845 Z-34.278
N18055 X-0.4 Z-31.911
N18060 X-0.145 Z-31.873
N18065 X0.095 Z-31.87
N18070 X0.331 Z-31.897
N18075 X10.16 Z-34.126
N18080 X11.285 Z-34.37
N18085 X12.914 Z-34.668
N18090 X13.864 Z-34.808
N18095 X14.099 Z-34.848
N18100 X14.327 Z-34.91
N18105 X14.548 Z-34.992
N18110 X14.761 Z-35.093
N18115 X15.819 Z-35.659
N18120 X19.832 Z-37.718
N18125 X22.632 Z-39.097
N18130 X34.097 Z-44.684
N18135 X34.463 Z-44.88
N18140 X34.764 Z-45.068
N18145 X35.149 Z-45.345
N18150 X38.603 Z-48.133
N18155 X43.645 Z-52.125
N18160 X46.145 Z-54.043
N18165 X46.383 Z-54.251
N18170 X46.539 Z-54.417
N18175 X46.677 Z-54.594
N18180 X46.797 Z-54.78
N18185 X46.904 Z-54.987
N18190 X46.987 Z-55.197
N18195 X47.048 Z-55.418
N18200 X47.088 Z-55.671
N18205 X47.097 Z-55.869
N18210 Z-95.003
N18215 X47.202 Y-34.535
N18220 X47.308 Y-34.377
N18225 Z-55.869
N18230 X47.294 Z-55.634
N18235 X47.254 Z-55.4
N18240 X47.201 Z-55.209
N18245 X47.132 Z-55.027
N18250 X47.063 Z-54.881
N18255 X46.952 Z-54.69
N18260 X46.823 Z-54.507
N18265 X46.675 Z-54.335
N18270 X46.511 Z-54.174
N18275 X46.333 Z-54.026
N18280 X43.474 Z-51.834
N18285 X38.432 Z-47.841
N18290 X34.885 Z-44.977
N18295 X34.503 Z-44.696
N18300 X34.203 Z-44.504
N18305 X33.84 Z-44.304
N18310 X21.836 Z-38.455
N18315 X19.276 Z-37.192
N18320 X15.644 Z-35.33
N18325 X14.608 Z-34.775
N18330 X14.394 Z-34.676
N18335 X14.172 Z-34.596
N18340 X13.943 Z-34.537
N18345 X13.47 Z-34.465
N18350 X12.995 Z-34.396
N18355 X11.365 Z-34.1
N18360 X10.006 Z-33.802
N18365 X0.411 Z-31.624
N18370 X0.177 Z-31.587
N18375 X-0.062 Z-31.579
N18380 X-0.307 Z-31.604
N18385 X-1.666 Z-31.909
N18390 X-11.027 Z-34.03
N18395 X-11.496 Z-34.129
N18400 X-12.914 Z-34.38
N18405 X-13.863 Z-34.522
N18410 X-14.075 Z-34.568
N18415 X-14.283 Z-34.634
N18420 X-14.584 Z-34.763
N18425 X-15.927 Z-35.482
N18430 X-19.563 Z-37.331
N18435 X-24.085 Z-39.555
N18440 X-33.891 Z-44.33
N18445 X-34.27 Z-44.545
N18450 X-34.633 Z-44.787
N18455 X-34.979 Z-45.051
N18460 X-39.342 Z-48.568
N18465 X-43.473 Z-51.854
N18470 X-46.335 Z-54.037
N18475 X-46.506 Z-54.18
N18480 X-46.665 Z-54.337
N18485 X-46.813 Z-54.509
N18490 X-46.945 Z-54.696
N18495 X-47.061 Z-54.899
N18500 X-47.159 Z-55.12
N18505 X-47.235 Z-55.363
N18510 X-47.274 Z-55.559
N18515 X-47.292 Z-55.723
N18520 X-47.297 Z-55.869
N18525 Z-95.003
N18530 X-47.509 Y-34.061
N18535 Z-55.868
N18540 X-47.499 Z-55.657
N18545 X-47.466 Z-55.449
N18550 X-47.432 Z-55.306
N18555 X-47.397 Z-55.194
N18560 X-47.306 Z-54.967
N18565 X-47.196 Z-54.759
N18570 X-47.068 Z-54.567
N18575 X-46.926 Z-54.39
N18580 X-46.77 Z-54.228
N18585 X-46.602 Z-54.081
N18590 X-43.358 Z-51.605
N18595 X-39.227 Z-48.322
N18600 X-34.762 Z-44.723
N18605 X-34.332 Z-44.389
N18610 X-33.971 Z-44.146
N18615 X-33.592 Z-43.93
N18620 X-23.355 Z-38.944
N18625 X-19.263 Z-36.933
N18630 X-15.626 Z-35.087
N18635 X-14.494 Z-34.479
N18640 X-14.196 Z-34.344
N18645 X-13.989 Z-34.275
N18650 X-13.777 Z-34.224
N18655 X-13.065 Z-34.117
N18660 X-11.883 Z-33.913
N18665 X-11.178 Z-33.775
N18670 X-0.329 Z-31.318
N18675 X-0.099 Z-31.292
N18680 X0.142 Z-31.294
N18685 X0.378 Z-31.328
N18690 X10.09 Z-33.531
N18695 X11.449 Z-33.83
N18700 X12.841 Z-34.085
N18705 X13.789 Z-34.227
N18710 X14.019 Z-34.284
N18715 X14.242 Z-34.362
N18720 X14.456 Z-34.459
N18725 X15.492 Z-35.013
N18730 X18.697 Z-36.655
N18735 X21.043 Z-37.813
N18740 X33.472 Z-43.869
N18745 X33.843 Z-44.069
N18750 X34.145 Z-44.259
N18755 X34.529 Z-44.536
N18760 X38.263 Z-47.55
N18765 X43.303 Z-51.543
N18770 X46.566 Z-54.043
N18775 X46.803 Z-54.251
N18780 X46.959 Z-54.417
N18785 X47.098 Z-54.594
N18790 X47.218 Z-54.78
N18795 X47.316 Z-54.969
N18800 X47.403 Z-55.183
N18805 X47.446 Z-55.325
N18810 X47.482 Z-55.483
N18815 X47.509 Z-55.676
N18820 X47.518 Z-55.869
N18825 Z-95.003
N18830 X47.728 Y-33.745
N18835 Z-55.848
N18840 X47.709 Z-55.59
N18845 X47.665 Z-55.358
N18850 X47.587 Z-55.112
N18855 X47.483 Z-54.881
N18860 X47.373 Z-54.69
N18865 X47.243 Z-54.507
N18870 X47.096 Z-54.335
N18875 X46.932 Z-54.174
N18880 X46.754 Z-54.026
N18885 X43.132 Z-51.252
N18890 X38.279 Z-47.409
N18895 X34.265 Z-44.168
N18900 X33.883 Z-43.886
N18905 X33.585 Z-43.694
N18910 X33.274 Z-43.52
N18915 X20.247 Z-37.171
N18920 X18.117 Z-36.117
N18925 X15.149 Z-34.594
N18930 X14.303 Z-34.143
N18935 X14.088 Z-34.047
N18940 X13.865 Z-33.971
N18945 X13.634 Z-33.916
N18950 X12.685 Z-33.772
N18955 X11.529 Z-33.56
N18960 X9.936 Z-33.207
N18965 X0.341 Z-31.031
N18970 X0.105 Z-31.003
N18975 X-0.135 Z-31.005
N18980 X-0.35 Z-31.033
N18985 X-11.303 Z-33.514
N18990 X-11.773 Z-33.608
N18995 X-12.954 Z-33.814
N19000 X-13.666 Z-33.923
N19005 X-13.877 Z-33.975
N19010 X-14.084 Z-34.046
N19015 X-14.382 Z-34.183
N19020 X-15.513 Z-34.788
N19025 X-18.722 Z-36.416
N19030 X-22.599 Z-38.321
N19035 X-33.268 Z-43.517
N19040 X-33.647 Z-43.732
N19045 X-34.009 Z-43.975
N19050 X-34.439 Z-44.308
N19055 X-39.091 Z-48.058
N19060 X-43.222 Z-51.34
N19065 X-46.752 Z-54.032
N19070 X-46.93 Z-54.18
N19075 X-47.09 Z-54.337
N19080 X-47.236 Z-54.508
N19085 X-47.369 Z-54.695
N19090 X-47.484 Z-54.897
N19095 X-47.581 Z-55.115
N19100 X-47.657 Z-55.354
N19105 X-47.689 Z-55.504
N19110 X-47.713 Z-55.685
N19115 X-47.721 Z-55.868
N19120 Z-95.003
N19125 X-47.933 Y-33.429
N19130 Z-55.869
N19135 X-47.928 Z-55.725
N19140 X-47.897 Z-55.484
N19145 X-47.833 Z-55.23
N19150 X-47.747 Z-55.002
N19155 X-47.64 Z-54.793
N19160 X-47.515 Z-54.599
N19165 X-47.376 Z-54.42
N19170 X-47.222 Z-54.256
N19175 X-46.999 Z-54.059
N19180 X-42.944 Z-50.966
N19185 X-39.001 Z-47.831
N19190 X-34.037 Z-43.829
N19195 X-33.647 Z-43.533
N19200 X-33.283 Z-43.293
N19205 X-32.902 Z-43.082
N19210 X-21.898 Z-37.724
N19215 X-18.236 Z-35.926
N19220 X-15.241 Z-34.407
N19225 X-14.226 Z-33.864
N19230 X-13.926 Z-33.73
N19235 X-13.719 Z-33.661
N19240 X-13.495 Z-33.609
N19245 X-12.902 Z-33.52
N19250 X-12.193 Z-33.398
N19255 X-11.486 Z-33.266
N19260 X-0.954 Z-30.88
N19265 X-0.297 Z-30.734
N19270 X-0.052 Z-30.711
N19275 X0.187 Z-30.72
N19280 X0.362 Z-30.746
N19285 X10.25 Z-32.989
N19290 X11.609 Z-33.29
N19295 X12.765 Z-33.502
N19300 X13.433 Z-33.599
N19305 X13.708 Z-33.658
N19310 X13.932 Z-33.732
N19315 X14.149 Z-33.825
N19320 X14.973 Z-34.264
N19325 X17.729 Z-35.678
N19330 X19.452 Z-36.528
N19335 X32.847 Z-43.055
N19340 X33.224 Z-43.258
N19345 X33.524 Z-43.448
N19350 X33.907 Z-43.726
N19355 X38.108 Z-47.117
N19360 X42.793 Z-50.828
N19365 X46.986 Z-54.043
N19370 X47.224 Z-54.251
N19375 X47.38 Z-54.417
N19380 X47.518 Z-54.594
N19385 X47.638 Z-54.78
N19390 X47.754 Z-55.007
N19395 X47.815 Z-55.159
N19400 X47.875 Z-55.358
N19405 X47.92 Z-55.595
N19410 X47.935 Z-55.758
N19415 X47.938 Z-95.003
N19420 X48.149 Y-33.113
N19425 Z-55.869
N19430 X48.137 Z-55.652
N19435 X48.103 Z-55.436
N19440 X48.027 Z-55.166
N19445 X47.935 Z-54.944
N19450 X47.794 Z-54.69
N19455 X47.664 Z-54.507
N19460 X47.516 Z-54.335
N19465 X47.352 Z-54.174
N19470 X47.174 Z-54.026
N19475 X42.622 Z-50.537
N19480 X37.937 Z-46.825
N19485 X33.643 Z-43.358
N19490 X33.262 Z-43.076
N19495 X32.963 Z-42.882
N19500 X32.654 Z-42.708
N19505 X18.441 Z-35.78
N19510 X17.172 Z-35.152
N19515 X14.822 Z-33.947
N19520 X14.103 Z-33.562
N19525 X13.889 Z-33.461
N19530 X13.668 Z-33.38
N19535 X13.439 Z-33.318
N19540 X13.087 Z-33.262
N19545 X12.4 Z-33.151
N19550 X11.48 Z-32.976
N19555 X0.387 Z-30.462
N19560 X0.151 Z-30.427
N19565 X-0.09 Z-30.423
N19570 X-0.319 Z-30.449
N19575 X-2.977 Z-31.05
N19580 X-11.637 Z-33.011
N19585 X-12.816 Z-33.221
N19590 X-13.35 Z-33.301
N19595 X-13.633 Z-33.369
N19600 X-13.839 Z-33.441
N19605 X-14.142 Z-33.583
N19610 X-15.153 Z-34.121
N19615 X-17.72 Z-35.422
N19620 X-21.167 Z-37.114
N19625 X-32.603 Z-42.682
N19630 X-32.983 Z-42.894
N19635 X-33.347 Z-43.135
N19640 X-33.736 Z-43.432
N19645 X-38.886 Z-47.585
N19650 X-42.83 Z-50.717
N19655 X-47.219 Z-54.065
N19660 X-47.387 Z-54.211
N19665 X-47.545 Z-54.371
N19670 X-47.689 Z-54.546
N19675 X-47.818 Z-54.736
N19680 X-47.931 Z-54.943
N19685 X-48.024 Z-55.167
N19690 X-48.096 Z-55.418
N19695 X-48.131 Z-55.623
N19700 X-48.145 Z-55.863
N19705 Z-95.003
N19710 X-48.357 Y-32.797
N19715 Z-55.868
N19720 X-48.346 Z-55.655
N19725 X-48.313 Z-55.443
N19730 X-48.278 Z-55.301
N19735 X-48.244 Z-55.189
N19740 X-48.152 Z-54.963
N19745 X-48.041 Z-54.755
N19750 X-47.914 Z-54.563
N19755 X-47.77 Z-54.386
N19760 X-47.614 Z-54.225
N19765 X-47.447 Z-54.078
N19770 X-42.676 Z-50.438
N19775 X-38.73 Z-47.305
N19780 X-33.392 Z-43.001
N19785 X-33.001 Z-42.705
N19790 X-32.636 Z-42.467
N19795 X-32.255 Z-42.256
N19800 X-20.603 Z-36.584
N19805 X-17.156 Z-34.894
N19810 X-14.802 Z-33.701
N19815 X-14.001 Z-33.272
N19820 X-13.702 Z-33.133
N19825 X-13.496 Z-33.061
N19830 X-13.285 Z-33.008
N19835 X-12.703 Z-32.918
N19840 X-11.76 Z-32.749
N19845 X-0.338 Z-30.163
N19850 X-0.123 Z-30.136
N19855 X0.117
N19860 X0.352 Z-30.166
N19865 X11.563 Z-32.706
N19870 X12.458 Z-32.877
N19875 X13.286 Z-33.008
N19880 X13.515 Z-33.067
N19885 X13.737 Z-33.147
N19890 X13.952 Z-33.246
N19895 X14.481 Z-33.529
N19900 X16.593 Z-34.615
N19905 X17.862 Z-35.244
N19910 X32.226 Z-42.242
N19915 X32.603 Z-42.447
N19920 X32.904 Z-42.638
N19925 X33.287 Z-42.917
N19930 X37.768 Z-46.535
N19935 X42.451 Z-50.246
N19940 X47.385 Z-54.026
N19945 X47.563 Z-54.174
N19950 X47.727 Z-54.335
N19955 X47.874 Z-54.507
N19960 X48.004 Z-54.69
N19965 X48.114 Z-54.881
N19970 X48.18 Z-55.02
N19975 X48.242 Z-55.177
N19980 X48.303 Z-55.388
N19985 X48.345 Z-55.627
N19990 X48.359 Z-55.843
N19995 Z-95.003
N20000 X48.569 Y-32.481
N20005 Z-55.853
N20010 X48.558 Z-55.657
N20015 X48.517 Z-55.405
N20020 X48.456 Z-55.188
N20025 X48.375 Z-54.984
N20030 X48.269 Z-54.78
N20035 X48.149 Z-54.594
N20040 X48.011 Z-54.417
N20045 X47.855 Z-54.251
N20050 X47.617 Z-54.043
N20055 X42.28 Z-49.955
N20060 X37.783 Z-46.394
N20065 X32.929 Z-42.476
N20070 X32.544 Z-42.2
N20075 X32.242 Z-42.011
N20080 X31.876 Z-41.816
N20085 X17.066 Z-34.602
N20090 X16.013 Z-34.077
N20095 X14.304 Z-33.199
N20100 X13.797 Z-32.928
N20105 X13.582 Z-32.831
N20110 X13.359 Z-32.754
N20115 X13.129 Z-32.697
N20120 X12.326 Z-32.568
N20125 X11.642 Z-32.436
N20130 X0.374 Z-29.881
N20135 X0.198 Z-29.853
N20140 X-0.041 Z-29.843
N20145 X-0.285 Z-29.865
N20150 X-0.709 Z-29.956
N20155 X-11.708 Z-32.451
N20160 X-12.415 Z-32.584
N20165 X-13.126 Z-32.697
N20170 X-13.338 Z-32.747
N20175 X-13.545 Z-32.817
N20180 X-13.843 Z-32.952
N20185 X-14.766 Z-33.44
N20190 X-16.692 Z-34.415
N20195 X-20.141 Z-36.104
N20200 X-32.008 Z-41.882
N20205 X-32.387 Z-42.098
N20210 X-32.748 Z-42.341
N20215 X-33.094 Z-42.606
N20220 X-38.491 Z-46.96
N20225 X-42.435 Z-50.093
N20230 X-47.635 Z-54.059
N20235 X-47.858 Z-54.255
N20240 X-48.011 Z-54.419
N20245 X-48.151 Z-54.598
N20250 X-48.275 Z-54.792
N20255 X-48.382 Z-55.001
N20260 X-48.469 Z-55.229
N20265 X-48.533 Z-55.483
N20270 X-48.564 Z-55.724
N20275 X-48.569 Z-55.869
N20280 Z-95.003
N20285 X-48.781 Y-32.165
N20290 Z-55.865
N20295 X-48.768 Z-55.635
N20300 X-48.734 Z-55.427
N20305 X-48.663 Z-55.176
N20310 X-48.57 Z-54.95
N20315 X-48.458 Z-54.743
N20320 X-48.33 Z-54.552
N20325 X-48.186 Z-54.377
N20330 X-48.029 Z-54.216
N20335 X-47.861 Z-54.07
N20340 X-42.136 Z-49.703
N20345 X-38.38 Z-46.717
N20350 X-32.626 Z-42.077
N20355 X-32.273 Z-41.821
N20360 X-31.904 Z-41.589
N20365 X-31.605 Z-41.43
N20370 X-20.709 Z-36.125
N20375 X-16.181 Z-33.913
N20380 X-14.469 Z-33.047
N20385 X-13.662 Z-32.62
N20390 X-13.359 Z-32.491
N20395 X-13.151 Z-32.426
N20400 X-12.927 Z-32.379
N20405 X-12.571 Z-32.326
N20410 X-11.863 Z-32.197
N20415 X-1.566 Z-29.862
N20420 X-0.313 Z-29.58
N20425 X-0.083 Z-29.555
N20430 X0.158 Z-29.56
N20435 X0.393 Z-29.596
N20440 X11.721 Z-32.166
N20445 X12.38 Z-32.293
N20450 X12.972 Z-32.387
N20455 X13.202 Z-32.44
N20460 X13.426 Z-32.516
N20465 X13.641 Z-32.61
N20470 X14.149 Z-32.88
N20475 X16.053 Z-33.852
N20480 X31.617 Z-41.435
N20485 X31.981 Z-41.635
N20490 X32.28 Z-41.825
N20495 X32.663 Z-42.105
N20500 X37.61 Z-46.1
N20505 X42.088 Z-49.646
N20510 X47.805 Z-54.026
N20515 X47.983 Z-54.174
N20520 X48.147 Z-54.335
N20525 X48.295 Z-54.507
N20530 X48.425 Z-54.69
N20535 X48.535 Z-54.881
N20540 X48.602 Z-55.023
