%
O01010
(Using high feed G1 F5000. instead of G0.)
(T3 D=16. CR=0. - ZMIN=-71.602 - fresa con punta plana)
N10 G90 G94 G17
N15 G21
(When using Fusion for Personal Use, the feedrate of rapid)
(moves is reduced to match the feedrate of cutting moves,)
(which can increase machining time. Unrestricted rapid moves)
(are available with a Fusion Subscription.)
N20 G53 G0 Z0.

(Adaptativo2)
N25 T3 M6
N30 S5000 M3
N35 G17 G90 G94
N40 G54
N45 M8
N50 G1 X-61.636 Y-78.252 F5000.
N55 G0 G43 Z15. H3
N60 G1 Z5. F1000.
N65 Z-8.748
N70 Z-10.348
N75 X-61.634 Y-78.244 Z-10.505
N80 X-61.628 Y-78.222 Z-10.66
N85 X-61.619 Y-78.185 Z-10.813
N90 X-61.606 Y-78.134 Z-10.961
N95 X-61.589 Y-78.069 Z-11.103
N100 X-61.569 Y-77.99 Z-11.237
N105 X-61.546 Y-77.9 Z-11.363
N110 X-61.52 Y-77.798 Z-11.48
N115 X-61.491 Y-77.685 Z-11.585
N120 X-61.46 Y-77.563 Z-11.679
N125 X-61.426 Y-77.432 Z-11.759
N130 X-61.391 Y-77.295 Z-11.827
N135 X-61.354 Y-77.152 Z-11.879
N140 X-61.317 Y-77.004 Z-11.918
N145 X-61.278 Y-76.854 Z-11.941
N150 X-61.239 Y-76.702 Z-11.948
N155 G3 X-59.986 Y-67.991 I-39.57 J10.136
N160 G1 Y-67.841
N165 X-60.275 Y-66.419
N170 X-60.511 Y-64.988
N175 X-60.706 Y-63.55
N180 X-60.865 Y-62.108
N185 X-60.995 Y-60.663
N190 X-61.102 Y-59.216
N195 X-61.189 Y-57.768
N200 X-61.261 Y-56.319
N205 X-61.319 Y-54.869
N210 X-61.366 Y-53.419
N215 X-61.405 Y-51.969
N220 X-61.437 Y-50.518
N225 X-61.463 Y-49.068
N230 X-61.484 Y-47.617
N235 X-61.501 Y-46.166
N240 X-61.515 Y-44.716
N245 X-61.527 Y-43.265
N250 X-61.536 Y-41.814
N255 X-61.544 Y-40.363
N260 X-61.55 Y-38.913
N265 X-61.56 Y-36.011
N270 X-61.566 Y-33.109
N275 X-61.572 Y-28.757
N280 X-61.576 Y-22.953
N285 X-61.578 Y-17.15
N290 X-61.582 Y8.965
N295 X-61.584 Y33.629
N300 X-61.586 Y52.49
N305 X-61.528 Y52.848
N310 X-61.16 Y54.251
N315 X-60.375 Y55.471
N320 X-59.364 Y56.511
N325 X-58.208 Y57.389
N330 X-56.957 Y58.123
N335 X-55.641 Y58.735
N340 X-54.282 Y59.242
N345 X-52.893 Y59.661
N350 X-51.484 Y60.007
N355 X-50.062 Y60.292
N360 X-48.63 Y60.526
N365 X-47.192 Y60.718
N370 X-45.749 Y60.875
N375 X-44.304 Y61.004
N380 X-42.857 Y61.109
N385 X-41.409 Y61.196
N390 X-39.96 Y61.266
N395 X-38.51 Y61.323
N400 X-37.06 Y61.37
N405 X-35.61 Y61.409
N410 X-34.159 Y61.44
N415 X-32.709 Y61.466
N420 X-31.258 Y61.487
N425 X-29.807 Y61.504
N430 X-28.357 Y61.518
N435 X-26.906 Y61.529
N440 X-25.455 Y61.538
N445 X-24.004 Y61.546
N450 X-22.553 Y61.552
N455 X-19.652 Y61.561
N460 X-16.75 Y61.568
N465 X-12.398 Y61.573
N470 X-6.594 Y61.577
N475 X5.012 Y61.581
N480 X18.07 Y61.582
N485 X52.89 Y61.586
N490 X54.283 Y61.183
N495 X55.499 Y60.391
N500 X56.535 Y59.375
N505 X57.408 Y58.217
N510 X58.139 Y56.963
N515 X58.748 Y55.647
N520 X59.253 Y54.286
N525 X59.671 Y52.897
N530 X60.015 Y51.488
N535 X60.298 Y50.065
N540 X60.531 Y48.633
N545 X60.722 Y47.194
N550 X60.879 Y45.752
N555 X61.007 Y44.307
N560 X61.112 Y42.86
N565 X61.197 Y41.412
N570 X61.268 Y39.962
N575 X61.325 Y38.513
N580 X61.371 Y37.063
N585 X61.41 Y35.612
N590 X61.441 Y34.162
N595 X61.466 Y32.711
N600 X61.487 Y31.261
N605 X61.504 Y29.81
N610 X61.518 Y28.359
N615 X61.529 Y26.908
N620 X61.538 Y25.458
N625 X61.546 Y24.007
N630 X61.552 Y22.556
N635 X61.561 Y19.654
N640 X61.568 Y16.753
N645 X61.573 Y12.4
N650 X61.577 Y6.597
N655 X61.58 Y-2.108
N660 X61.586 Y-52.887
N665 X61.184 Y-54.281
N670 X60.392 Y-55.497
N675 X59.377 Y-56.533
N680 X58.218 Y-57.407
N685 X56.965 Y-58.138
N690 X55.649 Y-58.747
N695 X54.289 Y-59.252
N700 X52.899 Y-59.67
N705 X51.49 Y-60.014
N710 X50.067 Y-60.298
N715 X48.635 Y-60.531
N720 X47.197 Y-60.722
N725 X45.754 Y-60.879
N730 X44.309 Y-61.007
N735 X42.862 Y-61.112
N740 X41.414 Y-61.197
N745 X39.965 Y-61.267
N750 X38.515 Y-61.325
N755 X37.065 Y-61.371
N760 X35.615 Y-61.41
N765 X34.164 Y-61.441
N770 X32.714 Y-61.466
N775 X31.263 Y-61.487
N780 X29.812 Y-61.504
N785 X28.361 Y-61.518
N790 X26.911 Y-61.529
N795 X25.46 Y-61.538
N800 X24.009 Y-61.546
N805 X22.558 Y-61.552
N810 X19.657 Y-61.561
N815 X16.755 Y-61.568
N820 X13.853 Y-61.572
N825 X8.05 Y-61.577
N830 X-2.106 Y-61.58
N835 X-36.926 Y-61.584
N840 X-45.631 Y-61.585
N845 X-47.063 Y-61.354
N850 X-48.347 Y-60.678
N855 X-49.459 Y-59.747
N860 X-50.409 Y-58.65
N865 X-51.213 Y-57.442
N870 X-51.889 Y-56.158
N875 X-52.454 Y-54.822
N880 X-52.927 Y-53.45
N885 X-53.319 Y-52.054
N890 X-53.645 Y-50.64
N895 X-53.915 Y-49.214
N900 X-54.138 Y-47.781
N905 X-54.322 Y-46.342
N910 X-54.474 Y-44.899
N915 X-54.599 Y-43.454
N920 X-54.703 Y-42.006
N925 X-54.787 Y-40.558
N930 X-54.857 Y-39.109
N935 X-54.915 Y-37.659
N940 X-54.962 Y-36.209
N945 X-55.001 Y-34.759
N950 X-55.033 Y-33.308
N955 X-55.059 Y-31.858
N960 X-55.08 Y-30.407
N965 X-55.098 Y-28.956
N970 X-55.113 Y-27.506
N975 X-55.125 Y-26.055
N980 X-55.134 Y-24.604
N985 X-55.142 Y-23.153
N990 X-55.149 Y-21.702
N995 X-55.159 Y-18.801
N1000 X-55.166 Y-15.899
N1005 X-55.172 Y-11.547
N1010 X-55.177 Y-5.743
N1015 X-55.18 Y4.412
N1020 X-55.183 Y27.626
N1025 X-55.185 Y43.585
N1030 X-55.041 Y45.028
N1035 X-54.561 Y46.397
N1040 X-53.818 Y47.644
N1045 X-52.882 Y48.752
N1050 X-51.803 Y49.722
N1055 X-50.62 Y50.562
N1060 X-49.362 Y51.284
N1065 X-48.049 Y51.901
N1070 X-46.696 Y52.426
N1075 X-45.315 Y52.872
N1080 X-43.914 Y53.247
N1085 X-42.498 Y53.564
N1090 X-41.072 Y53.831
N1095 X-39.638 Y54.054
N1100 X-38.2 Y54.242
N1105 X-36.757 Y54.398
N1110 X-35.313 Y54.529
N1115 X-33.866 Y54.639
N1120 X-32.418 Y54.73
N1125 X-30.969 Y54.806
N1130 X-29.52 Y54.869
N1135 X-28.07 Y54.922
N1140 X-26.62 Y54.966
N1145 X-25.169 Y55.002
N1150 X-23.719 Y55.033
N1155 X-22.268 Y55.058
N1160 X-20.817 Y55.079
N1165 X-19.367 Y55.096
N1170 X-17.916 Y55.111
N1175 X-16.465 Y55.123
N1180 X-15.014 Y55.133
N1185 X-13.564 Y55.141
N1190 X-12.113 Y55.148
N1195 X-9.211 Y55.158
N1200 X-6.309 Y55.165
N1205 X-1.957 Y55.172
N1210 X3.846 Y55.177
N1215 X14.002 Y55.181
N1220 X25.609 Y55.183
N1225 X43.019 Y55.185
N1230 X44.469 Y55.183
N1235 X45.876 Y54.827
N1240 X47.173 Y54.177
N1245 X48.336 Y53.309
N1250 X49.359 Y52.28
N1255 X50.248 Y51.134
N1260 X51.016 Y49.903
N1265 X51.672 Y48.609
N1270 X52.232 Y47.271
N1275 X52.707 Y45.9
N1280 X53.109 Y44.506
N1285 X53.447 Y43.095
N1290 X53.732 Y41.672
N1295 X53.972 Y40.242
N1300 X54.173 Y38.805
N1305 X54.341 Y37.364
N1310 X54.481 Y35.92
N1315 X54.599 Y34.474
N1320 X54.697 Y33.026
N1325 X54.778 Y31.578
N1330 X54.846 Y30.128
N1335 X54.903 Y28.679
N1340 X54.95 Y27.228
N1345 X54.989 Y25.778
N1350 X55.022 Y24.328
N1355 X55.049 Y22.877
N1360 X55.071 Y21.426
N1365 X55.09 Y19.976
N1370 X55.105 Y18.525
N1375 X55.118 Y17.074
N1380 X55.129 Y15.623
N1385 X55.138 Y14.173
N1390 X55.145 Y12.722
N1395 X55.151 Y11.271
N1400 X55.161 Y8.369
N1405 X55.167 Y5.468
N1410 X55.173 Y1.115
N1415 X55.178 Y-4.688
N1420 X55.181 Y-14.844
N1425 X55.183 Y-23.549
N1430 X55.185 Y-43.86
N1435 X54.978 Y-45.296
N1440 X54.444 Y-46.645
N1445 X53.66 Y-47.867
N1450 X52.694 Y-48.948
N1455 X51.592 Y-49.893
N1460 X50.393 Y-50.71
N1465 X49.123 Y-51.411
N1470 X47.802 Y-52.01
N1475 X46.443 Y-52.519
N1480 X45.058 Y-52.95
N1485 X43.653 Y-53.314
N1490 X42.235 Y-53.62
N1495 X40.808 Y-53.878
N1500 X39.373 Y-54.094
N1505 X37.933 Y-54.275
N1510 X36.491 Y-54.426
N1515 X35.045 Y-54.553
N1520 X33.598 Y-54.658
N1525 X32.15 Y-54.746
N1530 X30.701 Y-54.82
N1535 X29.252 Y-54.881
N1540 X27.802 Y-54.932
N1545 X26.351 Y-54.974
N1550 X24.901 Y-55.009
N1555 X23.451 Y-55.038
N1560 X22. Y-55.062
N1565 X20.549 Y-55.083
N1570 X19.098 Y-55.099
N1575 X17.648 Y-55.113
N1580 X16.197 Y-55.125
N1585 X14.746 Y-55.134
N1590 X13.295 Y-55.142
N1595 X11.845 Y-55.149
N1600 X8.943 Y-55.159
N1605 X6.041 Y-55.166
N1610 X1.689 Y-55.173
N1615 X-4.115 Y-55.178
N1620 X-14.27 Y-55.181
N1625 X-21.524 Y-55.183
N1630 X-37.484 Y-55.184
N1635 X-38.909 Y-54.917
N1640 X-40.243 Y-54.345
N1645 X-41.45 Y-53.54
N1650 X-42.521 Y-52.561
N1655 X-43.457 Y-51.453
N1660 X-44.269 Y-50.251
N1665 X-44.967 Y-48.979
N1670 X-45.565 Y-47.657
N1675 X-46.074 Y-46.298
N1680 X-46.506 Y-44.913
N1685 X-46.872 Y-43.509
N1690 X-47.181 Y-42.092
N1695 X-47.441 Y-40.664
N1700 X-47.66 Y-39.23
N1705 X-47.844 Y-37.791
N1710 X-47.998 Y-36.349
N1715 X-48.128 Y-34.903
N1720 X-48.236 Y-33.457
N1725 X-48.326 Y-32.009
N1730 X-48.402 Y-30.56
N1735 X-48.465 Y-29.11
N1740 X-48.518 Y-27.66
N1745 X-48.562 Y-26.21
N1750 X-48.598 Y-24.76
N1755 X-48.629 Y-23.309
N1760 X-48.654 Y-21.859
N1765 X-48.676 Y-20.408
N1770 X-48.693 Y-18.957
N1775 X-48.708 Y-17.507
N1780 X-48.72 Y-16.056
N1785 X-48.73 Y-14.605
N1790 X-48.739 Y-13.154
N1795 X-48.746 Y-11.704
N1800 X-48.757 Y-8.802
N1805 X-48.764 Y-5.9
N1810 X-48.772 Y-1.548
N1815 X-48.777 Y4.256
N1820 X-48.781 Y12.961
N1825 X-48.783 Y26.018
N1830 X-48.784 Y36.174
N1835 X-48.626 Y37.616
N1840 X-48.188 Y38.999
N1845 X-47.509 Y40.281
N1850 X-46.637 Y41.441
N1855 X-45.618 Y42.473
N1860 X-44.487 Y43.382
N1865 X-43.271 Y44.174
N1870 X-41.993 Y44.86
N1875 X-40.668 Y45.451
N1880 X-39.309 Y45.958
N1885 X-37.924 Y46.392
N1890 X-36.521 Y46.762
N1895 X-35.105 Y47.077
N1900 X-33.679 Y47.344
N1905 X-32.246 Y47.57
N1910 X-30.808 Y47.762
N1915 X-29.366 Y47.924
N1920 X-27.922 Y48.061
N1925 X-26.475 Y48.176
N1930 X-25.028 Y48.273
N1935 X-23.579 Y48.355
N1940 X-22.13 Y48.423
N1945 X-20.68 Y48.481
N1950 X-19.23 Y48.53
N1955 X-17.78 Y48.57
N1960 X-16.33 Y48.605
N1965 X-14.879 Y48.633
N1970 X-13.429 Y48.657
N1975 X-11.978 Y48.678
N1980 X-10.527 Y48.695
N1985 X-9.076 Y48.709
N1990 X-7.626 Y48.721
N1995 X-6.175 Y48.731
N2000 X-4.724 Y48.739
N2005 X-3.273 Y48.746
N2010 X-0.372 Y48.757
N2015 X2.53 Y48.764
N2020 X6.883 Y48.772
N2025 X12.686 Y48.777
N2030 X21.391 Y48.781
N2035 X35.899 Y48.784
N2040 X37.346 Y48.683
N2045 X38.746 Y48.299
N2050 X40.05 Y47.664
N2055 X41.234 Y46.826
N2060 X42.291 Y45.833
N2065 X43.223 Y44.72
N2070 X44.036 Y43.519
N2075 X44.741 Y42.251
N2080 X45.349 Y40.933
N2085 X45.871 Y39.58
N2090 X46.318 Y38.199
N2095 X46.699 Y36.799
N2100 X47.023 Y35.385
N2105 X47.299 Y33.961
N2110 X47.532 Y32.529
N2115 X47.73 Y31.092
N2120 X47.897 Y29.651
N2125 X48.038 Y28.207
N2130 X48.157 Y26.761
N2135 X48.257 Y25.313
N2140 X48.341 Y23.865
N2145 X48.412 Y22.416
N2150 X48.472 Y20.966
N2155 X48.522 Y19.516
N2160 X48.564 Y18.066
N2165 X48.599 Y16.616
N2170 X48.629 Y15.165
N2175 X48.654 Y13.714
N2180 X48.674 Y12.264
N2185 X48.692 Y10.813
N2190 X48.706 Y9.362
N2195 X48.719 Y7.912
N2200 X48.729 Y6.461
N2205 X48.738 Y5.01
N2210 X48.745 Y3.559
N2215 X48.751 Y2.108
N2220 X48.76 Y-0.793
N2225 X48.767 Y-3.695
N2230 X48.773 Y-8.047
N2235 X48.778 Y-13.851
N2240 X48.782 Y-24.007
N2245 X48.784 Y-35.613
N2250 X48.729 Y-37.063
N2255 X48.397 Y-38.475
N2260 X47.806 Y-39.8
N2265 X47.003 Y-41.008
N2270 X46.036 Y-42.09
N2275 X44.944 Y-43.046
N2280 X43.758 Y-43.881
N2285 X42.502 Y-44.607
N2290 X41.193 Y-45.233
N2295 X39.846 Y-45.772
N2300 X38.471 Y-46.233
N2305 X37.074 Y-46.627
N2310 X35.663 Y-46.962
N2315 X34.24 Y-47.247
N2320 X32.809 Y-47.488
N2325 X31.373 Y-47.693
N2330 X29.933 Y-47.865
N2335 X28.489 Y-48.011
N2340 X27.044 Y-48.134
N2345 X25.596 Y-48.238
N2350 X24.148 Y-48.325
N2355 X22.699 Y-48.399
N2360 X21.25 Y-48.461
N2365 X19.8 Y-48.512
N2370 X18.35 Y-48.556
N2375 X16.899 Y-48.593
N2380 X15.449 Y-48.623
N2385 X13.998 Y-48.649
N2390 X12.548 Y-48.671
N2395 X11.097 Y-48.689
N2400 X9.646 Y-48.704
N2405 X8.195 Y-48.716
N2410 X6.745 Y-48.727
N2415 X5.294 Y-48.736
N2420 X3.843 Y-48.744
N2425 X2.392 Y-48.75
N2430 X-0.51 Y-48.759
N2435 X-3.411 Y-48.766
N2440 X-7.764 Y-48.773
N2445 X-9.215 Y-48.775
N2450 X-16.469 Y-48.78
N2455 X-29.526 Y-48.783
N2460 X-30.971 Y-48.647
N2465 X-32.362 Y-48.236
N2470 X-33.657 Y-47.582
N2475 X-34.833 Y-46.733
N2480 X-35.883 Y-45.731
N2485 X-36.809 Y-44.614
N2490 X-37.618 Y-43.41
N2495 X-38.321 Y-42.141
N2500 X-38.927 Y-40.823
N2505 X-39.449 Y-39.469
N2510 X-39.896 Y-38.089
N2515 X-40.278 Y-36.689
N2520 X-40.603 Y-35.275
N2525 X-40.879 Y-33.851
N2530 X-41.114 Y-32.419
N2535 X-41.313 Y-30.982
N2540 X-41.481 Y-29.541
N2545 X-41.623 Y-28.097
N2550 X-41.744 Y-26.651
N2555 X-41.845 Y-25.204
N2560 X-41.93 Y-23.756
N2565 X-42.002 Y-22.307
N2570 X-42.063 Y-20.857
N2575 X-42.114 Y-19.407
N2580 X-42.157 Y-17.957
N2585 X-42.193 Y-16.507
N2590 X-42.223 Y-15.056
N2595 X-42.249 Y-13.605
N2600 X-42.27 Y-12.155
N2605 X-42.288 Y-10.704
N2610 X-42.303 Y-9.253
N2615 X-42.316 Y-7.803
N2620 X-42.327 Y-6.352
N2625 X-42.336 Y-4.901
N2630 X-42.343 Y-3.45
N2635 X-42.349 Y-1.999
N2640 X-42.359 Y0.902
N2645 X-42.366 Y3.804
N2650 X-42.373 Y8.156
N2655 X-42.378 Y13.96
N2660 X-42.382 Y24.116
N2665 X-42.383 Y27.017
N2670 Y28.468
N2675 X-42.334 Y29.918
N2680 X-42.044 Y31.34
N2685 X-41.508 Y32.688
N2690 X-40.761 Y33.931
N2695 X-39.845 Y35.056
N2700 X-38.796 Y36.059
N2705 X-37.647 Y36.944
N2710 X-36.42 Y37.719
N2715 X-35.135 Y38.393
N2720 X-33.807 Y38.977
N2725 X-32.446 Y39.48
N2730 X-31.062 Y39.913
N2735 X-29.659 Y40.284
N2740 X-28.243 Y40.601
N2745 X-26.818 Y40.871
N2750 X-25.385 Y41.102
N2755 X-23.948 Y41.298
N2760 X-22.507 Y41.465
N2765 X-21.063 Y41.607
N2770 X-19.617 Y41.727
N2775 X-18.17 Y41.829
N2780 X-16.721 Y41.915
N2785 X-15.272 Y41.988
N2790 X-13.823 Y42.049
N2795 X-12.373 Y42.101
N2800 X-10.923 Y42.145
N2805 X-9.473 Y42.183
N2810 X-8.022 Y42.214
N2815 X-6.571 Y42.24
N2820 X-5.121 Y42.263
N2825 X-3.67 Y42.282
N2830 X-2.219 Y42.298
N2835 X-0.769 Y42.311
N2840 X0.682 Y42.322
N2845 X2.133 Y42.332
N2850 X3.584 Y42.34
N2855 X5.035 Y42.347
N2860 X7.936 Y42.357
N2865 X10.838 Y42.365
N2870 X15.19 Y42.372
N2875 X20.994 Y42.378
N2880 X28.248 Y42.381
N2885 X29.698 Y42.363
N2890 X31.127 Y42.112
N2895 X32.489 Y41.612
N2900 X33.75 Y40.894
N2905 X34.894 Y40.002
N2910 X35.916 Y38.972
N2915 X36.818 Y37.836
N2920 X37.609 Y36.62
N2925 X38.298 Y35.343
N2930 X38.895 Y34.021
N2935 X39.41 Y32.664
N2940 X39.853 Y31.283
N2945 X40.232 Y29.882
N2950 X40.557 Y28.468
N2955 X40.834 Y27.044
N2960 X41.07 Y25.613
N2965 X41.272 Y24.176
N2970 X41.442 Y22.735
N2975 X41.587 Y21.292
N2980 X41.711 Y19.846
N2985 X41.815 Y18.399
N2990 X41.903 Y16.951
N2995 X41.978 Y15.502
N3000 X42.041 Y14.052
N3005 X42.094 Y12.603
N3010 X42.14 Y11.152
N3015 X42.178 Y9.702
N3020 X42.21 Y8.252
N3025 X42.237 Y6.801
N3030 X42.26 Y5.35
N3035 X42.279 Y3.9
N3040 X42.295 Y2.449
N3045 X42.309 Y0.998
N3050 X42.321 Y-0.453
N3055 X42.331 Y-1.903
N3060 X42.339 Y-3.354
N3065 X42.346 Y-4.805
N3070 X42.357 Y-7.707
N3075 X42.364 Y-10.608
N3080 X42.372 Y-14.961
N3085 X42.378 Y-20.764
N3090 X42.38 Y-25.116
N3095 X42.381 Y-28.018
N3100 X42.379 Y-29.469
N3105 X42.167 Y-30.904
N3110 X41.704 Y-32.279
N3115 X41.017 Y-33.557
N3120 X40.15 Y-34.72
N3125 X39.139 Y-35.761
N3130 X38.018 Y-36.682
N3135 X36.813 Y-37.49
N3140 X35.545 Y-38.195
N3145 X34.229 Y-38.806
N3150 X32.878 Y-39.333
N3155 X31.499 Y-39.786
N3160 X30.102 Y-40.176
N3165 X28.69 Y-40.508
N3170 X27.267 Y-40.793
N3175 X25.837 Y-41.035
N3180 X24.4 Y-41.241
N3185 X22.96 Y-41.417
N3190 X21.517 Y-41.566
N3195 X20.072 Y-41.692
N3200 X18.625 Y-41.799
N3205 X17.177 Y-41.89
N3210 X15.728 Y-41.967
N3215 X14.279 Y-42.032
N3220 X12.829 Y-42.086
N3225 X11.379 Y-42.133
N3230 X9.929 Y-42.172
N3235 X8.478 Y-42.205
N3240 X7.028 Y-42.233
N3245 X5.577 Y-42.256
N3250 X4.126 Y-42.276
N3255 X2.676 Y-42.293
N3260 X1.225 Y-42.307
N3265 X-0.226 Y-42.319
N3270 X-1.677 Y-42.329
N3275 X-3.128 Y-42.338
N3280 X-4.578 Y-42.345
N3285 X-7.48 Y-42.356
N3290 X-10.382 Y-42.364
N3295 X-14.734 Y-42.372
N3300 X-20.538 Y-42.378
N3305 X-21.988 Y-42.379
N3310 X-23.438 Y-42.329
N3315 X-24.86 Y-42.04
N3320 X-26.21 Y-41.508
N3325 X-27.456 Y-40.766
N3330 X-28.585 Y-39.854
N3335 X-29.592 Y-38.81
N3340 X-30.482 Y-37.664
N3345 X-31.262 Y-36.441
N3350 X-31.941 Y-35.159
N3355 X-32.53 Y-33.832
N3360 X-33.037 Y-32.473
N3365 X-33.474 Y-31.09
N3370 X-33.849 Y-29.688
N3375 X-34.17 Y-28.273
N3380 X-34.444 Y-26.849
N3385 X-34.677 Y-25.417
N3390 X-34.831 Y-24.31
N3395 X-34.917 Y-23.891
N3400 X-35.056 Y-23.487
N3405 X-35.246 Y-23.105
N3410 X-35.484 Y-22.75
N3415 X-35.766 Y-22.429
N3420 X-38.044 Y-20.151
N3425 X-38.523 Y-19.671
N3430 X-38.862 Y-19.322
N3435 X-38.984 Y-19.191
N3440 X-39.358 Y-18.711
N3445 X-39.723 Y-18.232
N3450 X-40.001 Y-17.752
N3455 X-40.274 Y-17.272
N3460 X-40.484 Y-16.792
N3465 X-40.672 Y-16.312
N3470 X-40.814 Y-15.833
N3475 X-40.942 Y-15.353
N3480 X-41.028 Y-14.873
N3485 X-41.095 Y-14.393
N3490 X-41.128 Y-13.914
N3495 X-41.149 Y-13.434
N3500 X-41.15 Y-11.035
N3505 Y12.954
N3510 X-41.149 Y13.434
N3515 X-41.128 Y13.914
N3520 X-41.095 Y14.393
N3525 X-41.028 Y14.873
N3530 X-40.942 Y15.353
N3535 X-40.814 Y15.833
N3540 X-40.672 Y16.312
N3545 X-40.484 Y16.792
N3550 X-40.274 Y17.272
N3555 X-40.001 Y17.752
N3560 X-39.723 Y18.232
N3565 X-39.704 Y18.256
N3570 X-39.619 Y18.379
N3575 X-39.118 Y19.272
N3580 X-38.585 Y20.427
N3585 X-38.085 Y21.789
N3590 X-37.681 Y23.182
N3595 X-37.191 Y24.547
N3600 X-36.546 Y25.847
N3605 X-35.749 Y27.059
N3610 X-34.815 Y28.169
N3615 X-33.767 Y29.173
N3620 X-32.627 Y30.07
N3625 X-31.414 Y30.866
N3630 X-30.143 Y31.566
N3635 X-28.828 Y32.179
N3640 X-27.479 Y32.714
N3645 X-26.105 Y33.178
N3650 X-25.394 Y33.383
N3655 X-25.002 Y33.523
N3660 X-24.631 Y33.711
N3665 X-24.287 Y33.945
N3670 X-23.975 Y34.22
N3675 X-20.151 Y38.044
N3680 X-19.671 Y38.523
N3685 X-19.322 Y38.862
N3690 X-19.191 Y38.984
N3695 X-18.711 Y39.358
N3700 X-18.232 Y39.723
N3705 X-17.752 Y40.001
N3710 X-17.272 Y40.274
N3715 X-16.792 Y40.484
N3720 X-16.312 Y40.672
N3725 X-15.833 Y40.814
N3730 X-15.353 Y40.942
N3735 X-14.873 Y41.028
N3740 X-14.393 Y41.095
N3745 X-13.914 Y41.128
N3750 X-13.434 Y41.149
N3755 X-11.035 Y41.15
N3760 X12.954
N3765 X13.434 Y41.149
N3770 X13.914 Y41.128
N3775 X14.393 Y41.095
N3780 X14.873 Y41.028
N3785 X15.353 Y40.942
N3790 X15.833 Y40.814
N3795 X16.312 Y40.672
N3800 X16.792 Y40.484
N3805 X17.272 Y40.274
N3810 X17.752 Y40.001
N3815 X18.232 Y39.723
N3820 X18.256 Y39.704
N3825 X18.379 Y39.619
N3830 X19.27 Y39.118
N3835 X20.423 Y38.586
N3840 X21.785 Y38.086
N3845 X23.179 Y37.683
N3850 X24.545 Y37.194
N3855 X25.845 Y36.55
N3860 X27.058 Y35.754
N3865 X28.168 Y34.82
N3870 X29.172 Y33.773
N3875 X30.07 Y32.633
N3880 X30.866 Y31.42
N3885 X31.566 Y30.15
N3890 X32.179 Y28.835
N3895 X32.714 Y27.486
N3900 X33.178 Y26.112
N3905 X33.386 Y25.39
N3910 X33.527 Y24.998
N3915 X33.715 Y24.627
N3920 X33.949 Y24.283
N3925 X34.224 Y23.971
N3930 X38.044 Y20.151
N3935 X38.523 Y19.671
N3940 X38.862 Y19.322
N3945 X38.984 Y19.191
N3950 X39.357 Y18.711
N3955 X39.723 Y18.232
N3960 X40.001 Y17.752
N3965 X40.274 Y17.272
N3970 X40.484 Y16.792
N3975 X40.672 Y16.312
N3980 X40.814 Y15.833
N3985 X40.942 Y15.353
N3990 X41.028 Y14.873
N3995 X41.095 Y14.393
N4000 X41.128 Y13.914
N4005 X41.149 Y13.434
N4010 X41.15 Y11.035
N4015 Y-12.954
N4020 X41.149 Y-13.434
N4025 X41.128 Y-13.914
N4030 X41.095 Y-14.393
N4035 X41.028 Y-14.873
N4040 X40.942 Y-15.353
N4045 X40.814 Y-15.833
N4050 X40.672 Y-16.312
N4055 X40.484 Y-16.792
N4060 X40.274 Y-17.272
N4065 X40.001 Y-17.752
N4070 X39.723 Y-18.232
N4075 X39.704 Y-18.256
N4080 X39.619 Y-18.379
N4085 X39.118 Y-19.27
N4090 X38.586 Y-20.423
N4095 X38.086 Y-21.785
N4100 X37.684 Y-23.179
N4105 X37.194 Y-24.545
N4110 X36.55 Y-25.845
N4115 X35.753 Y-27.057
N4120 X34.819 Y-28.167
N4125 X33.772 Y-29.172
N4130 X32.632 Y-30.069
N4135 X31.419 Y-30.865
N4140 X30.148 Y-31.565
N4145 X28.834 Y-32.179
N4150 X27.485 Y-32.713
N4155 X26.111 Y-33.178
N4160 X25.39 Y-33.386
N4165 X24.999 Y-33.526
N4170 X24.628 Y-33.714
N4175 X24.284 Y-33.948
N4180 X23.972 Y-34.223
N4185 X20.151 Y-38.044
N4190 X19.671 Y-38.523
N4195 X19.322 Y-38.862
N4200 X19.191 Y-38.984
N4205 X18.711 Y-39.358
N4210 X18.232 Y-39.723
N4215 X17.752 Y-40.001
N4220 X17.272 Y-40.274
N4225 X16.792 Y-40.484
N4230 X16.312 Y-40.672
N4235 X15.833 Y-40.814
N4240 X15.353 Y-40.942
N4245 X14.873 Y-41.028
N4250 X14.393 Y-41.095
N4255 X13.914 Y-41.128
N4260 X13.434 Y-41.149
N4265 X11.035 Y-41.15
N4270 X-12.954
N4275 X-13.434 Y-41.149
N4280 X-13.914 Y-41.128
N4285 X-14.393 Y-41.095
N4290 X-14.873 Y-41.028
N4295 X-15.353 Y-40.942
N4300 X-15.833 Y-40.814
N4305 X-16.312 Y-40.672
N4310 X-16.792 Y-40.484
N4315 X-17.272 Y-40.274
N4320 X-17.752 Y-40.001
N4325 X-18.232 Y-39.723
N4330 X-18.732 Y-39.342
N4335 X-19.191 Y-38.984
N4340 X-19.322 Y-38.862
N4345 X-19.671 Y-38.523
N4350 X-20.772 Y-37.423
N4355 X-35.766 Y-22.429
N4360 G3 X-36.416 Y-22.061 Z-11.888 I-1.091 J-1.17
N4365 G2 X-38.084 Y-21.508 Z-11.748 I5.935 J20.698
N4370 X-43.137 Y-18.783 I7.603 J20.145
N4375 X-43.79 Y-17.64 I0.94 J1.294
N4380 G1 X-46.625 Y12.107
N4385 G2 X-46.2 Y13.353 I1.593 J0.152
N4390 X-41.828 Y16.937 I15.719 J-14.715
N4395 X-40.219 Y17.841 Z-11.895 I11.347 J-18.3
N4400 G3 X-39.704 Y18.256 Z-11.948 I-0.724 J1.427
N4405 G1 X-39.342 Y18.732
N4410 X-38.984 Y19.191
N4415 X-38.862 Y19.322
N4420 X-38.523 Y19.671
N4425 X-37.423 Y20.772
N4430 X-23.975 Y34.22
N4435 G3 X-23.607 Y34.87 Z-11.888 I-1.17 J1.091
N4440 G2 X-23.057 Y36.54 Z-11.748 I21.877 J-6.273
N4445 X-20.142 Y41.974 I21.328 J-7.943
N4450 X-19.049 Y42.621 I1.294 J-0.94
N4455 G1 X11.541 Y46.5
N4460 G2 X12.761 Y46.146 I0.201 J-1.587
N4465 X16.833 Y41.765 I-14.491 J-17.549
N4470 X17.889 Y40.132 Z-11.903 I-18.562 J-13.168
N4475 G3 X18.256 Y39.704 Z-11.948 I1.379 J0.811
N4480 G1 X18.732 Y39.342
N4485 X19.191 Y38.984
N4490 X19.322 Y38.862
N4495 X19.671 Y38.523
N4500 X20.772 Y37.423
N4505 X34.224 Y23.971
N4510 G3 X34.874 Y23.603 Z-11.888 I1.091 J1.17
N4515 G1 X34.902 Y23.595 Z-11.886
N4520 G2 X36.543 Y23.054 Z-11.748 I-6.3 J-21.866
N4525 X41.977 Y20.139 I-7.942 J-21.325
N4530 X42.624 Y19.045 I-0.94 J-1.294
N4535 G1 X46.5 Y-11.542
N4540 G2 X46.147 Y-12.762 I-1.587 J-0.201
N4545 X41.765 Y-16.833 I-17.545 J14.491
N4550 X40.132 Y-17.889 Z-11.903 I-13.164 J18.562
N4555 G3 X39.704 Y-18.256 Z-11.948 I0.811 J-1.379
N4560 G1 X39.342 Y-18.732
N4565 X38.984 Y-19.191
N4570 X38.862 Y-19.322
N4575 X38.523 Y-19.671
N4580 X37.423 Y-20.772
N4585 X23.972 Y-34.223
N4590 X23.917 Y-34.297 Z-11.943
N4595 X23.862 Y-34.37 Z-11.926
N4600 X23.81 Y-34.441 Z-11.9
N4605 X23.759 Y-34.509 Z-11.862
N4610 X23.723 Y-34.592 Z-11.808
N4615 X23.69 Y-34.667 Z-11.743
N4620 X23.66 Y-34.733 Z-11.667
N4625 X23.635 Y-34.79 Z-11.582
N4630 X23.615 Y-34.835 Z-11.489
N4635 X23.607 Y-34.865 Z-11.411
N4640 X23.6 Y-34.886 Z-11.33
N4645 X23.597 Y-34.899 Z-11.247
N4650 X23.595 Y-34.903 Z-11.163
N4655 Z5.
N4660 X-51.459 Y-14.365
N4665 Z0.702
N4670 Z-0.898
N4675 X-51.452 Z-1.055
N4680 X-51.429 Y-14.368 Z-1.21
N4685 X-51.391 Y-14.372 Z-1.363
N4690 X-51.338 Y-14.378 Z-1.511
N4695 X-51.271 Y-14.386 Z-1.653
N4700 X-51.191 Y-14.395 Z-1.787
N4705 X-51.098 Y-14.405 Z-1.913
N4710 X-50.993 Y-14.417 Z-2.03
N4715 X-50.878 Y-14.43 Z-2.135
N4720 X-50.752 Y-14.444 Z-2.229
N4725 X-50.619 Y-14.459 Z-2.309
N4730 X-50.478 Y-14.474 Z-2.377
N4735 X-50.331 Y-14.491 Z-2.429
N4740 X-50.179 Y-14.508 Z-2.468
N4745 X-50.025 Y-14.525 Z-2.491
N4750 X-49.869 Y-14.543 Z-2.498
N4755 G3 X-41.069 Y-14.573 I4.541 J40.595
N4760 G1 X-40.934 Y-14.554
N4765 X-40.794 Y-14.501
N4770 X-40.657 Y-14.439
N4775 X-40.524 Y-14.37
N4780 X-40.395 Y-14.294
N4785 X-40.268 Y-14.214
N4790 X-40.144 Y-14.129
N4795 X-40.024 Y-14.04
N4800 X-39.906 Y-13.947
N4805 X-39.79 Y-13.851
N4810 X-39.678 Y-13.752
N4815 X-39.567 Y-13.651
N4820 X-39.459 Y-13.546
N4825 X-39.354 Y-13.44
N4830 X-39.251 Y-13.331
N4835 X-39.15 Y-13.22
N4840 X-39.051 Y-13.107
N4845 X-38.954 Y-12.993
N4850 X-38.859 Y-12.876
N4855 X-38.766 Y-12.758
N4860 X-38.676 Y-12.639
N4865 X-38.587 Y-12.518
N4870 X-38.5 Y-12.396
N4875 X-38.415 Y-12.273
N4880 X-38.331 Y-12.148
N4885 X-38.249 Y-12.022
N4890 X-38.169 Y-11.895
N4895 X-38.091 Y-11.767
N4900 X-38.014 Y-11.639
N4905 X-37.939 Y-11.509
N4910 X-37.865 Y-11.378
N4915 X-37.793 Y-11.247
N4920 X-37.722 Y-11.114
N4925 X-37.653 Y-10.981
N4930 X-37.585 Y-10.847
N4935 X-37.519 Y-10.713
N4940 X-37.454 Y-10.578
N4945 X-37.39 Y-10.442
N4950 X-37.327 Y-10.306
N4955 X-37.266 Y-10.169
N4960 X-37.206 Y-10.032
N4965 X-37.147 Y-9.894
N4970 X-37.089 Y-9.755
N4975 X-37.033 Y-9.616
N4980 X-36.977 Y-9.477
N4985 X-36.923 Y-9.337
N4990 X-36.87 Y-9.197
N4995 X-36.818 Y-9.056
N5000 X-36.765 Y-8.912
N5005 X-36.713 Y-8.764
N5010 X-36.66 Y-8.612
N5015 X-36.607 Y-8.456
N5020 X-36.554 Y-8.295
N5025 X-36.501 Y-8.129
N5030 X-36.448 Y-7.959
N5035 X-36.394 Y-7.784
N5040 X-36.34 Y-7.603
N5045 X-36.287 Y-7.417
N5050 X-36.232 Y-7.225
N5055 X-36.178 Y-7.027
N5060 X-36.124 Y-6.822
N5065 X-36.069 Y-6.611
N5070 X-36.015 Y-6.392
N5075 X-35.96 Y-6.166
N5080 X-35.905 Y-5.931
N5085 X-35.849 Y-5.688
N5090 X-35.794 Y-5.436
N5095 X-35.739 Y-5.174
N5100 X-35.683 Y-4.901
N5105 X-35.627 Y-4.617
N5110 X-35.571 Y-4.321
N5115 X-35.515 Y-4.012
N5120 X-35.459 Y-3.688
N5125 X-35.403 Y-3.349
N5130 X-35.347 Y-2.993
N5135 X-35.29 Y-2.619
N5140 X-35.234 Y-2.224
N5145 X-35.177 Y-1.807
N5150 X-35.12 Y-1.365
N5155 X-35.063 Y-0.895
N5160 X-35.006 Y-0.392
N5165 X-34.949 Y0.146
N5170 X-34.892 Y0.725
N5175 X-34.834 Y1.353
N5180 X-34.777 Y2.036
N5185 X-34.719 Y2.787
N5190 X-34.662 Y3.619
N5195 X-34.604 Y4.552
N5200 X-34.525 Y6.001
N5205 X-34.433 Y7.449
N5210 X-34.146 Y8.871
N5215 X-33.705 Y10.253
N5220 X-33.146 Y11.592
N5225 X-32.494 Y12.888
N5230 X-31.768 Y14.144
N5235 X-30.983 Y15.364
N5240 X-30.152 Y16.553
N5245 X-29.284 Y17.716
N5250 X-28.386 Y18.855
N5255 X-27.464 Y19.975
N5260 X-26.522 Y21.079
N5265 X-25.564 Y22.169
N5270 X-24.594 Y23.248
N5275 X-23.614 Y24.317
N5280 X-22.625 Y25.379
N5285 X-21.629 Y26.434
N5290 X-20.628 Y27.484
N5295 X-19.622 Y28.529
N5300 X-18.555 Y29.512
N5305 X-17.421 Y30.417
N5310 X-16.184 Y31.175
N5315 X-14.878 Y31.807
N5320 X-13.525 Y32.332
N5325 X-12.141 Y32.766
N5330 X-10.735 Y33.124
N5335 X-9.314 Y33.419
N5340 X-7.884 Y33.661
N5345 X-6.447 Y33.86
N5350 X-5.005 Y34.023
N5355 X-3.56 Y34.156
N5360 X-2.114 Y34.265
N5365 X-0.665 Y34.354
N5370 X0.784 Y34.427
N5375 X2.233 Y34.487
N5380 X3.683 Y34.535
N5385 X5.133 Y34.575
N5390 X6.584 Y34.607
N5395 X8.032 Y34.524
N5400 X9.457 Y34.248
N5405 X10.843 Y33.82
N5410 X12.187 Y33.273
N5415 X13.488 Y32.631
N5420 X14.749 Y31.914
N5425 X15.975 Y31.138
N5430 X17.169 Y30.313
N5435 X18.335 Y29.45
N5440 X19.477 Y28.556
N5445 X20.6 Y27.637
N5450 X21.706 Y26.698
N5455 X22.797 Y25.742
N5460 X23.877 Y24.773
N5465 X24.948 Y23.794
N5470 X26.01 Y22.806
N5475 X27.066 Y21.811
N5480 X28.116 Y20.81
N5485 X29.162 Y19.804
N5490 X30.122 Y18.716
N5495 X30.928 Y17.51
N5500 X31.602 Y16.225
N5505 X32.162 Y14.887
N5510 X32.625 Y13.512
N5515 X33.008 Y12.113
N5520 X33.323 Y10.697
N5525 X33.583 Y9.269
N5530 X33.795 Y7.834
N5535 X33.97 Y6.394
N5540 X34.113 Y4.95
N5545 X34.23 Y3.504
N5550 X34.325 Y2.056
N5555 X34.404 Y0.607
N5560 X34.467 Y-0.842
N5565 X34.519 Y-2.292
N5570 X34.562 Y-3.742
N5575 X34.597 Y-5.193
N5580 X34.625 Y-6.643
N5585 X34.531 Y-8.091
N5590 X34.245 Y-9.513
N5595 X33.81 Y-10.897
N5600 X33.258 Y-12.239
N5605 X32.612 Y-13.538
N5610 X31.892 Y-14.798
N5615 X31.112 Y-16.021
N5620 X30.286 Y-17.213
N5625 X29.421 Y-18.378
N5630 X28.525 Y-19.52
N5635 X27.605 Y-20.641
N5640 X26.665 Y-21.746
N5645 X25.708 Y-22.837
N5650 X24.739 Y-23.917
N5655 X23.759 Y-24.987
N5660 X22.771 Y-26.049
N5665 X21.775 Y-27.104
N5670 X20.774 Y-28.154
N5675 X19.768 Y-29.2
N5680 X18.675 Y-30.154
N5685 X17.466 Y-30.955
N5690 X16.178 Y-31.624
N5695 X14.838 Y-32.18
N5700 X13.463 Y-32.64
N5705 X12.062 Y-33.021
N5710 X10.646 Y-33.334
N5715 X9.218 Y-33.591
N5720 X7.783 Y-33.802
N5725 X6.342 Y-33.976
N5730 X4.898 Y-34.118
N5735 X3.452 Y-34.234
N5740 X2.004 Y-34.329
N5745 X0.556 Y-34.406
N5750 X-0.894 Y-34.469
N5755 X-2.344 Y-34.521
N5760 X-3.794 Y-34.563
N5765 X-5.244 Y-34.598
N5770 X-6.695 Y-34.626
N5775 X-8.142 Y-34.524
N5780 X-9.563 Y-34.232
N5785 X-10.946 Y-33.793
N5790 X-12.286 Y-33.236
N5795 X-13.584 Y-32.588
N5800 X-14.842 Y-31.865
N5805 X-16.064 Y-31.084
N5810 X-17.255 Y-30.256
N5815 X-18.419 Y-29.389
N5820 X-19.56 Y-28.493
N5825 X-20.681 Y-27.572
N5830 X-21.785 Y-26.631
N5835 X-22.876 Y-25.674
N5840 X-23.955 Y-24.704
N5845 X-25.025 Y-23.724
N5850 X-26.086 Y-22.735
N5855 X-27.141 Y-21.74
N5860 X-27.993 Y-20.565
N5865 X-28.574 Y-19.235
N5870 X-28.959 Y-17.836
N5875 X-29.195 Y-16.405
N5880 X-29.322 Y-14.96
N5885 X-29.367 Y-13.51
N5890 X-29.352 Y-12.059
N5895 X-29.296 Y-10.609
N5900 X-29.213 Y-9.161
N5905 X-29.113 Y-7.713
N5910 X-29.003 Y-6.267
N5915 X-28.891 Y-4.82
N5920 X-28.78 Y-3.374
N5925 X-28.672 Y-1.927
N5930 X-28.57 Y-0.48
N5935 X-28.442 Y0.966
N5940 X-28.236 Y2.402
N5945 X-27.94 Y3.822
N5950 X-27.553 Y5.22
N5955 X-27.08 Y6.592
N5960 X-26.53 Y7.934
N5965 X-25.911 Y9.247
N5970 X-25.232 Y10.529
N5975 X-24.501 Y11.782
N5980 X-23.726 Y13.008
N5985 X-22.912 Y14.209
N5990 X-22.065 Y15.387
N5995 X-21.19 Y16.545
N6000 X-20.292 Y17.684
N6005 X-19.373 Y18.807
N6010 X-18.424 Y19.904
N6015 X-17.412 Y20.943
N6020 X-16.321 Y21.9
N6025 X-15.156 Y22.765
N6030 X-13.928 Y23.537
N6035 X-12.648 Y24.219
N6040 X-11.325 Y24.817
N6045 X-9.971 Y25.337
N6050 X-8.592 Y25.787
N6055 X-7.194 Y26.176
N6060 X-5.782 Y26.509
N6065 X-4.359 Y26.794
N6070 X-2.929 Y27.037
N6075 X-1.493 Y27.243
N6080 X-0.053 Y27.418
N6085 X1.395 Y27.518
N6090 X2.845 Y27.5
N6095 X4.289 Y27.357
N6100 X5.716 Y27.094
N6105 X7.118 Y26.721
N6110 X8.491 Y26.252
N6115 X9.832 Y25.698
N6120 X11.14 Y25.071
N6125 X12.417 Y24.382
N6130 X13.664 Y23.64
N6135 X14.883 Y22.853
N6140 X16.076 Y22.028
N6145 X17.247 Y21.171
N6150 X18.397 Y20.287
N6155 X19.527 Y19.377
N6160 X20.606 Y18.407
N6165 X21.602 Y17.353
N6170 X22.506 Y16.217
N6175 X23.312 Y15.011
N6180 X24.026 Y13.748
N6185 X24.651 Y12.439
N6190 X25.196 Y11.094
N6195 X25.668 Y9.722
N6200 X26.074 Y8.33
N6205 X26.423 Y6.921
N6210 X26.722 Y5.502
N6215 X26.976 Y4.073
N6220 X27.193 Y2.639
N6225 X27.376 Y1.199
N6230 X27.527 Y-0.243
N6235 X27.594 Y-1.693
N6240 X27.54 Y-3.143
N6245 X27.363 Y-4.583
N6250 X27.07 Y-6.003
N6255 X26.671 Y-7.398
N6260 X26.179 Y-8.763
N6265 X25.606 Y-10.096
N6270 X24.963 Y-11.397
N6275 X24.26 Y-12.666
N6280 X23.507 Y-13.906
N6285 X22.71 Y-15.118
N6290 X21.876 Y-16.306
N6295 X21.012 Y-17.471
N6300 X20.122 Y-18.617
N6305 X19.205 Y-19.741
N6310 X18.219 Y-20.805
N6315 X17.148 Y-21.784
N6320 X15.998 Y-22.668
N6325 X14.78 Y-23.456
N6330 X13.507 Y-24.152
N6335 X12.19 Y-24.762
N6340 X10.839 Y-25.292
N6345 X9.463 Y-25.751
N6350 X8.067 Y-26.146
N6355 X6.656 Y-26.484
N6360 X5.235 Y-26.774
N6365 X3.805 Y-27.02
N6370 X2.369 Y-27.23
N6375 X0.929 Y-27.408
N6380 X-0.514 Y-27.55
N6385 X-1.965 Y-27.594
N6390 X-3.413 Y-27.517
N6395 X-4.85 Y-27.318
N6400 X-6.267 Y-27.003
N6405 X-7.656 Y-26.586
N6410 X-9.015 Y-26.078
N6415 X-10.342 Y-25.491
N6420 X-11.637 Y-24.836
N6425 X-12.9 Y-24.123
N6430 X-14.135 Y-23.361
N6435 X-15.342 Y-22.557
N6440 X-16.525 Y-21.717
N6445 X-17.601 Y-20.744
N6450 X-18.525 Y-19.625
N6455 X-19.298 Y-18.397
N6460 X-19.932 Y-17.092
N6465 X-20.443 Y-15.735
N6470 X-20.848 Y-14.341
N6475 X-21.163 Y-12.925
N6480 X-21.402 Y-11.494
N6485 X-21.578 Y-10.054
N6490 X-21.704 Y-8.609
N6495 X-21.788 Y-7.16
N6500 X-21.826 Y-5.71
N6505 X-21.805 Y-4.259
N6510 X-21.711 Y-2.812
N6515 X-21.536 Y-1.371
N6520 X-21.274 Y0.056
N6525 X-20.93 Y1.465
N6530 X-20.507 Y2.853
N6535 X-20.011 Y4.216
N6540 X-19.447 Y5.553
N6545 X-18.823 Y6.863
N6550 X-18.146 Y8.146
N6555 X-17.42 Y9.402
N6560 X-16.643 Y10.627
N6565 X-15.796 Y11.805
N6570 X-14.867 Y12.92
N6575 X-13.856 Y13.96
N6580 X-12.765 Y14.916
N6585 X-11.604 Y15.786
N6590 X-10.383 Y16.57
N6595 X-9.112 Y17.271
N6600 X-7.801 Y17.892
N6605 X-6.458 Y18.44
N6610 X-5.088 Y18.917
N6615 X-3.689 Y19.302
N6620 X-2.264 Y19.572
N6625 X-0.82 Y19.715
N6630 X0.631 Y19.725
N6635 X2.077 Y19.609
N6640 X3.509 Y19.376
N6645 X4.919 Y19.036
N6650 X6.303 Y18.601
N6655 X7.658 Y18.082
N6660 X8.983 Y17.49
N6665 X10.272 Y16.824
N6670 X11.51 Y16.067
N6675 X12.679 Y15.208
N6680 X13.765 Y14.246
N6685 X14.762 Y13.192
N6690 X15.666 Y12.057
N6695 X16.477 Y10.854
N6700 X17.2 Y9.597
N6705 X17.84 Y8.294
N6710 X18.403 Y6.957
N6715 X18.894 Y5.592
N6720 X19.302 Y4.2
N6725 X19.602 Y2.78
N6730 X19.777 Y1.34
N6735 X19.823 Y-0.11
N6740 X19.741 Y-1.558
N6745 X19.54 Y-2.995
N6750 X19.229 Y-4.412
N6755 X18.82 Y-5.805
N6760 X18.326 Y-7.168
N6765 X17.755 Y-8.502
N6770 X17.114 Y-9.804
N6775 X16.389 Y-11.061
N6780 X15.566 Y-12.256
N6785 X14.64 Y-13.372
N6790 X13.619 Y-14.403
N6795 X12.511 Y-15.34
N6800 X11.332 Y-16.185
N6805 X10.093 Y-16.94
N6810 X8.806 Y-17.61
N6815 X7.481 Y-18.201
N6820 X6.126 Y-18.718
N6825 X4.744 Y-19.161
N6830 X3.335 Y-19.505
N6835 X1.901 Y-19.729
N6840 X0.453 Y-19.825
N6845 X-0.997 Y-19.791
N6850 X-2.439 Y-19.634
N6855 X-3.865 Y-19.365
N6860 X-5.267 Y-18.993
N6865 X-6.632 Y-18.499
N6870 X-7.91 Y-17.813
N6875 X-9.069 Y-16.941
N6880 X-10.097 Y-15.917
N6885 X-10.99 Y-14.774
N6890 X-11.756 Y-13.541
N6895 X-12.403 Y-12.243
N6900 X-12.936 Y-10.893
N6905 X-13.355 Y-9.504
N6910 X-13.657 Y-8.085
N6915 X-13.837 Y-6.646
N6920 X-13.9 Y-5.196
N6925 X-13.845 Y-3.746
N6930 X-13.68 Y-2.305
N6935 X-13.412 Y-0.879
N6940 X-13.048 Y0.525
N6945 X-12.583 Y1.9
N6950 X-12.007 Y3.231
N6955 X-11.31 Y4.504
N6960 X-10.494 Y5.703
N6965 X-9.565 Y6.818
N6970 X-8.537 Y7.841
N6975 X-7.416 Y8.762
N6980 X-6.203 Y9.558
N6985 X-4.902 Y10.2
N6990 X-3.53 Y10.673
N6995 X-2.111 Y10.974
N7000 X-0.667 Y11.109
N7005 X0.784 Y11.08
N7010 X2.22 Y10.871
N7015 X3.614 Y10.471
N7020 X4.941 Y9.884
N7025 X6.178 Y9.126
N7030 X7.314 Y8.223
N7035 X8.334 Y7.192
N7040 X9.214 Y6.038
N7045 X9.925 Y4.774
N7050 X10.451 Y3.421
N7055 X10.687 Y1.99
N7060 X10.762 Y0.541
N7065 X10.674 Y-0.907
N7070 X10.404 Y-2.333
N7075 X9.939 Y-3.707
N7080 X9.287 Y-5.003
N7085 X8.469 Y-6.201
N7090 X7.511 Y-7.291
N7095 X6.424 Y-8.252
N7100 X5.214 Y-9.051
N7105 X3.898 Y-9.664
N7110 X2.494 Y-10.027
N7115 X1.048 Y-9.91
N7120 X0.964 Y-9.875
N7125 X-0.362 Y-9.286
N7130 X-1.466 Y-8.345
N7135 X-2.304 Y-7.161
N7140 X-2.843 Y-5.814
N7145 X-2.933 Y-5.094
N7150 X-2.927 Y-4.731
N7155 X-2.885 Y-4.371
N7160 X-2.847 Y-4.194
N7165 X-2.823 Y-4.106
N7170 X-2.813 Y-4.014 Z-2.493
N7175 X-2.802 Y-3.924 Z-2.476
N7180 X-2.792 Y-3.836 Z-2.45
N7185 X-2.783 Y-3.752 Z-2.412
N7190 Y-3.748 Z-2.41
N7195 X-2.793 Y-3.657 Z-2.355
N7200 X-2.802 Y-3.575 Z-2.288
N7205 X-2.81 Y-3.503 Z-2.21
N7210 X-2.817 Y-3.442 Z-2.123
N7215 X-2.822 Y-3.393 Z-2.029
N7220 X-2.831 Y-3.358 Z-1.927
N7225 X-2.837 Y-3.336 Z-1.821
N7230 X-2.838 Y-3.329 Z-1.713
N7235 Z5.
N7240 X-61.636 Y-78.252
N7245 Z-22.248
N7250 Z-23.848
N7255 X-61.634 Y-78.244 Z-24.005
N7260 X-61.628 Y-78.222 Z-24.16
N7265 X-61.619 Y-78.185 Z-24.313
N7270 X-61.606 Y-78.134 Z-24.461
N7275 X-61.589 Y-78.069 Z-24.603
N7280 X-61.569 Y-77.99 Z-24.737
N7285 X-61.546 Y-77.9 Z-24.863
N7290 X-61.52 Y-77.798 Z-24.98
N7295 X-61.491 Y-77.685 Z-25.085
N7300 X-61.46 Y-77.563 Z-25.179
N7305 X-61.426 Y-77.432 Z-25.259
N7310 X-61.391 Y-77.295 Z-25.327
N7315 X-61.354 Y-77.152 Z-25.379
N7320 X-61.317 Y-77.004 Z-25.418
N7325 X-61.278 Y-76.854 Z-25.441
N7330 X-61.239 Y-76.702 Z-25.448
N7335 G3 X-59.986 Y-67.991 I-39.57 J10.136
N7340 G1 Y-67.841
N7345 X-60.275 Y-66.419
N7350 X-60.511 Y-64.988
N7355 X-60.706 Y-63.55
N7360 X-60.865 Y-62.108
N7365 X-60.995 Y-60.663
N7370 X-61.102 Y-59.216
N7375 X-61.189 Y-57.768
N7380 X-61.261 Y-56.319
N7385 X-61.319 Y-54.869
N7390 X-61.366 Y-53.419
N7395 X-61.405 Y-51.969
N7400 X-61.437 Y-50.518
N7405 X-61.463 Y-49.068
N7410 X-61.484 Y-47.617
N7415 X-61.501 Y-46.166
N7420 X-61.515 Y-44.716
N7425 X-61.527 Y-43.265
N7430 X-61.536 Y-41.814
N7435 X-61.544 Y-40.363
N7440 X-61.55 Y-38.913
N7445 X-61.56 Y-36.011
N7450 X-61.566 Y-33.109
N7455 X-61.572 Y-28.757
N7460 X-61.576 Y-22.953
N7465 X-61.578 Y-17.15
N7470 X-61.582 Y8.965
N7475 X-61.584 Y33.629
N7480 X-61.586 Y52.49
N7485 X-61.528 Y52.848
N7490 X-61.16 Y54.251
N7495 X-60.375 Y55.471
N7500 X-59.364 Y56.511
N7505 X-58.208 Y57.389
N7510 X-56.957 Y58.123
N7515 X-55.641 Y58.735
N7520 X-54.282 Y59.242
N7525 X-52.893 Y59.661
N7530 X-51.484 Y60.007
N7535 X-50.062 Y60.292
N7540 X-48.63 Y60.526
N7545 X-47.192 Y60.718
N7550 X-45.749 Y60.875
N7555 X-44.304 Y61.004
N7560 X-42.857 Y61.109
N7565 X-41.409 Y61.196
N7570 X-39.96 Y61.266
N7575 X-38.51 Y61.323
N7580 X-37.06 Y61.37
N7585 X-35.61 Y61.409
N7590 X-34.159 Y61.44
N7595 X-32.709 Y61.466
N7600 X-31.258 Y61.487
N7605 X-29.807 Y61.504
N7610 X-28.357 Y61.518
N7615 X-26.906 Y61.529
N7620 X-25.455 Y61.538
N7625 X-24.004 Y61.546
N7630 X-22.553 Y61.552
N7635 X-19.652 Y61.561
N7640 X-16.75 Y61.568
N7645 X-12.398 Y61.573
N7650 X-6.594 Y61.577
N7655 X5.012 Y61.581
N7660 X18.07 Y61.582
N7665 X52.89 Y61.586
N7670 X54.283 Y61.183
N7675 X55.499 Y60.391
N7680 X56.535 Y59.375
N7685 X57.408 Y58.217
N7690 X58.139 Y56.963
N7695 X58.748 Y55.647
N7700 X59.253 Y54.286
N7705 X59.671 Y52.897
N7710 X60.015 Y51.488
N7715 X60.298 Y50.065
N7720 X60.531 Y48.633
N7725 X60.722 Y47.194
N7730 X60.879 Y45.752
N7735 X61.007 Y44.307
N7740 X61.112 Y42.86
N7745 X61.197 Y41.412
N7750 X61.268 Y39.962
N7755 X61.325 Y38.513
N7760 X61.371 Y37.063
N7765 X61.41 Y35.612
N7770 X61.441 Y34.162
N7775 X61.466 Y32.711
N7780 X61.487 Y31.261
N7785 X61.504 Y29.81
N7790 X61.518 Y28.359
N7795 X61.529 Y26.908
N7800 X61.538 Y25.458
N7805 X61.546 Y24.007
N7810 X61.552 Y22.556
N7815 X61.561 Y19.654
N7820 X61.568 Y16.753
N7825 X61.573 Y12.4
N7830 X61.577 Y6.597
N7835 X61.58 Y-2.108
N7840 X61.586 Y-52.887
N7845 X61.184 Y-54.281
N7850 X60.392 Y-55.497
N7855 X59.377 Y-56.533
N7860 X58.218 Y-57.407
N7865 X56.965 Y-58.138
N7870 X55.649 Y-58.747
N7875 X54.289 Y-59.252
N7880 X52.899 Y-59.67
N7885 X51.49 Y-60.014
N7890 X50.067 Y-60.298
N7895 X48.635 Y-60.531
N7900 X47.197 Y-60.722
N7905 X45.754 Y-60.879
N7910 X44.309 Y-61.007
N7915 X42.862 Y-61.112
N7920 X41.414 Y-61.197
N7925 X39.965 Y-61.267
N7930 X38.515 Y-61.325
N7935 X37.065 Y-61.371
N7940 X35.615 Y-61.41
N7945 X34.164 Y-61.441
N7950 X32.714 Y-61.466
N7955 X31.263 Y-61.487
N7960 X29.812 Y-61.504
N7965 X28.361 Y-61.518
N7970 X26.911 Y-61.529
N7975 X25.46 Y-61.538
N7980 X24.009 Y-61.546
N7985 X22.558 Y-61.552
N7990 X19.657 Y-61.561
N7995 X16.755 Y-61.568
N8000 X13.853 Y-61.572
N8005 X8.05 Y-61.577
N8010 X-2.106 Y-61.58
N8015 X-36.926 Y-61.584
N8020 X-45.631 Y-61.585
N8025 X-47.063 Y-61.354
N8030 X-48.347 Y-60.678
N8035 X-49.459 Y-59.747
N8040 X-50.409 Y-58.65
N8045 X-51.213 Y-57.442
N8050 X-51.889 Y-56.158
N8055 X-52.454 Y-54.822
N8060 X-52.927 Y-53.45
N8065 X-53.319 Y-52.054
N8070 X-53.645 Y-50.64
N8075 X-53.915 Y-49.214
N8080 X-54.138 Y-47.781
N8085 X-54.322 Y-46.342
N8090 X-54.474 Y-44.899
N8095 X-54.599 Y-43.454
N8100 X-54.703 Y-42.006
N8105 X-54.787 Y-40.558
N8110 X-54.857 Y-39.109
N8115 X-54.915 Y-37.659
N8120 X-54.962 Y-36.209
N8125 X-55.001 Y-34.759
N8130 X-55.033 Y-33.308
N8135 X-55.059 Y-31.858
N8140 X-55.08 Y-30.407
N8145 X-55.098 Y-28.956
N8150 X-55.113 Y-27.506
N8155 X-55.125 Y-26.055
N8160 X-55.134 Y-24.604
N8165 X-55.142 Y-23.153
N8170 X-55.149 Y-21.702
N8175 X-55.159 Y-18.801
N8180 X-55.166 Y-15.899
N8185 X-55.172 Y-11.547
N8190 X-55.177 Y-5.743
N8195 X-55.18 Y4.412
N8200 X-55.183 Y27.626
N8205 X-55.185 Y43.585
N8210 X-55.041 Y45.028
N8215 X-54.561 Y46.397
N8220 X-53.818 Y47.644
N8225 X-52.882 Y48.752
N8230 X-51.803 Y49.722
N8235 X-50.62 Y50.562
N8240 X-49.362 Y51.284
N8245 X-48.049 Y51.901
N8250 X-46.696 Y52.426
N8255 X-45.315 Y52.872
N8260 X-43.914 Y53.247
N8265 X-42.498 Y53.564
N8270 X-41.072 Y53.831
N8275 X-39.638 Y54.054
N8280 X-38.2 Y54.242
N8285 X-36.757 Y54.398
N8290 X-35.313 Y54.529
N8295 X-33.866 Y54.639
N8300 X-32.418 Y54.73
N8305 X-30.969 Y54.806
N8310 X-29.52 Y54.869
N8315 X-28.07 Y54.922
N8320 X-26.62 Y54.966
N8325 X-25.169 Y55.002
N8330 X-23.719 Y55.033
N8335 X-22.268 Y55.058
N8340 X-20.817 Y55.079
N8345 X-19.367 Y55.096
N8350 X-17.916 Y55.111
N8355 X-16.465 Y55.123
N8360 X-15.014 Y55.133
N8365 X-13.564 Y55.141
N8370 X-12.113 Y55.148
N8375 X-9.211 Y55.158
N8380 X-6.309 Y55.165
N8385 X-1.957 Y55.172
N8390 X3.846 Y55.177
N8395 X14.002 Y55.181
N8400 X25.609 Y55.183
N8405 X43.019 Y55.185
N8410 X44.469 Y55.183
N8415 X45.876 Y54.827
N8420 X47.173 Y54.177
N8425 X48.336 Y53.309
N8430 X49.359 Y52.28
N8435 X50.248 Y51.134
N8440 X51.016 Y49.903
N8445 X51.672 Y48.609
N8450 X52.232 Y47.271
N8455 X52.707 Y45.9
N8460 X53.109 Y44.506
N8465 X53.447 Y43.095
N8470 X53.732 Y41.672
N8475 X53.972 Y40.242
N8480 X54.173 Y38.805
N8485 X54.341 Y37.364
N8490 X54.481 Y35.92
N8495 X54.599 Y34.474
N8500 X54.697 Y33.026
N8505 X54.778 Y31.578
N8510 X54.846 Y30.128
N8515 X54.903 Y28.679
N8520 X54.95 Y27.228
N8525 X54.989 Y25.778
N8530 X55.022 Y24.328
N8535 X55.049 Y22.877
N8540 X55.071 Y21.426
N8545 X55.09 Y19.976
N8550 X55.105 Y18.525
N8555 X55.118 Y17.074
N8560 X55.129 Y15.623
N8565 X55.138 Y14.173
N8570 X55.145 Y12.722
N8575 X55.151 Y11.271
N8580 X55.161 Y8.369
N8585 X55.167 Y5.468
N8590 X55.173 Y1.115
N8595 X55.178 Y-4.688
N8600 X55.181 Y-14.844
N8605 X55.183 Y-23.549
N8610 X55.185 Y-43.86
N8615 X54.978 Y-45.296
N8620 X54.444 Y-46.645
N8625 X53.66 Y-47.867
N8630 X52.694 Y-48.948
N8635 X51.592 Y-49.893
N8640 X50.393 Y-50.71
N8645 X49.123 Y-51.411
N8650 X47.802 Y-52.01
N8655 X46.443 Y-52.519
N8660 X45.058 Y-52.95
N8665 X43.653 Y-53.314
N8670 X42.235 Y-53.62
N8675 X40.808 Y-53.878
N8680 X39.373 Y-54.094
N8685 X37.933 Y-54.275
N8690 X36.491 Y-54.426
N8695 X35.045 Y-54.553
N8700 X33.598 Y-54.658
N8705 X32.15 Y-54.746
N8710 X30.701 Y-54.82
N8715 X29.252 Y-54.881
N8720 X27.802 Y-54.932
N8725 X26.351 Y-54.974
N8730 X24.901 Y-55.009
N8735 X23.451 Y-55.038
N8740 X22. Y-55.062
N8745 X20.549 Y-55.083
N8750 X19.098 Y-55.099
N8755 X17.648 Y-55.113
N8760 X16.197 Y-55.125
N8765 X14.746 Y-55.134
N8770 X13.295 Y-55.142
N8775 X11.845 Y-55.149
N8780 X8.943 Y-55.159
N8785 X6.041 Y-55.166
N8790 X1.689 Y-55.173
N8795 X-4.115 Y-55.178
N8800 X-14.27 Y-55.181
N8805 X-21.524 Y-55.183
N8810 X-37.484 Y-55.184
N8815 X-38.909 Y-54.917
N8820 X-40.243 Y-54.345
N8825 X-41.45 Y-53.54
N8830 X-42.521 Y-52.561
N8835 X-43.457 Y-51.453
N8840 X-44.269 Y-50.251
N8845 X-44.967 Y-48.979
N8850 X-45.565 Y-47.657
N8855 X-46.074 Y-46.298
N8860 X-46.506 Y-44.913
N8865 X-46.872 Y-43.509
N8870 X-47.181 Y-42.092
N8875 X-47.441 Y-40.664
N8880 X-47.66 Y-39.23
N8885 X-47.844 Y-37.791
N8890 X-47.998 Y-36.349
N8895 X-48.128 Y-34.903
N8900 X-48.236 Y-33.457
N8905 X-48.326 Y-32.009
N8910 X-48.402 Y-30.56
N8915 X-48.465 Y-29.11
N8920 X-48.518 Y-27.66
N8925 X-48.562 Y-26.21
N8930 X-48.598 Y-24.76
N8935 X-48.629 Y-23.309
N8940 X-48.654 Y-21.859
N8945 X-48.676 Y-20.408
N8950 X-48.693 Y-18.957
N8955 X-48.708 Y-17.507
N8960 X-48.72 Y-16.056
N8965 X-48.73 Y-14.605
N8970 X-48.739 Y-13.154
N8975 X-48.746 Y-11.704
N8980 X-48.757 Y-8.802
N8985 X-48.764 Y-5.9
N8990 X-48.772 Y-1.548
N8995 X-48.777 Y4.256
N9000 X-48.781 Y12.961
N9005 X-48.783 Y26.018
N9010 X-48.784 Y36.174
N9015 X-48.626 Y37.616
N9020 X-48.188 Y38.999
N9025 X-47.509 Y40.281
N9030 X-46.637 Y41.441
N9035 X-45.618 Y42.473
N9040 X-44.487 Y43.382
N9045 X-43.271 Y44.174
N9050 X-41.993 Y44.86
N9055 X-40.668 Y45.451
N9060 X-39.309 Y45.958
N9065 X-37.924 Y46.392
N9070 X-36.521 Y46.762
N9075 X-35.105 Y47.077
N9080 X-33.679 Y47.344
N9085 X-32.246 Y47.57
N9090 X-30.808 Y47.762
N9095 X-29.366 Y47.924
N9100 X-27.922 Y48.061
N9105 X-26.475 Y48.176
N9110 X-25.028 Y48.273
N9115 X-23.579 Y48.355
N9120 X-22.13 Y48.423
N9125 X-20.68 Y48.481
N9130 X-19.23 Y48.53
N9135 X-17.78 Y48.57
N9140 X-16.33 Y48.605
N9145 X-14.879 Y48.633
N9150 X-13.429 Y48.657
N9155 X-11.978 Y48.678
N9160 X-10.527 Y48.695
N9165 X-9.076 Y48.709
N9170 X-7.626 Y48.721
N9175 X-6.175 Y48.731
N9180 X-4.724 Y48.739
N9185 X-3.273 Y48.746
N9190 X-0.372 Y48.757
N9195 X2.53 Y48.764
N9200 X6.883 Y48.772
N9205 X12.686 Y48.777
N9210 X21.391 Y48.781
N9215 X35.899 Y48.784
N9220 X37.346 Y48.683
N9225 X38.746 Y48.299
N9230 X40.05 Y47.664
N9235 X41.234 Y46.826
N9240 X42.291 Y45.833
N9245 X43.223 Y44.72
N9250 X44.036 Y43.519
N9255 X44.741 Y42.251
N9260 X45.349 Y40.933
N9265 X45.871 Y39.58
N9270 X46.318 Y38.199
N9275 X46.699 Y36.799
N9280 X47.023 Y35.385
N9285 X47.299 Y33.961
N9290 X47.532 Y32.529
N9295 X47.73 Y31.092
N9300 X47.897 Y29.651
N9305 X48.038 Y28.207
N9310 X48.157 Y26.761
N9315 X48.257 Y25.313
N9320 X48.341 Y23.865
N9325 X48.412 Y22.416
N9330 X48.472 Y20.966
N9335 X48.522 Y19.516
N9340 X48.564 Y18.066
N9345 X48.599 Y16.616
N9350 X48.629 Y15.165
N9355 X48.654 Y13.714
N9360 X48.674 Y12.264
N9365 X48.692 Y10.813
N9370 X48.706 Y9.362
N9375 X48.719 Y7.912
N9380 X48.729 Y6.461
N9385 X48.738 Y5.01
N9390 X48.745 Y3.559
N9395 X48.751 Y2.108
N9400 X48.76 Y-0.793
N9405 X48.767 Y-3.695
N9410 X48.773 Y-8.047
N9415 X48.778 Y-13.851
N9420 X48.782 Y-24.007
N9425 X48.784 Y-35.613
N9430 X48.729 Y-37.063
N9435 X48.397 Y-38.475
N9440 X47.806 Y-39.8
N9445 X47.003 Y-41.008
N9450 X46.036 Y-42.09
N9455 X44.944 Y-43.046
N9460 X43.758 Y-43.881
N9465 X42.502 Y-44.607
N9470 X41.193 Y-45.233
N9475 X39.846 Y-45.772
N9480 X38.471 Y-46.233
N9485 X37.074 Y-46.627
N9490 X35.663 Y-46.962
N9495 X34.24 Y-47.247
N9500 X32.809 Y-47.488
N9505 X31.373 Y-47.693
N9510 X29.933 Y-47.865
N9515 X28.489 Y-48.011
N9520 X27.044 Y-48.134
N9525 X25.596 Y-48.238
N9530 X24.148 Y-48.325
N9535 X22.699 Y-48.399
N9540 X21.25 Y-48.461
N9545 X19.8 Y-48.512
N9550 X18.35 Y-48.556
N9555 X16.899 Y-48.593
N9560 X15.449 Y-48.623
N9565 X13.998 Y-48.649
N9570 X12.548 Y-48.671
N9575 X11.097 Y-48.689
N9580 X9.646 Y-48.704
N9585 X8.195 Y-48.716
N9590 X6.745 Y-48.727
N9595 X5.294 Y-48.736
N9600 X3.843 Y-48.744
N9605 X2.392 Y-48.75
N9610 X-0.51 Y-48.759
N9615 X-3.411 Y-48.766
N9620 X-7.764 Y-48.773
N9625 X-9.215 Y-48.775
N9630 X-16.469 Y-48.78
N9635 X-29.526 Y-48.783
N9640 X-30.971 Y-48.647
N9645 X-32.362 Y-48.236
N9650 X-33.657 Y-47.582
N9655 X-34.833 Y-46.733
N9660 X-35.883 Y-45.731
N9665 X-36.809 Y-44.614
N9670 X-37.618 Y-43.41
N9675 X-38.321 Y-42.141
N9680 X-38.927 Y-40.823
N9685 X-39.449 Y-39.469
N9690 X-39.896 Y-38.089
N9695 X-40.278 Y-36.689
N9700 X-40.603 Y-35.275
N9705 X-40.879 Y-33.851
N9710 X-41.114 Y-32.419
N9715 X-41.313 Y-30.982
N9720 X-41.481 Y-29.541
N9725 X-41.623 Y-28.097
N9730 X-41.744 Y-26.651
N9735 X-41.845 Y-25.204
N9740 X-41.93 Y-23.756
N9745 X-42.002 Y-22.307
N9750 X-42.063 Y-20.857
N9755 X-42.114 Y-19.407
N9760 X-42.157 Y-17.957
N9765 X-42.193 Y-16.507
N9770 X-42.223 Y-15.056
N9775 X-42.249 Y-13.605
N9780 X-42.27 Y-12.155
N9785 X-42.288 Y-10.704
N9790 X-42.303 Y-9.253
N9795 X-42.316 Y-7.803
N9800 X-42.327 Y-6.352
N9805 X-42.336 Y-4.901
N9810 X-42.343 Y-3.45
N9815 X-42.349 Y-1.999
N9820 X-42.359 Y0.902
N9825 X-42.366 Y3.804
N9830 X-42.373 Y8.156
N9835 X-42.378 Y13.96
N9840 X-42.382 Y24.116
N9845 X-42.383 Y27.017
N9850 Y28.468
N9855 X-42.334 Y29.918
N9860 X-42.044 Y31.34
N9865 X-41.508 Y32.688
N9870 X-40.761 Y33.931
N9875 X-39.845 Y35.056
N9880 X-38.796 Y36.059
N9885 X-37.647 Y36.944
N9890 X-36.42 Y37.719
N9895 X-35.135 Y38.393
N9900 X-33.807 Y38.977
N9905 X-32.446 Y39.48
N9910 X-31.062 Y39.913
N9915 X-29.659 Y40.284
N9920 X-28.243 Y40.601
N9925 X-26.818 Y40.871
N9930 X-25.385 Y41.102
N9935 X-23.948 Y41.298
N9940 X-22.507 Y41.465
N9945 X-21.063 Y41.607
N9950 X-19.617 Y41.727
N9955 X-18.17 Y41.829
N9960 X-16.721 Y41.915
N9965 X-15.272 Y41.988
N9970 X-13.823 Y42.049
N9975 X-12.373 Y42.101
N9980 X-10.923 Y42.145
N9985 X-9.473 Y42.183
N9990 X-8.022 Y42.214
N9995 X-6.571 Y42.24
N10000 X-5.121 Y42.263
N10005 X-3.67 Y42.282
N10010 X-2.219 Y42.298
N10015 X-0.769 Y42.311
N10020 X0.682 Y42.322
N10025 X2.133 Y42.332
N10030 X3.584 Y42.34
N10035 X5.035 Y42.347
N10040 X7.936 Y42.357
N10045 X10.838 Y42.365
N10050 X15.19 Y42.372
N10055 X20.994 Y42.378
N10060 X28.248 Y42.381
N10065 X29.698 Y42.363
N10070 X31.127 Y42.112
N10075 X32.489 Y41.612
N10080 X33.75 Y40.894
N10085 X34.894 Y40.002
N10090 X35.916 Y38.972
N10095 X36.818 Y37.836
N10100 X37.609 Y36.62
N10105 X38.298 Y35.343
N10110 X38.895 Y34.021
N10115 X39.41 Y32.664
N10120 X39.853 Y31.283
N10125 X40.232 Y29.882
N10130 X40.557 Y28.468
N10135 X40.834 Y27.044
N10140 X41.07 Y25.613
N10145 X41.272 Y24.176
N10150 X41.442 Y22.735
N10155 X41.587 Y21.292
N10160 X41.711 Y19.846
N10165 X41.815 Y18.399
N10170 X41.903 Y16.951
N10175 X41.978 Y15.502
N10180 X42.041 Y14.052
N10185 X42.094 Y12.603
N10190 X42.14 Y11.152
N10195 X42.178 Y9.702
N10200 X42.21 Y8.252
N10205 X42.237 Y6.801
N10210 X42.26 Y5.35
N10215 X42.279 Y3.9
N10220 X42.295 Y2.449
N10225 X42.309 Y0.998
N10230 X42.321 Y-0.453
N10235 X42.331 Y-1.903
N10240 X42.339 Y-3.354
N10245 X42.346 Y-4.805
N10250 X42.357 Y-7.707
N10255 X42.364 Y-10.608
N10260 X42.372 Y-14.961
N10265 X42.378 Y-20.764
N10270 X42.38 Y-25.116
N10275 X42.381 Y-28.018
N10280 X42.379 Y-29.469
N10285 X42.167 Y-30.904
N10290 X41.704 Y-32.279
N10295 X41.017 Y-33.557
N10300 X40.15 Y-34.72
N10305 X39.139 Y-35.761
N10310 X38.018 Y-36.682
N10315 X36.813 Y-37.49
N10320 X35.545 Y-38.195
N10325 X34.229 Y-38.806
N10330 X32.878 Y-39.333
N10335 X31.499 Y-39.786
N10340 X30.102 Y-40.176
N10345 X28.69 Y-40.508
N10350 X27.267 Y-40.793
N10355 X25.837 Y-41.035
N10360 X24.4 Y-41.241
N10365 X22.96 Y-41.417
N10370 X21.517 Y-41.566
N10375 X20.072 Y-41.692
N10380 X18.625 Y-41.799
N10385 X17.177 Y-41.89
N10390 X15.728 Y-41.967
N10395 X14.279 Y-42.032
N10400 X12.829 Y-42.086
N10405 X11.379 Y-42.133
N10410 X9.929 Y-42.172
N10415 X8.478 Y-42.205
N10420 X7.028 Y-42.233
N10425 X5.577 Y-42.256
N10430 X4.126 Y-42.276
N10435 X2.676 Y-42.293
N10440 X1.225 Y-42.307
N10445 X-0.226 Y-42.319
N10450 X-1.677 Y-42.329
N10455 X-3.128 Y-42.338
N10460 X-4.578 Y-42.345
N10465 X-7.48 Y-42.356
N10470 X-10.382 Y-42.364
N10475 X-14.734 Y-42.372
N10480 X-20.538 Y-42.378
N10485 X-21.988 Y-42.379
N10490 X-23.438 Y-42.329
N10495 X-24.86 Y-42.04
N10500 X-26.21 Y-41.508
N10505 X-27.456 Y-40.766
N10510 X-28.585 Y-39.854
N10515 X-29.592 Y-38.81
N10520 X-30.482 Y-37.664
N10525 X-31.262 Y-36.441
N10530 X-31.941 Y-35.159
N10535 X-32.53 Y-33.832
N10540 X-33.037 Y-32.473
N10545 X-33.474 Y-31.09
N10550 X-33.849 Y-29.688
N10555 X-34.17 Y-28.273
N10560 X-34.444 Y-26.849
N10565 X-34.677 Y-25.417
N10570 X-34.831 Y-24.31
N10575 X-34.917 Y-23.891
N10580 X-35.056 Y-23.487
N10585 X-35.246 Y-23.105
N10590 X-35.484 Y-22.75
N10595 X-35.766 Y-22.429
N10600 X-38.044 Y-20.151
N10605 X-38.523 Y-19.671
N10610 X-38.862 Y-19.322
N10615 X-38.984 Y-19.191
N10620 X-39.358 Y-18.711
N10625 X-39.723 Y-18.232
N10630 X-40.001 Y-17.752
N10635 X-40.274 Y-17.272
N10640 X-40.484 Y-16.792
N10645 X-40.672 Y-16.312
N10650 X-40.814 Y-15.833
N10655 X-40.942 Y-15.353
N10660 X-41.028 Y-14.873
N10665 X-41.095 Y-14.393
N10670 X-41.128 Y-13.914
N10675 X-41.149 Y-13.434
N10680 X-41.15 Y-11.035
N10685 Y12.954
N10690 X-41.149 Y13.434
N10695 X-41.128 Y13.914
N10700 X-41.095 Y14.393
N10705 X-41.028 Y14.873
N10710 X-40.942 Y15.353
N10715 X-40.814 Y15.833
N10720 X-40.672 Y16.312
N10725 X-40.484 Y16.792
N10730 X-40.274 Y17.272
N10735 X-40.001 Y17.752
N10740 X-39.723 Y18.232
N10745 X-39.704 Y18.256
N10750 X-39.619 Y18.379
N10755 X-39.118 Y19.272
N10760 X-38.585 Y20.427
N10765 X-38.085 Y21.789
N10770 X-37.681 Y23.182
N10775 X-37.191 Y24.547
N10780 X-36.546 Y25.847
N10785 X-35.749 Y27.059
N10790 X-34.815 Y28.169
N10795 X-33.767 Y29.173
N10800 X-32.627 Y30.07
N10805 X-31.414 Y30.866
N10810 X-30.143 Y31.566
N10815 X-28.828 Y32.179
N10820 X-27.479 Y32.714
N10825 X-26.105 Y33.178
N10830 X-25.394 Y33.383
N10835 X-25.002 Y33.523
N10840 X-24.631 Y33.711
N10845 X-24.287 Y33.945
N10850 X-23.975 Y34.22
N10855 X-20.151 Y38.044
N10860 X-19.671 Y38.523
N10865 X-19.322 Y38.862
N10870 X-19.191 Y38.984
N10875 X-18.711 Y39.358
N10880 X-18.232 Y39.723
N10885 X-17.752 Y40.001
N10890 X-17.272 Y40.274
N10895 X-16.792 Y40.484
N10900 X-16.312 Y40.672
N10905 X-15.833 Y40.814
N10910 X-15.353 Y40.942
N10915 X-14.873 Y41.028
N10920 X-14.393 Y41.095
N10925 X-13.914 Y41.128
N10930 X-13.434 Y41.149
N10935 X-11.035 Y41.15
N10940 X12.954
N10945 X13.434 Y41.149
N10950 X13.914 Y41.128
N10955 X14.393 Y41.095
N10960 X14.873 Y41.028
N10965 X15.353 Y40.942
N10970 X15.833 Y40.814
N10975 X16.312 Y40.672
N10980 X16.792 Y40.484
N10985 X17.272 Y40.274
N10990 X17.752 Y40.001
N10995 X18.232 Y39.723
N11000 X18.256 Y39.704
N11005 X18.379 Y39.619
N11010 X19.27 Y39.118
N11015 X20.423 Y38.586
N11020 X21.785 Y38.086
N11025 X23.179 Y37.683
N11030 X24.545 Y37.194
N11035 X25.845 Y36.55
N11040 X27.058 Y35.754
N11045 X28.168 Y34.82
N11050 X29.172 Y33.773
N11055 X30.07 Y32.633
N11060 X30.866 Y31.42
N11065 X31.566 Y30.15
N11070 X32.179 Y28.835
N11075 X32.714 Y27.486
N11080 X33.178 Y26.112
N11085 X33.386 Y25.39
N11090 X33.527 Y24.998
N11095 X33.715 Y24.627
N11100 X33.949 Y24.283
N11105 X34.224 Y23.971
N11110 X38.044 Y20.151
N11115 X38.523 Y19.671
N11120 X38.862 Y19.322
N11125 X38.984 Y19.191
N11130 X39.357 Y18.711
N11135 X39.723 Y18.232
N11140 X40.001 Y17.752
N11145 X40.274 Y17.272
N11150 X40.484 Y16.792
N11155 X40.672 Y16.312
N11160 X40.814 Y15.833
N11165 X40.942 Y15.353
N11170 X41.028 Y14.873
N11175 X41.095 Y14.393
N11180 X41.128 Y13.914
N11185 X41.149 Y13.434
N11190 X41.15 Y11.035
N11195 Y-12.954
N11200 X41.149 Y-13.434
N11205 X41.128 Y-13.914
N11210 X41.095 Y-14.393
N11215 X41.028 Y-14.873
N11220 X40.942 Y-15.353
N11225 X40.814 Y-15.833
N11230 X40.672 Y-16.312
N11235 X40.484 Y-16.792
N11240 X40.274 Y-17.272
N11245 X40.001 Y-17.752
N11250 X39.723 Y-18.232
N11255 X39.704 Y-18.256
N11260 X39.619 Y-18.379
N11265 X39.118 Y-19.27
N11270 X38.586 Y-20.423
N11275 X38.086 Y-21.785
N11280 X37.684 Y-23.179
N11285 X37.194 Y-24.545
N11290 X36.55 Y-25.845
N11295 X35.753 Y-27.057
N11300 X34.819 Y-28.167
N11305 X33.772 Y-29.172
N11310 X32.632 Y-30.069
N11315 X31.419 Y-30.865
N11320 X30.148 Y-31.565
N11325 X28.834 Y-32.179
N11330 X27.485 Y-32.713
N11335 X26.111 Y-33.178
N11340 X25.39 Y-33.386
N11345 X24.999 Y-33.526
N11350 X24.628 Y-33.714
N11355 X24.284 Y-33.948
N11360 X23.972 Y-34.223
N11365 X20.151 Y-38.044
N11370 X19.671 Y-38.523
N11375 X19.322 Y-38.862
N11380 X19.191 Y-38.984
N11385 X18.711 Y-39.358
N11390 X18.232 Y-39.723
N11395 X17.752 Y-40.001
N11400 X17.272 Y-40.274
N11405 X16.792 Y-40.484
N11410 X16.312 Y-40.672
N11415 X15.833 Y-40.814
N11420 X15.353 Y-40.942
N11425 X14.873 Y-41.028
N11430 X14.393 Y-41.095
N11435 X13.914 Y-41.128
N11440 X13.434 Y-41.149
N11445 X11.035 Y-41.15
N11450 X-12.954
N11455 X-13.434 Y-41.149
N11460 X-13.914 Y-41.128
N11465 X-14.393 Y-41.095
N11470 X-14.873 Y-41.028
N11475 X-15.353 Y-40.942
N11480 X-15.833 Y-40.814
N11485 X-16.312 Y-40.672
N11490 X-16.792 Y-40.484
N11495 X-17.272 Y-40.274
N11500 X-17.752 Y-40.001
N11505 X-18.232 Y-39.723
N11510 X-18.732 Y-39.342
N11515 X-19.191 Y-38.984
N11520 X-19.322 Y-38.862
N11525 X-19.671 Y-38.523
N11530 X-20.772 Y-37.423
N11535 X-35.766 Y-22.429
N11540 G3 X-36.416 Y-22.061 Z-25.388 I-1.091 J-1.17
N11545 G2 X-38.084 Y-21.508 Z-25.248 I5.935 J20.698
N11550 X-43.137 Y-18.783 I7.603 J20.145
N11555 X-43.79 Y-17.64 I0.94 J1.294
N11560 G1 X-46.625 Y12.107
N11565 G2 X-46.2 Y13.353 I1.593 J0.152
N11570 X-41.828 Y16.937 I15.719 J-14.715
N11575 X-40.219 Y17.841 Z-25.395 I11.347 J-18.3
N11580 G3 X-39.704 Y18.256 Z-25.448 I-0.724 J1.427
N11585 G1 X-39.342 Y18.732
N11590 X-38.984 Y19.191
N11595 X-38.862 Y19.322
N11600 X-38.523 Y19.671
N11605 X-37.423 Y20.772
N11610 X-23.975 Y34.22
N11615 G3 X-23.607 Y34.87 Z-25.388 I-1.17 J1.091
N11620 G2 X-23.057 Y36.54 Z-25.248 I21.877 J-6.273
N11625 X-20.142 Y41.974 I21.328 J-7.943
N11630 X-19.049 Y42.621 I1.294 J-0.94
N11635 G1 X11.541 Y46.5
N11640 G2 X12.761 Y46.146 I0.201 J-1.587
N11645 X16.833 Y41.765 I-14.491 J-17.549
N11650 X17.889 Y40.132 Z-25.403 I-18.562 J-13.168
N11655 G3 X18.256 Y39.704 Z-25.448 I1.379 J0.811
N11660 G1 X18.732 Y39.342
N11665 X19.191 Y38.984
N11670 X19.322 Y38.862
N11675 X19.671 Y38.523
N11680 X20.772 Y37.423
N11685 X34.224 Y23.971
N11690 G3 X34.874 Y23.603 Z-25.388 I1.091 J1.17
N11695 G1 X34.902 Y23.595 Z-25.386
N11700 G2 X36.543 Y23.054 Z-25.248 I-6.3 J-21.866
N11705 X41.977 Y20.139 I-7.942 J-21.325
N11710 X42.624 Y19.045 I-0.94 J-1.294
N11715 G1 X46.5 Y-11.542
N11720 G2 X46.147 Y-12.762 I-1.587 J-0.201
N11725 X41.765 Y-16.833 I-17.545 J14.491
N11730 X40.132 Y-17.889 Z-25.403 I-13.164 J18.562
N11735 G3 X39.704 Y-18.256 Z-25.448 I0.811 J-1.379
N11740 G1 X39.342 Y-18.732
N11745 X38.984 Y-19.191
N11750 X38.862 Y-19.322
N11755 X38.523 Y-19.671
N11760 X37.423 Y-20.772
N11765 X23.972 Y-34.223
N11770 X23.917 Y-34.297 Z-25.443
N11775 X23.862 Y-34.37 Z-25.426
N11780 X23.81 Y-34.441 Z-25.4
N11785 X23.759 Y-34.509 Z-25.362
N11790 X23.723 Y-34.592 Z-25.308
N11795 X23.69 Y-34.667 Z-25.243
N11800 X23.66 Y-34.733 Z-25.167
N11805 X23.635 Y-34.79 Z-25.082
N11810 X23.615 Y-34.835 Z-24.989
N11815 X23.607 Y-34.865 Z-24.911
N11820 X23.6 Y-34.886 Z-24.83
N11825 X23.597 Y-34.899 Z-24.747
N11830 X23.595 Y-34.903 Z-24.663
N11835 Z5.
N11840 X-61.636 Y-78.252
N11845 Z-35.748
N11850 Z-37.348
N11855 X-61.634 Y-78.244 Z-37.505
N11860 X-61.628 Y-78.222 Z-37.66
N11865 X-61.619 Y-78.185 Z-37.813
N11870 X-61.606 Y-78.134 Z-37.961
N11875 X-61.589 Y-78.069 Z-38.103
N11880 X-61.569 Y-77.99 Z-38.237
N11885 X-61.546 Y-77.9 Z-38.363
N11890 X-61.52 Y-77.798 Z-38.48
N11895 X-61.491 Y-77.685 Z-38.585
N11900 X-61.46 Y-77.563 Z-38.679
N11905 X-61.426 Y-77.432 Z-38.759
N11910 X-61.391 Y-77.295 Z-38.827
N11915 X-61.354 Y-77.152 Z-38.879
N11920 X-61.317 Y-77.004 Z-38.918
N11925 X-61.278 Y-76.854 Z-38.941
N11930 X-61.239 Y-76.702 Z-38.948
N11935 G3 X-59.986 Y-67.991 I-39.57 J10.136
N11940 G1 Y-67.841
N11945 X-60.275 Y-66.419
N11950 X-60.511 Y-64.988
N11955 X-60.706 Y-63.55
N11960 X-60.865 Y-62.108
N11965 X-60.995 Y-60.663
N11970 X-61.102 Y-59.216
N11975 X-61.189 Y-57.768
N11980 X-61.261 Y-56.319
N11985 X-61.319 Y-54.869
N11990 X-61.366 Y-53.419
N11995 X-61.405 Y-51.969
N12000 X-61.437 Y-50.518
N12005 X-61.463 Y-49.068
N12010 X-61.484 Y-47.617
N12015 X-61.501 Y-46.166
N12020 X-61.515 Y-44.716
N12025 X-61.527 Y-43.265
N12030 X-61.536 Y-41.814
N12035 X-61.544 Y-40.363
N12040 X-61.55 Y-38.913
N12045 X-61.56 Y-36.011
N12050 X-61.566 Y-33.109
N12055 X-61.572 Y-28.757
N12060 X-61.576 Y-22.953
N12065 X-61.578 Y-17.15
N12070 X-61.582 Y8.965
N12075 X-61.584 Y33.629
N12080 X-61.586 Y52.49
N12085 X-61.528 Y52.848
N12090 X-61.16 Y54.251
N12095 X-60.375 Y55.471
N12100 X-59.364 Y56.511
N12105 X-58.208 Y57.389
N12110 X-56.957 Y58.123
N12115 X-55.641 Y58.735
N12120 X-54.282 Y59.242
N12125 X-52.893 Y59.661
N12130 X-51.484 Y60.007
N12135 X-50.062 Y60.292
N12140 X-48.63 Y60.526
N12145 X-47.192 Y60.718
N12150 X-45.749 Y60.875
N12155 X-44.304 Y61.004
N12160 X-42.857 Y61.109
N12165 X-41.409 Y61.196
N12170 X-39.96 Y61.266
N12175 X-38.51 Y61.323
N12180 X-37.06 Y61.37
N12185 X-35.61 Y61.409
N12190 X-34.159 Y61.44
N12195 X-32.709 Y61.466
N12200 X-31.258 Y61.487
N12205 X-29.807 Y61.504
N12210 X-28.357 Y61.518
N12215 X-26.906 Y61.529
N12220 X-25.455 Y61.538
N12225 X-24.004 Y61.546
N12230 X-22.553 Y61.552
N12235 X-19.652 Y61.561
N12240 X-16.75 Y61.568
N12245 X-12.398 Y61.573
N12250 X-6.594 Y61.577
N12255 X5.012 Y61.581
N12260 X18.07 Y61.582
N12265 X52.89 Y61.586
N12270 X54.283 Y61.183
N12275 X55.499 Y60.391
N12280 X56.535 Y59.375
N12285 X57.408 Y58.217
N12290 X58.139 Y56.963
N12295 X58.748 Y55.647
N12300 X59.253 Y54.286
N12305 X59.671 Y52.897
N12310 X60.015 Y51.488
N12315 X60.298 Y50.065
N12320 X60.531 Y48.633
N12325 X60.722 Y47.194
N12330 X60.879 Y45.752
N12335 X61.007 Y44.307
N12340 X61.112 Y42.86
N12345 X61.197 Y41.412
N12350 X61.268 Y39.962
N12355 X61.325 Y38.513
N12360 X61.371 Y37.063
N12365 X61.41 Y35.612
N12370 X61.441 Y34.162
N12375 X61.466 Y32.711
N12380 X61.487 Y31.261
N12385 X61.504 Y29.81
N12390 X61.518 Y28.359
N12395 X61.529 Y26.908
N12400 X61.538 Y25.458
N12405 X61.546 Y24.007
N12410 X61.552 Y22.556
N12415 X61.561 Y19.654
N12420 X61.568 Y16.753
N12425 X61.573 Y12.4
N12430 X61.577 Y6.597
N12435 X61.58 Y-2.108
N12440 X61.586 Y-52.887
N12445 X61.184 Y-54.281
N12450 X60.392 Y-55.497
N12455 X59.377 Y-56.533
N12460 X58.218 Y-57.407
N12465 X56.965 Y-58.138
N12470 X55.649 Y-58.747
N12475 X54.289 Y-59.252
N12480 X52.899 Y-59.67
N12485 X51.49 Y-60.014
N12490 X50.067 Y-60.298
N12495 X48.635 Y-60.531
N12500 X47.197 Y-60.722
N12505 X45.754 Y-60.879
N12510 X44.309 Y-61.007
N12515 X42.862 Y-61.112
N12520 X41.414 Y-61.197
N12525 X39.965 Y-61.267
N12530 X38.515 Y-61.325
N12535 X37.065 Y-61.371
N12540 X35.615 Y-61.41
N12545 X34.164 Y-61.441
N12550 X32.714 Y-61.466
N12555 X31.263 Y-61.487
N12560 X29.812 Y-61.504
N12565 X28.361 Y-61.518
N12570 X26.911 Y-61.529
N12575 X25.46 Y-61.538
N12580 X24.009 Y-61.546
N12585 X22.558 Y-61.552
N12590 X19.657 Y-61.561
N12595 X16.755 Y-61.568
N12600 X13.853 Y-61.572
N12605 X8.05 Y-61.577
N12610 X-2.106 Y-61.58
N12615 X-36.926 Y-61.584
N12620 X-45.631 Y-61.585
N12625 X-47.063 Y-61.354
N12630 X-48.347 Y-60.678
N12635 X-49.459 Y-59.747
N12640 X-50.409 Y-58.65
N12645 X-51.213 Y-57.442
N12650 X-51.889 Y-56.158
N12655 X-52.454 Y-54.822
N12660 X-52.927 Y-53.45
N12665 X-53.319 Y-52.054
N12670 X-53.645 Y-50.64
N12675 X-53.915 Y-49.214
N12680 X-54.138 Y-47.781
N12685 X-54.322 Y-46.342
N12690 X-54.474 Y-44.899
N12695 X-54.599 Y-43.454
N12700 X-54.703 Y-42.006
N12705 X-54.787 Y-40.558
N12710 X-54.857 Y-39.109
N12715 X-54.915 Y-37.659
N12720 X-54.962 Y-36.209
N12725 X-55.001 Y-34.759
N12730 X-55.033 Y-33.308
N12735 X-55.059 Y-31.858
N12740 X-55.08 Y-30.407
N12745 X-55.098 Y-28.956
N12750 X-55.113 Y-27.506
N12755 X-55.125 Y-26.055
N12760 X-55.132 Y-24.964
N12765 X-55.171 Y-24.465
N12770 X-55.281 Y-23.977
N12775 X-55.459 Y-23.509
N12780 X-55.682 Y-23.029
N12785 X-55.87 Y-22.55
N12790 X-56.015 Y-22.07
N12795 X-56.117 Y-21.59
N12800 X-56.215 Y-21.11
N12805 X-56.29 Y-20.63
N12810 X-57.493 Y-12.474
N12815 X-57.556 Y-11.994
N12820 X-57.615 Y-11.515
N12825 X-57.673 Y-11.035
N12830 X-57.897 Y-9.116
N12835 X-57.96 Y-8.636
N12840 X-58.031 Y-8.156
N12845 X-58.533 Y-5.611
N12850 X-58.694 Y-4.798
N12855 X-58.816 Y-4.318
N12860 X-59.138 Y-3.358
N12865 X-59.453 Y-2.399
N12870 X-59.492 Y-2.265
N12875 X-59.681 Y-1.439
N12880 X-59.742 Y-0.96
N12885 X-59.796 Y-0.48
N12890 X-59.798 Y0.
N12895 X-59.796 Y0.48
N12900 X-59.742 Y0.96
N12905 X-59.681 Y1.439
N12910 X-59.492 Y2.265
N12915 X-59.454 Y2.399
N12920 X-59.145 Y3.358
N12925 X-58.831 Y4.318
N12930 X-58.708 Y4.798
N12935 X-58.533 Y5.629
N12940 X-58.41 Y6.237
N12945 X-58.025 Y8.156
N12950 X-57.952 Y8.636
N12955 X-57.884 Y9.116
N12960 X-57.669 Y11.035
N12965 X-57.613 Y11.515
N12970 X-57.555 Y11.994
N12975 X-57.493 Y12.474
N12980 X-56.29 Y20.63
N12985 X-56.139 Y22.073
N12990 X-55.96 Y23.513
N12995 X-55.815 Y24.957
N13000 X-55.697 Y26.403
N13005 X-55.601 Y27.85
N13010 X-55.524 Y29.299
N13015 X-55.461 Y30.749
N13020 X-55.409 Y32.199
N13025 X-55.368 Y33.649
N13030 X-55.334 Y35.099
N13035 X-55.306 Y36.55
N13040 X-55.284 Y38.
N13045 X-55.265 Y39.451
N13050 X-55.251 Y40.902
N13055 X-55.238 Y42.353
N13060 X-55.229 Y43.803
N13065 X-55.028 Y45.24
N13070 X-54.501 Y46.592
N13075 X-53.725 Y47.818
N13080 X-52.763 Y48.904
N13085 X-51.666 Y49.854
N13090 X-50.47 Y50.675
N13095 X-49.203 Y51.381
N13100 X-47.883 Y51.983
N13105 X-46.526 Y52.496
N13110 X-45.141 Y52.93
N13115 X-43.738 Y53.297
N13120 X-42.32 Y53.606
N13125 X-40.893 Y53.865
N13130 X-39.458 Y54.083
N13135 X-38.019 Y54.266
N13140 X-36.576 Y54.419
N13145 X-35.131 Y54.546
N13150 X-33.684 Y54.653
N13155 X-32.236 Y54.742
N13160 X-30.787 Y54.816
N13165 X-29.338 Y54.878
N13170 X-27.888 Y54.929
N13175 X-26.437 Y54.972
N13180 X-25.118 Y55.004
N13185 X-24.636 Y55.051
N13190 X-24.165 Y55.169
N13195 X-23.717 Y55.354
N13200 X-23.509 Y55.459
N13205 X-23.029 Y55.682
N13210 X-22.55 Y55.87
N13215 X-22.07 Y56.015
N13220 X-21.59 Y56.117
N13225 X-21.11 Y56.215
N13230 X-20.63 Y56.29
N13235 X-12.474 Y57.493
N13240 X-11.994 Y57.556
N13245 X-11.515 Y57.615
N13250 X-11.035 Y57.673
N13255 X-9.116 Y57.897
N13260 X-8.636 Y57.96
N13265 X-8.156 Y58.031
N13270 X-5.611 Y58.533
N13275 X-4.798 Y58.694
N13280 X-4.318 Y58.816
N13285 X-3.358 Y59.138
N13290 X-2.399 Y59.453
N13295 X-2.265 Y59.492
N13300 X-1.439 Y59.681
N13305 X-0.96 Y59.742
N13310 X-0.48 Y59.796
N13315 X0. Y59.798
N13320 X0.48 Y59.796
N13325 X0.96 Y59.742
N13330 X1.439 Y59.681
N13335 X2.265 Y59.492
N13340 X2.399 Y59.454
N13345 X3.358 Y59.145
N13350 X4.318 Y58.831
N13355 X4.798 Y58.708
N13360 X5.629 Y58.533
N13365 X6.237 Y58.41
N13370 X8.156 Y58.025
N13375 X8.636 Y57.952
N13380 X9.116 Y57.884
N13385 X11.035 Y57.669
N13390 X11.515 Y57.613
N13395 X11.994 Y57.555
N13400 X12.474 Y57.493
N13405 X20.63 Y56.29
N13410 X22.073 Y56.139
N13415 X23.513 Y55.96
N13420 X24.957 Y55.815
N13425 X26.403 Y55.697
N13430 X27.85 Y55.601
N13435 X29.299 Y55.524
N13440 X30.749 Y55.461
N13445 X32.199 Y55.409
N13450 X33.649 Y55.368
N13455 X35.099 Y55.334
N13460 X36.55 Y55.306
N13465 X38. Y55.284
N13470 X39.451 Y55.265
N13475 X40.902 Y55.251
N13480 X42.353 Y55.238
N13485 X43.803 Y55.229
N13490 X45.241 Y55.032
N13495 X46.594 Y54.507
N13500 X47.819 Y53.731
N13505 X48.906 Y52.77
N13510 X49.856 Y51.673
N13515 X50.677 Y50.478
N13520 X51.383 Y49.21
N13525 X51.986 Y47.89
N13530 X52.498 Y46.533
N13535 X52.932 Y45.148
N13540 X53.299 Y43.745
N13545 X53.607 Y42.327
N13550 X53.867 Y40.9
N13555 X54.085 Y39.465
N13560 X54.267 Y38.026
N13565 X54.42 Y36.583
N13570 X54.547 Y35.138
N13575 X54.654 Y33.691
N13580 X54.742 Y32.243
N13585 X54.816 Y30.794
N13590 X54.878 Y29.344
N13595 X54.929 Y27.895
N13600 X54.972 Y26.444
N13605 X55.004 Y25.118
N13610 X55.052 Y24.635
N13615 X55.169 Y24.164
N13620 X55.355 Y23.716
N13625 X55.459 Y23.509
N13630 X55.682 Y23.029
N13635 X55.87 Y22.55
N13640 X56.015 Y22.07
N13645 X56.117 Y21.59
N13650 X56.215 Y21.11
N13655 X56.29 Y20.63
N13660 X57.493 Y12.474
N13665 X57.556 Y11.994
N13670 X57.615 Y11.515
N13675 X57.673 Y11.035
N13680 X57.897 Y9.116
N13685 X57.96 Y8.636
N13690 X58.031 Y8.156
N13695 X58.533 Y5.611
N13700 X58.694 Y4.798
N13705 X58.816 Y4.318
N13710 X59.138 Y3.358
N13715 X59.453 Y2.399
N13720 X59.492 Y2.265
N13725 X59.681 Y1.439
N13730 X59.742 Y0.96
N13735 X59.796 Y0.48
N13740 X59.798 Y0.
N13745 X59.796 Y-0.48
N13750 X59.742 Y-0.96
N13755 X59.681 Y-1.439
N13760 X59.492 Y-2.265
N13765 X59.454 Y-2.399
N13770 X59.145 Y-3.358
N13775 X58.831 Y-4.318
N13780 X58.708 Y-4.798
N13785 X58.533 Y-5.629
N13790 X58.41 Y-6.237
N13795 X58.025 Y-8.156
N13800 X57.952 Y-8.636
N13805 X57.884 Y-9.116
N13810 X57.669 Y-11.035
N13815 X57.613 Y-11.515
N13820 X57.555 Y-11.994
N13825 X57.493 Y-12.474
N13830 X56.29 Y-20.63
N13835 X56.139 Y-22.073
N13840 X55.96 Y-23.513
N13845 X55.815 Y-24.957
N13850 X55.697 Y-26.403
N13855 X55.601 Y-27.85
N13860 X55.524 Y-29.299
N13865 X55.461 Y-30.749
N13870 X55.409 Y-32.199
N13875 X55.368 Y-33.649
N13880 X55.334 Y-35.099
N13885 X55.306 Y-36.55
N13890 X55.284 Y-38.
N13895 X55.265 Y-39.451
N13900 X55.251 Y-40.902
N13905 X55.238 Y-42.353
N13910 X55.229 Y-43.803
N13915 X55.032 Y-45.241
N13920 X54.507 Y-46.594
N13925 X53.731 Y-47.819
N13930 X52.77 Y-48.906
N13935 X51.673 Y-49.856
N13940 X50.478 Y-50.677
N13945 X49.21 Y-51.383
N13950 X47.89 Y-51.986
N13955 X46.533 Y-52.498
N13960 X45.148 Y-52.932
N13965 X43.745 Y-53.299
N13970 X42.327 Y-53.607
N13975 X40.9 Y-53.867
N13980 X39.465 Y-54.085
N13985 X38.026 Y-54.267
N13990 X36.583 Y-54.42
N13995 X35.138 Y-54.547
N14000 X33.691 Y-54.654
N14005 X32.243 Y-54.742
N14010 X30.794 Y-54.816
N14015 X29.344 Y-54.878
N14020 X27.895 Y-54.929
N14025 X26.444 Y-54.972
N14030 X25.118 Y-55.004
N14035 X24.635 Y-55.052
N14040 X24.164 Y-55.169
N14045 X23.716 Y-55.355
N14050 X23.509 Y-55.459
N14055 X23.029 Y-55.682
N14060 X22.55 Y-55.87
N14065 X22.07 Y-56.015
N14070 X21.59 Y-56.117
N14075 X21.11 Y-56.215
N14080 X20.63 Y-56.29
N14085 X12.474 Y-57.493
N14090 X11.994 Y-57.556
N14095 X11.515 Y-57.615
N14100 X11.035 Y-57.673
N14105 X9.116 Y-57.897
N14110 X8.636 Y-57.96
N14115 X8.156 Y-58.031
N14120 X5.611 Y-58.533
N14125 X4.798 Y-58.694
N14130 X4.318 Y-58.816
N14135 X3.358 Y-59.138
N14140 X2.399 Y-59.453
N14145 X2.265 Y-59.492
N14150 X1.439 Y-59.681
N14155 X0.96 Y-59.742
N14160 X0.48 Y-59.796
N14165 X0. Y-59.798
N14170 X-0.48 Y-59.796
N14175 X-0.96 Y-59.742
N14180 X-1.439 Y-59.681
N14185 X-2.265 Y-59.492
N14190 X-2.399 Y-59.454
N14195 X-3.358 Y-59.145
N14200 X-4.318 Y-58.831
N14205 X-4.798 Y-58.708
N14210 X-5.629 Y-58.533
N14215 X-6.237 Y-58.41
N14220 X-8.156 Y-58.025
N14225 X-8.636 Y-57.952
N14230 X-9.116 Y-57.884
N14235 X-11.035 Y-57.669
N14240 X-11.515 Y-57.613
N14245 X-11.994 Y-57.555
N14250 X-12.474 Y-57.493
N14255 X-20.63 Y-56.29
N14260 X-22.073 Y-56.139
N14265 X-23.513 Y-55.96
N14270 X-24.957 Y-55.815
N14275 X-26.403 Y-55.697
N14280 X-27.85 Y-55.601
N14285 X-29.299 Y-55.524
N14290 X-30.749 Y-55.461
N14295 X-32.199 Y-55.409
N14300 X-33.649 Y-55.368
N14305 X-35.099 Y-55.334
N14310 X-36.55 Y-55.306
N14315 X-37.999 Y-55.244
N14320 X-39.396 Y-54.85
N14325 X-40.684 Y-54.184
N14330 X-41.841 Y-53.308
N14335 X-42.862 Y-52.278
N14340 X-43.753 Y-51.132
N14345 X-44.522 Y-49.902
N14350 X-45.183 Y-48.611
N14355 X-45.748 Y-47.274
N14360 X-46.229 Y-45.905
N14365 X-46.637 Y-44.513
N14370 X-46.982 Y-43.104
N14375 X-47.273 Y-41.683
N14380 X-47.519 Y-40.253
N14385 X-47.725 Y-38.817
N14390 X-47.898 Y-37.376
N14395 X-48.044 Y-35.933
N14400 X-48.166 Y-34.487
N14405 X-48.17 Y-34.424
N14410 X-48.242 Y-33.932
N14415 X-48.387 Y-33.456
N14420 X-48.603 Y-33.008
N14425 X-48.882 Y-32.597
N14430 X-48.937 Y-32.528
N14435 X-49.235 Y-32.145
N14440 X-49.599 Y-31.665
N14445 X-54.588 Y-24.948
N14450 G3 X-54.958 Y-24.611 Z-38.908 I-1.251 J-0.998
N14455 G2 X-55.191 Y-24.455 Z-38.886 I15.07 J22.835
N14460 X-56.593 Y-23.443 Z-38.748 I15.303 J22.68
N14465 X-61.859 Y-18.079 I16.705 J21.668
N14470 X-62.172 Y-17.195 I1.285 J0.953
N14475 G1 X-63.418 Y11.667
N14480 G2 X-63.181 Y12.575 I1.599 J0.069
N14485 X-57.923 Y18.798 I23.294 J-14.351
N14490 X-56.868 Y19.677 Z-38.858 I18.035 J-20.574
N14495 G3 X-56.29 Y20.63 Z-38.948 I-0.993 J1.255
N14500 G1 X-56.215 Y21.11
N14505 X-56.117 Y21.59
N14510 X-56.015 Y22.07
N14515 X-55.87 Y22.55
N14520 X-55.682 Y23.029
N14525 X-55.459 Y23.509
N14530 X-55.218 Y23.989
N14535 X-55.174 Y24.062
N14540 X-54.928 Y24.469
N14545 X-54.695 Y24.805
N14550 X-53.255 Y26.744
N14555 X-52.575 Y27.762
N14560 X-52.041 Y28.721
N14565 X-51.478 Y29.955
N14570 X-50.983 Y31.318
N14575 X-50.582 Y32.713
N14580 X-50.255 Y34.126
N14585 X-49.989 Y35.553
N14590 X-49.772 Y36.987
N14595 X-49.351 Y38.376
N14600 X-48.715 Y39.679
N14605 X-47.893 Y40.875
N14610 X-46.919 Y41.95
N14615 X-45.826 Y42.905
N14620 X-44.643 Y43.744
N14625 X-43.391 Y44.477
N14630 X-42.087 Y45.112
N14635 X-40.743 Y45.66
N14640 X-39.371 Y46.131
N14645 X-37.977 Y46.535
N14650 X-36.568 Y46.879
N14655 X-35.37 Y47.127
N14660 X-34.996 Y47.228
N14665 X-34.636 Y47.371
N14670 X-34.296 Y47.556
N14675 X-33.98 Y47.779
N14680 X-32.528 Y48.937
N14685 X-32.145 Y49.235
N14690 X-31.665 Y49.599
N14695 X-24.948 Y54.588
N14700 G3 X-24.477 Y55.206 I-0.998 J1.251
N14705 G1 X-24.415 Y55.35 Z-38.941
N14710 X-24.353 Y55.493 Z-38.918
N14715 X-24.293 Y55.633 Z-38.879
N14720 X-24.234 Y55.768 Z-38.827
N14725 X-24.178 Y55.899 Z-38.759
N14730 X-24.125 Y56.023 Z-38.679
N14735 X-24.075 Y56.138 Z-38.585
N14740 X-24.029 Y56.245 Z-38.48
N14745 X-23.987 Y56.342 Z-38.363
N14750 X-23.95 Y56.428 Z-38.237
N14755 X-23.919 Y56.502 Z-38.103
N14760 X-23.892 Y56.564 Z-37.961
N14765 X-23.871 Y56.612 Z-37.813
N14770 X-23.856 Y56.647 Z-37.66
N14775 X-23.847 Y56.669 Z-37.505
N14780 X-23.844 Y56.676 Z-37.348
N14785 Z5.
N14790 X-55.359 Y25.654
N14795 Z-35.748
N14800 Z-37.348
N14805 X-55.352 Y25.657 Z-37.505
N14810 X-55.33 Y25.666 Z-37.66
N14815 X-55.295 Y25.681 Z-37.813
N14820 X-55.246 Y25.701 Z-37.961
N14825 X-55.185 Y25.727 Z-38.103
N14830 X-55.11 Y25.758 Z-38.237
N14835 X-55.024 Y25.794 Z-38.363
N14840 X-54.926 Y25.835 Z-38.48
N14845 X-54.819 Y25.88 Z-38.585
N14850 X-54.703 Y25.928 Z-38.679
N14855 X-54.578 Y25.98 Z-38.759
N14860 X-54.447 Y26.035 Z-38.827
N14865 X-54.311 Y26.092 Z-38.879
N14870 X-54.17 Y26.15 Z-38.918
N14875 X-54.027 Y26.21 Z-38.941
N14880 X-53.882 Y26.271 Z-38.948
N14885 G3 X-53.255 Y26.744 I-0.61 J1.46
N14890 G1 X-49.599 Y31.665
N14895 X-49.236 Y32.145
N14900 X-48.937 Y32.531
N14905 X-47.345 Y34.544
N14910 X-46.998 Y35.024
N14915 X-46.538 Y35.663
N14920 X-46.321 Y35.983
N14925 X-45.034 Y37.902
N14930 X-44.76 Y38.382
N14935 X-44.496 Y38.862
N14940 X-44.242 Y39.342
N14945 X-44.004 Y39.822
N14950 X-43.756 Y40.301
N14955 X-43.465 Y40.781
N14960 X-43.18 Y41.245
N14965 X-43.168 Y41.261
N14970 X-42.785 Y41.741
N14975 X-42.7 Y41.841
N14980 X-42.36 Y42.22
N14985 X-42.22 Y42.36
N14990 X-41.841 Y42.7
N14995 X-41.741 Y42.785
N15000 X-41.261 Y43.168
N15005 X-41.245 Y43.18
N15010 X-40.781 Y43.465
N15015 X-40.301 Y43.756
N15020 X-39.822 Y44.007
N15025 X-39.342 Y44.25
N15030 X-38.862 Y44.505
N15035 X-38.382 Y44.768
N15040 X-37.902 Y45.04
N15045 X-35.983 Y46.317
N15050 X-35.655 Y46.538
N15055 X-34.979 Y47.018
N15060 X-34.544 Y47.329
N15065 X-33.98 Y47.779
N15070 G3 X-33.541 Y48.384 Z-38.888 I-1.041 J1.215
N15075 G2 X-32.826 Y49.99 Z-38.748 I29.205 J-12.045
N15080 X-27.66 Y57.647 I28.49 J-13.651
N15085 X-26.73 Y58.148 I1.181 J-1.079
N15090 G1 X10.217 Y64.003
N15095 G2 X11.257 Y63.814 I0.25 J-1.58
N15100 X18.762 Y57.891 I-15.593 J-27.475
N15105 X19.713 Y56.824 Z-38.862 I-23.098 J-21.552
N15110 G3 X20.63 Y56.29 Z-38.948 I1.218 J1.037
N15115 G1 X21.11 Y56.215
N15120 X21.59 Y56.117
N15125 X22.07 Y56.015
N15130 X22.55 Y55.87
N15135 X23.029 Y55.682
N15140 X23.509 Y55.459
N15145 X23.989 Y55.218
N15150 X24.062 Y55.174
N15155 X24.469 Y54.928
N15160 X24.805 Y54.695
N15165 X26.744 Y53.255
N15170 X27.762 Y52.575
N15175 X28.721 Y52.041
N15180 X29.955 Y51.478
N15185 X31.318 Y50.983
N15190 X32.713 Y50.582
N15195 X34.126 Y50.255
N15200 X35.553 Y49.989
N15205 X36.987 Y49.772
N15210 X38.376 Y49.353
N15215 X39.68 Y48.717
N15220 X40.876 Y47.896
N15225 X41.951 Y46.922
N15230 X42.906 Y45.829
N15235 X43.746 Y44.646
N15240 X44.478 Y43.394
N15245 X45.114 Y42.089
N15250 X45.662 Y40.746
N15255 X46.132 Y39.374
N15260 X46.536 Y37.98
N15265 X46.88 Y36.571
N15270 X47.129 Y35.367
N15275 X47.23 Y34.993
N15280 X47.373 Y34.633
N15285 X47.558 Y34.293
N15290 X47.782 Y33.977
N15295 X48.937 Y32.528
N15300 X49.235 Y32.145
N15305 X49.599 Y31.665
N15310 X54.588 Y24.948
N15315 G3 X55.206 Y24.477 I1.251 J0.998
N15320 G1 X55.35 Y24.415 Z-38.941
N15325 X55.493 Y24.353 Z-38.918
N15330 X55.633 Y24.293 Z-38.879
N15335 X55.768 Y24.234 Z-38.827
N15340 X55.899 Y24.178 Z-38.759
N15345 X56.023 Y24.125 Z-38.679
N15350 X56.138 Y24.075 Z-38.585
N15355 X56.245 Y24.029 Z-38.48
N15360 X56.342 Y23.987 Z-38.363
N15365 X56.428 Y23.95 Z-38.237
N15370 X56.502 Y23.919 Z-38.103
N15375 X56.564 Y23.892 Z-37.961
N15380 X56.612 Y23.871 Z-37.813
N15385 X56.647 Y23.856 Z-37.66
N15390 X56.669 Y23.847 Z-37.505
N15395 X56.676 Y23.844 Z-37.348
N15400 Z5.
N15405 X25.654 Y55.359
N15410 Z-35.748
N15415 Z-37.348
N15420 X25.657 Y55.352 Z-37.505
N15425 X25.666 Y55.33 Z-37.66
N15430 X25.681 Y55.295 Z-37.813
N15435 X25.701 Y55.246 Z-37.961
N15440 X25.727 Y55.185 Z-38.103
N15445 X25.758 Y55.11 Z-38.237
N15450 X25.794 Y55.024 Z-38.363
N15455 X25.835 Y54.926 Z-38.48
N15460 X25.88 Y54.819 Z-38.585
N15465 X25.928 Y54.703 Z-38.679
N15470 X25.98 Y54.578 Z-38.759
N15475 X26.035 Y54.447 Z-38.827
N15480 X26.092 Y54.311 Z-38.879
N15485 X26.15 Y54.17 Z-38.918
N15490 X26.21 Y54.027 Z-38.941
N15495 X26.271 Y53.882 Z-38.948
N15500 G3 X26.744 Y53.255 I1.46 J0.61
N15505 G1 X31.665 Y49.599
N15510 X32.145 Y49.236
N15515 X32.531 Y48.937
N15520 X34.544 Y47.345
N15525 X35.024 Y46.998
N15530 X35.663 Y46.538
N15535 X35.983 Y46.321
N15540 X37.902 Y45.034
N15545 X38.382 Y44.76
N15550 X38.862 Y44.496
N15555 X39.342 Y44.242
N15560 X39.822 Y44.004
N15565 X40.301 Y43.756
N15570 X40.781 Y43.465
N15575 X41.245 Y43.18
N15580 X41.261 Y43.168
N15585 X41.741 Y42.785
N15590 X41.841 Y42.7
N15595 X42.22 Y42.36
N15600 X42.36 Y42.22
N15605 X42.7 Y41.841
N15610 X42.785 Y41.741
N15615 X43.168 Y41.261
N15620 X43.18 Y41.244
N15625 X43.465 Y40.781
N15630 X43.756 Y40.301
N15635 X44.007 Y39.822
N15640 X44.25 Y39.342
N15645 X44.505 Y38.862
N15650 X44.768 Y38.382
N15655 X45.04 Y37.902
N15660 X46.317 Y35.983
N15665 X46.538 Y35.655
N15670 X47.018 Y34.979
N15675 X47.329 Y34.544
N15680 X47.782 Y33.977
N15685 G3 X48.387 Y33.539 Z-38.888 I1.215 J1.041
N15690 G2 X49.992 Y32.823 Z-38.748 I-12.044 J-29.203
N15695 X57.648 Y27.658 I-13.65 J-28.488
N15700 X58.149 Y26.727 I-1.079 J-1.181
N15705 G1 X64.003 Y-10.218
N15710 G2 X63.814 Y-11.258 I-1.58 J-0.25
N15715 X57.891 Y-18.762 I-27.472 J15.594
N15720 X56.824 Y-19.713 Z-38.862 I-21.549 J23.098
N15725 G3 X56.29 Y-20.63 Z-38.948 I1.037 J-1.218
N15730 G1 X56.215 Y-21.11
N15735 X56.117 Y-21.59
N15740 X56.015 Y-22.07
N15745 X55.87 Y-22.55
N15750 X55.682 Y-23.029
N15755 X55.459 Y-23.509
N15760 X55.218 Y-23.989
N15765 X55.174 Y-24.062
N15770 X54.928 Y-24.469
N15775 X54.695 Y-24.805
N15780 X53.255 Y-26.744
N15785 X52.575 Y-27.762
N15790 X52.041 Y-28.721
N15795 X51.478 Y-29.955
N15800 X50.983 Y-31.318
N15805 X50.582 Y-32.713
N15810 X50.255 Y-34.126
N15815 X49.989 Y-35.553
N15820 X49.772 Y-36.987
N15825 X49.353 Y-38.376
N15830 X48.717 Y-39.68
N15835 X47.896 Y-40.876
N15840 X46.922 Y-41.951
N15845 X45.829 Y-42.906
N15850 X44.646 Y-43.746
N15855 X43.394 Y-44.478
N15860 X42.089 Y-45.114
N15865 X40.746 Y-45.662
N15870 X39.374 Y-46.132
N15875 X37.98 Y-46.536
N15880 X36.571 Y-46.88
N15885 X35.367 Y-47.129
N15890 X34.993 Y-47.23
N15895 X34.633 Y-47.373
N15900 X34.293 Y-47.558
N15905 X33.977 Y-47.782
N15910 X32.528 Y-48.937
N15915 X32.145 Y-49.235
N15920 X31.665 Y-49.599
N15925 X24.948 Y-54.588
N15930 G3 X24.477 Y-55.206 I0.998 J-1.251
N15935 G1 X24.415 Y-55.35 Z-38.941
N15940 X24.353 Y-55.493 Z-38.918
N15945 X24.293 Y-55.633 Z-38.879
N15950 X24.234 Y-55.768 Z-38.827
N15955 X24.178 Y-55.899 Z-38.759
N15960 X24.125 Y-56.023 Z-38.679
N15965 X24.075 Y-56.138 Z-38.585
N15970 X24.029 Y-56.245 Z-38.48
N15975 X23.987 Y-56.342 Z-38.363
N15980 X23.95 Y-56.428 Z-38.237
N15985 X23.919 Y-56.502 Z-38.103
N15990 X23.892 Y-56.564 Z-37.961
N15995 X23.871 Y-56.612 Z-37.813
N16000 X23.856 Y-56.647 Z-37.66
N16005 X23.847 Y-56.669 Z-37.505
N16010 X23.844 Y-56.676 Z-37.348
N16015 Z5.
N16020 X55.359 Y-25.654
N16025 Z-35.748
N16030 Z-37.348
N16035 X55.352 Y-25.657 Z-37.505
N16040 X55.33 Y-25.666 Z-37.66
N16045 X55.295 Y-25.681 Z-37.813
N16050 X55.246 Y-25.701 Z-37.961
N16055 X55.185 Y-25.727 Z-38.103
N16060 X55.11 Y-25.758 Z-38.237
N16065 X55.024 Y-25.794 Z-38.363
N16070 X54.926 Y-25.835 Z-38.48
N16075 X54.819 Y-25.88 Z-38.585
N16080 X54.703 Y-25.928 Z-38.679
N16085 X54.578 Y-25.98 Z-38.759
N16090 X54.447 Y-26.035 Z-38.827
N16095 X54.311 Y-26.092 Z-38.879
N16100 X54.17 Y-26.15 Z-38.918
N16105 X54.027 Y-26.21 Z-38.941
N16110 X53.882 Y-26.271 Z-38.948
N16115 G3 X53.255 Y-26.744 I0.61 J-1.46
N16120 G1 X49.599 Y-31.665
N16125 X49.236 Y-32.145
N16130 X48.937 Y-32.531
N16135 X47.345 Y-34.544
N16140 X46.998 Y-35.024
N16145 X46.538 Y-35.663
N16150 X46.321 Y-35.983
N16155 X45.034 Y-37.902
N16160 X44.76 Y-38.382
N16165 X44.496 Y-38.862
N16170 X44.242 Y-39.342
N16175 X44.004 Y-39.822
N16180 X43.756 Y-40.301
N16185 X43.465 Y-40.781
N16190 X43.18 Y-41.244
N16195 X43.168 Y-41.261
N16200 X42.785 Y-41.741
N16205 X42.7 Y-41.841
N16210 X42.36 Y-42.22
N16215 X42.22 Y-42.36
N16220 X41.841 Y-42.7
N16225 X41.741 Y-42.785
N16230 X41.261 Y-43.168
N16235 X41.244 Y-43.18
N16240 X40.781 Y-43.465
N16245 X40.301 Y-43.756
N16250 X39.822 Y-44.007
N16255 X39.342 Y-44.25
N16260 X38.862 Y-44.505
N16265 X38.382 Y-44.768
N16270 X37.902 Y-45.04
N16275 X35.983 Y-46.317
N16280 X35.655 Y-46.538
N16285 X34.979 Y-47.018
N16290 X34.544 Y-47.329
N16295 X33.977 Y-47.782
N16300 G3 X33.539 Y-48.387 Z-38.888 I1.041 J-1.215
N16305 G2 X32.823 Y-49.992 Z-38.748 I-29.203 J12.044
N16310 X27.658 Y-57.648 I-28.488 J13.65
N16315 X26.727 Y-58.149 I-1.181 J1.079
N16320 G1 X-10.218 Y-64.003
N16325 G2 X-11.258 Y-63.814 I-0.25 J1.58
N16330 X-18.762 Y-57.891 I15.594 J27.472
N16335 X-19.713 Y-56.824 Z-38.862 I23.098 J21.549
N16340 G3 X-20.63 Y-56.29 Z-38.948 I-1.218 J-1.037
N16345 G1 X-21.11 Y-56.215
N16350 X-21.59 Y-56.117
N16355 X-22.07 Y-56.015
N16360 X-22.55 Y-55.87
N16365 X-23.029 Y-55.682
N16370 X-23.509 Y-55.459
N16375 X-23.989 Y-55.218
N16380 X-24.062 Y-55.174
N16385 X-24.469 Y-54.928
N16390 X-24.805 Y-54.695
N16395 X-26.744 Y-53.255
N16400 X-27.762 Y-52.575
N16405 X-28.721 Y-52.041
N16410 X-30.041 Y-51.438
N16415 X-31.391 Y-50.907
N16420 X-32.677 Y-50.237
N16425 X-33.874 Y-49.417
N16430 X-34.967 Y-48.463
N16435 X-35.951 Y-47.397
N16440 X-36.828 Y-46.241
N16445 X-36.972 Y-46.012
N16450 X-37.209 Y-45.684
N16455 X-37.483 Y-45.386
N16460 X-37.792 Y-45.125
N16465 X-38.131 Y-44.904
N16470 X-38.382 Y-44.76
N16475 X-38.862 Y-44.496
N16480 X-39.342 Y-44.242
N16485 X-39.822 Y-44.004
N16490 X-40.301 Y-43.756
N16495 X-40.781 Y-43.465
N16500 X-41.244 Y-43.18
N16505 X-41.261 Y-43.168
N16510 X-41.741 Y-42.785
N16515 X-41.841 Y-42.7
N16520 X-42.22 Y-42.36
N16525 X-42.36 Y-42.22
N16530 X-42.7 Y-41.841
N16535 X-42.785 Y-41.741
N16540 X-43.168 Y-41.261
N16545 X-43.18 Y-41.245
N16550 X-43.465 Y-40.781
N16555 X-43.756 Y-40.301
N16560 X-44.007 Y-39.822
N16565 X-44.25 Y-39.342
N16570 X-44.505 Y-38.862
N16575 X-44.768 Y-38.382
N16580 X-45.04 Y-37.902
N16585 X-46.317 Y-35.983
N16590 X-46.538 Y-35.655
N16595 X-47.018 Y-34.979
N16600 X-47.329 Y-34.544
N16605 X-48.882 Y-32.597
N16610 G3 X-49.517 Y-32.147 I-1.215 J-1.041
N16615 G1 X-49.663 Y-32.09 Z-38.941
N16620 X-49.807 Y-32.034 Z-38.918
N16625 X-49.949 Y-31.979 Z-38.879
N16630 X-50.087 Y-31.925 Z-38.827
N16635 X-50.219 Y-31.873 Z-38.759
N16640 X-50.345 Y-31.825 Z-38.679
N16645 X-50.462 Y-31.779 Z-38.585
N16650 X-50.571 Y-31.736 Z-38.48
N16655 X-50.669 Y-31.698 Z-38.363
N16660 X-50.756 Y-31.664 Z-38.237
N16665 X-50.831 Y-31.635 Z-38.103
N16670 X-50.894 Y-31.611 Z-37.961
N16675 X-50.943 Y-31.591 Z-37.813
N16680 X-50.979 Y-31.578 Z-37.66
N16685 X-51. Y-31.569 Z-37.505
N16690 X-51.007 Y-31.566 Z-37.348
N16695 Z5.
N16700 X-25.654 Y-55.359
N16705 Z-35.748
N16710 Z-37.348
N16715 X-25.657 Y-55.352 Z-37.505
N16720 X-25.666 Y-55.33 Z-37.66
N16725 X-25.681 Y-55.295 Z-37.813
N16730 X-25.701 Y-55.246 Z-37.961
N16735 X-25.727 Y-55.185 Z-38.103
N16740 X-25.758 Y-55.11 Z-38.237
N16745 X-25.794 Y-55.024 Z-38.363
N16750 X-25.835 Y-54.926 Z-38.48
N16755 X-25.88 Y-54.819 Z-38.585
N16760 X-25.928 Y-54.703 Z-38.679
N16765 X-25.98 Y-54.578 Z-38.759
N16770 X-26.035 Y-54.447 Z-38.827
N16775 X-26.092 Y-54.311 Z-38.879
N16780 X-26.15 Y-54.17 Z-38.918
N16785 X-26.21 Y-54.027 Z-38.941
N16790 X-26.271 Y-53.882 Z-38.948
N16795 G3 X-26.744 Y-53.255 I-1.46 J-0.61
N16800 G1 X-31.665 Y-49.599
N16805 X-32.145 Y-49.236
N16810 X-32.531 Y-48.937
N16815 X-34.544 Y-47.345
N16820 X-35.024 Y-46.998
N16825 X-35.663 Y-46.538
N16830 X-35.983 Y-46.321
N16835 X-37.902 Y-45.034
N16840 X-38.131 Y-44.904
N16845 X-38.217 Y-44.87 Z-38.943
N16850 X-38.302 Y-44.837 Z-38.926
N16855 X-38.384 Y-44.805 Z-38.9
N16860 X-38.463 Y-44.774 Z-38.862
N16865 X-38.552 Y-44.761 Z-38.808
N16870 X-38.634 Y-44.749 Z-38.743
N16875 X-38.705 Y-44.738 Z-38.667
N16880 X-38.766 Y-44.729 Z-38.582
N16885 X-38.816 Y-44.722 Z-38.489
N16890 X-38.851 Y-44.721 Z-38.398
N16895 X-38.874 Z-38.304
N16900 X-38.884 Z-38.234
N16905 X-38.887 Z-38.163
N16910 Z5.
N16915 X-48.338 Y50.867
N16920 Z-34.398
N16925 Z-35.998
N16930 X-48.334 Y50.86 Z-36.155
N16935 X-48.323 Y50.841 Z-36.31
N16940 X-48.303 Y50.808 Z-36.463
N16945 X-48.276 Y50.762 Z-36.611
N16950 X-48.242 Y50.704 Z-36.753
N16955 X-48.201 Y50.635 Z-36.887
N16960 X-48.153 Y50.554 Z-37.013
N16965 X-48.1 Y50.464 Z-37.13
N16970 X-48.04 Y50.364 Z-37.235
N16975 X-47.976 Y50.255 Z-37.329
N16980 X-47.907 Y50.139 Z-37.409
N16985 X-47.835 Y50.017 Z-37.477
N16990 X-47.76 Y49.89 Z-37.529
N16995 X-47.682 Y49.759 Z-37.568
N17000 X-47.603 Y49.625 Z-37.591
N17005 X-47.523 Y49.49 Z-37.598
N17010 G3 X-42.25 Y42.445 I35.148 J20.813
N17015 G1 X-42.179 Y42.375
N17020 X-42.062 Y42.282
N17025 X-41.939 Y42.196
N17030 X-41.812 Y42.116
N17035 X-41.415 Y41.923
N17040 X-40.994 Y41.789
N17045 X-40.558 Y41.717
N17050 X-40.117 Y41.709
N17055 X-39.679 Y41.765
N17060 X-39.253 Y41.883
N17065 X-38.849 Y42.062
N17070 X-38.382 Y42.31
N17075 X-37.902 Y42.573
N17080 X-37.423 Y42.863
N17085 X-36.936 Y43.18
N17090 X-36.463 Y43.519
N17095 X-35.983 Y43.872
N17100 X-35.625 Y44.14
N17105 X-34.544 Y44.985
N17110 X-24.055 Y52.776
N17115 X-23.989 Y52.825
N17120 X-23.509 Y53.132
N17125 X-23.029 Y53.41
N17130 X-22.55 Y53.663
N17135 X-22.394 Y53.735
N17140 X-22.07 Y53.863
N17145 X-21.59 Y54.02
N17150 X-21.11 Y54.159
N17155 X-20.896 Y54.215
N17160 X-20.151 Y54.346
N17165 X-19.671 Y54.422
N17170 X-8.07 Y56.134
N17175 X-7.197 Y56.26
N17180 X-6.717 Y56.324
N17185 X-6.237 Y56.38
N17190 X-5.757 Y56.438
N17195 X-4.798 Y56.583
N17200 X-4.605 Y56.614
N17205 X-3.838 Y56.765
N17210 X-3.358 Y56.869
N17215 X-2.879 Y57.027
N17220 X-2.399 Y57.183
N17225 X-1.919 Y57.301
N17230 X-1.439 Y57.41
N17235 X-0.96 Y57.471
N17240 X-0.48 Y57.525
N17245 X0. Y57.528
N17250 X0.48 Y57.525
N17255 X0.96 Y57.471
N17260 X1.439 Y57.41
N17265 X1.919 Y57.301
N17270 X2.399 Y57.183
N17275 X2.879 Y57.03
N17280 X3.358 Y56.875
N17285 X3.838 Y56.769
N17290 X4.597 Y56.614
N17295 X4.798 Y56.581
N17300 X5.757 Y56.433
N17305 X6.237 Y56.378
N17310 X6.717 Y56.323
N17315 X7.197 Y56.26
N17320 X8.156 Y56.121
N17325 X19.671 Y54.422
N17330 X20.151 Y54.346
N17335 X20.896 Y54.215
N17340 X21.11 Y54.159
N17345 X21.59 Y54.02
N17350 X22.07 Y53.863
N17355 X22.394 Y53.735
N17360 X22.55 Y53.663
N17365 X23.029 Y53.41
N17370 X23.509 Y53.132
N17375 X23.989 Y52.825
N17380 X28.787 Y49.262
N17385 X34.544 Y44.985
N17390 X35.63 Y44.14
N17395 X35.983 Y43.876
N17400 X36.463 Y43.521
N17405 X36.943 Y43.176
N17410 X37.423 Y42.861
N17415 X37.902 Y42.569
N17420 X38.382 Y42.307
N17425 X38.862 Y42.054
N17430 X39.342 Y41.77
N17435 X39.822 Y41.428
N17440 X40.049 Y41.261
N17445 X40.301 Y41.044
N17450 X40.585 Y40.781
N17455 X40.781 Y40.585
N17460 X41.044 Y40.301
N17465 X41.261 Y40.049
N17470 X41.428 Y39.822
N17475 X41.77 Y39.342
N17480 X42.055 Y38.862
N17485 X42.31 Y38.382
N17490 X42.573 Y37.902
N17495 X42.863 Y37.423
N17500 X43.18 Y36.936
N17505 X43.519 Y36.463
N17510 X43.872 Y35.983
N17515 X44.14 Y35.625
N17520 X44.985 Y34.544
N17525 X52.776 Y24.055
N17530 X52.825 Y23.989
N17535 X53.132 Y23.509
N17540 X53.41 Y23.029
N17545 X53.663 Y22.55
N17550 X53.735 Y22.394
N17555 X53.863 Y22.07
N17560 X54.02 Y21.59
N17565 X54.159 Y21.11
N17570 X54.215 Y20.896
N17575 X54.346 Y20.151
N17580 X54.422 Y19.671
N17585 X56.134 Y8.07
N17590 X56.26 Y7.197
N17595 X56.324 Y6.717
N17600 X56.38 Y6.237
N17605 X56.438 Y5.757
N17610 X56.583 Y4.798
N17615 X56.614 Y4.605
N17620 X56.765 Y3.838
N17625 X56.869 Y3.358
N17630 X57.027 Y2.879
N17635 X57.183 Y2.399
N17640 X57.301 Y1.919
N17645 X57.41 Y1.439
N17650 X57.471 Y0.96
N17655 X57.525 Y0.48
N17660 X57.528 Y0.
N17665 X57.525 Y-0.48
N17670 X57.471 Y-0.96
N17675 X57.41 Y-1.439
N17680 X57.301 Y-1.919
N17685 X57.183 Y-2.399
N17690 X57.03 Y-2.879
N17695 X56.875 Y-3.358
N17700 X56.769 Y-3.838
N17705 X56.614 Y-4.597
N17710 X56.581 Y-4.798
N17715 X56.433 Y-5.757
N17720 X56.378 Y-6.237
N17725 X56.323 Y-6.717
N17730 X56.26 Y-7.197
N17735 X56.121 Y-8.156
N17740 X54.422 Y-19.671
N17745 X54.346 Y-20.151
N17750 X54.215 Y-20.896
N17755 X54.159 Y-21.11
N17760 X54.02 Y-21.59
N17765 X53.863 Y-22.07
N17770 X53.735 Y-22.394
N17775 X53.663 Y-22.55
N17780 X53.41 Y-23.029
N17785 X53.132 Y-23.509
N17790 X52.825 Y-23.989
N17795 X49.262 Y-28.787
N17800 X44.985 Y-34.544
N17805 X44.14 Y-35.63
N17810 X43.876 Y-35.983
N17815 X43.521 Y-36.463
N17820 X43.176 Y-36.943
N17825 X42.861 Y-37.423
N17830 X42.569 Y-37.902
N17835 X42.306 Y-38.382
N17840 X42.054 Y-38.862
N17845 X41.77 Y-39.342
N17850 X41.428 Y-39.822
N17855 X41.261 Y-40.049
N17860 X41.044 Y-40.301
N17865 X40.781 Y-40.585
N17870 X40.585 Y-40.781
N17875 X40.301 Y-41.044
N17880 X40.049 Y-41.261
N17885 X39.822 Y-41.428
N17890 X39.342 Y-41.77
N17895 X38.862 Y-42.055
N17900 X38.382 Y-42.31
N17905 X37.902 Y-42.573
N17910 X37.423 Y-42.863
N17915 X36.936 Y-43.18
N17920 X36.463 Y-43.519
N17925 X35.983 Y-43.872
N17930 X35.625 Y-44.14
N17935 X34.544 Y-44.985
N17940 X24.055 Y-52.776
N17945 X23.989 Y-52.825
N17950 X23.509 Y-53.132
N17955 X23.029 Y-53.41
N17960 X22.55 Y-53.663
N17965 X22.394 Y-53.735
N17970 X22.07 Y-53.863
N17975 X21.59 Y-54.02
N17980 X21.11 Y-54.159
N17985 X20.896 Y-54.215
N17990 X20.151 Y-54.346
N17995 X19.671 Y-54.422
N18000 X8.07 Y-56.134
N18005 X7.197 Y-56.26
N18010 X6.717 Y-56.324
N18015 X6.237 Y-56.38
N18020 X5.757 Y-56.438
N18025 X4.798 Y-56.583
N18030 X4.605 Y-56.614
N18035 X3.838 Y-56.765
N18040 X3.358 Y-56.869
N18045 X2.879 Y-57.027
N18050 X2.399 Y-57.183
N18055 X1.919 Y-57.301
N18060 X1.439 Y-57.41
N18065 X0.96 Y-57.471
N18070 X0.48 Y-57.525
N18075 X0. Y-57.528
N18080 X-0.48 Y-57.525
N18085 X-0.96 Y-57.471
N18090 X-1.439 Y-57.41
N18095 X-1.919 Y-57.301
N18100 X-2.399 Y-57.183
N18105 X-2.879 Y-57.03
N18110 X-3.358 Y-56.875
N18115 X-3.838 Y-56.769
N18120 X-4.597 Y-56.614
N18125 X-4.798 Y-56.581
N18130 X-5.757 Y-56.433
N18135 X-6.237 Y-56.378
N18140 X-6.717 Y-56.323
N18145 X-7.197 Y-56.26
N18150 X-8.156 Y-56.121
N18155 X-19.671 Y-54.422
N18160 X-20.151 Y-54.346
N18165 X-20.896 Y-54.215
N18170 X-21.11 Y-54.159
N18175 X-21.59 Y-54.02
N18180 X-22.07 Y-53.863
N18185 X-22.394 Y-53.735
N18190 X-22.55 Y-53.663
N18195 X-23.029 Y-53.41
N18200 X-23.509 Y-53.132
N18205 X-23.989 Y-52.825
N18210 X-28.787 Y-49.262
N18215 X-34.544 Y-44.985
N18220 X-35.63 Y-44.14
N18225 X-35.983 Y-43.876
N18230 X-36.463 Y-43.521
N18235 X-36.943 Y-43.176
N18240 X-37.423 Y-42.861
N18245 X-37.902 Y-42.569
N18250 X-38.382 Y-42.307
N18255 X-38.862 Y-42.054
N18260 X-39.342 Y-41.77
N18265 X-39.822 Y-41.428
N18270 X-40.049 Y-41.261
N18275 X-40.301 Y-41.044
N18280 X-40.585 Y-40.781
N18285 X-40.781 Y-40.585
N18290 X-41.044 Y-40.301
N18295 X-41.261 Y-40.049
N18300 X-41.428 Y-39.822
N18305 X-41.77 Y-39.342
N18310 X-42.055 Y-38.862
N18315 X-42.31 Y-38.382
N18320 X-42.573 Y-37.902
N18325 X-42.863 Y-37.423
N18330 X-43.18 Y-36.936
N18335 X-43.519 Y-36.463
N18340 X-43.872 Y-35.983
N18345 X-44.14 Y-35.625
N18350 X-44.985 Y-34.544
N18355 X-52.776 Y-24.055
N18360 X-52.825 Y-23.989
N18365 X-53.132 Y-23.509
N18370 X-53.41 Y-23.029
N18375 X-53.663 Y-22.55
N18380 X-53.735 Y-22.394
N18385 X-53.863 Y-22.07
N18390 X-54.02 Y-21.59
N18395 X-54.159 Y-21.11
N18400 X-54.215 Y-20.896
N18405 X-54.346 Y-20.151
N18410 X-54.422 Y-19.671
N18415 X-56.134 Y-8.07
N18420 X-56.26 Y-7.197
N18425 X-56.324 Y-6.717
N18430 X-56.38 Y-6.237
N18435 X-56.438 Y-5.757
N18440 X-56.583 Y-4.798
N18445 X-56.614 Y-4.605
N18450 X-56.765 Y-3.838
N18455 X-56.869 Y-3.358
N18460 X-57.027 Y-2.879
N18465 X-57.183 Y-2.399
N18470 X-57.301 Y-1.919
N18475 X-57.41 Y-1.439
N18480 X-57.471 Y-0.96
N18485 X-57.525 Y-0.48
N18490 X-57.528 Y0.
N18495 X-57.525 Y0.48
N18500 X-57.471 Y0.96
N18505 X-57.41 Y1.439
N18510 X-57.301 Y1.919
N18515 X-57.183 Y2.399
N18520 X-57.03 Y2.879
N18525 X-56.875 Y3.358
N18530 X-56.769 Y3.838
N18535 X-56.614 Y4.598
N18540 X-56.581 Y4.798
N18545 X-56.433 Y5.757
N18550 X-56.378 Y6.237
N18555 X-56.323 Y6.717
N18560 X-56.26 Y7.197
N18565 X-56.121 Y8.156
N18570 X-54.422 Y19.671
N18575 X-54.346 Y20.151
N18580 X-54.215 Y20.896
N18585 X-54.159 Y21.11
N18590 X-54.02 Y21.59
N18595 X-53.863 Y22.07
N18600 X-53.735 Y22.394
N18605 X-53.663 Y22.55
N18610 X-53.41 Y23.029
N18615 X-53.132 Y23.509
N18620 X-52.825 Y23.989
N18625 X-49.262 Y28.787
N18630 X-44.985 Y34.544
N18635 X-44.14 Y35.63
N18640 X-43.876 Y35.983
N18645 X-43.521 Y36.463
N18650 X-43.176 Y36.943
N18655 X-42.861 Y37.423
N18660 X-42.569 Y37.902
N18665 X-42.307 Y38.382
N18670 X-42.22 Y38.545
N18675 X-42.19 Y38.633 Z-37.593
N18680 X-42.16 Y38.718 Z-37.576
N18685 X-42.13 Y38.802 Z-37.55
N18690 X-42.102 Y38.882 Z-37.512
N18695 X-42.092 Y38.971 Z-37.458
N18700 X-42.082 Y39.053 Z-37.393
N18705 X-42.074 Y39.125 Z-37.317
N18710 X-42.067 Y39.186 Z-37.232
N18715 X-42.061 Y39.236 Z-37.139
N18720 Y39.241 Z-37.127
N18725 Y39.242 Z-37.126
N18730 X-42.062 Y39.278 Z-37.025
N18735 Y39.299 Z-36.92
N18740 Y39.307 Z-36.813
N18745 Z5.
N18750 X-46.615 Y49.377
N18755 Z-33.048
N18760 Z-34.648
N18765 X-46.611 Y49.371 Z-34.805
N18770 X-46.599 Y49.351 Z-34.96
N18775 X-46.58 Y49.318 Z-35.113
N18780 X-46.553 Y49.273 Z-35.261
N18785 X-46.519 Y49.215 Z-35.403
N18790 X-46.477 Y49.145 Z-35.537
N18795 X-46.43 Y49.065 Z-35.663
N18800 X-46.376 Y48.974 Z-35.78
N18805 X-46.317 Y48.874 Z-35.885
N18810 X-46.253 Y48.766 Z-35.979
N18815 X-46.184 Y48.65 Z-36.059
N18820 X-46.112 Y48.528 Z-36.127
N18825 X-46.036 Y48.4 Z-36.179
N18830 X-45.959 Y48.269 Z-36.218
N18835 X-45.88 Y48.136 Z-36.241
N18840 X-45.8 Y48.001 Z-36.248
N18845 G3 X-40.526 Y40.956 I35.148 J20.813
N18850 G1 X-40.467 Y40.896
N18855 X-40.351 Y40.8
N18860 X-40.23 Y40.712
N18865 X-40.105 Y40.629
N18870 X-39.976 Y40.553
N18875 X-39.558 Y40.37
N18880 X-39.116 Y40.255
N18885 X-38.662 Y40.21
N18890 X-38.207 Y40.237
N18895 X-37.761 Y40.334
N18900 X-37.337 Y40.5
N18905 X-36.943 Y40.731
N18910 X-36.871 Y40.781
N18915 X-35.504 Y41.796
N18920 X-23.952 Y50.377
N18925 X-23.509 Y50.701
N18930 X-23.029 Y51.036
N18935 X-22.587 Y51.336
N18940 X-22.07 Y51.625
N18945 X-21.649 Y51.816
N18950 X-21.11 Y52.023
N18955 X-20.63 Y52.182
N18960 X-20.151 Y52.305
N18965 X-19.671 Y52.405
N18970 X-19.191 Y52.481
N18975 X-18.711 Y52.554
N18980 X-2.879 Y54.891
N18985 X-2.399 Y54.964
N18990 X-1.439 Y55.144
N18995 X-1.196 Y55.174
N19000 X-0.48 Y55.254
N19005 X0. Y55.257
N19010 X0.48 Y55.254
N19015 X1.196 Y55.174
N19020 X1.439 Y55.144
N19025 X2.399 Y54.964
N19030 X2.879 Y54.891
N19035 X18.711 Y52.554
N19040 X19.191 Y52.481
N19045 X19.671 Y52.405
N19050 X20.151 Y52.305
N19055 X20.63 Y52.182
N19060 X21.11 Y52.023
N19065 X21.649 Y51.816
N19070 X22.07 Y51.625
N19075 X22.587 Y51.336
N19080 X23.029 Y51.036
N19085 X23.509 Y50.701
N19090 X23.989 Y50.349
N19095 X36.463 Y41.083
N19100 X36.871 Y40.781
N19105 X37.902 Y40.062
N19110 X38.23 Y39.822
N19115 X38.382 Y39.705
N19120 X38.81 Y39.342
N19125 X38.862 Y39.292
N19130 X39.292 Y38.862
N19135 X39.342 Y38.81
N19140 X39.705 Y38.382
N19145 X39.822 Y38.23
N19150 X40.062 Y37.902
N19155 X40.781 Y36.871
N19160 X41.796 Y35.504
N19165 X50.377 Y23.952
N19170 X50.701 Y23.509
N19175 X51.036 Y23.029
N19180 X51.336 Y22.587
N19185 X51.625 Y22.07
N19190 X51.816 Y21.649
N19195 X52.023 Y21.11
N19200 X52.182 Y20.63
N19205 X52.305 Y20.151
N19210 X52.405 Y19.671
N19215 X52.481 Y19.191
N19220 X52.554 Y18.711
N19225 X54.891 Y2.879
N19230 X54.964 Y2.399
N19235 X55.144 Y1.439
N19240 X55.174 Y1.196
N19245 X55.254 Y0.48
N19250 X55.257 Y0.
N19255 X55.254 Y-0.48
N19260 X55.174 Y-1.196
N19265 X55.144 Y-1.439
N19270 X54.964 Y-2.399
N19275 X54.891 Y-2.879
N19280 X52.554 Y-18.711
N19285 X52.481 Y-19.191
N19290 X52.405 Y-19.671
N19295 X52.305 Y-20.151
N19300 X52.182 Y-20.63
N19305 X52.023 Y-21.11
N19310 X51.816 Y-21.649
N19315 X51.625 Y-22.07
N19320 X51.336 Y-22.587
N19325 X51.036 Y-23.029
N19330 X50.701 Y-23.509
N19335 X50.349 Y-23.989
N19340 X41.083 Y-36.463
N19345 X40.781 Y-36.871
N19350 X40.062 Y-37.902
N19355 X39.822 Y-38.23
N19360 X39.705 Y-38.382
N19365 X39.342 Y-38.81
N19370 X39.292 Y-38.862
N19375 X38.862 Y-39.292
N19380 X38.81 Y-39.342
N19385 X38.382 Y-39.705
N19390 X38.23 Y-39.822
N19395 X37.902 Y-40.062
N19400 X36.871 Y-40.781
N19405 X35.504 Y-41.796
N19410 X23.952 Y-50.377
N19415 X23.509 Y-50.701
N19420 X23.029 Y-51.036
N19425 X22.587 Y-51.336
N19430 X22.07 Y-51.625
N19435 X21.649 Y-51.816
N19440 X21.11 Y-52.023
N19445 X20.63 Y-52.182
N19450 X20.151 Y-52.305
N19455 X19.671 Y-52.405
N19460 X19.191 Y-52.481
N19465 X18.711 Y-52.554
N19470 X2.879 Y-54.891
N19475 X2.399 Y-54.964
N19480 X1.439 Y-55.144
N19485 X1.196 Y-55.174
N19490 X0.48 Y-55.254
N19495 X0. Y-55.257
N19500 X-0.48 Y-55.254
N19505 X-1.196 Y-55.174
N19510 X-1.439 Y-55.144
N19515 X-2.399 Y-54.964
N19520 X-2.879 Y-54.891
N19525 X-18.711 Y-52.554
N19530 X-19.191 Y-52.481
N19535 X-19.671 Y-52.405
N19540 X-20.151 Y-52.305
N19545 X-20.63 Y-52.182
N19550 X-21.11 Y-52.023
N19555 X-21.649 Y-51.816
N19560 X-22.07 Y-51.625
N19565 X-22.587 Y-51.336
N19570 X-23.029 Y-51.036
N19575 X-23.509 Y-50.701
N19580 X-23.989 Y-50.349
N19585 X-36.463 Y-41.083
N19590 X-36.871 Y-40.781
N19595 X-37.902 Y-40.062
N19600 X-38.23 Y-39.822
N19605 X-38.382 Y-39.705
N19610 X-38.81 Y-39.342
N19615 X-38.862 Y-39.292
N19620 X-39.292 Y-38.862
N19625 X-39.342 Y-38.81
N19630 X-39.705 Y-38.382
N19635 X-39.822 Y-38.23
N19640 X-40.062 Y-37.902
N19645 X-40.781 Y-36.871
N19650 X-41.796 Y-35.504
N19655 X-50.377 Y-23.952
N19660 X-50.701 Y-23.509
N19665 X-51.036 Y-23.029
N19670 X-51.336 Y-22.587
N19675 X-51.625 Y-22.07
N19680 X-51.816 Y-21.649
N19685 X-52.023 Y-21.11
N19690 X-52.182 Y-20.63
N19695 X-52.305 Y-20.151
N19700 X-52.405 Y-19.671
N19705 X-52.481 Y-19.191
N19710 X-52.554 Y-18.711
N19715 X-54.891 Y-2.879
N19720 X-54.964 Y-2.399
N19725 X-55.144 Y-1.439
N19730 X-55.174 Y-1.196
N19735 X-55.254 Y-0.48
N19740 X-55.257 Y0.
N19745 X-55.254 Y0.48
N19750 X-55.174 Y1.196
N19755 X-55.144 Y1.439
N19760 X-54.964 Y2.399
N19765 X-54.891 Y2.879
N19770 X-52.554 Y18.711
N19775 X-52.481 Y19.191
N19780 X-52.405 Y19.671
N19785 X-52.305 Y20.151
N19790 X-52.182 Y20.63
N19795 X-52.023 Y21.11
N19800 X-51.816 Y21.649
N19805 X-51.625 Y22.07
N19810 X-51.336 Y22.587
N19815 X-51.036 Y23.029
N19820 X-50.701 Y23.509
N19825 X-50.349 Y23.989
N19830 X-41.083 Y36.463
N19835 X-40.781 Y36.871
N19840 X-40.062 Y37.902
N19845 X-39.822 Y38.23
N19850 X-39.705 Y38.382
N19855 X-39.342 Y38.81
N19860 X-39.292 Y38.862
N19865 X-38.862 Y39.292
N19870 X-38.81 Y39.342
