%
O01011
(Using high feed G1 F5000. instead of G0.)
(T4 D=6. CR=0. - ZMIN=-41.648 - fresa con punta plana)
N10 G90 G94 G17
N15 G21
(When using Fusion for Personal Use, the feedrate of rapid)
(moves is reduced to match the feedrate of cutting moves,)
(which can increase machining time. Unrestricted rapid moves)
(are available with a Fusion Subscription.)
N20 G53 G0 Z0.

(Adaptativo3)
N25 T4 M6
N30 S5000 M3
N35 G17 G90 G94
N40 G54
N45 M8
N50 G1 X43.477 Y42.781 F5000.
N55 G0 G43 Z15. H4
N60 G1 Z5. F1000.
N65 Z-37.748
N70 Z-38.348
N75 X43.471 Y42.777 Z-38.442
N80 X43.452 Y42.765 Z-38.534
N85 X43.422 Y42.746 Z-38.621
N90 X43.38 Y42.719 Z-38.701
N95 X43.328 Y42.687 Z-38.773
N100 X43.268 Y42.649 Z-38.834
N105 X43.2 Y42.606 Z-38.883
N110 X43.126 Y42.559 Z-38.919
N115 X43.049 Y42.511 Z-38.941
N120 X42.969 Y42.461 Z-38.948
N125 G3 X40.384 Y40.41 I8.17 J-12.958
N130 G1 X40.281 Y40.301
N135 X40.203 Y40.173
N140 X40.139 Y40.037
N145 X40.085 Y39.897
N150 X40.041 Y39.754
N155 X40.005 Y39.608
N160 X39.976 Y39.461
N165 X39.954 Y39.313
N170 X39.938 Y39.164
N175 X39.928 Y39.014
N180 X39.923 Y38.864
N185 Y38.714
N190 X39.927 Y38.564
N195 X39.935 Y38.414
N200 X39.947 Y38.265
N205 X39.963 Y38.116
N210 X39.983 Y37.967
N215 X40.007 Y37.819
N220 X40.034 Y37.671
N225 X40.065 Y37.525
N230 X40.099 Y37.378
N235 X40.136 Y37.233
N240 X40.175 Y37.088
N245 X40.218 Y36.944
N250 X40.262 Y36.801
N255 X40.309 Y36.659
N260 X40.358 Y36.517
N265 X40.408 Y36.376
N270 X40.461 Y36.235
N275 X40.515 Y36.095
N280 X40.571 Y35.956
N285 X40.629 Y35.818
N290 X40.688 Y35.68
N295 X40.748 Y35.542
N300 X40.81 Y35.406
N305 X40.872 Y35.269
N310 X40.936 Y35.134
N315 X41.001 Y34.998
N320 X41.055 Y34.888
N325 X41.083 Y34.833
N330 X41.114 Y34.779
N335 X41.147 Y34.727
N340 X42.637 Y32.488
N345 X42.949 Y32.036
N350 X43.054 Y31.885
N355 X45.162 Y29.243
N360 X45.299 Y29.069
N365 X46.369 Y27.629
N370 X50.392 Y22.213
N375 X50.677 Y21.827
N380 X50.8 Y21.625
N385 X51.027 Y21.223
N390 X51.032 Y21.21
N395 X51.226 Y20.62
N400 X51.326 Y20.016
N405 X52.514 Y11.969
N410 X52.605 Y11.321
N415 X52.999 Y7.946
N420 X53.098 Y7.343
N425 X53.135 Y7.141
N430 X53.769 Y3.923
N435 X53.893 Y3.319
N440 X53.944 Y3.118
N445 X54.553 Y1.308
N450 X54.617 Y1.106
N455 X54.724 Y0.704
N460 X54.767 Y0.503
N465 X54.802 Y0.101
N470 Y-0.101
N475 X54.767 Y-0.503
N480 X54.725 Y-0.704
N485 X54.617 Y-1.109
N490 X54.555 Y-1.308
N495 X53.962 Y-3.118
N500 X53.91 Y-3.319
N505 X53.775 Y-3.923
N510 X53.129 Y-7.141
N515 X53.091 Y-7.343
N520 X52.985 Y-7.946
N525 X52.605 Y-11.319
N530 X52.514 Y-11.969
N535 X51.326 Y-20.016
N540 X51.226 Y-20.62
N545 X51.032 Y-21.21
N550 X51.027 Y-21.223
N555 X50.794 Y-21.635
N560 X50.677 Y-21.827
N565 X50.38 Y-22.229
N570 X45.449 Y-28.867
N575 X45.299 Y-29.069
N580 X45.141 Y-29.27
N585 X43.073 Y-31.885
N590 X42.928 Y-32.086
N595 X42.645 Y-32.488
N600 X40.891 Y-35.104
N605 X40.49 Y-35.707
N610 X40.365 Y-35.908
N615 X39.465 Y-37.719
N620 X39.36 Y-37.92
N625 X39.108 Y-38.322
N630 X38.967 Y-38.523
N635 X38.79 Y-38.725
N640 X38.725 Y-38.786
N645 X38.523 Y-38.966
N650 X38.322 Y-39.108
N655 X37.92 Y-39.36
N660 X37.719 Y-39.467
N665 X35.908 Y-40.384
N670 X35.707 Y-40.507
N675 X35.305 Y-40.766
N680 X35.104 Y-40.897
N685 X32.488 Y-42.637
N690 X32.036 Y-42.949
N695 X31.885 Y-43.054
N700 X29.243 Y-45.162
N705 X29.069 Y-45.299
N710 X27.629 Y-46.369
N715 X22.213 Y-50.392
N720 X21.827 Y-50.677
N725 X21.625 Y-50.8
N730 X21.223 Y-51.027
N735 X21.21 Y-51.032
N740 X20.62 Y-51.226
N745 X20.016 Y-51.326
N750 X11.969 Y-52.514
N755 X11.321 Y-52.605
N760 X7.946 Y-52.999
N765 X7.343 Y-53.098
N770 X7.141 Y-53.135
N775 X3.923 Y-53.769
N780 X3.319 Y-53.893
N785 X3.118 Y-53.944
N790 X1.308 Y-54.553
N795 X1.106 Y-54.617
N800 X0.704 Y-54.724
N805 X0.503 Y-54.767
N810 X0.101 Y-54.802
N815 X-0.101
N820 X-0.503 Y-54.767
N825 X-0.704 Y-54.725
N830 X-1.109 Y-54.617
N835 X-1.308 Y-54.555
N840 X-3.118 Y-53.962
N845 X-3.319 Y-53.91
N850 X-3.923 Y-53.775
N855 X-7.141 Y-53.129
N860 X-7.343 Y-53.091
N865 X-7.946 Y-52.985
N870 X-11.319 Y-52.605
N875 X-11.969 Y-52.514
N880 X-20.016 Y-51.326
N885 X-20.62 Y-51.226
N890 X-21.21 Y-51.032
N895 X-21.223 Y-51.027
N900 X-21.635 Y-50.794
N905 X-21.827 Y-50.677
N910 X-22.229 Y-50.38
N915 X-28.867 Y-45.449
N920 X-29.069 Y-45.299
N925 X-29.27 Y-45.141
N930 X-31.885 Y-43.073
N935 X-32.086 Y-42.928
N940 X-32.488 Y-42.645
N945 X-35.104 Y-40.891
N950 X-35.707 Y-40.49
N955 X-35.908 Y-40.365
N960 X-37.719 Y-39.465
N965 X-37.92 Y-39.36
N970 X-38.322 Y-39.108
N975 X-38.523 Y-38.967
N980 X-38.725 Y-38.79
N985 X-38.786 Y-38.725
N990 X-38.966 Y-38.523
N995 X-39.108 Y-38.322
N1000 X-39.36 Y-37.92
N1005 X-39.467 Y-37.719
N1010 X-40.384 Y-35.908
N1015 X-40.507 Y-35.707
N1020 X-40.766 Y-35.305
N1025 X-40.897 Y-35.104
N1030 X-42.637 Y-32.488
N1035 X-42.949 Y-32.036
N1040 X-43.054 Y-31.885
N1045 X-45.162 Y-29.243
N1050 X-45.299 Y-29.069
N1055 X-46.369 Y-27.629
N1060 X-50.392 Y-22.213
N1065 X-50.677 Y-21.827
N1070 X-50.8 Y-21.625
N1075 X-51.027 Y-21.223
N1080 X-51.032 Y-21.21
N1085 X-51.226 Y-20.62
N1090 X-51.326 Y-20.016
N1095 X-52.514 Y-11.969
N1100 X-52.605 Y-11.321
N1105 X-52.999 Y-7.946
N1110 X-53.098 Y-7.343
N1115 X-53.135 Y-7.141
N1120 X-53.769 Y-3.923
N1125 X-53.893 Y-3.319
N1130 X-53.944 Y-3.118
N1135 X-54.553 Y-1.308
N1140 X-54.617 Y-1.106
N1145 X-54.724 Y-0.704
N1150 X-54.767 Y-0.503
N1155 X-54.802 Y-0.101
N1160 Y0.101
N1165 X-54.767 Y0.503
N1170 X-54.725 Y0.704
N1175 X-54.617 Y1.109
N1180 X-54.555 Y1.308
N1185 X-53.962 Y3.118
N1190 X-53.91 Y3.319
N1195 X-53.775 Y3.923
N1200 X-53.129 Y7.141
N1205 X-53.091 Y7.343
N1210 X-52.985 Y7.946
N1215 X-52.605 Y11.319
N1220 X-52.514 Y11.969
N1225 X-51.326 Y20.016
N1230 X-51.226 Y20.62
N1235 X-51.032 Y21.21
N1240 X-51.027 Y21.223
N1245 X-50.794 Y21.635
N1250 X-50.677 Y21.827
N1255 X-50.38 Y22.229
N1260 X-45.449 Y28.867
N1265 X-45.299 Y29.069
N1270 X-45.141 Y29.27
N1275 X-43.073 Y31.885
N1280 X-42.928 Y32.086
N1285 X-42.645 Y32.488
N1290 X-40.891 Y35.104
N1295 X-40.49 Y35.707
N1300 X-40.365 Y35.908
N1305 X-39.465 Y37.719
N1310 X-39.36 Y37.92
N1315 X-39.108 Y38.322
N1320 X-38.967 Y38.523
N1325 X-38.79 Y38.725
N1330 X-38.725 Y38.786
N1335 X-38.523 Y38.966
N1340 X-38.322 Y39.108
N1345 X-37.92 Y39.36
N1350 X-37.719 Y39.467
N1355 X-35.908 Y40.384
N1360 X-35.707 Y40.507
N1365 X-35.305 Y40.766
N1370 X-35.104 Y40.897
N1375 X-32.488 Y42.637
N1380 X-32.036 Y42.949
N1385 X-31.885 Y43.054
N1390 X-29.243 Y45.162
N1395 X-29.069 Y45.299
N1400 X-27.629 Y46.369
N1405 X-22.213 Y50.392
N1410 X-21.827 Y50.677
N1415 X-21.625 Y50.8
N1420 X-21.223 Y51.027
N1425 X-21.21 Y51.032
N1430 X-20.62 Y51.226
N1435 X-20.016 Y51.326
N1440 X-11.969 Y52.514
N1445 X-11.321 Y52.605
N1450 X-7.946 Y52.999
N1455 X-7.343 Y53.098
N1460 X-7.141 Y53.135
N1465 X-3.923 Y53.769
N1470 X-3.319 Y53.893
N1475 X-3.118 Y53.944
N1480 X-1.308 Y54.553
N1485 X-1.106 Y54.617
N1490 X-0.704 Y54.724
N1495 X-0.503 Y54.767
N1500 X-0.101 Y54.802
N1505 X0.101
N1510 X0.503 Y54.767
N1515 X0.704 Y54.725
N1520 X1.109 Y54.617
N1525 X1.308 Y54.555
N1530 X3.118 Y53.962
N1535 X3.319 Y53.91
N1540 X3.923 Y53.775
N1545 X7.141 Y53.129
N1550 X7.343 Y53.091
N1555 X7.946 Y52.985
N1560 X11.319 Y52.605
N1565 X11.969 Y52.514
N1570 X20.016 Y51.326
N1575 X20.62 Y51.226
N1580 X21.21 Y51.032
N1585 X21.223 Y51.027
N1590 X21.635 Y50.794
N1595 X21.827 Y50.677
N1600 X22.229 Y50.38
N1605 X28.867 Y45.449
N1610 X29.069 Y45.299
N1615 X29.27 Y45.141
N1620 X31.885 Y43.073
N1625 X32.086 Y42.928
N1630 X32.488 Y42.645
N1635 X35.104 Y40.891
N1640 X35.707 Y40.49
N1645 X35.908 Y40.365
N1650 X37.719 Y39.465
N1655 X37.92 Y39.36
N1660 X38.322 Y39.108
N1665 X38.523 Y38.966
N1670 X38.725 Y38.786
N1675 X38.79 Y38.725
N1680 X38.967 Y38.523
N1685 X39.108 Y38.322
N1690 X39.36 Y37.92
N1695 X39.467 Y37.719
N1700 X40.384 Y35.908
N1705 X40.507 Y35.707
N1710 X40.766 Y35.305
N1715 X40.897 Y35.104
N1720 X41.147 Y34.727
N1725 X41.207 Y34.656
N1730 X41.277 Y34.595
N1735 X41.343 Y34.563 Z-38.944
N1740 X41.408 Y34.531 Z-38.93
N1745 X41.471 Y34.5 Z-38.907
N1750 X41.557 Y34.488 Z-38.865
N1755 X41.635 Y34.477 Z-38.81
N1760 X41.696 Y34.488 Z-38.749
N1765 X41.749 Y34.498 Z-38.679
N1770 X41.791 Y34.505 Z-38.603
N1775 X41.821 Y34.511 Z-38.521
N1780 X41.84 Y34.514 Z-38.436
N1785 X41.846 Y34.515 Z-38.349
N1790 Z5.
N1795 X41.37 Y41.693
N1800 Z-36.398
N1805 Z-36.998
N1810 X41.364 Y41.689 Z-37.092
N1815 X41.347 Y41.675 Z-37.184
N1820 X41.318 Y41.653 Z-37.271
N1825 X41.28 Y41.623 Z-37.351
N1830 X41.231 Y41.585 Z-37.423
N1835 X41.175 Y41.541 Z-37.484
N1840 X41.112 Y41.491 Z-37.533
N1845 X41.043 Y41.438 Z-37.569
N1850 X40.971 Y41.382 Z-37.591
N1855 X40.897 Y41.324 Z-37.598
N1860 G3 X38.53 Y39.024 I9.429 J-12.072
N1865 G1 X38.439 Y38.905
N1870 X38.381 Y38.767
N1875 X38.318 Y38.578
N1880 X38.262 Y38.345
N1885 X38.217 Y38.058
N1890 X38.19 Y37.705
N1895 X38.191 Y37.297
N1900 X38.227 Y36.877
N1905 X38.31 Y36.377
N1910 X38.462 Y35.767
N1915 X38.733 Y34.963
N1920 X39.083 Y34.149
N1925 X39.198 Y33.918
N1930 X39.228 Y33.861
N1935 X39.26 Y33.806
N1940 X39.296 Y33.752
N1945 X39.616 Y33.293
N1950 X39.73 Y33.134
N1955 X40.566 Y32.086
N1960 X40.736 Y31.872
N1965 X40.881 Y31.684
N1970 X48.651 Y21.223
N1975 X48.783 Y21.039
N1980 X48.984 Y20.722
N1985 X49.046 Y20.62
N1990 X49.132 Y20.418
N1995 X49.278 Y20.016
N2000 X49.33 Y19.815
N2005 X49.403 Y19.413
N2010 X49.436 Y19.211
N2015 X51.276 Y6.739
N2020 X51.304 Y6.538
N2025 X51.382 Y5.934
N2030 X51.523 Y4.727
N2035 X51.55 Y4.526
N2040 X51.617 Y4.124
N2045 X51.652 Y3.923
N2050 X51.89 Y2.716
N2055 X51.931 Y2.515
N2060 X52.085 Y1.911
N2065 X52.147 Y1.71
N2070 X52.282 Y1.308
N2075 X52.346 Y1.106
N2080 X52.454 Y0.704
N2085 X52.496 Y0.503
N2090 X52.532 Y0.101
N2095 Y-0.101
N2100 X52.496 Y-0.503
N2105 X52.454 Y-0.704
N2110 X52.347 Y-1.106
N2115 X52.285 Y-1.308
N2120 X52.153 Y-1.71
N2125 X52.092 Y-1.911
N2130 X51.934 Y-2.515
N2135 X51.892 Y-2.716
N2140 X51.649 Y-3.923
N2145 X51.543 Y-4.526
N2150 X51.516 Y-4.727
N2155 X51.38 Y-5.934
N2160 X51.304 Y-6.538
N2165 X51.276 Y-6.739
N2170 X49.436 Y-19.211
N2175 X49.403 Y-19.413
N2180 X49.33 Y-19.815
N2185 X49.278 Y-20.016
N2190 X49.132 Y-20.418
N2195 X49.046 Y-20.62
N2200 X48.984 Y-20.722
N2205 X48.783 Y-21.039
N2210 X48.651 Y-21.223
N2215 X40.881 Y-31.684
N2220 X40.726 Y-31.885
N2225 X39.73 Y-33.145
N2230 X39.623 Y-33.293
N2235 X39.328 Y-33.709
N2240 X39.199 Y-33.897
N2245 X38.389 Y-35.104
N2250 X38.322 Y-35.206
N2255 X38.27 Y-35.305
N2260 X37.754 Y-36.311
N2265 X37.719 Y-36.38
N2270 X37.649 Y-36.512
N2275 X37.316 Y-36.951
N2280 X37.189 Y-37.115
N2285 X37.115 Y-37.189
N2290 X36.914 Y-37.344
N2295 X36.512 Y-37.649
N2300 X36.382 Y-37.719
N2305 X35.908 Y-37.965
N2310 X35.305 Y-38.274
N2315 X35.212 Y-38.322
N2320 X35.104 Y-38.393
N2325 X33.897 Y-39.197
N2330 X33.695 Y-39.334
N2335 X33.293 Y-39.615
N2340 X33.134 Y-39.73
N2345 X32.086 Y-40.566
N2350 X31.872 Y-40.736
N2355 X31.684 Y-40.881
N2360 X21.223 Y-48.651
N2365 X21.039 Y-48.783
N2370 X20.722 Y-48.984
N2375 X20.62 Y-49.046
N2380 X20.418 Y-49.132
N2385 X20.016 Y-49.278
N2390 X19.815 Y-49.33
N2395 X19.413 Y-49.403
N2400 X19.211 Y-49.436
N2405 X6.739 Y-51.276
N2410 X6.538 Y-51.304
N2415 X5.934 Y-51.382
N2420 X4.727 Y-51.523
N2425 X4.526 Y-51.55
N2430 X4.124 Y-51.617
N2435 X3.923 Y-51.652
N2440 X2.716 Y-51.89
N2445 X2.515 Y-51.931
N2450 X1.911 Y-52.085
N2455 X1.71 Y-52.147
N2460 X1.308 Y-52.282
N2465 X1.106 Y-52.346
N2470 X0.704 Y-52.454
N2475 X0.503 Y-52.496
N2480 X0.101 Y-52.532
N2485 X-0.101
N2490 X-0.503 Y-52.496
N2495 X-0.704 Y-52.454
N2500 X-1.106 Y-52.347
N2505 X-1.308 Y-52.285
N2510 X-1.71 Y-52.153
N2515 X-1.911 Y-52.092
N2520 X-2.515 Y-51.934
N2525 X-2.716 Y-51.892
N2530 X-3.923 Y-51.649
N2535 X-4.526 Y-51.543
N2540 X-4.727 Y-51.516
N2545 X-5.934 Y-51.38
N2550 X-6.538 Y-51.304
N2555 X-6.739 Y-51.276
N2560 X-19.211 Y-49.436
N2565 X-19.413 Y-49.403
N2570 X-19.815 Y-49.33
N2575 X-20.016 Y-49.278
N2580 X-20.418 Y-49.132
N2585 X-20.62 Y-49.046
N2590 X-20.722 Y-48.984
N2595 X-21.039 Y-48.783
N2600 X-21.223 Y-48.651
N2605 X-31.684 Y-40.881
N2610 X-31.885 Y-40.726
N2615 X-33.145 Y-39.73
N2620 X-33.293 Y-39.623
N2625 X-33.709 Y-39.328
N2630 X-33.897 Y-39.199
N2635 X-35.104 Y-38.389
N2640 X-35.206 Y-38.322
N2645 X-35.305 Y-38.27
N2650 X-36.311 Y-37.754
N2655 X-36.38 Y-37.719
N2660 X-36.512 Y-37.649
N2665 X-36.951 Y-37.316
N2670 X-37.115 Y-37.189
N2675 X-37.189 Y-37.115
N2680 X-37.344 Y-36.914
N2685 X-37.649 Y-36.512
N2690 X-37.719 Y-36.382
N2695 X-37.965 Y-35.908
N2700 X-38.274 Y-35.305
N2705 X-38.322 Y-35.212
N2710 X-38.393 Y-35.104
N2715 X-39.197 Y-33.897
N2720 X-39.334 Y-33.695
N2725 X-39.615 Y-33.293
N2730 X-39.73 Y-33.134
N2735 X-40.566 Y-32.086
N2740 X-40.736 Y-31.872
N2745 X-40.881 Y-31.684
N2750 X-48.651 Y-21.223
N2755 X-48.783 Y-21.039
N2760 X-48.984 Y-20.722
N2765 X-49.046 Y-20.62
N2770 X-49.132 Y-20.418
N2775 X-49.278 Y-20.016
N2780 X-49.33 Y-19.815
N2785 X-49.403 Y-19.413
N2790 X-49.436 Y-19.211
N2795 X-51.276 Y-6.739
N2800 X-51.304 Y-6.538
N2805 X-51.382 Y-5.934
N2810 X-51.523 Y-4.727
N2815 X-51.55 Y-4.526
N2820 X-51.617 Y-4.124
N2825 X-51.652 Y-3.923
N2830 X-51.89 Y-2.716
N2835 X-51.931 Y-2.515
N2840 X-52.085 Y-1.911
N2845 X-52.147 Y-1.71
N2850 X-52.282 Y-1.308
N2855 X-52.346 Y-1.106
N2860 X-52.454 Y-0.704
N2865 X-52.496 Y-0.503
N2870 X-52.532 Y-0.101
N2875 Y0.101
N2880 X-52.496 Y0.503
N2885 X-52.454 Y0.704
N2890 X-52.347 Y1.106
N2895 X-52.285 Y1.308
N2900 X-52.153 Y1.71
N2905 X-52.092 Y1.911
N2910 X-51.934 Y2.515
N2915 X-51.892 Y2.716
N2920 X-51.649 Y3.923
N2925 X-51.543 Y4.526
N2930 X-51.516 Y4.727
N2935 X-51.38 Y5.934
N2940 X-51.304 Y6.538
N2945 X-51.276 Y6.739
N2950 X-49.436 Y19.211
N2955 X-49.403 Y19.413
N2960 X-49.33 Y19.815
N2965 X-49.278 Y20.016
N2970 X-49.132 Y20.418
N2975 X-49.046 Y20.62
N2980 X-48.984 Y20.722
N2985 X-48.783 Y21.039
N2990 X-48.651 Y21.223
N2995 X-40.881 Y31.684
N3000 X-40.726 Y31.885
N3005 X-39.73 Y33.145
N3010 X-39.623 Y33.293
N3015 X-39.328 Y33.71
N3020 X-39.199 Y33.897
N3025 X-38.389 Y35.104
N3030 X-38.322 Y35.206
N3035 X-38.27 Y35.305
N3040 X-37.754 Y36.311
N3045 X-37.719 Y36.38
N3050 X-37.649 Y36.512
N3055 X-37.316 Y36.951
N3060 X-37.189 Y37.115
N3065 X-37.115 Y37.189
N3070 X-36.914 Y37.344
N3075 X-36.512 Y37.649
N3080 X-36.382 Y37.719
N3085 X-35.908 Y37.965
N3090 X-35.305 Y38.274
N3095 X-35.212 Y38.322
N3100 X-35.104 Y38.393
N3105 X-33.897 Y39.197
N3110 X-33.695 Y39.334
N3115 X-33.293 Y39.616
N3120 X-33.134 Y39.73
N3125 X-32.086 Y40.566
N3130 X-31.872 Y40.736
N3135 X-31.684 Y40.881
N3140 X-21.223 Y48.651
N3145 X-21.039 Y48.783
N3150 X-20.722 Y48.984
N3155 X-20.62 Y49.046
N3160 X-20.418 Y49.132
N3165 X-20.016 Y49.278
N3170 X-19.815 Y49.33
N3175 X-19.413 Y49.403
N3180 X-19.211 Y49.436
N3185 X-6.739 Y51.276
N3190 X-6.538 Y51.304
N3195 X-5.934 Y51.382
N3200 X-4.727 Y51.523
N3205 X-4.526 Y51.55
N3210 X-4.124 Y51.617
N3215 X-3.923 Y51.652
N3220 X-2.716 Y51.89
N3225 X-2.515 Y51.931
N3230 X-1.911 Y52.085
N3235 X-1.71 Y52.147
N3240 X-1.308 Y52.282
N3245 X-1.106 Y52.346
N3250 X-0.704 Y52.454
N3255 X-0.503 Y52.496
N3260 X-0.101 Y52.532
N3265 X0.101
N3270 X0.503 Y52.496
N3275 X0.704 Y52.454
N3280 X1.106 Y52.347
N3285 X1.308 Y52.285
N3290 X1.71 Y52.153
N3295 X1.911 Y52.092
N3300 X2.515 Y51.934
N3305 X2.716 Y51.892
N3310 X3.923 Y51.649
N3315 X4.526 Y51.543
N3320 X4.727 Y51.516
N3325 X5.934 Y51.38
N3330 X6.538 Y51.304
N3335 X6.739 Y51.276
N3340 X19.211 Y49.436
N3345 X19.413 Y49.403
N3350 X19.815 Y49.33
N3355 X20.016 Y49.278
N3360 X20.418 Y49.132
N3365 X20.62 Y49.046
N3370 X20.722 Y48.984
N3375 X21.039 Y48.783
N3380 X21.223 Y48.651
N3385 X31.684 Y40.881
N3390 X31.885 Y40.726
N3395 X33.145 Y39.73
N3400 X33.293 Y39.623
N3405 X33.709 Y39.328
N3410 X33.897 Y39.199
N3415 X35.104 Y38.389
N3420 X35.206 Y38.322
N3425 X35.305 Y38.27
N3430 X36.311 Y37.754
N3435 X36.38 Y37.719
N3440 X36.512 Y37.649
N3445 X36.951 Y37.316
N3450 X37.115 Y37.189
N3455 X37.189 Y37.115
N3460 X37.344 Y36.914
N3465 X37.649 Y36.512
N3470 X37.719 Y36.382
N3475 X37.965 Y35.908
N3480 X38.274 Y35.305
N3485 X38.322 Y35.212
N3490 X38.393 Y35.104
N3495 X39.197 Y33.897
N3500 X39.296 Y33.752
N3505 X39.356 Y33.682
N3510 X39.427 Y33.622
N3515 X39.493 Y33.59 Z-37.594
N3520 X39.559 Y33.559 Z-37.58
N3525 X39.623 Y33.528 Z-37.557
N3530 X39.704 Y33.518 Z-37.518
N3535 X39.779 Y33.508 Z-37.466
N3540 X39.843 Y33.52 Z-37.404
N3545 X39.898 Y33.53 Z-37.333
N3550 X39.941 Y33.538 Z-37.255
N3555 X39.973 Y33.544 Z-37.17
N3560 X39.992 Y33.547 Z-37.082
N3565 X39.997 Y33.549 Z-36.998
N3570 Z5.
N3575 X-40.378 Y-39.433
N3580 Z-35.048
N3585 Z-35.648
N3590 X-40.372 Y-39.43 Z-35.742
N3595 X-40.353 Y-39.419 Z-35.834
N3600 X-40.322 Y-39.4 Z-35.921
N3605 X-40.279 Y-39.375 Z-36.001
N3610 X-40.227 Y-39.344 Z-36.073
N3615 X-40.165 Y-39.307 Z-36.134
N3620 X-40.096 Y-39.267 Z-36.183
N3625 X-40.021 Y-39.222 Z-36.219
N3630 X-39.942 Y-39.176 Z-36.241
N3635 X-39.862 Y-39.128 Z-36.248
N3640 G3 X-37.22 Y-37.15 I-7.805 J13.18
N3645 G1 X-37.163 Y-37.093
N3650 X-37.073 Y-36.973
N3655 X-37. Y-36.842
N3660 X-36.938 Y-36.705
N3665 X-36.886 Y-36.565
N3670 X-36.843 Y-36.421
N3675 X-36.808 Y-36.275
N3680 X-36.782 Y-36.127
N3685 X-36.764 Y-35.978
N3690 X-36.753 Y-35.829
N3695 X-36.749 Y-35.679
N3700 X-36.75 Y-35.529
N3705 X-36.757 Y-35.379
N3710 X-36.768 Y-35.229
N3715 X-36.784 Y-35.08
N3720 X-36.804 Y-34.932
N3725 X-36.828 Y-34.784
N3730 X-36.856 Y-34.636
N3735 X-36.888 Y-34.49
N3740 X-36.923 Y-34.344
N3745 X-36.961 Y-34.199
N3750 X-37.002 Y-34.054
N3755 X-37.046 Y-33.911
N3760 X-37.094 Y-33.769
N3765 X-37.144 Y-33.627
N3770 X-37.197 Y-33.487
N3775 X-37.252 Y-33.347
N3780 X-37.289 Y-33.257
N3785 X-37.337 Y-33.153
N3790 X-37.394 Y-33.053
N3795 X-37.459 Y-32.957
N3800 X-46.773 Y-20.418
N3805 X-46.972 Y-20.133
N3810 X-47.051 Y-20.016
N3815 X-47.161 Y-19.815
N3820 X-47.381 Y-19.262
N3825 X-47.387 Y-19.245
N3830 X-47.477 Y-18.809
N3835 X-47.515 Y-18.608
N3840 X-50.009 Y-1.71
N3845 X-50.068 Y-1.308
N3850 X-50.106 Y-1.106
N3855 X-50.192 Y-0.704
N3860 X-50.226 Y-0.503
N3865 X-50.261 Y-0.101
N3870 Y0.101
N3875 X-50.226 Y0.503
N3880 X-50.191 Y0.711
N3885 X-50.106 Y1.106
N3890 X-50.068 Y1.308
N3895 X-49.831 Y2.917
N3900 X-47.515 Y18.608
N3905 X-47.477 Y18.809
N3910 X-47.387 Y19.245
N3915 X-47.321 Y19.413
N3920 X-47.161 Y19.815
N3925 X-47.051 Y20.016
N3930 X-46.972 Y20.133
N3935 X-46.771 Y20.421
N3940 X-36.462 Y34.299
N3945 X-36.311 Y34.506
N3950 X-35.908 Y35.117
N3955 X-35.763 Y35.305
N3960 X-35.707 Y35.374
N3965 X-35.374 Y35.707
N3970 X-35.305 Y35.763
N3975 X-35.117 Y35.908
N3980 X-34.5 Y36.315
N3985 X-34.232 Y36.512
N3990 X-20.418 Y46.773
N3995 X-20.133 Y46.972
N4000 X-20.016 Y47.051
N4005 X-19.815 Y47.161
N4010 X-19.262 Y47.381
N4015 X-19.245 Y47.387
N4020 X-18.809 Y47.477
N4025 X-18.608 Y47.515
N4030 X-1.71 Y50.009
N4035 X-1.308 Y50.068
N4040 X-1.106 Y50.106
N4045 X-0.704 Y50.192
N4050 X-0.503 Y50.226
N4055 X-0.101 Y50.261
N4060 X0.101
N4065 X0.503 Y50.226
N4070 X0.711 Y50.191
N4075 X1.106 Y50.106
N4080 X1.308 Y50.068
N4085 X2.917 Y49.831
N4090 X18.608 Y47.515
N4095 X18.809 Y47.477
N4100 X19.245 Y47.387
N4105 X19.413 Y47.321
N4110 X19.815 Y47.161
N4115 X20.016 Y47.051
N4120 X20.133 Y46.972
N4125 X20.421 Y46.771
N4130 X34.299 Y36.462
N4135 X34.506 Y36.311
N4140 X35.117 Y35.908
N4145 X35.305 Y35.763
N4150 X35.374 Y35.707
N4155 X35.707 Y35.374
N4160 X35.763 Y35.305
N4165 X35.908 Y35.117
N4170 X36.315 Y34.5
N4175 X36.512 Y34.232
N4180 X46.773 Y20.418
N4185 X46.972 Y20.133
N4190 X47.051 Y20.016
N4195 X47.161 Y19.815
N4200 X47.381 Y19.262
N4205 X47.387 Y19.245
N4210 X47.477 Y18.809
N4215 X47.515 Y18.608
N4220 X50.009 Y1.71
N4225 X50.068 Y1.308
N4230 X50.106 Y1.106
N4235 X50.192 Y0.704
N4240 X50.226 Y0.503
N4245 X50.261 Y0.101
N4250 Y-0.101
N4255 X50.226 Y-0.503
N4260 X50.191 Y-0.711
N4265 X50.106 Y-1.106
N4270 X50.068 Y-1.308
N4275 X49.831 Y-2.917
N4280 X47.515 Y-18.608
N4285 X47.477 Y-18.809
N4290 X47.387 Y-19.245
N4295 X47.321 Y-19.413
N4300 X47.161 Y-19.815
N4305 X47.051 Y-20.016
N4310 X46.972 Y-20.133
N4315 X46.771 Y-20.421
N4320 X36.462 Y-34.299
N4325 X36.311 Y-34.506
N4330 X35.908 Y-35.117
N4335 X35.763 Y-35.305
N4340 X35.707 Y-35.374
N4345 X35.374 Y-35.707
N4350 X35.305 Y-35.763
N4355 X35.117 Y-35.908
N4360 X34.5 Y-36.315
N4365 X34.232 Y-36.512
N4370 X20.418 Y-46.773
N4375 X20.133 Y-46.972
N4380 X20.016 Y-47.051
N4385 X19.815 Y-47.161
N4390 X19.262 Y-47.381
N4395 X19.245 Y-47.387
N4400 X18.809 Y-47.477
N4405 X18.608 Y-47.515
N4410 X1.71 Y-50.009
N4415 X1.308 Y-50.068
N4420 X1.106 Y-50.106
N4425 X0.704 Y-50.192
N4430 X0.503 Y-50.226
N4435 X0.101 Y-50.261
N4440 X-0.101
N4445 X-0.503 Y-50.226
N4450 X-0.711 Y-50.191
N4455 X-1.106 Y-50.106
N4460 X-1.308 Y-50.068
N4465 X-2.917 Y-49.831
N4470 X-18.608 Y-47.515
N4475 X-18.809 Y-47.477
N4480 X-19.245 Y-47.387
N4485 X-19.413 Y-47.321
N4490 X-19.815 Y-47.161
N4495 X-20.016 Y-47.051
N4500 X-20.133 Y-46.972
N4505 X-20.421 Y-46.771
N4510 X-34.299 Y-36.462
N4515 X-34.506 Y-36.311
N4520 X-35.117 Y-35.908
N4525 X-35.305 Y-35.763
N4530 X-35.374 Y-35.707
N4535 X-35.707 Y-35.374
N4540 X-35.763 Y-35.305
N4545 X-35.908 Y-35.117
N4550 X-36.315 Y-34.5
N4555 X-36.512 Y-34.232
N4560 X-37.459 Y-32.957
N4565 X-37.522 Y-32.89
N4570 X-37.595 Y-32.832
N4575 X-37.663 Y-32.803 Z-36.244
N4580 X-37.729 Y-32.775 Z-36.23
N4585 X-37.794 Y-32.747 Z-36.207
N4590 X-37.863 Y-32.739 Z-36.175
N4595 X-37.928 Y-32.732 Z-36.134
N4600 X-37.998 Y-32.745 Z-36.072
N4605 X-38.058 Y-32.756 Z-36.
N4610 X-38.106 Y-32.764 Z-35.92
N4615 X-38.141 Y-32.771 Z-35.833
N4620 X-38.161 Y-32.779 Z-35.742
N4625 X-38.168 Y-32.782 Z-35.648
N4630 Z5.
N4635 X-37.823 Y38.703
N4640 Z-33.698
N4645 Z-34.298
N4650 X-37.819 Y38.697 Z-34.392
N4655 X-37.808 Y38.678 Z-34.484
N4660 X-37.789 Y38.647 Z-34.571
N4665 X-37.764 Y38.605 Z-34.651
N4670 X-37.733 Y38.552 Z-34.723
N4675 X-37.697 Y38.491 Z-34.784
N4680 X-37.656 Y38.421 Z-34.833
N4685 X-37.611 Y38.347 Z-34.869
N4690 X-37.565 Y38.268 Z-34.891
N4695 X-37.517 Y38.187 Z-34.898
N4700 G3 X-35.539 Y35.545 I13.18 J7.805
N4705 G1 X-35.433 Y35.439
N4710 X-35.295 Y35.38
N4715 X-35.152 Y35.336
N4720 X-34.986 Y35.3
N4725 X-34.781 Y35.273
N4730 X-34.531 Y35.261
N4735 X-34.229 Y35.27
N4740 X-33.863 Y35.31
N4745 X-33.416 Y35.396
N4750 X-32.859 Y35.551
N4755 X-32.141 Y35.814
N4760 X-31.478 Y36.119
N4765 X-31.391 Y36.163
N4770 X-31.308 Y36.212
N4775 X-31.228 Y36.267
N4780 X-19.795 Y44.759
N4785 X-19.413 Y45.041
N4790 X-19.211 Y45.166
N4795 X-19.01 Y45.267
N4800 X-18.57 Y45.459
N4805 X-18.558 Y45.464
N4810 X-18.004 Y45.592
N4815 X-17.803 Y45.625
N4820 X-2.716 Y47.851
N4825 X-2.515 Y47.878
N4830 X-2.112 Y47.923
N4835 X-1.911 Y47.938
N4840 X-1.308 Y47.941
N4845 X1.308
N4850 X1.911 Y47.938
N4855 X2.112 Y47.923
N4860 X2.515 Y47.878
N4865 X2.716 Y47.851
N4870 X17.803 Y45.625
N4875 X18.004 Y45.592
N4880 X18.558 Y45.464
N4885 X18.583 Y45.453
N4890 X19.01 Y45.267
N4895 X19.211 Y45.166
N4900 X19.413 Y45.041
N4905 X19.815 Y44.745
N4910 X31.982 Y35.707
N4915 X32.086 Y35.627
N4920 X32.287 Y35.47
N4925 X32.488 Y35.301
N4930 X32.694 Y35.104
N4935 X32.897 Y34.902
N4940 X34.908 Y32.891
N4945 X35.108 Y32.69
N4950 X35.305 Y32.485
N4955 X35.47 Y32.287
N4960 X35.627 Y32.086
N4965 X35.707 Y31.982
N4970 X44.76 Y19.795
N4975 X45.041 Y19.413
N4980 X45.166 Y19.211
N4985 X45.267 Y19.01
N4990 X45.459 Y18.57
N4995 X45.464 Y18.558
N5000 X45.592 Y18.004
N5005 X45.625 Y17.803
N5010 X47.851 Y2.716
N5015 X47.878 Y2.515
N5020 X47.923 Y2.112
N5025 X47.938 Y1.911
N5030 X47.941 Y1.308
N5035 Y-1.308
N5040 X47.938 Y-1.911
N5045 X47.923 Y-2.112
N5050 X47.878 Y-2.515
N5055 X47.851 Y-2.716
N5060 X45.625 Y-17.803
N5065 X45.592 Y-18.004
N5070 X45.464 Y-18.558
N5075 X45.453 Y-18.583
N5080 X45.267 Y-19.01
N5085 X45.166 Y-19.211
N5090 X45.041 Y-19.413
N5095 X44.745 Y-19.815
N5100 X35.707 Y-31.982
N5105 X35.627 Y-32.086
N5110 X35.47 Y-32.287
N5115 X35.301 Y-32.488
N5120 X35.104 Y-32.694
N5125 X34.902 Y-32.897
N5130 X32.891 Y-34.908
N5135 X32.69 Y-35.108
N5140 X32.485 Y-35.305
N5145 X32.287 Y-35.47
N5150 X32.086 Y-35.627
N5155 X31.982 Y-35.707
N5160 X19.795 Y-44.76
N5165 X19.413 Y-45.041
N5170 X19.211 Y-45.166
N5175 X19.01 Y-45.267
N5180 X18.57 Y-45.459
N5185 X18.558 Y-45.464
N5190 X18.004 Y-45.592
N5195 X17.803 Y-45.625
N5200 X2.716 Y-47.851
N5205 X2.515 Y-47.878
N5210 X2.112 Y-47.923
N5215 X1.911 Y-47.938
N5220 X1.308 Y-47.941
N5225 X-1.308
N5230 X-1.911 Y-47.938
N5235 X-2.112 Y-47.923
N5240 X-2.515 Y-47.878
N5245 X-2.716 Y-47.851
N5250 X-17.803 Y-45.625
N5255 X-18.004 Y-45.592
N5260 X-18.558 Y-45.464
N5265 X-18.583 Y-45.453
N5270 X-19.01 Y-45.267
N5275 X-19.211 Y-45.166
N5280 X-19.413 Y-45.041
N5285 X-19.815 Y-44.745
N5290 X-31.982 Y-35.707
N5295 X-32.086 Y-35.627
N5300 X-32.287 Y-35.47
N5305 X-32.488 Y-35.301
N5310 X-32.694 Y-35.104
N5315 X-32.897 Y-34.902
N5320 X-34.908 Y-32.891
N5325 X-35.108 Y-32.69
N5330 X-35.305 Y-32.485
N5335 X-35.47 Y-32.287
N5340 X-35.627 Y-32.086
N5345 X-35.707 Y-31.982
N5350 X-44.76 Y-19.795
N5355 X-45.041 Y-19.413
N5360 X-45.166 Y-19.211
N5365 X-45.267 Y-19.01
N5370 X-45.459 Y-18.57
N5375 X-45.464 Y-18.558
N5380 X-45.592 Y-18.004
N5385 X-45.625 Y-17.803
N5390 X-47.851 Y-2.716
N5395 X-47.878 Y-2.515
N5400 X-47.923 Y-2.112
N5405 X-47.938 Y-1.911
N5410 X-47.941 Y-1.308
N5415 Y1.308
N5420 X-47.938 Y1.911
N5425 X-47.923 Y2.112
N5430 X-47.878 Y2.515
N5435 X-47.851 Y2.716
N5440 X-45.625 Y17.803
N5445 X-45.592 Y18.004
N5450 X-45.464 Y18.558
N5455 X-45.453 Y18.583
N5460 X-45.267 Y19.01
N5465 X-45.166 Y19.211
N5470 X-45.041 Y19.413
N5475 X-44.745 Y19.815
N5480 X-35.707 Y31.982
N5485 X-35.627 Y32.086
N5490 X-35.47 Y32.287
N5495 X-35.301 Y32.488
N5500 X-35.104 Y32.694
N5505 X-34.902 Y32.897
N5510 X-32.891 Y34.908
N5515 X-32.69 Y35.108
N5520 X-32.485 Y35.305
N5525 X-32.287 Y35.47
N5530 X-32.086 Y35.627
N5535 X-31.982 Y35.707
N5540 X-31.228 Y36.267
N5545 X-31.161 Y36.33
N5550 X-31.103 Y36.403
N5555 X-31.074 Y36.471 Z-34.894
N5560 X-31.045 Y36.538 Z-34.88
N5565 X-31.018 Y36.602 Z-34.857
N5570 X-31.01 Y36.672 Z-34.825
N5575 X-31.003 Y36.736 Z-34.784
N5580 X-31.016 Y36.806 Z-34.722
N5585 X-31.027 Y36.866 Z-34.65
N5590 X-31.035 Y36.914 Z-34.57
N5595 X-31.042 Y36.949 Z-34.483
N5600 X-31.05 Y36.969 Z-34.392
N5605 X-31.053 Y36.976 Z-34.298
N5610 Z5.
N5615 X37.071 Y36.287
N5620 Z-32.348
N5625 Z-32.948
N5630 X37.065 Y36.284 Z-33.042
N5635 X37.046 Y36.272 Z-33.134
N5640 X37.015 Y36.254 Z-33.221
N5645 X36.972 Y36.229 Z-33.301
N5650 X36.92 Y36.198 Z-33.373
N5655 X36.858 Y36.161 Z-33.434
N5660 X36.789 Y36.121 Z-33.483
N5665 X36.714 Y36.076 Z-33.519
N5670 X36.635 Y36.03 Z-33.541
N5675 X36.555 Y35.982 Z-33.548
N5680 G3 X33.913 Y34.004 I7.805 J-13.18
N5685 G1 X33.807 Y33.898
N5690 X33.748 Y33.76
N5695 X33.713 Y33.614
N5700 X33.695 Y33.465
N5705 X33.687 Y33.284
N5710 X33.697 Y32.988
N5715 X33.741 Y32.616
N5720 X33.831 Y32.162
N5725 X33.993 Y31.594
N5730 X34.267 Y30.86
N5735 X34.643 Y30.057
N5740 X34.811 Y29.751
N5745 X34.876 Y29.644
N5750 X34.95 Y29.544
N5755 X35.032 Y29.45
N5760 X35.104 Y29.376
N5765 X35.305 Y29.16
N5770 X35.389 Y29.069
N5775 X35.707 Y28.649
N5780 X43.016 Y18.809
N5785 X43.155 Y18.608
N5790 X43.282 Y18.407
N5795 X43.474 Y18.004
N5800 X43.553 Y17.828
N5805 X43.622 Y17.602
N5810 X43.667 Y17.401
N5815 X43.704 Y17.2
N5820 X43.912 Y15.792
N5825 X45.545 Y4.727
N5830 X45.564 Y4.554
N5835 X45.589 Y4.124
N5840 X45.596 Y3.923
N5845 Y-3.923
N5850 X45.589 Y-4.124
N5855 X45.564 Y-4.554
N5860 X45.545 Y-4.727
N5865 X43.754 Y-16.865
N5870 X43.704 Y-17.2
N5875 X43.667 Y-17.401
N5880 X43.622 Y-17.602
N5885 X43.553 Y-17.828
N5890 X43.474 Y-18.004
N5895 X43.282 Y-18.407
N5900 X43.15 Y-18.615
N5905 X43.016 Y-18.809
N5910 X35.694 Y-28.666
N5915 X35.389 Y-29.069
N5920 X35.305 Y-29.16
N5925 X35.104 Y-29.376
N5930 X35.012 Y-29.471
N5935 X29.471 Y-35.012
N5940 X29.376 Y-35.104
N5945 X29.16 Y-35.305
N5950 X29.069 Y-35.389
N5955 X28.649 Y-35.707
N5960 X18.809 Y-43.016
N5965 X18.608 Y-43.155
N5970 X18.407 Y-43.282
N5975 X18.004 Y-43.474
N5980 X17.828 Y-43.553
N5985 X17.602 Y-43.622
N5990 X17.401 Y-43.667
N5995 X17.2 Y-43.704
N6000 X15.792 Y-43.912
N6005 X4.727 Y-45.545
N6010 X4.554 Y-45.564
N6015 X4.124 Y-45.589
N6020 X3.923 Y-45.596
N6025 X-3.923
N6030 X-4.124 Y-45.589
N6035 X-4.554 Y-45.564
N6040 X-4.727 Y-45.545
N6045 X-16.866 Y-43.754
N6050 X-17.2 Y-43.704
N6055 X-17.401 Y-43.667
N6060 X-17.602 Y-43.622
N6065 X-17.828 Y-43.553
N6070 X-18.004 Y-43.474
N6075 X-18.407 Y-43.282
N6080 X-18.615 Y-43.15
N6085 X-18.809 Y-43.016
N6090 X-28.666 Y-35.694
N6095 X-29.069 Y-35.389
N6100 X-29.16 Y-35.305
N6105 X-29.376 Y-35.104
N6110 X-29.471 Y-35.012
N6115 X-35.012 Y-29.471
N6120 X-35.104 Y-29.376
N6125 X-35.305 Y-29.16
N6130 X-35.389 Y-29.069
N6135 X-35.707 Y-28.649
N6140 X-43.016 Y-18.809
N6145 X-43.155 Y-18.608
N6150 X-43.282 Y-18.407
N6155 X-43.474 Y-18.004
N6160 X-43.553 Y-17.828
N6165 X-43.622 Y-17.602
N6170 X-43.667 Y-17.401
N6175 X-43.704 Y-17.2
N6180 X-43.912 Y-15.792
N6185 X-45.545 Y-4.727
N6190 X-45.564 Y-4.554
N6195 X-45.589 Y-4.124
N6200 X-45.596 Y-3.923
N6205 Y3.923
N6210 X-45.589 Y4.124
N6215 X-45.564 Y4.554
N6220 X-45.545 Y4.727
N6225 X-43.754 Y16.866
N6230 X-43.704 Y17.2
N6235 X-43.667 Y17.401
N6240 X-43.622 Y17.602
N6245 X-43.553 Y17.828
N6250 X-43.474 Y18.004
N6255 X-43.282 Y18.407
N6260 X-43.15 Y18.615
N6265 X-43.016 Y18.809
N6270 X-35.694 Y28.666
N6275 X-35.389 Y29.069
N6280 X-35.305 Y29.16
N6285 X-35.104 Y29.376
N6290 X-35.012 Y29.471
N6295 X-29.471 Y35.012
N6300 X-29.376 Y35.104
N6305 X-29.16 Y35.305
N6310 X-29.069 Y35.389
N6315 X-28.649 Y35.707
N6320 X-18.809 Y43.016
N6325 X-18.608 Y43.155
N6330 X-18.407 Y43.282
N6335 X-18.004 Y43.474
N6340 X-17.828 Y43.553
N6345 X-17.602 Y43.622
N6350 X-17.401 Y43.667
N6355 X-17.2 Y43.704
N6360 X-15.792 Y43.912
N6365 X-4.727 Y45.545
N6370 X-4.554 Y45.564
N6375 X-4.124 Y45.589
N6380 X-3.923 Y45.596
N6385 X3.923
N6390 X4.124 Y45.589
N6395 X4.554 Y45.564
N6400 X4.727 Y45.545
N6405 X16.866 Y43.754
N6410 X17.2 Y43.704
N6415 X17.401 Y43.667
N6420 X17.602 Y43.622
N6425 X17.828 Y43.553
N6430 X18.004 Y43.474
N6435 X18.407 Y43.282
N6440 X18.615 Y43.15
N6445 X18.809 Y43.016
N6450 X28.666 Y35.694
N6455 X29.069 Y35.389
N6460 X29.16 Y35.305
N6465 X29.376 Y35.104
N6470 X29.471 Y35.012
N6475 X35.032 Y29.45
N6480 X35.104 Y29.391
N6485 X35.183 Y29.344
N6490 X35.254 Y29.324 Z-33.544
N6495 X35.324 Y29.304 Z-33.53
N6500 X35.392 Y29.285 Z-33.507
N6505 X35.448 Y29.282 Z-33.482
N6510 X35.449
N6515 X35.53 Y29.297 Z-33.43
N6520 X35.601 Y29.31 Z-33.365
N6525 X35.662 Y29.321 Z-33.29
N6530 X35.703 Y29.341 Z-33.212
N6535 X35.733 Y29.356 Z-33.127
N6540 X35.752 Y29.365 Z-33.039
N6545 X35.758 Y29.368 Z-32.949
N6550 Z5.
N6555 X35.369 Y34.683
N6560 Z-30.998
N6565 Z-31.598
N6570 X35.363 Y34.679 Z-31.692
N6575 X35.344 Y34.668 Z-31.784
N6580 X35.313 Y34.649 Z-31.871
N6585 X35.27 Y34.624 Z-31.951
N6590 X35.218 Y34.593 Z-32.023
N6595 X35.156 Y34.557 Z-32.084
N6600 X35.087 Y34.516 Z-32.133
N6605 X35.012 Y34.471 Z-32.169
N6610 X34.933 Y34.425 Z-32.191
N6615 X34.853 Y34.377 Z-32.198
N6620 G3 X32.211 Y32.399 I7.805 J-13.18
N6625 G1 X32.105 Y32.293
N6630 X32.047 Y32.155
N6635 X32.013 Y32.009
N6640 X31.995 Y31.86
N6645 X31.988 Y31.678
N6650 X31.996 Y31.458
N6655 X32.029 Y31.194
N6660 X32.093 Y30.878
N6665 X32.203 Y30.499
N6670 X32.377 Y30.039
N6675 X32.756 Y29.238
N6680 X33.186 Y28.463
N6685 X33.647 Y27.706
N6690 X33.912 Y27.299
N6695 X33.968 Y27.218
N6700 X34.03 Y27.142
N6705 X34.096 Y27.071
N6710 X34.915 Y26.252
N6715 X35.11 Y26.051
N6720 X35.305 Y25.834
N6725 X35.458 Y25.649
N6730 X35.908 Y25.044
N6735 X40.988 Y18.206
N6740 X41.139 Y17.998
N6745 X41.279 Y17.803
N6750 X41.34 Y17.7
N6755 X41.618 Y17.162
N6760 X41.622 Y17.149
N6765 X41.742 Y16.733
N6770 X41.779 Y16.596
N6775 X41.873 Y15.993
N6780 X43.15 Y7.341
N6785 X43.204 Y6.94
N6790 X43.23 Y6.739
N6795 X43.243 Y6.538
N6800 X43.25 Y6.136
N6805 X43.252 Y5.934
N6810 Y-5.934
N6815 X43.25 Y-6.136
N6820 X43.243 Y-6.538
N6825 X43.23 Y-6.739
N6830 X43.177 Y-7.141
N6835 X43.15 Y-7.343
N6840 X41.873 Y-15.993
N6845 X41.779 Y-16.596
N6850 X41.742 Y-16.733
N6855 X41.622 Y-17.149
N6860 X41.618 Y-17.162
N6865 X41.34 Y-17.7
N6870 X41.279 Y-17.803
N6875 X41.134 Y-18.004
N6880 X40.988 Y-18.206
N6885 X35.608 Y-25.448
N6890 X35.458 Y-25.649
N6895 X35.305 Y-25.834
N6900 X35.104 Y-26.058
N6905 X34.902 Y-26.265
N6910 X26.252 Y-34.915
N6915 X26.051 Y-35.11
N6920 X25.834 Y-35.305
N6925 X25.649 Y-35.458
N6930 X25.044 Y-35.908
N6935 X18.206 Y-40.988
N6940 X17.998 Y-41.139
N6945 X17.803 Y-41.279
N6950 X17.7 Y-41.34
N6955 X17.162 Y-41.618
N6960 X17.149 Y-41.622
N6965 X16.733 Y-41.742
N6970 X16.596 Y-41.779
N6975 X15.993 Y-41.873
N6980 X7.341 Y-43.15
N6985 X6.94 Y-43.204
N6990 X6.739 Y-43.23
N6995 X6.538 Y-43.243
N7000 X6.136 Y-43.25
N7005 X5.934 Y-43.252
N7010 X-5.934
N7015 X-6.136 Y-43.25
N7020 X-6.538 Y-43.243
N7025 X-6.739 Y-43.23
N7030 X-7.141 Y-43.177
N7035 X-7.343 Y-43.15
N7040 X-15.993 Y-41.873
N7045 X-16.596 Y-41.779
N7050 X-16.733 Y-41.742
N7055 X-17.149 Y-41.622
N7060 X-17.162 Y-41.618
N7065 X-17.7 Y-41.34
N7070 X-17.803 Y-41.279
N7075 X-18.004 Y-41.134
N7080 X-18.206 Y-40.988
N7085 X-25.448 Y-35.608
N7090 X-25.649 Y-35.458
N7095 X-25.834 Y-35.305
N7100 X-26.058 Y-35.104
N7105 X-26.265 Y-34.902
N7110 X-34.915 Y-26.252
N7115 X-35.11 Y-26.051
N7120 X-35.305 Y-25.834
N7125 X-35.458 Y-25.649
N7130 X-35.908 Y-25.044
N7135 X-40.988 Y-18.206
N7140 X-41.139 Y-17.998
N7145 X-41.279 Y-17.803
N7150 X-41.34 Y-17.7
N7155 X-41.618 Y-17.162
N7160 X-41.622 Y-17.149
N7165 X-41.742 Y-16.733
N7170 X-41.779 Y-16.596
N7175 X-41.873 Y-15.993
N7180 X-43.15 Y-7.341
N7185 X-43.204 Y-6.94
N7190 X-43.23 Y-6.739
N7195 X-43.243 Y-6.538
N7200 X-43.25 Y-6.136
N7205 X-43.252 Y-5.934
N7210 Y5.934
N7215 X-43.25 Y6.136
N7220 X-43.243 Y6.538
N7225 X-43.23 Y6.739
N7230 X-43.177 Y7.141
N7235 X-43.15 Y7.343
N7240 X-41.873 Y15.993
N7245 X-41.779 Y16.596
N7250 X-41.742 Y16.733
N7255 X-41.622 Y17.149
N7260 X-41.618 Y17.162
N7265 X-41.34 Y17.7
N7270 X-41.279 Y17.803
N7275 X-41.134 Y18.004
N7280 X-40.988 Y18.206
N7285 X-35.608 Y25.448
N7290 X-35.458 Y25.649
N7295 X-35.305 Y25.834
N7300 X-35.104 Y26.058
N7305 X-34.902 Y26.265
N7310 X-26.252 Y34.915
N7315 X-26.051 Y35.11
N7320 X-25.834 Y35.305
N7325 X-25.649 Y35.458
N7330 X-25.044 Y35.908
N7335 X-18.206 Y40.988
N7340 X-17.998 Y41.139
N7345 X-17.803 Y41.279
N7350 X-17.7 Y41.34
N7355 X-17.162 Y41.618
N7360 X-17.149 Y41.622
N7365 X-16.733 Y41.742
N7370 X-16.596 Y41.779
N7375 X-15.993 Y41.873
N7380 X-7.341 Y43.15
N7385 X-6.94 Y43.204
N7390 X-6.739 Y43.23
N7395 X-6.538 Y43.243
N7400 X-6.136 Y43.25
N7405 X-5.934 Y43.252
N7410 X5.934
N7415 X6.136 Y43.25
N7420 X6.538 Y43.243
N7425 X6.739 Y43.23
N7430 X7.141 Y43.177
N7435 X7.343 Y43.15
N7440 X15.993 Y41.873
N7445 X16.596 Y41.779
N7450 X16.733 Y41.742
N7455 X17.149 Y41.622
N7460 X17.162 Y41.618
N7465 X17.7 Y41.34
N7470 X17.803 Y41.279
N7475 X18.004 Y41.134
N7480 X18.206 Y40.988
N7485 X25.448 Y35.608
N7490 X25.649 Y35.458
N7495 X25.834 Y35.305
N7500 X26.058 Y35.104
N7505 X26.265 Y34.902
N7510 X34.096 Y27.071
N7515 X34.169 Y27.013
N7520 X34.249 Y26.967
N7525 X34.321 Y26.948 Z-32.194
N7530 X34.391 Y26.93 Z-32.18
N7535 X34.459 Y26.911 Z-32.157
N7540 X34.505 Y26.91 Z-32.137
N7545 X34.506
N7550 X34.586 Y26.924 Z-32.088
N7555 X34.658 Y26.938 Z-32.026
N7560 X34.719 Y26.949 Z-31.954
N7565 X34.764 Y26.971 Z-31.873
N7570 X34.797 Y26.987 Z-31.786
N7575 X34.817 Y26.997 Z-31.693
N7580 X34.824 Y27.001 Z-31.599
N7585 Z5.
N7590 X33.743 Y32.985
N7595 Z-29.648
N7600 Z-30.248
N7605 X33.737 Y32.981 Z-30.342
N7610 X33.718 Y32.97 Z-30.434
N7615 X33.687 Y32.951 Z-30.521
N7620 X33.644 Y32.926 Z-30.601
N7625 X33.592 Y32.895 Z-30.673
N7630 X33.53 Y32.859 Z-30.734
N7635 X33.461 Y32.818 Z-30.783
N7640 X33.386 Y32.773 Z-30.819
N7645 X33.307 Y32.727 Z-30.841
N7650 X33.227 Y32.679 Z-30.848
N7655 G3 X30.585 Y30.701 I7.805 J-13.18
N7660 G1 X30.479 Y30.595
N7665 X30.422 Y30.456
N7670 X30.389 Y30.31
N7675 X30.372 Y30.161
N7680 X30.365 Y29.978
N7685 X30.375 Y29.757
N7690 X30.409 Y29.491
N7695 X30.475 Y29.173
N7700 X30.587 Y28.792
N7705 X30.765 Y28.33
N7710 X31.04 Y27.756
N7715 X31.473 Y27.011
N7720 X31.979 Y26.283
N7725 X32.511 Y25.575
N7730 X33.147 Y24.725
N7735 X33.188 Y24.672
N7740 X33.232 Y24.621
N7745 X33.279 Y24.573
N7750 X35.019 Y22.832
N7755 X35.104 Y22.739
N7760 X35.37 Y22.43
N7765 X35.523 Y22.229
N7770 X39.127 Y17.377
N7775 X39.328 Y17.104
N7780 X39.393 Y16.999
N7785 X39.626 Y16.596
N7790 X39.653 Y16.546
N7795 X39.672 Y16.496
N7800 X39.839 Y15.993
N7805 X39.884 Y15.792
N7810 X39.952 Y15.389
N7815 X39.983 Y15.188
N7820 X40.844 Y9.354
N7825 X40.865 Y9.153
N7830 X40.901 Y8.751
N7835 X40.907 Y8.55
N7840 Y-8.55
N7845 X40.901 Y-8.751
N7850 X40.865 Y-9.153
N7855 X40.844 Y-9.354
N7860 X39.983 Y-15.188
N7865 X39.952 Y-15.389
N7870 X39.884 Y-15.792
N7875 X39.839 Y-15.993
N7880 X39.672 Y-16.496
N7885 X39.653 Y-16.546
N7890 X39.626 Y-16.596
N7895 X39.393 Y-16.999
N7900 X39.328 Y-17.105
N7905 X38.811 Y-17.803
N7910 X35.506 Y-22.252
N7915 X35.37 Y-22.43
N7920 X35.104 Y-22.739
N7925 X35.019 Y-22.832
N7930 X22.832 Y-35.019
N7935 X22.739 Y-35.104
N7940 X22.43 Y-35.37
N7945 X22.229 Y-35.523
N7950 X17.377 Y-39.127
N7955 X17.105 Y-39.328
N7960 X16.999 Y-39.393
N7965 X16.596 Y-39.626
N7970 X16.546 Y-39.653
N7975 X16.496 Y-39.672
N7980 X15.993 Y-39.839
N7985 X15.792 Y-39.884
N7990 X15.389 Y-39.952
N7995 X15.188 Y-39.983
N8000 X9.354 Y-40.844
N8005 X9.153 Y-40.865
N8010 X8.751 Y-40.901
N8015 X8.55 Y-40.907
N8020 X-8.55
N8025 X-8.751 Y-40.901
N8030 X-9.153 Y-40.865
N8035 X-9.354 Y-40.844
N8040 X-15.188 Y-39.983
N8045 X-15.389 Y-39.952
N8050 X-15.792 Y-39.884
N8055 X-15.993 Y-39.84
N8060 X-16.496 Y-39.672
N8065 X-16.546 Y-39.653
N8070 X-16.596 Y-39.626
N8075 X-16.999 Y-39.393
N8080 X-17.105 Y-39.328
N8085 X-17.803 Y-38.811
N8090 X-22.252 Y-35.506
N8095 X-22.43 Y-35.37
N8100 X-22.739 Y-35.104
N8105 X-22.832 Y-35.019
N8110 X-35.019 Y-22.832
N8115 X-35.104 Y-22.739
N8120 X-35.37 Y-22.43
N8125 X-35.523 Y-22.229
N8130 X-39.127 Y-17.377
N8135 X-39.328 Y-17.105
N8140 X-39.393 Y-16.999
N8145 X-39.626 Y-16.596
N8150 X-39.653 Y-16.546
N8155 X-39.672 Y-16.496
N8160 X-39.839 Y-15.993
N8165 X-39.884 Y-15.792
N8170 X-39.952 Y-15.389
N8175 X-39.983 Y-15.188
N8180 X-40.844 Y-9.354
N8185 X-40.865 Y-9.153
N8190 X-40.901 Y-8.751
N8195 X-40.907 Y-8.55
N8200 Y8.55
N8205 X-40.901 Y8.751
N8210 X-40.865 Y9.153
N8215 X-40.844 Y9.354
N8220 X-39.983 Y15.188
N8225 X-39.952 Y15.389
N8230 X-39.884 Y15.792
N8235 X-39.839 Y15.993
N8240 X-39.672 Y16.496
N8245 X-39.653 Y16.546
N8250 X-39.626 Y16.596
N8255 X-39.393 Y16.999
N8260 X-39.328 Y17.105
N8265 X-38.811 Y17.803
N8270 X-35.506 Y22.252
N8275 X-35.37 Y22.43
N8280 X-35.104 Y22.739
N8285 X-35.019 Y22.832
N8290 X-22.832 Y35.019
N8295 X-22.739 Y35.104
N8300 X-22.43 Y35.37
N8305 X-22.229 Y35.523
N8310 X-17.377 Y39.127
N8315 X-17.105 Y39.328
N8320 X-16.999 Y39.393
N8325 X-16.596 Y39.626
N8330 X-16.546 Y39.653
N8335 X-16.496 Y39.672
N8340 X-15.993 Y39.839
N8345 X-15.792 Y39.884
N8350 X-15.389 Y39.952
N8355 X-15.188 Y39.983
N8360 X-9.354 Y40.844
N8365 X-9.153 Y40.865
N8370 X-8.751 Y40.901
N8375 X-8.55 Y40.907
N8380 X8.55
N8385 X8.751 Y40.901
N8390 X9.153 Y40.865
N8395 X9.354 Y40.844
N8400 X15.188 Y39.983
N8405 X15.389 Y39.952
N8410 X15.792 Y39.884
N8415 X15.993 Y39.839
N8420 X16.496 Y39.672
N8425 X16.546 Y39.653
N8430 X16.596 Y39.626
N8435 X16.999 Y39.393
N8440 X17.105 Y39.328
N8445 X17.803 Y38.811
N8450 X22.252 Y35.506
N8455 X22.43 Y35.37
N8460 X22.739 Y35.104
N8465 X22.832 Y35.019
N8470 X33.279 Y24.573
N8475 X33.351 Y24.515
N8480 X33.432 Y24.469
N8485 X33.503 Y24.45 Z-30.844
N8490 X33.573 Y24.431 Z-30.83
N8495 X33.641 Y24.413 Z-30.807
N8500 X33.688 Y24.411 Z-30.787
N8505 X33.768 Y24.426 Z-30.738
N8510 X33.84 Y24.439 Z-30.676
N8515 X33.901 Y24.451 Z-30.604
N8520 X33.946 Y24.473 Z-30.523
N8525 X33.979 Y24.489 Z-30.436
N8530 X33.999 Y24.499 Z-30.343
N8535 X34.006 Y24.503 Z-30.249
N8540 Z5.
N8545 X-32.08 Y-31.185
N8550 Z-28.298
N8555 Z-28.898
N8560 X-32.073 Y-31.182 Z-28.992
N8565 X-32.054 Y-31.17 Z-29.084
N8570 X-32.023 Y-31.152 Z-29.171
N8575 X-31.981 Y-31.127 Z-29.251
N8580 X-31.928 Y-31.096 Z-29.323
N8585 X-31.867 Y-31.059 Z-29.384
N8590 X-31.798 Y-31.018 Z-29.433
N8595 X-31.723 Y-30.974 Z-29.469
N8600 X-31.644 Y-30.927 Z-29.491
N8605 X-31.563 Y-30.88 Z-29.498
N8610 G3 X-28.922 Y-28.902 I-7.805 J13.18
N8615 G1 X-28.815 Y-28.796
N8620 X-28.775 Y-28.652
N8625 X-28.751 Y-28.504
N8630 X-28.74 Y-28.334
N8635 X-28.743 Y-28.128
N8640 X-28.766 Y-27.88
N8645 X-28.819 Y-27.584
N8650 X-28.911 Y-27.229
N8655 X-29.061 Y-26.8
N8660 X-29.293 Y-26.274
N8665 X-29.655 Y-25.605
N8670 X-30.138 Y-24.862
N8675 X-30.669 Y-24.152
N8680 X-31.23 Y-23.467
N8685 X-31.812 Y-22.799
N8690 X-32.339 Y-22.199
N8695 X-32.381 Y-22.154
N8700 X-34.921 Y-19.614
N8705 X-35.109 Y-19.413
N8710 X-35.305 Y-19.176
N8715 X-35.438 Y-19.01
N8720 X-37.38 Y-16.395
N8725 X-37.641 Y-15.993
N8730 X-37.719 Y-15.846
N8735 X-37.741 Y-15.792
N8740 X-37.92 Y-15.305
N8745 X-37.953 Y-15.188
N8750 X-38.027 Y-14.786
N8755 X-38.063 Y-14.585
N8760 X-38.449 Y-11.969
N8765 X-38.535 Y-11.366
N8770 X-38.546 Y-11.165
N8775 X-38.56 Y-10.762
N8780 X-38.562 Y-10.561
N8785 Y10.561
N8790 X-38.56 Y10.762
N8795 X-38.546 Y11.165
N8800 X-38.535 Y11.366
N8805 X-38.449 Y11.969
N8810 X-38.063 Y14.585
N8815 X-38.027 Y14.786
N8820 X-37.953 Y15.188
N8825 X-37.92 Y15.305
N8830 X-37.741 Y15.792
N8835 X-37.719 Y15.846
N8840 X-37.641 Y15.993
N8845 X-37.38 Y16.395
N8850 X-35.438 Y19.01
N8855 X-35.275 Y19.211
N8860 X-35.104 Y19.419
N8865 X-34.921 Y19.614
N8870 X-19.614 Y34.921
N8875 X-19.413 Y35.109
N8880 X-19.176 Y35.305
N8885 X-19.01 Y35.438
N8890 X-16.395 Y37.38
N8895 X-15.993 Y37.641
N8900 X-15.846 Y37.719
N8905 X-15.792 Y37.741
N8910 X-15.305 Y37.92
N8915 X-15.188 Y37.953
N8920 X-14.786 Y38.027
N8925 X-14.585 Y38.063
N8930 X-11.969 Y38.449
N8935 X-11.366 Y38.535
N8940 X-11.165 Y38.546
N8945 X-10.762 Y38.56
N8950 X-10.561 Y38.562
N8955 X10.561
N8960 X10.762 Y38.56
N8965 X11.165 Y38.546
N8970 X11.366 Y38.535
N8975 X11.969 Y38.449
N8980 X14.585 Y38.063
N8985 X14.786 Y38.027
N8990 X15.188 Y37.953
N8995 X15.305 Y37.92
N9000 X15.792 Y37.741
N9005 X15.846 Y37.719
N9010 X15.993 Y37.641
N9015 X16.395 Y37.38
N9020 X19.01 Y35.438
N9025 X19.211 Y35.275
N9030 X19.419 Y35.104
N9035 X19.614 Y34.921
N9040 X34.921 Y19.614
N9045 X35.109 Y19.413
N9050 X35.305 Y19.176
N9055 X35.438 Y19.01
N9060 X37.38 Y16.395
N9065 X37.641 Y15.993
N9070 X37.719 Y15.846
N9075 X37.741 Y15.792
N9080 X37.92 Y15.305
N9085 X37.953 Y15.188
N9090 X38.027 Y14.786
N9095 X38.063 Y14.585
N9100 X38.449 Y11.969
N9105 X38.535 Y11.366
N9110 X38.546 Y11.165
N9115 X38.56 Y10.762
N9120 X38.562 Y10.561
N9125 Y-10.561
N9130 X38.56 Y-10.762
N9135 X38.546 Y-11.165
N9140 X38.535 Y-11.366
N9145 X38.449 Y-11.969
N9150 X38.063 Y-14.585
N9155 X38.027 Y-14.786
N9160 X37.953 Y-15.188
N9165 X37.92 Y-15.305
N9170 X37.741 Y-15.792
N9175 X37.719 Y-15.846
N9180 X37.641 Y-15.993
N9185 X37.38 Y-16.395
N9190 X35.438 Y-19.01
N9195 X35.275 Y-19.211
N9200 X35.104 Y-19.419
N9205 X34.921 Y-19.614
N9210 X19.614 Y-34.921
N9215 X19.413 Y-35.109
N9220 X19.176 Y-35.305
N9225 X19.01 Y-35.438
N9230 X16.395 Y-37.38
N9235 X15.993 Y-37.641
N9240 X15.846 Y-37.719
N9245 X15.792 Y-37.741
N9250 X15.305 Y-37.92
N9255 X15.188 Y-37.953
N9260 X14.786 Y-38.027
N9265 X14.585 Y-38.063
N9270 X11.969 Y-38.449
N9275 X11.366 Y-38.535
N9280 X11.165 Y-38.546
N9285 X10.762 Y-38.56
N9290 X10.561 Y-38.562
N9295 X-10.561
N9300 X-10.762 Y-38.56
N9305 X-11.165 Y-38.546
N9310 X-11.366 Y-38.535
N9315 X-11.969 Y-38.449
N9320 X-14.585 Y-38.063
N9325 X-14.786 Y-38.027
N9330 X-15.188 Y-37.953
N9335 X-15.305 Y-37.92
N9340 X-15.792 Y-37.741
N9345 X-15.846 Y-37.719
N9350 X-15.993 Y-37.641
N9355 X-16.395 Y-37.38
N9360 X-19.01 Y-35.438
N9365 X-19.211 Y-35.275
N9370 X-19.419 Y-35.104
N9375 X-19.614 Y-34.921
N9380 X-32.381 Y-22.154
N9385 X-32.453 Y-22.097
N9390 X-32.534 Y-22.051
N9395 X-32.605 Y-22.032 Z-29.494
N9400 X-32.676 Y-22.013 Z-29.48
N9405 X-32.744 Y-21.995 Z-29.457
N9410 X-32.79 Y-21.993 Z-29.437
N9415 X-32.871 Y-22.008 Z-29.388
N9420 X-32.942 Y-22.021 Z-29.326
N9425 X-33.004 Y-22.032 Z-29.254
N9430 X-33.049 Y-22.055 Z-29.173
N9435 X-33.081 Y-22.071 Z-29.086
N9440 X-33.102 Y-22.081 Z-28.993
N9445 X-33.108 Y-22.084 Z-28.899
N9450 Z5.
N9455 X30.367 Y29.57
N9460 Z-26.948
N9465 Z-27.548
N9470 X30.361 Y29.567 Z-27.642
N9475 X30.342 Y29.555 Z-27.734
N9480 X30.311 Y29.537 Z-27.821
N9485 X30.269 Y29.512 Z-27.901
N9490 X30.216 Y29.481 Z-27.973
N9495 X30.155 Y29.444 Z-28.034
N9500 X30.086 Y29.403 Z-28.083
N9505 X30.011 Y29.359 Z-28.119
N9510 X29.932 Y29.312 Z-28.141
N9515 X29.851 Y29.265 Z-28.148
N9520 G3 X27.209 Y27.287 I7.805 J-13.18
N9525 G1 X27.103 Y27.181
N9530 X27.06 Y27.037
N9535 X27.036 Y26.889
N9540 X27.024 Y26.723
N9545 X27.025 Y26.52
N9550 X27.047 Y26.275
N9555 X27.096 Y25.983
N9560 X27.185 Y25.633
N9565 X27.329 Y25.21
N9570 X27.553 Y24.693
N9575 X27.902 Y24.037
N9580 X28.38 Y23.291
N9585 X28.908 Y22.579
N9590 X29.467 Y21.891
N9595 X30.048 Y21.222
N9600 X30.519 Y20.701
N9605 X30.552 Y20.668
N9610 X34.902 Y16.317
N9615 X35.022 Y16.194
N9620 X35.104 Y16.097
N9625 X35.348 Y15.792
N9630 X35.506 Y15.578
N9635 X35.639 Y15.389
N9640 X35.707 Y15.277
N9645 X35.758 Y15.188
N9650 X35.847 Y14.987
N9655 X36.02 Y14.559
N9660 X36.141 Y13.981
N9665 X36.165 Y13.78
N9670 X36.212 Y13.378
N9675 X36.215 Y13.176
N9680 X36.217 Y12.774
N9685 Y-12.774
N9690 X36.215 Y-13.176
N9695 X36.212 Y-13.378
N9700 X36.165 Y-13.78
N9705 X36.141 Y-13.981
N9710 X36.02 Y-14.559
N9715 X35.847 Y-14.987
N9720 X35.758 Y-15.188
N9725 X35.707 Y-15.277
N9730 X35.639 Y-15.389
N9735 X35.497 Y-15.59
N9740 X35.348 Y-15.792
N9745 X35.104 Y-16.097
N9750 X35.022 Y-16.194
N9755 X34.902 Y-16.317
N9760 X16.317 Y-34.902
N9765 X16.194 Y-35.022
N9770 X16.097 Y-35.104
N9775 X15.792 Y-35.348
N9780 X15.578 Y-35.506
N9785 X15.389 Y-35.639
N9790 X15.277 Y-35.707
N9795 X15.188 Y-35.758
N9800 X14.987 Y-35.847
N9805 X14.559 Y-36.02
N9810 X13.981 Y-36.141
N9815 X13.78 Y-36.165
N9820 X13.378 Y-36.212
N9825 X13.176 Y-36.215
N9830 X12.774 Y-36.217
N9835 X-12.774
N9840 X-13.176 Y-36.215
N9845 X-13.378 Y-36.212
N9850 X-13.78 Y-36.165
N9855 X-13.981 Y-36.141
N9860 X-14.559 Y-36.02
N9865 X-14.987 Y-35.847
N9870 X-15.188 Y-35.758
N9875 X-15.277 Y-35.707
N9880 X-15.389 Y-35.639
N9885 X-15.59 Y-35.497
N9890 X-15.792 Y-35.348
N9895 X-16.097 Y-35.104
N9900 X-16.194 Y-35.022
N9905 X-16.317 Y-34.902
N9910 X-34.902 Y-16.317
N9915 X-35.022 Y-16.194
N9920 X-35.104 Y-16.097
N9925 X-35.348 Y-15.792
N9930 X-35.506 Y-15.578
N9935 X-35.639 Y-15.389
N9940 X-35.707 Y-15.277
N9945 X-35.758 Y-15.188
N9950 X-35.847 Y-14.987
N9955 X-36.02 Y-14.559
N9960 X-36.141 Y-13.981
N9965 X-36.165 Y-13.78
N9970 X-36.212 Y-13.378
N9975 X-36.215 Y-13.176
N9980 X-36.217 Y-12.774
N9985 Y12.774
N9990 X-36.215 Y13.176
N9995 X-36.212 Y13.378
N10000 X-36.165 Y13.78
N10005 X-36.141 Y13.981
N10010 X-36.02 Y14.559
N10015 X-35.847 Y14.987
N10020 X-35.758 Y15.188
N10025 X-35.707 Y15.277
N10030 X-35.639 Y15.389
N10035 X-35.497 Y15.59
N10040 X-35.348 Y15.792
N10045 X-35.104 Y16.097
N10050 X-35.022 Y16.194
N10055 X-34.902 Y16.317
N10060 X-16.317 Y34.902
N10065 X-16.194 Y35.022
N10070 X-16.097 Y35.104
N10075 X-15.792 Y35.348
N10080 X-15.578 Y35.506
N10085 X-15.389 Y35.639
N10090 X-15.277 Y35.707
N10095 X-15.188 Y35.758
N10100 X-14.987 Y35.847
N10105 X-14.559 Y36.02
N10110 X-13.981 Y36.141
N10115 X-13.78 Y36.165
N10120 X-13.378 Y36.212
N10125 X-13.176 Y36.215
N10130 X-12.774 Y36.217
N10135 X12.774
N10140 X13.176 Y36.215
N10145 X13.378 Y36.212
N10150 X13.78 Y36.165
N10155 X13.981 Y36.141
N10160 X14.559 Y36.02
N10165 X14.987 Y35.847
N10170 X15.188 Y35.758
N10175 X15.277 Y35.707
N10180 X15.389 Y35.639
N10185 X15.59 Y35.497
N10190 X15.792 Y35.348
N10195 X16.097 Y35.104
N10200 X16.194 Y35.022
N10205 X16.317 Y34.902
N10210 X30.552 Y20.668
N10215 X30.624 Y20.61
N10220 X30.704 Y20.564
N10225 X30.776 Y20.545 Z-28.144
N10230 X30.846 Y20.527 Z-28.13
N10235 X30.914 Y20.509 Z-28.107
N10240 X30.961 Y20.507 Z-28.087
N10245 X31.041 Y20.522 Z-28.038
N10250 X31.113 Y20.535 Z-27.976
N10255 X31.174 Y20.546 Z-27.904
N10260 X31.219 Y20.568 Z-27.823
N10265 X31.252 Y20.585 Z-27.736
N10270 X31.272 Y20.595 Z-27.643
N10275 X31.279 Y20.598 Z-27.549
N10280 Z5.
N10285 X-45.453 Y-44.539
N10290 Z-40.448
N10295 Z-41.048
N10300 X-45.447 Y-44.536 Z-41.142
N10305 X-45.428 Y-44.524 Z-41.234
N10310 X-45.397 Y-44.506 Z-41.321
N10315 X-45.355 Y-44.481 Z-41.401
N10320 X-45.302 Y-44.45 Z-41.473
N10325 X-45.24 Y-44.413 Z-41.534
N10330 X-45.171 Y-44.372 Z-41.583
N10335 X-45.097 Y-44.328 Z-41.619
N10340 X-45.018 Y-44.281 Z-41.641
N10345 X-44.937 Y-44.234 Z-41.648
N10350 G3 X-42.295 Y-42.256 I-7.805 J13.18
N10355 G1 X-42.189 Y-42.15
N10360 X-42.142 Y-41.984
N10365 X-42.158 Y-41.812
N10370 X-42.236 Y-41.658
N10375 X-42.346 Y-41.515
N10380 X-42.457 Y-41.34
N10385 X-42.547 Y-41.185
N10390 X-42.98 Y-40.334
N10395 X-44.558 Y-37.218
N10400 X-44.967 Y-36.512
N10405 X-49.652 Y-29.471
N10410 X-49.789 Y-29.278
N10415 X-54.214 Y-23.73
N10420 X-54.415 Y-23.463
N10425 X-54.435 Y-23.436
N10430 X-54.617 Y-23.164
N10435 X-54.682 Y-23.034
N10440 X-54.871 Y-22.631
N10445 X-54.945 Y-22.43
N10450 X-55.004 Y-22.229
N10455 X-55.045 Y-22.028
N10460 X-55.075 Y-21.827
N10465 X-55.129 Y-21.424
N10470 X-55.154 Y-21.223
N10475 X-55.905 Y-14.786
N10480 X-55.931 Y-14.585
N10485 X-56.025 Y-13.97
N10490 X-57.647 Y-5.733
N10495 X-57.691 Y-5.532
N10500 X-57.749 Y-5.331
N10505 X-57.809 Y-5.13
N10510 X-59.094 Y-1.308
N10515 X-59.158 Y-1.106
N10520 X-59.265 Y-0.704
N10525 X-59.308 Y-0.503
N10530 X-59.343 Y-0.101
N10535 Y0.101
N10540 X-59.308 Y0.503
N10545 X-59.266 Y0.704
N10550 X-59.159 Y1.106
N10555 X-59.096 Y1.308
N10560 X-57.835 Y5.157
N10565 X-57.717 Y5.532
N10570 X-57.663 Y5.733
N10575 X-56.025 Y13.891
N10580 X-56.008 Y13.981
N10585 X-55.903 Y14.585
N10590 X-55.876 Y14.786
N10595 X-55.153 Y21.223
N10600 X-55.129 Y21.424
N10605 X-55.075 Y21.827
N10610 X-55.045 Y22.028
N10615 X-55.004 Y22.229
N10620 X-54.945 Y22.43
N10625 X-54.871 Y22.631
N10630 X-54.682 Y23.034
N10635 X-54.617 Y23.164
N10640 X-54.435 Y23.436
N10645 X-54.415 Y23.463
N10650 X-54.214 Y23.73
N10655 X-49.789 Y29.325
N10660 X-49.682 Y29.471
N10665 X-49.541 Y29.672
N10670 X-49.386 Y29.897
N10675 X-44.949 Y36.512
N10680 X-44.558 Y37.154
N10685 X-44.471 Y37.316
N10690 X-42.872 Y40.535
N10695 X-42.547 Y41.184
N10700 X-42.457 Y41.34
N10705 X-42.346 Y41.515
N10710 X-42.144 Y41.777
N10715 X-41.943 Y41.982
N10720 X-41.777 Y42.144
N10725 X-41.515 Y42.346
N10730 X-41.34 Y42.457
N10735 X-41.185 Y42.547
N10740 X-40.334 Y42.98
N10745 X-37.218 Y44.558
N10750 X-36.512 Y44.967
N10755 X-29.471 Y49.652
N10760 X-29.278 Y49.789
N10765 X-23.73 Y54.214
N10770 X-23.463 Y54.415
N10775 X-23.436 Y54.435
N10780 X-23.164 Y54.617
N10785 X-23.034 Y54.682
N10790 X-22.631 Y54.871
N10795 X-22.43 Y54.945
N10800 X-22.229 Y55.004
N10805 X-22.028 Y55.045
N10810 X-21.827 Y55.075
N10815 X-21.424 Y55.129
N10820 X-21.223 Y55.154
N10825 X-14.786 Y55.905
N10830 X-14.585 Y55.931
N10835 X-13.97 Y56.025
N10840 X-5.733 Y57.647
N10845 X-5.532 Y57.691
N10850 X-5.331 Y57.749
N10855 X-5.13 Y57.809
N10860 X-1.308 Y59.094
N10865 X-1.106 Y59.158
N10870 X-0.704 Y59.265
N10875 X-0.503 Y59.308
N10880 X-0.101 Y59.343
N10885 X0.101
N10890 X0.503 Y59.308
N10895 X0.704 Y59.266
N10900 X1.106 Y59.159
N10905 X1.308 Y59.096
N10910 X5.157 Y57.835
N10915 X5.532 Y57.717
N10920 X5.733 Y57.663
N10925 X13.891 Y56.025
N10930 X13.981 Y56.008
N10935 X14.585 Y55.903
N10940 X14.786 Y55.876
N10945 X21.223 Y55.153
N10950 X21.424 Y55.129
N10955 X21.827 Y55.075
N10960 X22.028 Y55.045
N10965 X22.229 Y55.004
N10970 X22.43 Y54.945
N10975 X22.631 Y54.871
N10980 X23.034 Y54.682
N10985 X23.164 Y54.617
N10990 X23.436 Y54.435
N10995 X23.463 Y54.415
N11000 X23.73 Y54.214
N11005 X29.325 Y49.789
N11010 X29.471 Y49.682
N11015 X29.672 Y49.541
N11020 X29.897 Y49.386
N11025 X36.512 Y44.949
N11030 X37.154 Y44.558
N11035 X37.316 Y44.471
N11040 X40.535 Y42.872
N11045 X41.184 Y42.547
N11050 X41.34 Y42.457
N11055 X41.515 Y42.346
N11060 X41.777 Y42.144
N11065 X41.982 Y41.943
N11070 X42.144 Y41.777
N11075 X42.346 Y41.515
N11080 X42.457 Y41.34
N11085 X42.547 Y41.185
N11090 X42.98 Y40.334
N11095 X44.558 Y37.218
N11100 X44.967 Y36.512
N11105 X49.652 Y29.471
N11110 X49.789 Y29.278
N11115 X54.214 Y23.73
N11120 X54.415 Y23.463
N11125 X54.435 Y23.436
N11130 X54.617 Y23.164
N11135 X54.682 Y23.034
N11140 X54.871 Y22.631
N11145 X54.945 Y22.43
N11150 X55.004 Y22.229
N11155 X55.045 Y22.028
N11160 X55.075 Y21.827
N11165 X55.129 Y21.424
N11170 X55.154 Y21.223
N11175 X55.905 Y14.786
N11180 X55.931 Y14.585
N11185 X56.025 Y13.97
N11190 X57.647 Y5.733
N11195 X57.691 Y5.532
N11200 X57.749 Y5.331
N11205 X57.809 Y5.13
N11210 X59.094 Y1.308
N11215 X59.158 Y1.106
N11220 X59.265 Y0.704
N11225 X59.308 Y0.503
N11230 X59.343 Y0.101
N11235 Y-0.101
N11240 X59.308 Y-0.503
N11245 X59.266 Y-0.704
N11250 X59.159 Y-1.106
N11255 X59.096 Y-1.308
N11260 X57.835 Y-5.157
N11265 X57.717 Y-5.532
N11270 X57.663 Y-5.733
N11275 X56.025 Y-13.891
N11280 X56.008 Y-13.981
N11285 X55.903 Y-14.585
N11290 X55.876 Y-14.786
N11295 X55.153 Y-21.223
N11300 X55.129 Y-21.424
N11305 X55.075 Y-21.827
N11310 X55.045 Y-22.028
N11315 X55.004 Y-22.229
N11320 X54.945 Y-22.43
N11325 X54.871 Y-22.631
N11330 X54.682 Y-23.034
N11335 X54.617 Y-23.164
N11340 X54.435 Y-23.436
N11345 X54.415 Y-23.463
N11350 X54.214 Y-23.73
N11355 X49.789 Y-29.325
N11360 X49.682 Y-29.471
N11365 X49.541 Y-29.672
N11370 X49.386 Y-29.897
N11375 X44.949 Y-36.512
N11380 X44.558 Y-37.154
N11385 X44.471 Y-37.316
N11390 X42.872 Y-40.535
N11395 X42.547 Y-41.184
N11400 X42.457 Y-41.34
N11405 X42.346 Y-41.515
N11410 X42.144 Y-41.777
N11415 X41.943 Y-41.982
N11420 X41.777 Y-42.144
N11425 X41.515 Y-42.346
N11430 X41.34 Y-42.457
N11435 X41.185 Y-42.547
N11440 X40.334 Y-42.98
N11445 X37.218 Y-44.558
N11450 X36.512 Y-44.967
N11455 X29.471 Y-49.652
N11460 X29.278 Y-49.789
N11465 X23.73 Y-54.214
N11470 X23.463 Y-54.415
N11475 X23.436 Y-54.435
N11480 X23.164 Y-54.617
N11485 X23.034 Y-54.682
N11490 X22.631 Y-54.871
N11495 X22.43 Y-54.945
N11500 X22.229 Y-55.004
N11505 X22.028 Y-55.045
N11510 X21.827 Y-55.075
N11515 X21.424 Y-55.129
N11520 X21.223 Y-55.154
N11525 X14.786 Y-55.905
N11530 X14.585 Y-55.931
N11535 X13.97 Y-56.025
N11540 X5.733 Y-57.647
N11545 X5.532 Y-57.691
N11550 X5.331 Y-57.749
N11555 X5.13 Y-57.809
N11560 X1.308 Y-59.094
N11565 X1.106 Y-59.158
N11570 X0.704 Y-59.265
N11575 X0.503 Y-59.308
N11580 X0.101 Y-59.343
N11585 X-0.101
N11590 X-0.503 Y-59.308
N11595 X-0.704 Y-59.266
N11600 X-1.106 Y-59.159
N11605 X-1.308 Y-59.096
N11610 X-5.157 Y-57.835
N11615 X-5.532 Y-57.717
N11620 X-5.733 Y-57.663
N11625 X-13.891 Y-56.025
N11630 X-13.981 Y-56.008
N11635 X-14.585 Y-55.903
N11640 X-14.786 Y-55.876
N11645 X-21.223 Y-55.153
N11650 X-21.424 Y-55.129
N11655 X-21.827 Y-55.075
N11660 X-22.028 Y-55.045
N11665 X-22.229 Y-55.004
N11670 X-22.43 Y-54.945
N11675 X-22.631 Y-54.871
N11680 X-23.034 Y-54.683
N11685 X-23.164 Y-54.617
N11690 X-23.436 Y-54.435
N11695 X-23.463 Y-54.415
N11700 X-23.73 Y-54.214
N11705 X-29.325 Y-49.789
N11710 X-29.471 Y-49.682
N11715 X-29.672 Y-49.541
N11720 X-29.897 Y-49.386
N11725 X-36.512 Y-44.949
N11730 X-37.154 Y-44.558
N11735 X-37.316 Y-44.471
N11740 X-40.535 Y-42.872
N11745 X-41.139 Y-42.57
N11750 X-41.225 Y-42.538
N11755 X-41.316 Y-42.519
N11760 X-41.389 Y-42.515 Z-41.644
N11765 X-41.463 Y-42.529 Z-41.63
N11770 X-41.534 Y-42.542 Z-41.606
N11775 X-41.602 Y-42.554 Z-41.573
N11780 X-41.657 Y-42.587 Z-41.532
N11785 X-41.706 Y-42.617 Z-41.483
N11790 X-41.75 Y-42.644 Z-41.427
N11795 X-41.788 Y-42.667 Z-41.366
N11800 X-41.815 Y-42.695 Z-41.292
N11805 X-41.835 Y-42.715 Z-41.213
N11810 X-41.847 Y-42.728 Z-41.132
N11815 X-41.851 Y-42.732 Z-41.048
N11820 Z5.
N11825 X44.686 Y44.811
N11830 Z-39.098
N11835 Z-39.698
N11840 X44.68 Y44.807 Z-39.792
N11845 X44.663 Y44.794 Z-39.884
N11850 X44.634 Y44.772 Z-39.971
N11855 X44.594 Y44.743 Z-40.051
N11860 X44.545 Y44.706 Z-40.123
N11865 X44.488 Y44.663 Z-40.184
N11870 X44.424 Y44.615 Z-40.233
N11875 X44.354 Y44.563 Z-40.269
N11880 X44.281 Y44.508 Z-40.291
N11885 X44.206 Y44.452 Z-40.298
N11890 G3 X41.791 Y42.203 I9.173 J-12.268
N11895 G1 X41.697 Y42.086
N11900 X41.634 Y41.942
N11905 X41.572 Y41.761
N11910 X41.514 Y41.535
N11915 X41.466 Y41.258
N11920 X41.436 Y40.918
N11925 X41.432 Y40.498
N11930 X41.469 Y39.972
N11935 X41.572 Y39.296
N11940 X41.769 Y38.459
N11945 X42.041 Y37.615
N11950 X42.374 Y36.794
N11955 X42.519 Y36.493
N11960 X42.54 Y36.452
N11965 X42.562 Y36.412
N11970 X42.585 Y36.372
N11975 X42.868 Y35.908
N11980 X42.949 Y35.781
N11985 X45.967 Y31.248
N11990 X46.079 Y31.08
N11995 X46.369 Y30.652
N12000 X46.505 Y30.477
N12005 X49.715 Y26.453
N12010 X49.789 Y26.357
N12015 X50.593 Y25.276
N12020 X52.408 Y22.832
N12025 X52.605 Y22.557
N12030 X52.69 Y22.43
N12035 X52.896 Y22.028
N12040 X52.994 Y21.827
N12045 X53.007 Y21.788
N12050 X53.108 Y21.424
N12055 X53.154 Y21.223
N12060 X53.247 Y20.62
N12065 X53.812 Y16.788
N12070 X53.839 Y16.596
N12075 X53.912 Y15.993
N12080 X54.452 Y11.366
N12085 X54.481 Y11.165
N12090 X54.545 Y10.762
N12095 X54.579 Y10.561
N12100 X55.728 Y4.727
N12105 X55.77 Y4.526
N12110 X55.948 Y3.923
N12115 X56.012 Y3.722
N12120 X56.829 Y1.29
N12125 X56.889 Y1.106
N12130 X57.006 Y0.704
N12135 X57.019 Y0.643
N12140 X57.031 Y0.581
N12145 X57.073 Y0.101
N12150 Y-0.101
N12155 X57.031 Y-0.581
N12160 X57.019 Y-0.643
N12165 X57.006 Y-0.704
N12170 X56.89 Y-1.106
N12175 X56.826 Y-1.308
N12180 X56.025 Y-3.753
N12185 X55.97 Y-3.923
N12190 X55.781 Y-4.526
N12195 X55.739 Y-4.727
N12200 X54.568 Y-10.561
N12205 X54.532 Y-10.762
N12210 X54.461 Y-11.165
N12215 X54.43 Y-11.366
N12220 X53.91 Y-15.993
N12225 X53.838 Y-16.596
N12230 X53.811 Y-16.797
N12235 X53.247 Y-20.62
N12240 X53.154 Y-21.223
N12245 X53.108 Y-21.424
N12250 X53.007 Y-21.788
N12255 X52.994 Y-21.827
N12260 X52.896 Y-22.028
N12265 X52.69 Y-22.43
N12270 X52.605 Y-22.557
N12275 X52.404 Y-22.838
N12280 X50.167 Y-25.85
N12285 X49.789 Y-26.357
N12290 X49.715 Y-26.453
N12295 X46.532 Y-30.477
N12300 X46.376 Y-30.678
N12305 X46.093 Y-31.08
N12310 X45.956 Y-31.281
N12315 X42.949 Y-35.764
N12320 X42.855 Y-35.908
N12325 X42.471 Y-36.512
N12330 X42.368 Y-36.713
N12335 X41.069 Y-39.328
N12340 X40.966 Y-39.529
N12345 X40.85 Y-39.73
N12350 X40.736 Y-39.905
N12355 X40.535 Y-40.158
N12360 X40.393 Y-40.334
N12365 X40.334 Y-40.393
N12370 X40.133 Y-40.555
N12375 X39.905 Y-40.736
N12380 X39.73 Y-40.851
N12385 X39.529 Y-40.966
N12390 X39.328 Y-41.071
N12395 X36.713 Y-42.395
N12400 X36.512 Y-42.5
N12405 X35.908 Y-42.868
N12410 X35.781 Y-42.949
N12415 X31.248 Y-45.967
N12420 X31.08 Y-46.079
N12425 X30.652 Y-46.369
N12430 X30.477 Y-46.505
N12435 X26.453 Y-49.715
N12440 X26.357 Y-49.789
N12445 X25.276 Y-50.593
N12450 X22.832 Y-52.408
N12455 X22.557 Y-52.605
N12460 X22.43 Y-52.69
N12465 X22.028 Y-52.896
N12470 X21.827 Y-52.994
N12475 X21.788 Y-53.007
N12480 X21.424 Y-53.108
N12485 X21.223 Y-53.154
N12490 X20.62 Y-53.247
N12495 X16.788 Y-53.812
N12500 X16.596 Y-53.839
N12505 X15.993 Y-53.912
N12510 X11.366 Y-54.452
N12515 X11.165 Y-54.481
N12520 X10.762 Y-54.545
N12525 X10.561 Y-54.579
N12530 X4.727 Y-55.728
N12535 X4.526 Y-55.77
N12540 X3.923 Y-55.948
N12545 X3.722 Y-56.012
N12550 X1.29 Y-56.829
N12555 X1.106 Y-56.889
N12560 X0.704 Y-57.006
N12565 X0.643 Y-57.019
N12570 X0.581 Y-57.031
N12575 X0.101 Y-57.073
N12580 X-0.101
N12585 X-0.581 Y-57.031
N12590 X-0.643 Y-57.019
N12595 X-0.704 Y-57.006
N12600 X-1.106 Y-56.89
N12605 X-1.308 Y-56.826
N12610 X-3.753 Y-56.025
N12615 X-3.923 Y-55.97
N12620 X-4.526 Y-55.781
N12625 X-4.727 Y-55.739
N12630 X-10.561 Y-54.568
N12635 X-10.762 Y-54.532
N12640 X-11.165 Y-54.461
N12645 X-11.366 Y-54.43
N12650 X-15.993 Y-53.91
N12655 X-16.596 Y-53.838
N12660 X-16.797 Y-53.811
N12665 X-20.62 Y-53.247
N12670 X-21.223 Y-53.154
N12675 X-21.424 Y-53.108
N12680 X-21.788 Y-53.007
N12685 X-21.827 Y-52.994
N12690 X-22.028 Y-52.896
N12695 X-22.43 Y-52.69
N12700 X-22.557 Y-52.605
N12705 X-22.838 Y-52.404
N12710 X-25.85 Y-50.167
N12715 X-26.357 Y-49.789
N12720 X-26.453 Y-49.715
N12725 X-30.477 Y-46.532
N12730 X-30.678 Y-46.376
N12735 X-31.08 Y-46.093
N12740 X-31.281 Y-45.956
N12745 X-35.764 Y-42.949
N12750 X-35.908 Y-42.855
N12755 X-36.512 Y-42.471
N12760 X-36.713 Y-42.368
N12765 X-39.328 Y-41.069
N12770 X-39.529 Y-40.966
N12775 X-39.73 Y-40.85
N12780 X-39.905 Y-40.736
N12785 X-40.158 Y-40.535
N12790 X-40.334 Y-40.393
N12795 X-40.393 Y-40.334
N12800 X-40.555 Y-40.133
N12805 X-40.736 Y-39.905
N12810 X-40.851 Y-39.73
N12815 X-40.966 Y-39.529
N12820 X-41.071 Y-39.328
N12825 X-42.395 Y-36.713
N12830 X-42.5 Y-36.512
N12835 X-42.868 Y-35.908
N12840 X-42.949 Y-35.781
N12845 X-45.966 Y-31.248
N12850 X-46.079 Y-31.08
N12855 X-46.369 Y-30.652
N12860 X-46.505 Y-30.477
N12865 X-49.715 Y-26.453
N12870 X-49.789 Y-26.357
N12875 X-50.593 Y-25.276
N12880 X-52.408 Y-22.832
N12885 X-52.605 Y-22.557
N12890 X-52.69 Y-22.43
N12895 X-52.896 Y-22.028
N12900 X-52.994 Y-21.827
N12905 X-53.007 Y-21.788
N12910 X-53.108 Y-21.424
N12915 X-53.154 Y-21.223
N12920 X-53.247 Y-20.62
N12925 X-53.812 Y-16.788
N12930 X-53.839 Y-16.596
N12935 X-53.912 Y-15.993
N12940 X-54.452 Y-11.366
N12945 X-54.481 Y-11.165
N12950 X-54.545 Y-10.762
N12955 X-54.579 Y-10.561
N12960 X-55.728 Y-4.727
N12965 X-55.77 Y-4.526
N12970 X-55.948 Y-3.923
N12975 X-56.012 Y-3.722
N12980 X-56.829 Y-1.29
N12985 X-56.889 Y-1.106
N12990 X-57.006 Y-0.704
N12995 X-57.019 Y-0.643
N13000 X-57.031 Y-0.581
N13005 X-57.073 Y-0.101
N13010 Y0.101
N13015 X-57.031 Y0.581
N13020 X-57.019 Y0.643
N13025 X-57.006 Y0.704
N13030 X-56.89 Y1.106
N13035 X-56.826 Y1.308
N13040 X-56.025 Y3.753
N13045 X-55.97 Y3.923
N13050 X-55.781 Y4.526
N13055 X-55.739 Y4.727
N13060 X-54.568 Y10.561
N13065 X-54.532 Y10.762
N13070 X-54.461 Y11.165
N13075 X-54.43 Y11.366
N13080 X-53.91 Y15.993
N13085 X-53.838 Y16.596
N13090 X-53.811 Y16.797
N13095 X-53.247 Y20.62
N13100 X-53.154 Y21.223
N13105 X-53.108 Y21.424
N13110 X-53.007 Y21.788
N13115 X-52.994 Y21.827
N13120 X-52.896 Y22.028
N13125 X-52.69 Y22.43
N13130 X-52.605 Y22.557
N13135 X-52.404 Y22.838
N13140 X-50.167 Y25.85
N13145 X-49.789 Y26.357
N13150 X-49.715 Y26.453
N13155 X-46.532 Y30.477
N13160 X-46.376 Y30.678
N13165 X-46.093 Y31.08
N13170 X-45.956 Y31.281
N13175 X-42.949 Y35.764
N13180 X-42.855 Y35.908
N13185 X-42.471 Y36.512
N13190 X-42.368 Y36.713
N13195 X-41.069 Y39.328
N13200 X-40.966 Y39.529
N13205 X-40.85 Y39.73
N13210 X-40.736 Y39.905
N13215 X-40.535 Y40.158
N13220 X-40.393 Y40.334
N13225 X-40.334 Y40.393
N13230 X-40.133 Y40.555
N13235 X-39.905 Y40.736
N13240 X-39.73 Y40.851
N13245 X-39.529 Y40.966
N13250 X-39.328 Y41.071
N13255 X-36.713 Y42.395
N13260 X-36.512 Y42.5
N13265 X-35.908 Y42.868
N13270 X-35.781 Y42.949
N13275 X-31.248 Y45.966
N13280 X-31.08 Y46.079
N13285 X-30.652 Y46.369
N13290 X-30.477 Y46.505
N13295 X-26.453 Y49.715
N13300 X-26.357 Y49.789
N13305 X-25.276 Y50.593
N13310 X-22.832 Y52.408
N13315 X-22.557 Y52.605
N13320 X-22.43 Y52.69
N13325 X-22.028 Y52.896
N13330 X-21.827 Y52.994
N13335 X-21.788 Y53.007
N13340 X-21.424 Y53.108
N13345 X-21.223 Y53.154
N13350 X-20.62 Y53.247
N13355 X-16.788 Y53.812
N13360 X-16.596 Y53.839
N13365 X-15.993 Y53.912
N13370 X-11.366 Y54.452
N13375 X-11.165 Y54.481
N13380 X-10.762 Y54.545
N13385 X-10.561 Y54.579
N13390 X-4.727 Y55.728
N13395 X-4.526 Y55.77
N13400 X-3.923 Y55.948
N13405 X-3.722 Y56.012
N13410 X-1.29 Y56.829
N13415 X-1.106 Y56.889
N13420 X-0.704 Y57.006
N13425 X-0.643 Y57.019
N13430 X-0.581 Y57.031
N13435 X-0.101 Y57.073
N13440 X0.101
N13445 X0.581 Y57.031
N13450 X0.643 Y57.019
N13455 X0.704 Y57.006
N13460 X1.106 Y56.89
N13465 X1.308 Y56.826
N13470 X3.753 Y56.025
N13475 X3.923 Y55.97
N13480 X4.526 Y55.781
N13485 X4.727 Y55.739
N13490 X10.561 Y54.568
N13495 X10.762 Y54.532
N13500 X11.165 Y54.461
N13505 X11.366 Y54.43
N13510 X15.993 Y53.91
N13515 X16.596 Y53.838
N13520 X16.797 Y53.811
N13525 X20.62 Y53.247
N13530 X21.223 Y53.154
N13535 X21.424 Y53.108
N13540 X21.788 Y53.007
N13545 X21.827 Y52.994
N13550 X22.028 Y52.896
N13555 X22.43 Y52.69
N13560 X22.557 Y52.605
N13565 X22.838 Y52.404
N13570 X25.85 Y50.167
N13575 X26.357 Y49.789
N13580 X26.453 Y49.715
N13585 X30.477 Y46.532
N13590 X30.678 Y46.376
N13595 X31.08 Y46.093
N13600 X31.281 Y45.956
N13605 X35.764 Y42.949
N13610 X35.908 Y42.855
N13615 X36.512 Y42.471
N13620 X36.713 Y42.368
N13625 X39.328 Y41.069
N13630 X39.529 Y40.966
N13635 X39.73 Y40.85
N13640 X39.905 Y40.736
N13645 X40.158 Y40.535
N13650 X40.334 Y40.393
N13655 X40.393 Y40.334
N13660 X40.555 Y40.133
N13665 X40.736 Y39.905
N13670 X40.851 Y39.73
N13675 X40.966 Y39.529
N13680 X41.071 Y39.328
N13685 X42.395 Y36.713
N13690 X42.5 Y36.512
N13695 X42.585 Y36.372
N13700 G3 X43.276 Y36.133 I0.501 J0.33
N13705 G1 X43.365 Y36.162 Z-40.291
N13710 X43.452 Y36.191 Z-40.269
N13715 X43.534 Y36.219 Z-40.233
N13720 X43.61 Y36.244 Z-40.184
N13725 X43.678 Y36.267 Z-40.123
N13730 X43.736 Y36.286 Z-40.051
N13735 X43.783 Y36.302 Z-39.971
N13740 X43.817 Y36.313 Z-39.884
N13745 X43.838 Y36.32 Z-39.792
N13750 X43.845 Y36.322 Z-39.698
N13755 Z15.

N13760 M5
N13765 M9
N13770 G53 G0 Z0.
N13775 G53 G0 X0. Y0.
N13780 M30

%
