%
O01012
(Using high feed G1 F5000. instead of G0.)
(T1 D=6. CR=3. - ZMIN=-42.495 - fresa con punta de bola)
N10 G90 G94 G17
N15 G21
(When using Fusion for Personal Use, the feedrate of rapid)
(moves is reduced to match the feedrate of cutting moves,)
(which can increase machining time. Unrestricted rapid moves)
(are available with a Fusion Subscription.)
N20 G53 G0 Z0.

(Festoneado1)
N25 T1 M6
N30 S5000 M3
N35 G17 G90 G94
N40 G54
N45 M8
N50 G1 X-34.613 Y-1.992 F5000.
N55 G0 G43 Z15. H1
N60 G1 Z-1.4 F1000.
N65 Z-3.021 F333.33
N70 X-34.611 Y-1.999 Z-3.115 F1000.
N75 X-34.607 Y-2.02 Z-3.206
N80 X-34.599 Y-2.056 Z-3.293
N85 X-34.589 Y-2.104 Z-3.373
N90 X-34.577 Y-2.163 Z-3.445
N95 X-34.562 Y-2.233 Z-3.506
N100 X-34.546 Y-2.311 Z-3.555
N105 X-34.528 Y-2.396 Z-3.591
N110 X-34.509 Y-2.486 Z-3.614
N115 X-34.49 Y-2.578 Z-3.621
N120 X-34.471 Y-2.669 Z-3.614
N125 X-34.407 Y-2.955 Z-3.567
N130 X-34.351 Y-3.173 Z-3.527
N135 X-34.231 Y-3.611 Z-3.449
N140 X-34.107 Y-4.049 Z-3.376
N145 X-33.984 Y-4.487 Z-3.311
N150 X-33.862 Y-4.924 Z-3.254
N155 X-33.742 Y-5.362 Z-3.204
N160 X-33.626 Y-5.8 Z-3.161
N165 X-33.513 Y-6.238 Z-3.125
N170 X-33.403 Y-6.675 Z-3.094
N175 X-33.298 Y-7.113 Z-3.069
N180 X-33.198 Y-7.551 Z-3.049
N185 X-33.103 Y-7.988 Z-3.033
N190 X-33.013 Y-8.426 Z-3.02
N195 X-32.928 Y-8.864 Z-3.011
N200 X-32.848 Y-9.302 Z-3.005
N205 X-32.775 Y-9.739 Z-3.001
N210 X-32.707 Y-10.177 Z-2.999
N215 X-32.644 Y-10.615 Z-2.998
N220 X-32.587 Y-11.052
N225 X-32.537 Y-11.49
N230 X-32.491 Y-11.928
N235 X-32.453 Y-12.366
N240 X-32.42 Y-12.803
N245 X-32.405 Y-13.022
N250 X-32.387 Y-13.241
N255 X-32.369 Y-13.35
N260 X-32.323 Y-13.46
N265 X-32.282 Y-13.516
N270 X-32.147 Y-13.679
N275 X-31.844 Y-14.027
N280 X-31.581 Y-14.335
N285 X-31.399 Y-14.554
N290 X-31.188 Y-14.813
N295 X-30.871 Y-15.211
N300 X-30.531 Y-15.652
N305 X-30.312 Y-15.944 Z-2.999
N310 X-30.093 Y-16.243 Z-3.001
N315 X-29.874 Y-16.548 Z-3.003
N320 X-29.656 Y-16.859 Z-3.008
N325 X-29.435 Y-17.181 Z-3.015
N330 X-29.218 Y-17.503 Z-3.023
N335 X-28.998 Y-17.837 Z-3.035
N340 X-28.78 Y-18.176 Z-3.05
N345 X-28.561 Y-18.523 Z-3.068
N350 X-28.342 Y-18.878 Z-3.091
N355 X-28.124 Y-19.241 Z-3.119
N360 X-27.905 Y-19.613 Z-3.153
N365 X-27.791 Y-19.807 Z-3.172
N370 X-27.665 Y-20.026 Z-3.197
N375 X-27.467 Y-20.374 Z-3.24
N380 X-27.248 Y-20.762 Z-3.294
N385 X-27.048 Y-21.12 Z-3.35
N390 X-26.926 Y-21.339 Z-3.388
N395 X-26.805 Y-21.558 Z-3.428
N400 X-26.592 Y-21.939 Z-3.504
N405 X-26.373 Y-22.321 Z-3.585
N410 X-26.301 Y-22.433 Z-3.606
N415 X-26.154 Y-22.644 Z-3.641
N420 X-25.928 Y-22.871 Z-3.642
N425 X-25.467 Y-23.309 Z-3.629
N430 X-25.014 Y-23.746 Z-3.62
N435 X-24.622 Y-24.132 Z-3.617
N440 X-24.133 Y-24.622
N445 X-23.703 Y-25.06 Z-3.621
N450 X-23.49 Y-25.278 Z-3.625
N455 X-23.09 Y-25.698 Z-3.635
N460 X-22.866 Y-25.935 Z-3.642
N465 X-22.652 Y-26.144 Z-3.64
N470 X-22.641 Y-26.154 Z-3.639
N475 X-22.433 Y-26.298 Z-3.604
N480 X-22.316 Y-26.373 Z-3.582
N485 X-21.935 Y-26.592 Z-3.502
N490 X-21.543 Y-26.81 Z-3.424
N495 X-21.339 Y-26.924 Z-3.387
N500 X-21.12 Y-27.047 Z-3.35
N505 X-20.76 Y-27.248 Z-3.293
N510 X-20.371 Y-27.467 Z-3.239
N515 X-19.988 Y-27.686 Z-3.192
N520 X-19.588 Y-27.918 Z-3.15
N525 X-19.24 Y-28.124 Z-3.119
N530 X-18.877 Y-28.342 Z-3.091
N535 X-18.713 Y-28.442 Z-3.08
N540 X-18.275 Y-28.716 Z-3.054
N545 X-18.056 Y-28.855 Z-3.044
N550 X-17.618 Y-29.141 Z-3.027
N555 X-17.177 Y-29.437 Z-3.015
N560 X-16.743 Y-29.736 Z-3.006
N565 X-16.524 Y-29.891 Z-3.003
N570 X-16.086 Y-30.207 Z-3.
N575 X-15.867 Y-30.369 Z-2.999
N580 X-15.649 Y-30.533 Z-2.998
N585 X-15.366 Y-30.75
N590 X-14.992 Y-31.043
N595 X-14.773 Y-31.219
N600 X-14.544 Y-31.406
N605 X-14.117 Y-31.767
N610 X-13.775 Y-32.063
N615 X-13.679 Y-32.147
N620 X-13.516 Y-32.282
N625 X-13.46 Y-32.323
N630 X-13.35 Y-32.373
N635 X-13.241 Y-32.387
N640 X-13.022 Y-32.404
N645 X-12.584 Y-32.435
N650 X-12.147 Y-32.471
N655 X-11.709 Y-32.513
N660 X-11.271 Y-32.561
N665 X-10.834 Y-32.615
N670 X-10.396 Y-32.675
N675 X-9.958 Y-32.741 Z-3.
N680 X-9.52 Y-32.812 Z-3.003
N685 X-9.083 Y-32.888 Z-3.008
N690 X-8.645 Y-32.971 Z-3.016
N695 X-8.207 Y-33.058 Z-3.026
N700 X-7.737 Y-33.157 Z-3.042
N705 X-7.332 Y-33.249 Z-3.059
N710 X-6.894 Y-33.351 Z-3.082
N715 X-6.456 Y-33.459 Z-3.109
N720 X-6.238 Y-33.514 Z-3.125
N725 X-5.8 Y-33.627 Z-3.162
N730 X-5.362 Y-33.744 Z-3.205
N735 X-4.924 Y-33.864 Z-3.255
N740 X-4.487 Y-33.986 Z-3.312
N745 X-4.049 Y-34.11 Z-3.378
N750 X-3.611 Y-34.233 Z-3.45
N755 X-3.173 Y-34.354 Z-3.529
N760 X-2.955 Y-34.41 Z-3.569
N765 X-2.678 Y-34.471 Z-3.614
N770 X-2.517 Y-34.497 Z-3.634
N775 X-2.298 Y-34.51 Z-3.644
N780 X-1.641 Y-34.49 Z-3.629
N785 X-1.204 Y-34.48 Z-3.621
N790 X-0.766 Y-34.473 Z-3.616
N795 X-0.328 Y-34.47 Z-3.614
N800 X0.388 Y-34.471
N805 X0.985 Y-34.477 Z-3.619
N810 X1.423 Y-34.485 Z-3.625
N815 X2.079 Y-34.504 Z-3.64
N820 X2.298 Y-34.511 Z-3.645
N825 X2.517 Y-34.495 Z-3.633
N830 X2.669 Y-34.471 Z-3.614
N835 X2.955 Y-34.407 Z-3.567
N840 X3.173 Y-34.351 Z-3.527
N845 X3.611 Y-34.23 Z-3.448
N850 X4.049 Y-34.107 Z-3.376
N855 X4.487 Y-33.984 Z-3.311
N860 X4.924 Y-33.862 Z-3.254
N865 X5.362 Y-33.742 Z-3.204
N870 X5.8 Y-33.626 Z-3.161
N875 X6.238 Y-33.513 Z-3.125
N880 X6.675 Y-33.403 Z-3.094
N885 X7.113 Y-33.298 Z-3.069
N890 X7.551 Y-33.198 Z-3.049
N895 X7.988 Y-33.103 Z-3.033
N900 X8.426 Y-33.013 Z-3.02
N905 X8.864 Y-32.928 Z-3.011
N910 X9.302 Y-32.849 Z-3.005
N915 X9.739 Y-32.775 Z-3.001
N920 X10.177 Y-32.707 Z-2.999
N925 X10.615 Y-32.644 Z-2.998
N930 X11.052 Y-32.587
N935 X11.49 Y-32.537
N940 X11.928 Y-32.491
N945 X12.366 Y-32.453
N950 X12.803 Y-32.42
N955 X13.022 Y-32.405
N960 X13.241 Y-32.387
N965 X13.35 Y-32.373
N970 X13.46 Y-32.324
N975 X13.517 Y-32.282
N980 X13.679 Y-32.147
N985 X14.027 Y-31.844
N990 X14.335 Y-31.582
N995 X14.554 Y-31.399
N1000 X14.813 Y-31.188
N1005 X15.211 Y-30.871
N1010 X15.652 Y-30.531
N1015 X15.944 Y-30.312 Z-2.999
N1020 X16.243 Y-30.093 Z-3.001
N1025 X16.548 Y-29.874 Z-3.003
N1030 X16.86 Y-29.656 Z-3.008
N1035 X17.181 Y-29.436 Z-3.015
N1040 X17.503 Y-29.218 Z-3.023
N1045 X17.837 Y-28.998 Z-3.035
N1050 X18.176 Y-28.78 Z-3.05
N1055 X18.523 Y-28.561 Z-3.068
N1060 X18.878 Y-28.342 Z-3.091
N1065 X19.241 Y-28.124 Z-3.119
N1070 X19.613 Y-27.905 Z-3.153
N1075 X19.99 Y-27.686 Z-3.193
N1080 X20.374 Y-27.467 Z-3.24
N1085 X20.762 Y-27.248 Z-3.294
N1090 X21.154 Y-27.029 Z-3.356
N1095 X21.547 Y-26.81 Z-3.426
N1100 X21.939 Y-26.592 Z-3.504
N1105 X22.321 Y-26.373 Z-3.585
N1110 X22.433 Y-26.301 Z-3.606
N1115 X22.644 Y-26.154 Z-3.641
N1120 X22.871 Y-25.928 Z-3.642
N1125 X23.309 Y-25.467 Z-3.629
N1130 X23.746 Y-25.014 Z-3.62
N1135 X24.184 Y-24.57 Z-3.617
N1140 X24.622 Y-24.133
N1145 X25.06 Y-23.703 Z-3.621
N1150 X25.468 Y-23.309 Z-3.629
N1155 X25.935 Y-22.867 Z-3.643
N1160 X26.141 Y-22.652 Z-3.638
N1165 X26.154 Y-22.637 Z-3.637
N1170 X26.298 Y-22.433 Z-3.604
N1175 X26.373 Y-22.315 Z-3.582
N1180 X26.592 Y-21.934 Z-3.501
N1185 X26.81 Y-21.543 Z-3.424
N1190 X27.029 Y-21.15 Z-3.355
N1195 X27.248 Y-20.759 Z-3.293
N1200 X27.467 Y-20.371 Z-3.239
N1205 X27.686 Y-19.987 Z-3.192
N1210 X27.918 Y-19.588 Z-3.15
N1215 X28.124 Y-19.24 Z-3.119
N1220 X28.342 Y-18.877 Z-3.091
N1225 X28.442 Y-18.713 Z-3.08
N1230 X28.716 Y-18.275 Z-3.054
N1235 X28.855 Y-18.056 Z-3.044
N1240 X29.141 Y-17.618 Z-3.027
N1245 X29.437 Y-17.177 Z-3.015
N1250 X29.736 Y-16.743 Z-3.006
N1255 X29.89 Y-16.524 Z-3.003
N1260 X30.207 Y-16.086 Z-3.
N1265 X30.369 Y-15.867 Z-2.999
N1270 X30.533 Y-15.649 Z-2.998
N1275 X30.75 Y-15.366
N1280 X31.043 Y-14.992
N1285 X31.219 Y-14.773
N1290 X31.406 Y-14.544
N1295 X31.767 Y-14.117
N1300 X32.063 Y-13.775
N1305 X32.147 Y-13.679
N1310 X32.282 Y-13.516
N1315 X32.323 Y-13.46
N1320 X32.369 Y-13.35
N1325 X32.387 Y-13.241
N1330 X32.405 Y-13.022
N1335 X32.435 Y-12.584
N1340 X32.471 Y-12.147
N1345 X32.513 Y-11.709
N1350 X32.561 Y-11.271
N1355 X32.615 Y-10.834
N1360 X32.675 Y-10.396
N1365 X32.741 Y-9.958 Z-3.
N1370 X32.812 Y-9.52 Z-3.003
N1375 X32.888 Y-9.083 Z-3.008
N1380 X32.971 Y-8.645 Z-3.016
N1385 X33.058 Y-8.207 Z-3.026
N1390 X33.157 Y-7.738 Z-3.042
N1395 X33.249 Y-7.332 Z-3.059
N1400 X33.352 Y-6.894 Z-3.082
N1405 X33.459 Y-6.456 Z-3.109
N1410 X33.514 Y-6.238 Z-3.125
N1415 X33.627 Y-5.8 Z-3.162
N1420 X33.744 Y-5.362 Z-3.205
N1425 X33.864 Y-4.924 Z-3.255
N1430 X33.986 Y-4.487 Z-3.312
N1435 X34.11 Y-4.049 Z-3.378
N1440 X34.233 Y-3.611 Z-3.45
N1445 X34.354 Y-3.173 Z-3.529
N1450 X34.41 Y-2.955 Z-3.569
N1455 X34.471 Y-2.679 Z-3.614
N1460 X34.497 Y-2.517 Z-3.634
N1465 X34.51 Y-2.298 Z-3.644
N1470 X34.49 Y-1.641 Z-3.629
N1475 X34.48 Y-1.204 Z-3.621
N1480 X34.473 Y-0.766 Z-3.616
N1485 X34.47 Y-0.328 Z-3.614
N1490 X34.471 Y0.388
N1495 X34.477 Y0.985 Z-3.619
N1500 X34.485 Y1.423 Z-3.625
N1505 X34.504 Y2.079 Z-3.64
N1510 X34.511 Y2.298 Z-3.645
N1515 X34.495 Y2.517 Z-3.633
N1520 X34.471 Y2.669 Z-3.614
N1525 X34.407 Y2.955 Z-3.567
N1530 X34.351 Y3.173 Z-3.527
N1535 X34.23 Y3.611 Z-3.448
N1540 X34.107 Y4.049 Z-3.376
N1545 X33.984 Y4.487 Z-3.311
N1550 X33.862 Y4.924 Z-3.254
N1555 X33.742 Y5.362 Z-3.204
N1560 X33.626 Y5.8 Z-3.161
N1565 X33.513 Y6.238 Z-3.125
N1570 X33.403 Y6.675 Z-3.094
N1575 X33.298 Y7.113 Z-3.069
N1580 X33.198 Y7.551 Z-3.049
N1585 X33.103 Y7.988 Z-3.033
N1590 X33.013 Y8.426 Z-3.02
N1595 X32.928 Y8.864 Z-3.011
N1600 X32.849 Y9.302 Z-3.005
N1605 X32.775 Y9.739 Z-3.001
N1610 X32.707 Y10.177 Z-2.999
N1615 X32.644 Y10.615 Z-2.998
N1620 X32.587 Y11.052
N1625 X32.537 Y11.49
N1630 X32.491 Y11.928
N1635 X32.453 Y12.366
N1640 X32.42 Y12.803
N1645 X32.405 Y13.022
N1650 X32.387 Y13.241
N1655 X32.369 Y13.35
N1660 X32.324 Y13.46
N1665 X32.282 Y13.517
N1670 X32.147 Y13.679
N1675 X31.767 Y14.117
N1680 X31.399 Y14.554
N1685 X31.188 Y14.813
N1690 X30.871 Y15.211
N1695 X30.534 Y15.649
N1700 X30.312 Y15.945 Z-2.999
N1705 X30.049 Y16.305 Z-3.001
N1710 X29.874 Y16.548 Z-3.004
N1715 X29.656 Y16.86 Z-3.008
N1720 X29.436 Y17.181 Z-3.015
N1725 X29.218 Y17.503 Z-3.023
N1730 X28.998 Y17.837 Z-3.035
N1735 X28.78 Y18.176 Z-3.05
N1740 X28.561 Y18.524 Z-3.068
N1745 X28.31 Y18.931 Z-3.095
N1750 X28.124 Y19.241 Z-3.119
N1755 X27.905 Y19.613 Z-3.153
N1760 X27.686 Y19.991 Z-3.193
N1765 X27.467 Y20.374 Z-3.24
N1770 X27.248 Y20.762 Z-3.294
N1775 X27.048 Y21.12 Z-3.35
N1780 X26.926 Y21.339 Z-3.388
N1785 X26.805 Y21.558 Z-3.428
N1790 X26.592 Y21.94 Z-3.504
N1795 X26.373 Y22.321 Z-3.585
N1800 X26.301 Y22.433 Z-3.606
N1805 X26.154 Y22.644 Z-3.641
N1810 X25.928 Y22.871
N1815 X25.467 Y23.309 Z-3.629
N1820 X25.014 Y23.746 Z-3.62
N1825 X24.622 Y24.132 Z-3.617
N1830 X24.133 Y24.622
N1835 X23.703 Y25.06 Z-3.621
N1840 X23.309 Y25.468 Z-3.629
N1845 X22.867 Y25.935 Z-3.643
N1850 X22.652 Y26.141 Z-3.638
N1855 X22.637 Y26.154 Z-3.637
N1860 X22.433 Y26.298 Z-3.604
N1865 X22.315 Y26.373 Z-3.582
N1870 X21.934 Y26.592 Z-3.501
N1875 X21.543 Y26.81 Z-3.424
N1880 X21.15 Y27.029 Z-3.355
N1885 X20.759 Y27.248 Z-3.293
N1890 X20.371 Y27.467 Z-3.239
N1895 X19.987 Y27.686 Z-3.192
N1900 X19.61 Y27.905 Z-3.152
N1905 X19.24 Y28.124 Z-3.119
N1910 X18.876 Y28.342 Z-3.091
N1915 X18.494 Y28.578 Z-3.066
N1920 X18.056 Y28.855 Z-3.044
N1925 X17.618 Y29.141 Z-3.027
N1930 X17.176 Y29.437 Z-3.014
N1935 X16.743 Y29.736 Z-3.006
N1940 X16.524 Y29.89 Z-3.003
N1945 X16.086 Y30.206 Z-3.
N1950 X15.867 Y30.368 Z-2.999
N1955 X15.649 Y30.533 Z-2.998
N1960 X15.211 Y30.87
N1965 X14.812 Y31.188
N1970 X14.544 Y31.406
N1975 X14.283 Y31.625
N1980 X13.898 Y31.955
N1985 X13.679 Y32.146
N1990 X13.515 Y32.282
N1995 X13.46 Y32.323
N2000 X13.35 Y32.373
N2005 X13.241 Y32.387
N2010 X13.022 Y32.404
N2015 X12.584 Y32.435
N2020 X12.147 Y32.471
N2025 X11.709 Y32.513
N2030 X11.271 Y32.561
N2035 X10.834 Y32.615
N2040 X10.396 Y32.675
N2045 X9.958 Y32.74 Z-3.
N2050 X9.52 Y32.812 Z-3.003
N2055 X9.083 Y32.888 Z-3.008
N2060 X8.645 Y32.971 Z-3.016
N2065 X8.207 Y33.058 Z-3.026
N2070 X7.738 Y33.157 Z-3.042
N2075 X7.332 Y33.248 Z-3.059
N2080 X6.894 Y33.352 Z-3.082
N2085 X6.456 Y33.459 Z-3.11
N2090 X6.238 Y33.514 Z-3.125
N2095 X5.8 Y33.627 Z-3.162
N2100 X5.362 Y33.744 Z-3.205
N2105 X4.924 Y33.864 Z-3.255
N2110 X4.487 Y33.986 Z-3.312
N2115 X4.049 Y34.11 Z-3.378
N2120 X3.611 Y34.233 Z-3.45
N2125 X3.173 Y34.354 Z-3.529
N2130 X2.955 Y34.41 Z-3.569
N2135 X2.68 Y34.471 Z-3.614
N2140 X2.517 Y34.497 Z-3.635
N2145 X2.298 Y34.51 Z-3.645
N2150 X1.641 Y34.49 Z-3.629
N2155 X0.985 Y34.477 Z-3.619
N2160 X0.547 Y34.472 Z-3.615
N2165 X0.109 Y34.471 Z-3.614
N2170 X-0.547 Y34.472 Z-3.615
N2175 X-0.985 Y34.477 Z-3.619
N2180 X-1.423 Y34.486 Z-3.626
N2185 X-2.079 Y34.504 Z-3.64
N2190 X-2.298 Y34.511 Z-3.645
N2195 X-2.517 Y34.495 Z-3.633
N2200 X-2.668 Y34.471 Z-3.614
N2205 X-2.736 Y34.457 Z-3.603
N2210 X-2.955 Y34.407 Z-3.567
N2215 X-3.173 Y34.351 Z-3.527
N2220 X-3.611 Y34.231 Z-3.449
N2225 X-4.049 Y34.107 Z-3.376
N2230 X-4.312 Y34.033 Z-3.336
N2235 X-4.706 Y33.923 Z-3.282
N2240 X-5.143 Y33.802 Z-3.228
N2245 X-5.581 Y33.684 Z-3.182
N2250 X-6.019 Y33.569 Z-3.143
N2255 X-6.456 Y33.457 Z-3.109
N2260 X-6.894 Y33.35 Z-3.081
N2265 X-7.113 Y33.298 Z-3.069
N2270 X-7.551 Y33.198 Z-3.049
N2275 X-7.988 Y33.103 Z-3.033
N2280 X-8.426 Y33.013 Z-3.02
N2285 X-8.864 Y32.928 Z-3.011
N2290 X-9.302 Y32.848 Z-3.005
N2295 X-9.739 Y32.775 Z-3.001
N2300 X-10.177 Y32.707 Z-2.999
N2305 X-10.615 Y32.644 Z-2.998
N2310 X-11.052 Y32.587
N2315 X-11.49 Y32.537
N2320 X-11.928 Y32.491
N2325 X-12.366 Y32.453
N2330 X-12.803 Y32.42
N2335 X-13.022 Y32.405
N2340 X-13.241 Y32.387
N2345 X-13.35 Y32.369
N2350 X-13.46 Y32.323
N2355 X-13.516 Y32.282
N2360 X-13.679 Y32.147
N2365 X-14.027 Y31.844
N2370 X-14.335 Y31.581
N2375 X-14.554 Y31.399
N2380 X-14.813 Y31.188
N2385 X-15.211 Y30.871
N2390 X-15.652 Y30.531
N2395 X-15.944 Y30.312 Z-2.999
N2400 X-16.305 Y30.048 Z-3.001
N2405 X-16.743 Y29.737 Z-3.006
N2410 X-16.962 Y29.585 Z-3.01
N2415 X-17.399 Y29.287 Z-3.02
N2420 X-17.837 Y28.998 Z-3.035
N2425 X-18.176 Y28.78 Z-3.05
N2430 X-18.523 Y28.561 Z-3.068
N2435 X-18.878 Y28.342 Z-3.091
N2440 X-19.241 Y28.124 Z-3.119
N2445 X-19.612 Y27.905 Z-3.153
N2450 X-19.99 Y27.686 Z-3.193
N2455 X-20.374 Y27.467 Z-3.24
N2460 X-20.762 Y27.248 Z-3.294
N2465 X-21.154 Y27.029 Z-3.356
N2470 X-21.547 Y26.81 Z-3.426
N2475 X-21.94 Y26.592 Z-3.504
N2480 X-22.321 Y26.373 Z-3.585
N2485 X-22.433 Y26.301 Z-3.606
N2490 X-22.644 Y26.154 Z-3.641
N2495 X-22.871 Y25.928
N2500 X-23.309 Y25.467 Z-3.629
N2505 X-23.746 Y25.014 Z-3.62
N2510 X-24.132 Y24.622 Z-3.617
N2515 X-24.622 Y24.133
N2520 X-25.06 Y23.703 Z-3.621
N2525 X-25.468 Y23.309 Z-3.629
N2530 X-25.935 Y22.866 Z-3.642
N2535 X-26.141 Y22.652 Z-3.638
N2540 X-26.154 Y22.637 Z-3.637
N2545 X-26.298 Y22.433 Z-3.604
N2550 X-26.373 Y22.315 Z-3.582
N2555 X-26.592 Y21.934 Z-3.501
N2560 X-26.81 Y21.543 Z-3.424
N2565 X-27.029 Y21.151 Z-3.355
N2570 X-27.248 Y20.759 Z-3.293
N2575 X-27.467 Y20.371 Z-3.239
N2580 X-27.686 Y19.987 Z-3.192
N2585 X-27.918 Y19.588 Z-3.15
N2590 X-28.124 Y19.24 Z-3.119
N2595 X-28.342 Y18.876 Z-3.091
N2600 X-28.578 Y18.494 Z-3.066
N2605 X-28.855 Y18.056 Z-3.044
N2610 X-29.141 Y17.618 Z-3.027
N2615 X-29.434 Y17.181 Z-3.015
N2620 X-29.736 Y16.743 Z-3.006
N2625 X-29.89 Y16.524 Z-3.003
N2630 X-30.207 Y16.086 Z-3.
N2635 X-30.369 Y15.867 Z-2.999
N2640 X-30.533 Y15.649 Z-2.998
N2645 X-30.87 Y15.211
N2650 X-31.188 Y14.812
N2655 X-31.406 Y14.544
N2660 X-31.625 Y14.283
N2665 X-31.955 Y13.898
N2670 X-32.147 Y13.679
N2675 X-32.282 Y13.516
N2680 X-32.323 Y13.46
N2685 X-32.373 Y13.35
N2690 X-32.387 Y13.241
N2695 X-32.404 Y13.022
N2700 X-32.435 Y12.584
N2705 X-32.471 Y12.147
N2710 X-32.513 Y11.709
N2715 X-32.561 Y11.271
N2720 X-32.615 Y10.834
N2725 X-32.675 Y10.396
N2730 X-32.74 Y9.958 Z-3.
N2735 X-32.812 Y9.52 Z-3.003
N2740 X-32.888 Y9.083 Z-3.008
N2745 X-32.971 Y8.645 Z-3.016
N2750 X-33.058 Y8.207 Z-3.026
N2755 X-33.157 Y7.738 Z-3.042
N2760 X-33.249 Y7.332 Z-3.059
N2765 X-33.352 Y6.894 Z-3.082
N2770 X-33.459 Y6.456 Z-3.11
N2775 X-33.514 Y6.238 Z-3.125
N2780 X-33.627 Y5.8 Z-3.162
N2785 X-33.744 Y5.362 Z-3.205
N2790 X-33.864 Y4.924 Z-3.255
N2795 X-33.986 Y4.487 Z-3.312
N2800 X-34.11 Y4.049 Z-3.378
N2805 X-34.233 Y3.611 Z-3.45
N2810 X-34.354 Y3.173 Z-3.529
N2815 X-34.41 Y2.955 Z-3.569
N2820 X-34.471 Y2.679 Z-3.614
N2825 X-34.497 Y2.517 Z-3.635
N2830 X-34.51 Y2.298 Z-3.645
N2835 X-34.49 Y1.641 Z-3.629
N2840 X-34.477 Y0.985 Z-3.619
N2845 X-34.472 Y0.547 Z-3.615
N2850 X-34.471 Y0.109 Z-3.614
N2855 Y-0.328
N2860 X-34.474 Y-0.766 Z-3.616
N2865 X-34.481 Y-1.204 Z-3.622
N2870 X-34.497 Y-1.86 Z-3.634
N2875 X-34.511 Y-2.298 Z-3.645
N2880 X-34.495 Y-2.517 Z-3.633
N2885 X-34.471 Y-2.669 Z-3.614
N2890 X-34.448 Y-2.86 Z-3.597
N2895 X-34.439 Y-3.052 Z-3.589
N2900 X-34.438 Y-3.246 Z-3.588
N2905 X-34.44 Y-3.44 Z-3.589
N2910 Y-3.632
N2915 X-34.432 Y-3.824 Z-3.584
N2920 X-34.412 Y-4.014 Z-3.57
N2925 X-34.395 Y-4.107 Z-3.558
N2930 X-34.374 Y-4.199 Z-3.544
N2935 X-34.298 Y-4.487 Z-3.492
N2940 X-34.183 Y-4.924 Z-3.42
N2945 X-34.069 Y-5.362 Z-3.355
N2950 X-33.958 Y-5.8 Z-3.298
N2955 X-33.849 Y-6.238 Z-3.248
N2960 X-33.743 Y-6.675 Z-3.204
N2965 X-33.64 Y-7.113 Z-3.166
N2970 X-33.542 Y-7.551 Z-3.134
N2975 X-33.449 Y-7.988 Z-3.107
N2980 X-33.36 Y-8.426 Z-3.084
N2985 X-33.276 Y-8.864 Z-3.064
N2990 X-33.197 Y-9.302 Z-3.049
N2995 X-33.123 Y-9.739 Z-3.036
N3000 X-33.055 Y-10.177 Z-3.026
N3005 X-32.993 Y-10.615 Z-3.018
N3010 X-32.935 Y-11.052 Z-3.012
N3015 X-32.885 Y-11.49 Z-3.008
N3020 X-32.839 Y-11.928 Z-3.004
N3025 X-32.8 Y-12.366 Z-3.002
N3030 X-32.767 Y-12.803 Z-3.001
N3035 X-32.735 Y-13.241 Z-3.
N3040 X-32.72 Y-13.379 Z-2.999
N3045 X-32.697 Y-13.46
N3050 X-32.661 Y-13.569
N3055 X-32.595 Y-13.679
N3060 X-32.415 Y-13.898 Z-3.
N3065 X-32.035 Y-14.335 Z-3.002
N3070 X-31.844 Y-14.56 Z-3.003
N3075 X-31.625 Y-14.823 Z-3.005
N3080 X-31.312 Y-15.211 Z-3.008
N3085 X-31.139 Y-15.43 Z-3.011
N3090 X-30.801 Y-15.867 Z-3.019
N3095 X-30.636 Y-16.086 Z-3.024
N3100 X-30.474 Y-16.305 Z-3.029
N3105 X-30.158 Y-16.743 Z-3.043
N3110 X-30.002 Y-16.962 Z-3.051
N3115 X-29.699 Y-17.399 Z-3.07
N3120 X-29.55 Y-17.618 Z-3.082
N3125 X-29.404 Y-17.837 Z-3.095
N3130 X-29.116 Y-18.275 Z-3.124
N3135 X-28.975 Y-18.494 Z-3.142
N3140 X-28.699 Y-18.931 Z-3.181
N3145 X-28.561 Y-19.153 Z-3.203
N3150 X-28.342 Y-19.511 Z-3.243
N3155 X-28.124 Y-19.875 Z-3.29
N3160 X-27.905 Y-20.245 Z-3.343
N3165 X-27.686 Y-20.619 Z-3.404
N3170 X-27.467 Y-20.995 Z-3.472
N3175 X-27.248 Y-21.372 Z-3.547
N3180 X-27.013 Y-21.777 Z-3.636
N3185 X-26.81 Y-22.122 Z-3.719
N3190 X-26.622 Y-22.433 Z-3.796
N3195 X-26.592 Y-22.482 Z-3.809
N3200 X-26.473 Y-22.652 Z-3.843
N3205 X-26.373 Y-22.788 Z-3.868
N3210 X-26.3 Y-22.871 Z-3.875
N3215 X-26.154 Y-23.014 Z-3.873
N3220 X-25.615 Y-23.528 Z-3.855
N3225 X-25.165 Y-23.965 Z-3.846
N3230 X-24.841 Y-24.284 Z-3.843
N3235 X-24.285 Y-24.841 Z-3.844
N3240 X-23.854 Y-25.278 Z-3.848
N3245 X-23.431 Y-25.716 Z-3.858
N3250 X-23.015 Y-26.154 Z-3.873
N3255 X-22.871 Y-26.299 Z-3.874
N3260 X-22.785 Y-26.373 Z-3.866
N3265 X-22.652 Y-26.471 Z-3.841
N3270 X-22.478 Y-26.592 Z-3.806
N3275 X-22.118 Y-26.81 Z-3.717
N3280 X-21.745 Y-27.029 Z-3.628
N3285 X-21.369 Y-27.248 Z-3.546
N3290 X-20.993 Y-27.467 Z-3.471
N3295 X-20.616 Y-27.686 Z-3.403
N3300 X-20.243 Y-27.905 Z-3.343
N3305 X-19.874 Y-28.124 Z-3.29
N3310 X-19.51 Y-28.342 Z-3.243
N3315 X-19.15 Y-28.562 Z-3.202
N3320 X-18.8 Y-28.78 Z-3.168
N3325 X-18.455 Y-28.999 Z-3.138
N3330 X-18.117 Y-29.218 Z-3.113
N3335 X-17.786 Y-29.437 Z-3.092
N3340 X-17.399 Y-29.698 Z-3.07
N3345 X-16.962 Y-30.002 Z-3.051
N3350 X-16.743 Y-30.157 Z-3.043
N3355 X-16.305 Y-30.474 Z-3.029
N3360 X-15.934 Y-30.75 Z-3.02
N3365 X-15.647 Y-30.969 Z-3.015
N3370 X-15.211 Y-31.311 Z-3.008
N3375 X-14.992 Y-31.487 Z-3.006
N3380 X-14.773 Y-31.666 Z-3.004
N3385 X-14.554 Y-31.849 Z-3.003
N3390 X-14.303 Y-32.063 Z-3.001
N3395 X-13.898 Y-32.415 Z-3.
N3400 X-13.679 Y-32.595 Z-2.999
N3405 X-13.569 Y-32.661
N3410 X-13.46 Y-32.704
N3415 X-13.378 Y-32.72
N3420 X-13.241 Y-32.735 Z-3.
N3425 X-12.584 Y-32.782 Z-3.001
N3430 X-12.147 Y-32.818 Z-3.003
N3435 X-11.709 Y-32.861 Z-3.006
N3440 X-11.271 Y-32.909 Z-3.01
N3445 X-10.834 Y-32.963 Z-3.015
N3450 X-10.396 Y-33.023 Z-3.022
N3455 X-9.958 Y-33.089 Z-3.031
N3460 X-9.52 Y-33.16 Z-3.042
N3465 X-9.083 Y-33.236 Z-3.056
N3470 X-8.645 Y-33.319 Z-3.074
N3475 X-8.207 Y-33.404 Z-3.095
N3480 X-7.77 Y-33.495 Z-3.12
N3485 X-7.318 Y-33.595 Z-3.151
N3490 X-6.894 Y-33.692 Z-3.185
N3495 X-6.456 Y-33.796 Z-3.226
N3500 X-6.019 Y-33.904 Z-3.273
N3505 X-5.8 Y-33.959 Z-3.299
N3510 X-5.362 Y-34.071 Z-3.356
N3515 X-4.924 Y-34.185 Z-3.421
N3520 X-4.487 Y-34.301 Z-3.493
N3525 X-4.049 Y-34.416 Z-3.573
N3530 X-3.83 Y-34.473 Z-3.616
N3535 X-3.392 Y-34.586 Z-3.707
N3540 X-3.173 Y-34.64 Z-3.753
N3545 X-2.955 Y-34.689 Z-3.798
N3550 X-2.736 Y-34.73 Z-3.837
N3555 X-2.517 Y-34.762 Z-3.868
N3560 X-2.298 Y-34.769 Z-3.874
N3565 X-1.641 Y-34.751 Z-3.857
N3570 X-1.204 Y-34.742 Z-3.848
N3575 X-0.766 Y-34.736 Z-3.842
N3580 X-0.328 Y-34.733 Z-3.839
N3585 X0.328
N3590 X0.985 Y-34.738 Z-3.845
N3595 X1.423 Y-34.746 Z-3.852
N3600 X2.079 Y-34.763 Z-3.869
N3605 X2.298 Y-34.77 Z-3.876
N3610 X2.517 Y-34.76 Z-3.866
N3615 X2.736 Y-34.728 Z-3.835
N3620 X2.955 Y-34.687 Z-3.796
N3625 X3.173 Y-34.637 Z-3.751
N3630 X3.392 Y-34.584 Z-3.705
N3635 X3.831 Y-34.471 Z-3.614
N3640 X4.268 Y-34.356 Z-3.53
N3645 X4.706 Y-34.241 Z-3.455
N3650 X5.143 Y-34.126 Z-3.387
N3655 X5.504 Y-34.033 Z-3.336
N3660 X5.8 Y-33.958 Z-3.298
N3665 X6.238 Y-33.849 Z-3.248
N3670 X6.675 Y-33.742 Z-3.204
N3675 X7.113 Y-33.64 Z-3.166
N3680 X7.551 Y-33.542 Z-3.134
N3685 X7.988 Y-33.449 Z-3.107
N3690 X8.426 Y-33.36 Z-3.084
N3695 X8.864 Y-33.276 Z-3.064
N3700 X9.302 Y-33.198 Z-3.049
N3705 X9.739 Y-33.124 Z-3.036
N3710 X10.177 Y-33.055 Z-3.026
N3715 X10.615 Y-32.993 Z-3.018
N3720 X11.052 Y-32.935 Z-3.012
N3725 X11.49 Y-32.885 Z-3.008
N3730 X11.928 Y-32.839 Z-3.004
N3735 X12.366 Y-32.8 Z-3.002
N3740 X12.803 Y-32.766 Z-3.001
N3745 X13.022 Y-32.752 Z-3.
N3750 X13.241 Y-32.735
N3755 X13.379 Y-32.72 Z-2.999
N3760 X13.46 Y-32.705
N3765 X13.569 Y-32.661
N3770 X13.679 Y-32.597
N3775 X13.898 Y-32.415 Z-3.
N3780 X14.335 Y-32.035 Z-3.002
N3785 X14.773 Y-31.667 Z-3.004
N3790 X15.093 Y-31.406 Z-3.007
N3795 X15.43 Y-31.139 Z-3.011
N3800 X15.867 Y-30.801 Z-3.019
N3805 X16.086 Y-30.636 Z-3.024
N3810 X16.305 Y-30.474 Z-3.029
N3815 X16.743 Y-30.158 Z-3.043
N3820 X16.962 Y-30.002 Z-3.051
N3825 X17.399 Y-29.699 Z-3.07
N3830 X17.618 Y-29.55 Z-3.082
N3835 X18.056 Y-29.259 Z-3.109
N3840 X18.275 Y-29.116 Z-3.124
N3845 X18.494 Y-28.975 Z-3.142
N3850 X18.931 Y-28.699 Z-3.181
N3855 X19.153 Y-28.561 Z-3.203
N3860 X19.511 Y-28.342 Z-3.243
N3865 X19.875 Y-28.124 Z-3.29
N3870 X20.245 Y-27.905 Z-3.343
N3875 X20.619 Y-27.686 Z-3.404
N3880 X20.995 Y-27.467 Z-3.472
N3885 X21.372 Y-27.248 Z-3.547
N3890 X21.749 Y-27.029 Z-3.63
N3895 X22.122 Y-26.81 Z-3.719
N3900 X22.433 Y-26.622 Z-3.796
N3905 X22.482 Y-26.592 Z-3.809
N3910 X22.652 Y-26.473 Z-3.843
N3915 X22.788 Y-26.373 Z-3.868
N3920 X22.871 Y-26.3 Z-3.875
N3925 X23.014 Y-26.154 Z-3.873
N3930 X23.528 Y-25.615 Z-3.855
N3935 X23.965 Y-25.165 Z-3.846
N3940 X24.403 Y-24.722 Z-3.843
N3945 X24.841 Y-24.285 Z-3.844
N3950 X25.278 Y-23.854 Z-3.848
N3955 X25.716 Y-23.431 Z-3.858
N3960 X26.154 Y-23.015 Z-3.874
N3965 X26.294 Y-22.871 Z-3.871
N3970 X26.373 Y-22.782 Z-3.864
N3975 X26.471 Y-22.652 Z-3.841
N3980 X26.592 Y-22.478 Z-3.806
N3985 X26.81 Y-22.117 Z-3.716
N3990 X27.029 Y-21.744 Z-3.627
N3995 X27.265 Y-21.339 Z-3.539
N4000 X27.467 Y-20.992 Z-3.47
N4005 X27.686 Y-20.616 Z-3.403
N4010 X27.905 Y-20.242 Z-3.342
N4015 X28.124 Y-19.874 Z-3.29
N4020 X28.342 Y-19.51 Z-3.243
N4025 X28.562 Y-19.15 Z-3.203
N4030 X28.78 Y-18.8 Z-3.168
N4035 X28.999 Y-18.455 Z-3.138
N4040 X29.218 Y-18.117 Z-3.113
N4045 X29.437 Y-17.786 Z-3.092
N4050 X29.698 Y-17.399 Z-3.07
N4055 X30.002 Y-16.962 Z-3.051
N4060 X30.156 Y-16.743 Z-3.043
N4065 X30.474 Y-16.305 Z-3.029
N4070 X30.75 Y-15.934 Z-3.02
N4075 X30.969 Y-15.647 Z-3.015
N4080 X31.311 Y-15.211 Z-3.008
N4085 X31.487 Y-14.992 Z-3.006
N4090 X31.666 Y-14.773 Z-3.004
N4095 X32.035 Y-14.335 Z-3.002
N4100 X32.415 Y-13.898 Z-3.
N4105 X32.595 Y-13.679 Z-2.999
N4110 X32.661 Y-13.569
N4115 X32.697 Y-13.46
N4120 X32.72 Y-13.379
N4125 X32.735 Y-13.241 Z-3.
N4130 X32.752 Y-13.022
N4135 X32.782 Y-12.584 Z-3.001
N4140 X32.818 Y-12.147 Z-3.003
N4145 X32.861 Y-11.709 Z-3.006
N4150 X32.909 Y-11.271 Z-3.01
N4155 X32.963 Y-10.834 Z-3.015
N4160 X33.024 Y-10.396 Z-3.022
N4165 X33.056 Y-10.177 Z-3.026
N4170 X33.124 Y-9.739 Z-3.036
N4175 X33.198 Y-9.302 Z-3.049
N4180 X33.277 Y-8.864 Z-3.065
N4185 X33.376 Y-8.347 Z-3.088
N4190 X33.45 Y-7.988 Z-3.107
N4195 X33.543 Y-7.551 Z-3.134
N4200 X33.642 Y-7.113 Z-3.167
N4205 X33.744 Y-6.675 Z-3.205
N4210 X33.85 Y-6.238 Z-3.249
N4215 X33.959 Y-5.8 Z-3.299
N4220 X34.071 Y-5.362 Z-3.356
N4225 X34.185 Y-4.924 Z-3.421
N4230 X34.301 Y-4.487 Z-3.493
N4235 X34.416 Y-4.049 Z-3.573
N4240 X34.53 Y-3.611 Z-3.661
N4245 X34.586 Y-3.392 Z-3.707
N4250 X34.64 Y-3.173 Z-3.753
N4255 X34.689 Y-2.955 Z-3.798
N4260 X34.73 Y-2.736 Z-3.837
N4265 X34.762 Y-2.517 Z-3.868
N4270 X34.769 Y-2.298 Z-3.874
N4275 X34.751 Y-1.641 Z-3.857
N4280 X34.742 Y-1.204 Z-3.848
N4285 X34.736 Y-0.766 Z-3.842
N4290 X34.733 Y-0.328 Z-3.839
N4295 Y0.328
N4300 X34.738 Y0.985 Z-3.845
N4305 X34.746 Y1.423 Z-3.852
N4310 X34.763 Y2.079 Z-3.869
N4315 X34.77 Y2.298 Z-3.876
N4320 X34.76 Y2.517 Z-3.866
N4325 X34.728 Y2.736 Z-3.835
N4330 X34.687 Y2.955 Z-3.796
N4335 X34.637 Y3.173 Z-3.751
N4340 X34.584 Y3.392 Z-3.705
N4345 X34.471 Y3.831 Z-3.614
N4350 X34.356 Y4.268 Z-3.53
N4355 X34.241 Y4.706 Z-3.455
N4360 X34.126 Y5.143 Z-3.387
N4365 X34.013 Y5.581 Z-3.326
N4370 X33.903 Y6.019 Z-3.272
N4375 X33.795 Y6.456 Z-3.226
N4380 X33.742 Y6.675 Z-3.204
N4385 X33.64 Y7.113 Z-3.166
N4390 X33.542 Y7.551 Z-3.134
N4395 X33.449 Y7.988 Z-3.107
N4400 X33.36 Y8.426 Z-3.084
N4405 X33.276 Y8.864 Z-3.064
N4410 X33.198 Y9.302 Z-3.049
N4415 X33.124 Y9.739 Z-3.036
N4420 X33.055 Y10.177 Z-3.026
N4425 X32.993 Y10.615 Z-3.018
N4430 X32.935 Y11.052 Z-3.012
N4435 X32.885 Y11.49 Z-3.008
N4440 X32.839 Y11.928 Z-3.004
N4445 X32.8 Y12.366 Z-3.002
N4450 X32.766 Y12.803 Z-3.001
N4455 X32.752 Y13.022 Z-3.
N4460 X32.735 Y13.241
N4465 X32.72 Y13.379 Z-2.999
N4470 X32.698 Y13.46
N4475 X32.661 Y13.569
N4480 X32.597 Y13.679
N4485 X32.415 Y13.898 Z-3.
N4490 X32.035 Y14.335 Z-3.002
N4495 X31.844 Y14.561 Z-3.003
N4500 X31.625 Y14.824 Z-3.005
N4505 X31.406 Y15.093 Z-3.007
N4510 X31.139 Y15.43 Z-3.011
N4515 X30.801 Y15.867 Z-3.019
N4520 X30.636 Y16.086 Z-3.024
N4525 X30.312 Y16.528 Z-3.036
N4530 X30.003 Y16.962 Z-3.051
N4535 X29.656 Y17.463 Z-3.074
N4540 X29.404 Y17.837 Z-3.095
N4545 X29.116 Y18.275 Z-3.124
N4550 X28.976 Y18.494 Z-3.142
N4555 X28.699 Y18.931 Z-3.181
N4560 X28.561 Y19.153 Z-3.203
N4565 X28.342 Y19.512 Z-3.244
N4570 X28.124 Y19.876 Z-3.29
N4575 X27.905 Y20.246 Z-3.344
N4580 X27.686 Y20.619 Z-3.404
N4585 X27.467 Y20.995 Z-3.472
N4590 X27.248 Y21.372 Z-3.547
N4595 X27.013 Y21.777 Z-3.636
N4600 X26.81 Y22.123 Z-3.72
N4605 X26.592 Y22.483 Z-3.809
N4610 X26.474 Y22.652 Z-3.844
N4615 X26.373 Y22.788 Z-3.868
N4620 X26.3 Y22.871 Z-3.875
N4625 X26.154 Y23.014 Z-3.873
N4630 X25.716 Y23.431 Z-3.858
N4635 X25.278 Y23.854 Z-3.848
N4640 X24.841 Y24.284 Z-3.843
N4645 X24.285 Y24.841 Z-3.844
N4650 X23.854 Y25.278 Z-3.848
N4655 X23.431 Y25.716 Z-3.858
N4660 X23.015 Y26.154 Z-3.874
N4665 X22.871 Y26.294 Z-3.871
N4670 X22.782 Y26.373 Z-3.864
N4675 X22.652 Y26.471 Z-3.841
N4680 X22.478 Y26.592 Z-3.806
N4685 X22.117 Y26.81 Z-3.716
N4690 X21.744 Y27.029 Z-3.627
N4695 X21.369 Y27.248 Z-3.546
N4700 X20.991 Y27.467 Z-3.47
N4705 X20.616 Y27.686 Z-3.403
N4710 X20.242 Y27.905 Z-3.342
N4715 X19.873 Y28.124 Z-3.289
N4720 X19.509 Y28.342 Z-3.243
N4725 X19.15 Y28.562 Z-3.203
N4730 X18.8 Y28.78 Z-3.168
N4735 X18.455 Y28.999 Z-3.138
N4740 X18.275 Y29.115 Z-3.124
N4745 X17.837 Y29.403 Z-3.095
N4750 X17.399 Y29.698 Z-3.07
N4755 X17.143 Y29.874 Z-3.058
N4760 X16.743 Y30.156 Z-3.043
N4765 X16.305 Y30.473 Z-3.029
N4770 X15.934 Y30.75 Z-3.02
N4775 X15.647 Y30.969 Z-3.015
N4780 X15.366 Y31.188 Z-3.01
N4785 X14.992 Y31.487 Z-3.006
N4790 X14.773 Y31.666 Z-3.004
N4795 X14.554 Y31.848 Z-3.003
N4800 X14.303 Y32.063 Z-3.001
N4805 X13.898 Y32.414 Z-3.
N4810 X13.794 Y32.501
N4815 X13.679 Y32.595 Z-2.999
N4820 X13.569 Y32.661
N4825 X13.46 Y32.704
N4830 X13.378 Y32.72
N4835 X13.241 Y32.735 Z-3.
N4840 X12.584 Y32.782 Z-3.001
N4845 X12.147 Y32.818 Z-3.003
N4850 X11.709 Y32.861 Z-3.006
N4855 X11.271 Y32.909 Z-3.01
N4860 X10.834 Y32.963 Z-3.015
N4865 X10.396 Y33.023 Z-3.022
N4870 X10.177 Y33.055 Z-3.026
N4875 X9.739 Y33.124 Z-3.036
N4880 X9.302 Y33.198 Z-3.049
N4885 X8.864 Y33.277 Z-3.065
N4890 X8.347 Y33.376 Z-3.088
N4895 X7.988 Y33.45 Z-3.107
N4900 X7.551 Y33.543 Z-3.134
N4905 X7.113 Y33.642 Z-3.167
N4910 X6.675 Y33.744 Z-3.205
N4915 X6.238 Y33.85 Z-3.249
N4920 X5.8 Y33.959 Z-3.299
N4925 X5.362 Y34.071 Z-3.356
N4930 X4.924 Y34.185 Z-3.421
N4935 X4.487 Y34.301 Z-3.493
N4940 X4.049 Y34.416 Z-3.573
N4945 X3.611 Y34.531 Z-3.661
N4950 X3.392 Y34.586 Z-3.707
N4955 X3.173 Y34.64 Z-3.753
N4960 X2.955 Y34.69 Z-3.798
N4965 X2.736 Y34.731 Z-3.837
N4970 X2.517 Y34.762 Z-3.868
N4975 X2.298 Y34.769 Z-3.875
N4980 X1.641 Y34.751 Z-3.857
N4985 X0.985 Y34.738 Z-3.845
N4990 X0.547 Y34.734 Z-3.84
N4995 X0.109 Y34.733 Z-3.839
N5000 X-0.328
N5005 X-0.766 Y34.736 Z-3.842
N5010 X-1.204 Y34.742 Z-3.848
N5015 X-1.641 Y34.751 Z-3.857
N5020 X-2.298 Y34.77 Z-3.876
N5025 X-2.517 Y34.761 Z-3.866
N5030 X-2.736 Y34.728 Z-3.835
N5035 X-2.955 Y34.687 Z-3.796
N5040 X-3.173 Y34.637 Z-3.751
N5045 X-3.611 Y34.528 Z-3.659
N5050 X-3.833 Y34.471 Z-3.614
N5055 X-4.268 Y34.356 Z-3.531
N5060 X-4.706 Y34.241 Z-3.455
N5065 X-5.143 Y34.126 Z-3.387
N5070 X-5.581 Y34.013 Z-3.326
N5075 X-6.019 Y33.903 Z-3.272
N5080 X-6.456 Y33.795 Z-3.226
N5085 X-6.894 Y33.691 Z-3.185
N5090 X-7.332 Y33.591 Z-3.15
N5095 X-7.77 Y33.495 Z-3.12
N5100 X-8.207 Y33.404 Z-3.095
N5105 X-8.645 Y33.317 Z-3.074
N5110 X-9.083 Y33.236 Z-3.056
N5115 X-9.532 Y33.157 Z-3.042
N5120 X-9.958 Y33.089 Z-3.031
N5125 X-10.177 Y33.055 Z-3.026
N5130 X-10.615 Y32.993 Z-3.018
N5135 X-11.052 Y32.935 Z-3.012
N5140 X-11.49 Y32.885 Z-3.008
N5145 X-11.928 Y32.839 Z-3.004
N5150 X-12.366 Y32.8 Z-3.002
N5155 X-12.803 Y32.767 Z-3.001
N5160 X-13.241 Y32.735 Z-3.
N5165 X-13.379 Y32.72 Z-2.999
N5170 X-13.46 Y32.697
N5175 X-13.569 Y32.661
N5180 X-13.679 Y32.595
N5185 X-13.898 Y32.415 Z-3.
N5190 X-14.335 Y32.035 Z-3.002
N5195 X-14.56 Y31.844 Z-3.003
N5200 X-14.823 Y31.625 Z-3.005
N5205 X-15.093 Y31.406 Z-3.007
N5210 X-15.43 Y31.139 Z-3.011
N5215 X-15.867 Y30.801 Z-3.019
N5220 X-16.086 Y30.636 Z-3.024
N5225 X-16.305 Y30.474 Z-3.029
N5230 X-16.743 Y30.158 Z-3.043
N5235 X-16.962 Y30.002 Z-3.051
N5240 X-17.399 Y29.699 Z-3.07
N5245 X-17.618 Y29.55 Z-3.082
N5250 X-18.056 Y29.26 Z-3.109
N5255 X-18.275 Y29.116 Z-3.124
N5260 X-18.494 Y28.975 Z-3.142
N5265 X-18.931 Y28.699 Z-3.181
N5270 X-19.153 Y28.561 Z-3.203
N5275 X-19.511 Y28.342 Z-3.244
N5280 X-19.875 Y28.124 Z-3.29
N5285 X-20.246 Y27.905 Z-3.344
N5290 X-20.619 Y27.686 Z-3.404
N5295 X-20.995 Y27.467 Z-3.472
N5300 X-21.372 Y27.248 Z-3.547
N5305 X-21.777 Y27.013 Z-3.636
N5310 X-22.123 Y26.81 Z-3.72
N5315 X-22.483 Y26.592 Z-3.809
N5320 X-22.652 Y26.473 Z-3.843
N5325 X-22.788 Y26.373 Z-3.868
N5330 X-22.871 Y26.3 Z-3.875
N5335 X-23.013 Y26.154 Z-3.872
N5340 X-23.528 Y25.615 Z-3.855
N5345 X-23.965 Y25.165 Z-3.846
N5350 X-24.284 Y24.841 Z-3.843
N5355 X-24.841 Y24.285
N5360 X-25.278 Y23.854 Z-3.848
N5365 X-25.616 Y23.528 Z-3.855
N5370 X-26.154 Y23.015 Z-3.873
N5375 X-26.294 Y22.871 Z-3.871
N5380 X-26.373 Y22.782 Z-3.863
N5385 X-26.471 Y22.652 Z-3.841
N5390 X-26.592 Y22.478 Z-3.806
N5395 X-26.81 Y22.118 Z-3.716
N5400 X-27.029 Y21.745 Z-3.628
N5405 X-27.138 Y21.558 Z-3.586
N5410 X-27.266 Y21.339 Z-3.539
N5415 X-27.467 Y20.991 Z-3.47
N5420 X-27.686 Y20.616 Z-3.403
N5425 X-27.905 Y20.242 Z-3.342
N5430 X-28.124 Y19.874 Z-3.29
N5435 X-28.342 Y19.51 Z-3.243
N5440 X-28.562 Y19.15 Z-3.202
N5445 X-28.78 Y18.8 Z-3.168
N5450 X-28.999 Y18.455 Z-3.138
N5455 X-29.115 Y18.275 Z-3.124
N5460 X-29.403 Y17.837 Z-3.095
N5465 X-29.698 Y17.399 Z-3.07
N5470 X-30.001 Y16.962 Z-3.051
N5475 X-30.156 Y16.743 Z-3.043
N5480 X-30.474 Y16.305 Z-3.029
N5485 X-30.75 Y15.934 Z-3.02
N5490 X-30.969 Y15.647 Z-3.015
N5495 X-31.188 Y15.366 Z-3.01
N5500 X-31.487 Y14.992 Z-3.006
N5505 X-31.666 Y14.773 Z-3.004
N5510 X-31.848 Y14.554 Z-3.003
N5515 X-32.223 Y14.117 Z-3.001
N5520 X-32.415 Y13.898 Z-3.
N5525 X-32.595 Y13.679 Z-2.999
N5530 X-32.661 Y13.569
N5535 X-32.704 Y13.46
N5540 X-32.72 Y13.378
N5545 X-32.735 Y13.241 Z-3.
N5550 X-32.782 Y12.584 Z-3.001
N5555 X-32.818 Y12.147 Z-3.003
N5560 X-32.861 Y11.709 Z-3.006
N5565 X-32.909 Y11.271 Z-3.01
N5570 X-32.963 Y10.834 Z-3.015
N5575 X-33.023 Y10.396 Z-3.022
N5580 X-33.055 Y10.177 Z-3.026
N5585 X-33.124 Y9.739 Z-3.036
N5590 X-33.198 Y9.302 Z-3.049
N5595 X-33.277 Y8.864 Z-3.065
N5600 X-33.376 Y8.347 Z-3.088
N5605 X-33.45 Y7.988 Z-3.107
N5610 X-33.543 Y7.551 Z-3.134
N5615 X-33.642 Y7.113 Z-3.167
N5620 X-33.744 Y6.675 Z-3.205
N5625 X-33.85 Y6.238 Z-3.249
N5630 X-33.959 Y5.8 Z-3.299
N5635 X-34.071 Y5.362 Z-3.356
N5640 X-34.185 Y4.924 Z-3.421
N5645 X-34.301 Y4.487 Z-3.493
N5650 X-34.416 Y4.049 Z-3.573
N5655 X-34.531 Y3.611 Z-3.661
N5660 X-34.64 Y3.173 Z-3.753
N5665 X-34.689 Y2.955 Z-3.798
N5670 X-34.731 Y2.736 Z-3.837
N5675 X-34.762 Y2.517 Z-3.868
N5680 X-34.769 Y2.298 Z-3.875
N5685 X-34.751 Y1.641 Z-3.857
N5690 X-34.738 Y0.985 Z-3.845
N5695 X-34.734 Y0.547 Z-3.84
N5700 X-34.733 Y0.328 Z-3.839
N5705 Y-0.328
N5710 X-34.736 Y-0.766 Z-3.842
N5715 X-34.742 Y-1.204 Z-3.848
N5720 X-34.751 Y-1.641 Z-3.857
N5725 X-34.77 Y-2.298 Z-3.876
N5730 X-34.761 Y-2.517 Z-3.866
N5735 X-34.725 Y-2.755 Z-3.832
N5740 X-34.687 Y-2.955 Z-3.796
N5745 X-34.637 Y-3.173 Z-3.751
N5750 X-34.528 Y-3.611 Z-3.659
N5755 X-34.471 Y-3.833 Z-3.614
N5760 X-34.374 Y-4.199 Z-3.544
N5765 X-34.338 Y-4.386 Z-3.518
N5770 X-34.328 Y-4.481 Z-3.511
N5775 X-34.323 Y-4.577 Z-3.507
N5780 X-34.321 Y-4.771 Z-3.505
N5785 X-34.332 Y-5.159 Z-3.513
N5790 Y-5.353 Z-3.514
N5795 X-34.319 Y-5.545 Z-3.506
N5800 X-34.306 Y-5.64 Z-3.497
N5805 X-34.287 Y-5.734 Z-3.484
N5810 X-34.219 Y-6.019 Z-3.441
N5815 X-34.117 Y-6.456 Z-3.382
N5820 X-34.017 Y-6.894 Z-3.328
N5825 X-33.921 Y-7.332 Z-3.281
N5830 X-33.828 Y-7.77 Z-3.24
N5835 X-33.74 Y-8.207 Z-3.203
N5840 X-33.656 Y-8.645 Z-3.172
N5845 X-33.576 Y-9.083 Z-3.145
N5850 X-33.501 Y-9.52 Z-3.122
N5855 X-33.432 Y-9.958 Z-3.102
N5860 X-33.398 Y-10.177 Z-3.093
N5865 X-33.337 Y-10.615 Z-3.078
N5870 X-33.28 Y-11.052 Z-3.065
N5875 X-33.229 Y-11.49 Z-3.055
N5880 X-33.184 Y-11.928 Z-3.046
N5885 X-33.145 Y-12.366 Z-3.039
N5890 X-33.112 Y-12.803 Z-3.034
N5895 X-33.082 Y-13.241 Z-3.03
N5900 X-33.058 Y-13.46 Z-3.026
N5905 X-32.992 Y-13.679 Z-3.022
N5910 X-32.939 Y-13.786 Z-3.024
N5915 X-32.864 Y-13.898 Z-3.027
N5920 X-32.682 Y-14.117 Z-3.031
N5925 X-32.3 Y-14.554 Z-3.037
N5930 X-31.931 Y-14.992 Z-3.045
N5935 X-31.625 Y-15.367 Z-3.055
N5940 X-31.402 Y-15.649 Z-3.063
N5945 X-31.188 Y-15.923 Z-3.072
N5950 X-30.897 Y-16.305 Z-3.088
N5955 X-30.734 Y-16.524 Z-3.098
N5960 X-30.415 Y-16.962 Z-3.122
N5965 X-30.259 Y-17.181 Z-3.135
N5970 X-30.093 Y-17.416 Z-3.151
N5975 X-29.802 Y-17.837 Z-3.183
N5980 X-29.654 Y-18.056 Z-3.202
N5985 X-29.437 Y-18.381 Z-3.233
N5990 X-29.218 Y-18.715 Z-3.268
N5995 X-28.937 Y-19.15 Z-3.321
N6000 X-28.78 Y-19.398 Z-3.354
N6005 X-28.561 Y-19.749 Z-3.407
N6010 X-28.342 Y-20.104 Z-3.465
N6015 X-28.122 Y-20.463 Z-3.53
N6020 X-27.905 Y-20.821 Z-3.602
N6025 X-27.686 Y-21.183 Z-3.681
N6030 X-27.458 Y-21.558 Z-3.771
N6035 X-27.248 Y-21.901 Z-3.86
N6040 X-27.029 Y-22.255 Z-3.958
N6045 X-26.916 Y-22.433 Z-4.009
N6050 X-26.81 Y-22.594 Z-4.054
N6055 X-26.769 Y-22.652 Z-4.068
N6060 X-26.606 Y-22.871 Z-4.115
N6065 X-26.515 Y-22.98 Z-4.132
N6070 X-26.408 Y-23.09 Z-4.134
N6075 X-25.935 Y-23.543 Z-4.116
N6080 X-25.497 Y-23.966 Z-4.104
N6085 X-25.054 Y-24.403 Z-4.098
N6090 X-24.615 Y-24.841 Z-4.097
N6095 X-24.182 Y-25.278 Z-4.101
N6100 X-23.965 Y-25.499 Z-4.104
N6105 X-23.543 Y-25.935 Z-4.116
N6110 X-23.09 Y-26.409 Z-4.134
N6115 X-22.98 Y-26.514 Z-4.131
N6120 X-22.871 Y-26.604 Z-4.114
N6125 X-22.652 Y-26.767 Z-4.066
N6130 X-22.591 Y-26.81 Z-4.051
N6135 X-22.433 Y-26.914 Z-4.007
N6140 X-22.214 Y-27.052 Z-3.945
N6145 X-21.898 Y-27.248 Z-3.857
N6150 X-21.54 Y-27.467 Z-3.765
N6155 X-21.181 Y-27.686 Z-3.68
N6160 X-20.819 Y-27.905 Z-3.601
N6165 X-20.459 Y-28.124 Z-3.529
N6170 X-20.101 Y-28.342 Z-3.464
N6175 X-19.748 Y-28.561 Z-3.406
N6180 X-19.369 Y-28.798 Z-3.35
N6185 X-19.052 Y-28.999 Z-3.308
N6190 X-18.713 Y-29.218 Z-3.268
N6195 X-18.38 Y-29.437 Z-3.232
N6200 X-18.052 Y-29.656 Z-3.201
N6205 X-17.618 Y-29.952 Z-3.166
N6210 X-17.181 Y-30.259 Z-3.135
N6215 X-16.962 Y-30.414 Z-3.121
N6220 X-16.502 Y-30.75 Z-3.097
N6225 X-16.209 Y-30.969 Z-3.084
N6230 X-15.867 Y-31.23 Z-3.07
N6235 X-15.43 Y-31.575 Z-3.056
N6240 X-15.098 Y-31.844 Z-3.048
N6245 X-14.834 Y-32.063 Z-3.042
N6250 X-14.554 Y-32.3 Z-3.037
N6255 X-14.117 Y-32.682 Z-3.031
N6260 X-13.898 Y-32.864 Z-3.027
N6265 X-13.786 Y-32.939 Z-3.024
N6270 X-13.679 Y-32.992 Z-3.022
N6275 X-13.569 Y-33.034 Z-3.023
N6280 X-13.46 Y-33.057 Z-3.026
N6285 X-13.241 Y-33.082 Z-3.03
N6290 X-12.584 Y-33.127 Z-3.037
N6295 X-12.147 Y-33.163 Z-3.043
N6300 X-11.709 Y-33.206 Z-3.05
N6305 X-11.271 Y-33.254 Z-3.06
N6310 X-10.834 Y-33.307 Z-3.071
N6315 X-10.329 Y-33.376 Z-3.088
N6320 X-9.739 Y-33.466 Z-3.111
N6325 X-9.302 Y-33.538 Z-3.133
N6330 X-8.864 Y-33.616 Z-3.158
N6335 X-8.426 Y-33.698 Z-3.187
N6340 X-7.988 Y-33.784 Z-3.221
N6345 X-7.551 Y-33.875 Z-3.26
N6350 X-7.113 Y-33.97 Z-3.304
N6355 X-6.675 Y-34.068 Z-3.355
N6360 X-6.238 Y-34.169 Z-3.411
N6365 X-5.8 Y-34.272 Z-3.475
N6370 X-5.362 Y-34.378 Z-3.546
N6375 X-4.924 Y-34.484 Z-3.625
N6380 X-4.487 Y-34.591 Z-3.711
N6385 X-4.049 Y-34.697 Z-3.805
N6390 X-3.611 Y-34.8 Z-3.906
N6395 X-3.392 Y-34.85 Z-3.958
N6400 X-3.115 Y-34.908 Z-4.024
N6405 X-2.955 Y-34.938 Z-4.058
N6410 X-2.736 Y-34.972 Z-4.099
N6415 X-2.517 Y-34.997 Z-4.129
N6420 X-2.298 Y-34.999 Z-4.133
N6425 X-1.641 Y-34.983 Z-4.113
N6430 X-1.204 Y-34.976 Z-4.103
N6435 X-0.766 Y-34.97 Z-4.096
N6440 X-0.328 Y-34.967 Z-4.093
N6445 X0.328
N6450 X0.985 Y-34.973 Z-4.1
N6455 X1.423 Y-34.979 Z-4.108
N6460 X2.079 Y-34.994 Z-4.126
N6465 X2.298 Y-35. Z-4.134
N6470 X2.517 Y-34.996 Z-4.128
N6475 X2.736 Y-34.97 Z-4.096
N6480 X2.955 Y-34.936 Z-4.056
N6485 X3.106 Y-34.908 Z-4.024
N6490 X3.392 Y-34.848 Z-3.956
N6495 X3.83 Y-34.746 Z-3.852
N6500 X4.268 Y-34.641 Z-3.755
N6505 X4.706 Y-34.535 Z-3.665
N6510 X5.143 Y-34.429 Z-3.583
N6515 X5.581 Y-34.323 Z-3.508
N6520 X6.019 Y-34.219 Z-3.441
N6525 X6.456 Y-34.117 Z-3.382
N6530 X6.894 Y-34.017 Z-3.328
N6535 X7.332 Y-33.921 Z-3.281
N6540 X7.77 Y-33.828 Z-3.24
N6545 X8.207 Y-33.74 Z-3.203
N6550 X8.645 Y-33.656 Z-3.172
N6555 X9.083 Y-33.576 Z-3.145
N6560 X9.52 Y-33.502 Z-3.122
N6565 X9.958 Y-33.432 Z-3.102
N6570 X10.329 Y-33.376 Z-3.088
N6575 X10.834 Y-33.308 Z-3.071
N6580 X11.271 Y-33.254 Z-3.06
N6585 X11.709 Y-33.206 Z-3.05
N6590 X12.147 Y-33.163 Z-3.043
N6595 X12.584 Y-33.127 Z-3.037
N6600 X13.241 Y-33.082 Z-3.03
N6605 X13.46 Y-33.058 Z-3.026
N6610 X13.569 Y-33.034 Z-3.023
N6615 X13.679 Y-32.992 Z-3.022
N6620 X13.787 Y-32.939 Z-3.024
N6625 X13.898 Y-32.865 Z-3.027
N6630 X14.117 Y-32.682 Z-3.031
N6635 X14.554 Y-32.3 Z-3.037
N6640 X14.835 Y-32.063 Z-3.042
N6645 X15.211 Y-31.752 Z-3.051
N6650 X15.43 Y-31.575 Z-3.056
N6655 X15.649 Y-31.402 Z-3.063
N6660 X15.923 Y-31.188 Z-3.072
N6665 X16.305 Y-30.897 Z-3.088
N6670 X16.524 Y-30.734 Z-3.098
N6675 X16.962 Y-30.415 Z-3.122
N6680 X17.181 Y-30.259 Z-3.135
N6685 X17.618 Y-29.953 Z-3.166
N6690 X17.837 Y-29.802 Z-3.183
N6695 X18.056 Y-29.654 Z-3.202
N6700 X18.494 Y-29.362 Z-3.244
N6705 X18.715 Y-29.218 Z-3.268
N6710 X19.15 Y-28.937 Z-3.321
N6715 X19.398 Y-28.78 Z-3.354
N6720 X19.749 Y-28.561 Z-3.407
N6725 X20.104 Y-28.342 Z-3.465
N6730 X20.463 Y-28.122 Z-3.53
N6735 X20.821 Y-27.905 Z-3.602
N6740 X21.183 Y-27.686 Z-3.681
N6745 X21.558 Y-27.458 Z-3.771
N6750 X21.901 Y-27.248 Z-3.86
N6755 X22.255 Y-27.029 Z-3.958
N6760 X22.433 Y-26.916 Z-4.009
N6765 X22.594 Y-26.81 Z-4.054
N6770 X22.652 Y-26.769 Z-4.068
N6775 X22.871 Y-26.606 Z-4.116
N6780 X22.98 Y-26.515 Z-4.132
N6785 X23.09 Y-26.408 Z-4.134
N6790 X23.543 Y-25.935 Z-4.116
N6795 X23.967 Y-25.497 Z-4.104
N6800 X24.397 Y-25.06 Z-4.098
N6805 X24.841 Y-24.615 Z-4.097
N6810 X25.278 Y-24.182 Z-4.101
N6815 X25.499 Y-23.965 Z-4.105
N6820 X25.951 Y-23.528 Z-4.117
N6825 X26.373 Y-23.125 Z-4.134
N6830 X26.409 Y-23.09 Z-4.135
N6835 X26.592 Y-22.886 Z-4.116
N6840 X26.604 Y-22.871 Z-4.114
N6845 X26.767 Y-22.652 Z-4.066
N6850 X26.81 Y-22.591 Z-4.051
N6855 X26.913 Y-22.433 Z-4.007
N6860 X27.052 Y-22.214 Z-3.944
N6865 X27.248 Y-21.897 Z-3.857
N6870 X27.467 Y-21.54 Z-3.765
N6875 X27.686 Y-21.18 Z-3.68
N6880 X27.905 Y-20.819 Z-3.601
N6885 X28.124 Y-20.459 Z-3.529
N6890 X28.342 Y-20.101 Z-3.464
N6895 X28.561 Y-19.748 Z-3.406
N6900 X28.798 Y-19.369 Z-3.35
N6905 X28.999 Y-19.052 Z-3.308
N6910 X29.218 Y-18.713 Z-3.268
N6915 X29.437 Y-18.38 Z-3.232
N6920 X29.656 Y-18.052 Z-3.201
N6925 X29.952 Y-17.618 Z-3.166
N6930 X30.259 Y-17.181 Z-3.135
N6935 X30.414 Y-16.962 Z-3.121
N6940 X30.573 Y-16.743 Z-3.109
N6945 X30.896 Y-16.305 Z-3.088
N6950 X31.062 Y-16.086 Z-3.078
N6955 X31.23 Y-15.867 Z-3.07
N6960 X31.575 Y-15.43 Z-3.056
N6965 X31.844 Y-15.097 Z-3.048
N6970 X32.063 Y-14.834 Z-3.042
N6975 X32.3 Y-14.554 Z-3.037
N6980 X32.682 Y-14.117 Z-3.031
N6985 X32.864 Y-13.898 Z-3.027
N6990 X32.939 Y-13.786 Z-3.024
N6995 X32.992 Y-13.679 Z-3.022
N7000 X33.058 Y-13.46 Z-3.026
N7005 X33.082 Y-13.241 Z-3.03
N7010 X33.127 Y-12.584 Z-3.037
N7015 X33.163 Y-12.147 Z-3.043
N7020 X33.206 Y-11.709 Z-3.05
N7025 X33.254 Y-11.271 Z-3.06
N7030 X33.308 Y-10.834 Z-3.071
N7035 X33.376 Y-10.333 Z-3.088
N7040 X33.432 Y-9.958 Z-3.102
N7045 X33.502 Y-9.52 Z-3.122
N7050 X33.577 Y-9.083 Z-3.145
N7055 X33.657 Y-8.645 Z-3.172
N7060 X33.741 Y-8.207 Z-3.204
N7065 X33.829 Y-7.77 Z-3.24
N7070 X33.922 Y-7.332 Z-3.281
N7075 X34.033 Y-6.831 Z-3.336
N7080 X34.118 Y-6.456 Z-3.382
N7085 X34.221 Y-6.019 Z-3.442
N7090 X34.325 Y-5.581 Z-3.51
N7095 X34.431 Y-5.143 Z-3.584
N7100 X34.484 Y-4.924 Z-3.625
N7105 X34.591 Y-4.487 Z-3.711
N7110 X34.697 Y-4.049 Z-3.805
N7115 X34.8 Y-3.611 Z-3.906
N7120 X34.85 Y-3.392 Z-3.958
N7125 X34.908 Y-3.116 Z-4.024
N7130 X34.938 Y-2.955 Z-4.058
N7135 X34.972 Y-2.736 Z-4.099
N7140 X34.997 Y-2.517 Z-4.129
N7145 X34.999 Y-2.298 Z-4.133
N7150 X34.983 Y-1.641 Z-4.113
N7155 X34.976 Y-1.204 Z-4.103
N7160 X34.97 Y-0.766 Z-4.096
N7165 X34.967 Y-0.328 Z-4.093
N7170 Y0.328
N7175 X34.973 Y0.985 Z-4.1
N7180 X34.979 Y1.423 Z-4.108
N7185 X34.994 Y2.079 Z-4.126
N7190 X35. Y2.298 Z-4.134
N7195 X34.996 Y2.517 Z-4.128
N7200 X34.97 Y2.736 Z-4.096
N7205 X34.936 Y2.955 Z-4.056
N7210 X34.908 Y3.106 Z-4.024
N7215 X34.848 Y3.392 Z-3.956
N7220 X34.746 Y3.83 Z-3.852
N7225 X34.641 Y4.268 Z-3.755
N7230 X34.535 Y4.706 Z-3.665
N7235 X34.429 Y5.143 Z-3.583
N7240 X34.323 Y5.581 Z-3.508
N7245 X34.219 Y6.019 Z-3.441
N7250 X34.117 Y6.456 Z-3.382
N7255 X34.017 Y6.894 Z-3.328
N7260 X33.921 Y7.332 Z-3.281
N7265 X33.828 Y7.77 Z-3.24
N7270 X33.74 Y8.207 Z-3.203
N7275 X33.656 Y8.645 Z-3.172
N7280 X33.576 Y9.083 Z-3.145
N7285 X33.502 Y9.52 Z-3.122
N7290 X33.432 Y9.958 Z-3.102
N7295 X33.376 Y10.329 Z-3.088
N7300 X33.308 Y10.834 Z-3.071
N7305 X33.254 Y11.271 Z-3.06
N7310 X33.206 Y11.709 Z-3.05
N7315 X33.163 Y12.147 Z-3.043
N7320 X33.127 Y12.584 Z-3.037
N7325 X33.082 Y13.241 Z-3.03
N7330 X33.058 Y13.46 Z-3.026
N7335 X32.992 Y13.679 Z-3.022
N7340 X32.939 Y13.787 Z-3.024
N7345 X32.865 Y13.898 Z-3.027
N7350 X32.681 Y14.117 Z-3.031
N7355 X32.282 Y14.576 Z-3.038
N7360 X32.063 Y14.835 Z-3.042
N7365 X31.752 Y15.211 Z-3.051
N7370 X31.575 Y15.43 Z-3.056
N7375 X31.402 Y15.649 Z-3.063
N7380 X31.188 Y15.923 Z-3.072
N7385 X30.897 Y16.305 Z-3.088
N7390 X30.734 Y16.524 Z-3.098
N7395 X30.416 Y16.962 Z-3.122
N7400 X30.259 Y17.181 Z-3.135
N7405 X29.953 Y17.618 Z-3.166
N7410 X29.802 Y17.837 Z-3.183
N7415 X29.654 Y18.056 Z-3.202
N7420 X29.362 Y18.494 Z-3.244
N7425 X29.078 Y18.931 Z-3.294
N7430 X28.937 Y19.15 Z-3.321
N7435 X28.78 Y19.399 Z-3.354
N7440 X28.525 Y19.807 Z-3.416
N7445 X28.342 Y20.104 Z-3.465
N7450 X28.123 Y20.463 Z-3.53
N7455 X27.905 Y20.822 Z-3.602
N7460 X27.686 Y21.183 Z-3.681
N7465 X27.458 Y21.558 Z-3.771
N7470 X27.248 Y21.901 Z-3.86
N7475 X27.029 Y22.255 Z-3.958
N7480 X26.916 Y22.433 Z-4.009
N7485 X26.81 Y22.595 Z-4.054
N7490 X26.769 Y22.652 Z-4.068
N7495 X26.606 Y22.871 Z-4.116
N7500 X26.515 Y22.98 Z-4.132
N7505 X26.408 Y23.09 Z-4.134
N7510 X25.935 Y23.543 Z-4.116
N7515 X25.497 Y23.966 Z-4.104
N7520 X25.054 Y24.403 Z-4.098
N7525 X24.615 Y24.841 Z-4.097
N7530 X24.182 Y25.278 Z-4.101
N7535 X23.965 Y25.499 Z-4.105
N7540 X23.746 Y25.724 Z-4.11
N7545 X23.528 Y25.951 Z-4.117
N7550 X23.125 Y26.373 Z-4.134
N7555 X23.09 Y26.409 Z-4.135
N7560 X22.886 Y26.592 Z-4.116
N7565 X22.871 Y26.604 Z-4.114
N7570 X22.652 Y26.767 Z-4.066
N7575 X22.591 Y26.81 Z-4.051
N7580 X22.433 Y26.913 Z-4.006
N7585 X22.214 Y27.052 Z-3.944
N7590 X21.897 Y27.248 Z-3.857
N7595 X21.54 Y27.467 Z-3.765
N7600 X21.18 Y27.686 Z-3.679
N7605 X20.819 Y27.905 Z-3.601
N7610 X20.459 Y28.124 Z-3.529
N7615 X20.101 Y28.342 Z-3.464
N7620 X19.747 Y28.561 Z-3.405
N7625 X19.369 Y28.798 Z-3.35
N7630 X19.052 Y28.999 Z-3.308
N7635 X18.713 Y29.218 Z-3.268
N7640 X18.379 Y29.437 Z-3.232
N7645 X18.052 Y29.656 Z-3.201
N7650 X17.618 Y29.952 Z-3.165
N7655 X17.399 Y30.104 Z-3.149
N7660 X16.962 Y30.414 Z-3.121
N7665 X16.501 Y30.75 Z-3.097
N7670 X16.209 Y30.969 Z-3.083
N7675 X15.867 Y31.23 Z-3.07
N7680 X15.641 Y31.406 Z-3.063
N7685 X15.211 Y31.751 Z-3.051
N7690 X14.833 Y32.063 Z-3.042
N7695 X14.554 Y32.3 Z-3.037
N7700 X14.07 Y32.72 Z-3.03
N7705 X13.898 Y32.864 Z-3.027
N7710 X13.785 Y32.939 Z-3.024
N7715 X13.679 Y32.992 Z-3.022
N7720 X13.569 Y33.034 Z-3.023
N7725 X13.46 Y33.058 Z-3.026
N7730 X13.241 Y33.082 Z-3.03
N7735 X12.584 Y33.127 Z-3.037
N7740 X12.147 Y33.163 Z-3.043
N7745 X11.709 Y33.206 Z-3.05
N7750 X11.271 Y33.254 Z-3.06
N7755 X10.834 Y33.307 Z-3.071
N7760 X10.329 Y33.376 Z-3.088
N7765 X9.958 Y33.432 Z-3.102
N7770 X9.52 Y33.502 Z-3.122
N7775 X9.083 Y33.577 Z-3.145
N7780 X8.645 Y33.657 Z-3.172
N7785 X8.207 Y33.741 Z-3.204
N7790 X7.77 Y33.829 Z-3.24
N7795 X7.332 Y33.922 Z-3.281
N7800 X6.831 Y34.033 Z-3.336
N7805 X6.456 Y34.118 Z-3.382
N7810 X6.019 Y34.221 Z-3.442
N7815 X5.581 Y34.325 Z-3.51
N7820 X5.143 Y34.431 Z-3.584
N7825 X4.924 Y34.484 Z-3.625
N7830 X4.487 Y34.591 Z-3.711
N7835 X4.049 Y34.697 Z-3.805
N7840 X3.611 Y34.8 Z-3.906
N7845 X3.392 Y34.85 Z-3.959
N7850 X3.116 Y34.908 Z-4.024
N7855 X2.955 Y34.938 Z-4.058
N7860 X2.736 Y34.972 Z-4.099
N7865 X2.517 Y34.997 Z-4.129
N7870 X2.298 Y34.999 Z-4.133
N7875 X1.641 Y34.983 Z-4.113
N7880 X0.985 Y34.973 Z-4.1
N7885 X0.547 Y34.969 Z-4.095
N7890 X0.109 Y34.967 Z-4.093
N7895 X-0.328
N7900 X-0.766 Y34.97 Z-4.097
N7905 X-1.204 Y34.976 Z-4.104
N7910 X-1.641 Y34.984 Z-4.113
N7915 X-2.298 Y35. Z-4.134
N7920 X-2.517 Y34.996 Z-4.128
N7925 X-2.736 Y34.97 Z-4.096
N7930 X-2.955 Y34.936 Z-4.056
N7935 X-3.173 Y34.894 Z-4.008
N7940 X-3.392 Y34.847 Z-3.956
N7945 X-3.83 Y34.746 Z-3.852
N7950 X-4.268 Y34.642 Z-3.755
N7955 X-4.706 Y34.535 Z-3.665
N7960 X-5.143 Y34.429 Z-3.583
N7965 X-5.581 Y34.323 Z-3.508
N7970 X-6.019 Y34.219 Z-3.441
N7975 X-6.456 Y34.117 Z-3.382
N7980 X-6.894 Y34.017 Z-3.328
N7985 X-7.332 Y33.921 Z-3.281
N7990 X-7.77 Y33.828 Z-3.24
N7995 X-8.207 Y33.74 Z-3.203
N8000 X-8.645 Y33.656 Z-3.172
N8005 X-9.083 Y33.576 Z-3.145
N8010 X-9.52 Y33.501 Z-3.122
N8015 X-9.958 Y33.432 Z-3.102
N8020 X-10.177 Y33.398 Z-3.093
N8025 X-10.615 Y33.337 Z-3.078
N8030 X-11.052 Y33.28 Z-3.065
N8035 X-11.49 Y33.229 Z-3.055
N8040 X-11.928 Y33.184 Z-3.046
N8045 X-12.366 Y33.145 Z-3.039
N8050 X-12.803 Y33.112 Z-3.034
N8055 X-13.241 Y33.082 Z-3.03
N8060 X-13.46 Y33.058 Z-3.026
N8065 X-13.679 Y32.992 Z-3.022
N8070 X-13.786 Y32.939 Z-3.024
N8075 X-13.898 Y32.864 Z-3.027
N8080 X-14.117 Y32.682 Z-3.031
N8085 X-14.554 Y32.3 Z-3.037
N8090 X-14.834 Y32.063 Z-3.042
N8095 X-15.211 Y31.752 Z-3.051
N8100 X-15.43 Y31.575 Z-3.056
N8105 X-15.649 Y31.402 Z-3.063
N8110 X-15.923 Y31.188 Z-3.072
N8115 X-16.305 Y30.897 Z-3.088
N8120 X-16.743 Y30.574 Z-3.109
N8125 X-17.106 Y30.312 Z-3.13
N8130 X-17.416 Y30.093 Z-3.151
N8135 X-17.837 Y29.802 Z-3.183
N8140 X-18.056 Y29.654 Z-3.202
N8145 X-18.494 Y29.362 Z-3.244
N8150 X-18.715 Y29.218 Z-3.268
N8155 X-19.15 Y28.937 Z-3.321
N8160 X-19.398 Y28.78 Z-3.354
N8165 X-19.807 Y28.525 Z-3.416
N8170 X-20.104 Y28.342 Z-3.465
N8175 X-20.245 Y28.256 Z-3.49
N8180 X-20.463 Y28.123 Z-3.53
N8185 X-20.822 Y27.905 Z-3.602
N8190 X-21.183 Y27.686 Z-3.681
N8195 X-21.558 Y27.458 Z-3.771
N8200 X-21.901 Y27.248 Z-3.86
N8205 X-22.255 Y27.029 Z-3.958
N8210 X-22.433 Y26.916 Z-4.009
N8215 X-22.595 Y26.81 Z-4.054
N8220 X-22.652 Y26.769 Z-4.068
N8225 X-22.871 Y26.606 Z-4.116
N8230 X-22.98 Y26.515 Z-4.132
N8235 X-23.09 Y26.408 Z-4.134
N8240 X-23.543 Y25.935 Z-4.116
N8245 X-23.966 Y25.497 Z-4.104
N8250 X-24.184 Y25.275 Z-4.1
N8255 X-24.622 Y24.834 Z-4.097
N8260 X-25.06 Y24.398 Z-4.098
N8265 X-25.499 Y23.965 Z-4.104
N8270 X-25.724 Y23.746 Z-4.11
N8275 X-25.951 Y23.528 Z-4.117
N8280 X-26.409 Y23.09 Z-4.134
N8285 X-26.604 Y22.871 Z-4.114
N8290 X-26.767 Y22.652 Z-4.066
N8295 X-26.81 Y22.591 Z-4.051
N8300 X-26.914 Y22.433 Z-4.007
N8305 X-27.052 Y22.214 Z-3.944
N8310 X-27.248 Y21.898 Z-3.857
N8315 X-27.467 Y21.54 Z-3.765
N8320 X-27.686 Y21.18 Z-3.679
N8325 X-27.905 Y20.819 Z-3.601
N8330 X-28.124 Y20.459 Z-3.529
N8335 X-28.342 Y20.101 Z-3.464
N8340 X-28.561 Y19.748 Z-3.406
N8345 X-28.798 Y19.369 Z-3.35
N8350 X-28.999 Y19.052 Z-3.308
N8355 X-29.218 Y18.713 Z-3.268
N8360 X-29.437 Y18.379 Z-3.232
N8365 X-29.656 Y18.052 Z-3.201
N8370 X-29.952 Y17.618 Z-3.165
N8375 X-30.104 Y17.399 Z-3.149
N8380 X-30.312 Y17.105 Z-3.13
N8385 X-30.573 Y16.743 Z-3.109
N8390 X-30.896 Y16.305 Z-3.088
N8395 X-31.062 Y16.086 Z-3.078
N8400 X-31.406 Y15.641 Z-3.063
N8405 X-31.751 Y15.211 Z-3.051
N8410 X-32.063 Y14.833 Z-3.042
N8415 X-32.3 Y14.554 Z-3.037
N8420 X-32.501 Y14.322 Z-3.034
N8425 X-32.681 Y14.117 Z-3.031
N8430 X-32.864 Y13.898 Z-3.027
N8435 X-32.939 Y13.786 Z-3.024
N8440 X-32.992 Y13.679 Z-3.022
N8445 X-33.034 Y13.569 Z-3.023
N8450 X-33.058 Y13.46 Z-3.026
N8455 X-33.082 Y13.241 Z-3.03
N8460 X-33.127 Y12.584 Z-3.037
N8465 X-33.163 Y12.147 Z-3.043
N8470 X-33.206 Y11.709 Z-3.05
N8475 X-33.254 Y11.271 Z-3.06
N8480 X-33.307 Y10.834 Z-3.071
N8485 X-33.376 Y10.329 Z-3.088
N8490 X-33.432 Y9.958 Z-3.102
N8495 X-33.502 Y9.52 Z-3.122
N8500 X-33.577 Y9.083 Z-3.145
N8505 X-33.657 Y8.645 Z-3.172
N8510 X-33.741 Y8.207 Z-3.204
N8515 X-33.829 Y7.77 Z-3.24
N8520 X-33.922 Y7.332 Z-3.281
N8525 X-34.033 Y6.831 Z-3.336
N8530 X-34.118 Y6.456 Z-3.382
N8535 X-34.221 Y6.019 Z-3.442
N8540 X-34.325 Y5.581 Z-3.51
N8545 X-34.431 Y5.143 Z-3.584
N8550 X-34.484 Y4.924 Z-3.625
N8555 X-34.591 Y4.487 Z-3.711
N8560 X-34.697 Y4.049 Z-3.805
N8565 X-34.8 Y3.611 Z-3.906
N8570 X-34.85 Y3.392 Z-3.959
N8575 X-34.908 Y3.116 Z-4.024
N8580 X-34.938 Y2.955 Z-4.058
N8585 X-34.972 Y2.736 Z-4.099
N8590 X-34.997 Y2.517 Z-4.129
N8595 X-34.999 Y2.298 Z-4.133
N8600 X-34.983 Y1.641 Z-4.113
N8605 X-34.973 Y0.985 Z-4.1
N8610 X-34.969 Y0.547 Z-4.095
N8615 X-34.967 Y0.328 Z-4.093
N8620 Y-0.328
N8625 X-34.97 Y-0.766 Z-4.097
N8630 X-34.976 Y-1.204 Z-4.104
N8635 X-34.984 Y-1.641 Z-4.113
N8640 X-35.001 Y-2.298 Z-4.134
N8645 X-34.996 Y-2.517 Z-4.128
N8650 X-34.969 Y-2.744 Z-4.095
N8655 X-34.936 Y-2.955 Z-4.056
N8660 X-34.894 Y-3.173 Z-4.008
N8665 X-34.847 Y-3.392 Z-3.956
N8670 X-34.746 Y-3.83 Z-3.852
N8675 X-34.642 Y-4.268 Z-3.755
N8680 X-34.535 Y-4.706 Z-3.665
N8685 X-34.429 Y-5.143 Z-3.583
N8690 X-34.323 Y-5.581 Z-3.509
N8695 X-34.287 Y-5.734 Z-3.484
N8700 X-34.256 Y-5.922 Z-3.464
N8705 X-34.248 Y-6.018 Z-3.459
N8710 X-34.245 Y-6.114 Z-3.457
N8715 X-34.249 Y-6.307 Z-3.459
N8720 X-34.272 Y-6.694 Z-3.474
N8725 X-34.279 Y-6.889 Z-3.478
N8730 X-34.272 Y-7.081 Z-3.474
N8735 X-34.262 Y-7.177 Z-3.468
N8740 X-34.246 Y-7.272 Z-3.458
N8745 X-34.189 Y-7.551 Z-3.423
N8750 X-34.103 Y-7.988 Z-3.374
N8755 X-34.02 Y-8.426 Z-3.33
N8760 X-33.941 Y-8.864 Z-3.291
N8765 X-33.867 Y-9.302 Z-3.256
N8770 X-33.797 Y-9.739 Z-3.226
N8775 X-33.731 Y-10.177 Z-3.2
N8780 X-33.671 Y-10.615 Z-3.178
N8785 X-33.616 Y-11.052 Z-3.158
N8790 X-33.566 Y-11.49 Z-3.142
N8795 X-33.521 Y-11.928 Z-3.128
N8800 X-33.483 Y-12.366 Z-3.116
N8805 X-33.451 Y-12.803 Z-3.107
N8810 X-33.422 Y-13.241 Z-3.099
N8815 X-33.402 Y-13.46 Z-3.094
N8820 X-33.376 Y-13.612 Z-3.089
N8825 X-33.356 Y-13.679 Z-3.087
N8830 X-33.272 Y-13.898
N8835 X-33.157 Y-14.071 Z-3.093
N8840 X-33.125 Y-14.117 Z-3.095
N8845 X-32.939 Y-14.337 Z-3.101
N8850 X-32.72 Y-14.586 Z-3.107
N8855 X-32.371 Y-14.992 Z-3.119
N8860 X-32.186 Y-15.211 Z-3.126
N8865 X-32.006 Y-15.43 Z-3.134
N8870 X-31.829 Y-15.649 Z-3.144
N8875 X-31.625 Y-15.904 Z-3.155
N8880 X-31.313 Y-16.305 Z-3.177
N8885 X-31.146 Y-16.524 Z-3.191
N8890 X-30.969 Y-16.76 Z-3.207
N8895 X-30.659 Y-17.181 Z-3.239
N8900 X-30.501 Y-17.399 Z-3.258
N8905 X-30.312 Y-17.664 Z-3.283
N8910 X-30.038 Y-18.056 Z-3.323
N8915 X-29.874 Y-18.293 Z-3.35
N8920 X-29.589 Y-18.713 Z-3.403
N8925 X-29.437 Y-18.941 Z-3.435
N8930 X-29.154 Y-19.369 Z-3.5
N8935 X-28.999 Y-19.607 Z-3.54
N8940 X-28.78 Y-19.948 Z-3.603
N8945 X-28.561 Y-20.29 Z-3.671
N8950 X-28.311 Y-20.682 Z-3.757
N8955 X-28.124 Y-20.978 Z-3.827
N8960 X-27.894 Y-21.339 Z-3.92
N8965 X-27.686 Y-21.664 Z-4.009
N8970 X-27.467 Y-22.002 Z-4.109
N8975 X-27.248 Y-22.336 Z-4.214
N8980 X-27.183 Y-22.433 Z-4.245
N8985 X-27.029 Y-22.657 Z-4.316
N8990 X-26.869 Y-22.871 Z-4.373
N8995 X-26.81 Y-22.943 Z-4.388
N9000 X-26.686 Y-23.09 Z-4.414
N9005 X-26.592 Y-23.189 Z-4.418
N9010 X-26.373 Y-23.401 Z-4.41
N9015 X-26.014 Y-23.746 Z-4.395
N9020 X-25.565 Y-24.184 Z-4.383
N9025 X-25.122 Y-24.622 Z-4.377
N9030 X-24.684 Y-25.06
N9035 X-24.184 Y-25.565 Z-4.383
N9040 X-23.823 Y-25.935 Z-4.393
N9045 X-23.401 Y-26.373 Z-4.411
N9050 X-23.309 Y-26.47 Z-4.416
N9055 X-23.189 Y-26.592 Z-4.418
N9060 X-23.09 Y-26.685 Z-4.412
N9065 X-22.941 Y-26.81 Z-4.385
N9070 X-22.871 Y-26.867 Z-4.371
N9075 X-22.652 Y-27.031 Z-4.312
N9080 X-22.433 Y-27.181 Z-4.243
N9085 X-22.214 Y-27.326 Z-4.173
N9090 X-21.995 Y-27.47 Z-4.105
N9095 X-21.662 Y-27.686 Z-4.007
N9100 X-21.321 Y-27.905 Z-3.914
N9105 X-20.976 Y-28.124 Z-3.826
N9110 X-20.631 Y-28.342 Z-3.744
N9115 X-20.245 Y-28.589 Z-3.661
N9120 X-19.947 Y-28.78 Z-3.602
N9125 X-19.588 Y-29.011 Z-3.537
N9130 X-19.271 Y-29.218 Z-3.484
N9135 X-18.931 Y-29.442 Z-3.433
N9140 X-18.613 Y-29.656 Z-3.39
N9145 X-18.275 Y-29.886 Z-3.348
N9150 X-17.976 Y-30.093 Z-3.314
N9155 X-17.618 Y-30.345 Z-3.278
N9160 X-17.358 Y-30.531 Z-3.254
N9165 X-17.055 Y-30.75 Z-3.229
N9170 X-16.743 Y-30.981 Z-3.206
N9175 X-16.469 Y-31.188 Z-3.187
N9180 X-16.183 Y-31.406 Z-3.17
N9185 X-15.867 Y-31.654 Z-3.154
N9190 X-15.629 Y-31.844 Z-3.142
N9195 X-15.36 Y-32.063 Z-3.131
N9200 X-15.097 Y-32.282 Z-3.122
N9205 X-14.773 Y-32.558 Z-3.112
N9210 X-14.554 Y-32.747 Z-3.106
N9215 X-14.335 Y-32.94 Z-3.101
N9220 X-14.117 Y-33.125 Z-3.095
N9225 X-14.071 Y-33.157 Z-3.093
N9230 X-13.898 Y-33.272 Z-3.087
N9235 X-13.679 Y-33.356
N9240 X-13.612 Y-33.376 Z-3.089
N9245 X-13.46 Y-33.402 Z-3.094
N9250 X-13.241 Y-33.422 Z-3.099
N9255 X-12.803 Y-33.45 Z-3.107
N9260 X-12.366 Y-33.483 Z-3.116
N9265 X-11.928 Y-33.521 Z-3.128
N9270 X-11.49 Y-33.566 Z-3.142
N9275 X-11.052 Y-33.616 Z-3.158
N9280 X-10.615 Y-33.671 Z-3.177
N9285 X-10.177 Y-33.732 Z-3.2
N9290 X-9.632 Y-33.814 Z-3.233
N9295 X-9.302 Y-33.867 Z-3.257
N9300 X-8.864 Y-33.943 Z-3.291
N9305 X-8.363 Y-34.033 Z-3.336
N9310 X-7.988 Y-34.104 Z-3.374
N9315 X-7.551 Y-34.19 Z-3.424
N9320 X-7.113 Y-34.28 Z-3.48
N9325 X-6.675 Y-34.372 Z-3.542
N9330 X-6.22 Y-34.471 Z-3.614
N9335 X-5.8 Y-34.563 Z-3.687
N9340 X-5.362 Y-34.66 Z-3.771
N9345 X-4.924 Y-34.757 Z-3.863
N9350 X-4.487 Y-34.853 Z-3.962
N9355 X-4.049 Y-34.947 Z-4.069
N9360 X-3.611 Y-35.038 Z-4.182
N9365 X-3.392 Y-35.081 Z-4.24
N9370 X-3.127 Y-35.127 Z-4.306
N9375 X-2.955 Y-35.153 Z-4.344
N9380 X-2.736 Y-35.18 Z-4.386
N9385 X-2.517 Y-35.198 Z-4.416
N9390 X-2.298 Y-35.199
N9395 X-1.641 Y-35.185 Z-4.394
N9400 X-1.204 Y-35.178 Z-4.384
N9405 X-0.766 Y-35.174 Z-4.376
N9410 X-0.328 Y-35.171 Z-4.372
N9415 X0.328
N9420 X0.766 Y-35.174 Z-4.376
N9425 X1.204 Y-35.178 Z-4.384
N9430 X1.641 Y-35.185 Z-4.395
N9435 X2.298 Y-35.2 Z-4.417
N9440 X2.517 Y-35.198 Z-4.415
N9445 X2.736 Y-35.178 Z-4.384
N9450 X2.955 Y-35.151 Z-4.342
N9455 X3.118 Y-35.127 Z-4.306
N9460 X3.392 Y-35.079 Z-4.237
N9465 X3.83 Y-34.991 Z-4.122
N9470 X4.268 Y-34.898 Z-4.012
N9475 X4.706 Y-34.803 Z-3.909
N9480 X4.924 Y-34.755 Z-3.861
N9485 X5.362 Y-34.658 Z-3.77
N9490 X5.8 Y-34.561 Z-3.686
N9495 X6.238 Y-34.465 Z-3.61
N9500 X6.675 Y-34.371 Z-3.541
N9505 X7.113 Y-34.278 Z-3.479
N9510 X7.551 Y-34.189 Z-3.423
N9515 X7.988 Y-34.103 Z-3.374
N9520 X8.426 Y-34.02 Z-3.33
N9525 X8.864 Y-33.942 Z-3.291
N9530 X9.302 Y-33.867 Z-3.256
N9535 X9.739 Y-33.797 Z-3.226
N9540 X10.177 Y-33.731 Z-3.2
N9545 X10.615 Y-33.671 Z-3.178
N9550 X11.052 Y-33.616 Z-3.158
N9555 X11.49 Y-33.566 Z-3.142
N9560 X11.928 Y-33.521 Z-3.128
N9565 X12.366 Y-33.483 Z-3.116
N9570 X12.803 Y-33.45 Z-3.107
N9575 X13.241 Y-33.422 Z-3.099
N9580 X13.46 Y-33.402 Z-3.094
N9585 X13.612 Y-33.376 Z-3.089
N9590 X13.679 Y-33.356 Z-3.087
N9595 X13.898 Y-33.272
N9600 X14.073 Y-33.157 Z-3.093
N9605 X14.117 Y-33.126 Z-3.095
N9610 X14.338 Y-32.939 Z-3.101
N9615 X14.586 Y-32.72 Z-3.107
N9620 X14.839 Y-32.501 Z-3.114
N9625 X15.211 Y-32.187 Z-3.126
N9630 X15.43 Y-32.006 Z-3.134
N9635 X15.649 Y-31.829 Z-3.144
N9640 X15.904 Y-31.625 Z-3.155
N9645 X16.305 Y-31.313 Z-3.177
N9650 X16.524 Y-31.146 Z-3.191
N9655 X16.76 Y-30.969 Z-3.207
N9660 X17.181 Y-30.66 Z-3.239
N9665 X17.399 Y-30.501 Z-3.258
N9670 X17.665 Y-30.312 Z-3.283
N9675 X18.056 Y-30.038 Z-3.323
N9680 X18.293 Y-29.874 Z-3.35
N9685 X18.713 Y-29.59 Z-3.403
N9690 X18.941 Y-29.437 Z-3.435
N9695 X19.369 Y-29.155 Z-3.5
N9700 X19.608 Y-28.999 Z-3.54
N9705 X19.948 Y-28.78 Z-3.603
N9710 X20.29 Y-28.561 Z-3.671
N9715 X20.682 Y-28.311 Z-3.757
N9720 X20.978 Y-28.124 Z-3.827
N9725 X21.339 Y-27.894 Z-3.92
N9730 X21.664 Y-27.686 Z-4.009
N9735 X22.003 Y-27.467 Z-4.109
N9740 X22.336 Y-27.248 Z-4.214
N9745 X22.433 Y-27.183 Z-4.245
N9750 X22.657 Y-27.029 Z-4.316
N9755 X22.871 Y-26.869 Z-4.373
N9760 X22.943 Y-26.81 Z-4.388
N9765 X23.09 Y-26.687 Z-4.414
N9770 X23.189 Y-26.592 Z-4.418
N9775 X23.4 Y-26.373 Z-4.41
N9780 X23.823 Y-25.935 Z-4.393
N9785 X24.251 Y-25.497 Z-4.382
N9790 X24.684 Y-25.06 Z-4.377
N9795 X25.122 Y-24.622 Z-4.378
N9800 X25.565 Y-24.184 Z-4.383
N9805 X25.935 Y-23.823 Z-4.393
N9810 X26.241 Y-23.528 Z-4.405
N9815 X26.47 Y-23.309 Z-4.416
N9820 X26.592 Y-23.189 Z-4.419
N9825 X26.685 Y-23.09 Z-4.412
N9830 X26.81 Y-22.941 Z-4.385
N9835 X26.867 Y-22.871 Z-4.371
N9840 X27.03 Y-22.652 Z-4.312
N9845 X27.181 Y-22.433 Z-4.243
N9850 X27.326 Y-22.214 Z-4.173
N9855 X27.469 Y-21.995 Z-4.105
N9860 X27.686 Y-21.662 Z-4.007
N9865 X27.905 Y-21.32 Z-3.914
N9870 X28.124 Y-20.976 Z-3.826
N9875 X28.342 Y-20.631 Z-3.744
N9880 X28.589 Y-20.245 Z-3.661
N9885 X28.78 Y-19.947 Z-3.602
N9890 X29.011 Y-19.588 Z-3.537
N9895 X29.218 Y-19.271 Z-3.484
N9900 X29.442 Y-18.931 Z-3.433
N9905 X29.656 Y-18.613 Z-3.39
N9910 X29.886 Y-18.275 Z-3.348
N9915 X30.093 Y-17.976 Z-3.314
N9920 X30.345 Y-17.618 Z-3.278
N9925 X30.531 Y-17.358 Z-3.254
N9930 X30.75 Y-17.055 Z-3.229
N9935 X30.981 Y-16.743 Z-3.206
N9940 X31.188 Y-16.468 Z-3.187
N9945 X31.406 Y-16.183 Z-3.17
N9950 X31.654 Y-15.867 Z-3.154
N9955 X31.844 Y-15.629 Z-3.142
N9960 X32.063 Y-15.36 Z-3.131
N9965 X32.282 Y-15.097 Z-3.122
N9970 X32.558 Y-14.773 Z-3.112
N9975 X32.747 Y-14.554 Z-3.106
N9980 X32.94 Y-14.335 Z-3.101
N9985 X33.125 Y-14.117 Z-3.095
N9990 X33.157 Y-14.071 Z-3.093
N9995 X33.272 Y-13.898 Z-3.087
N10000 X33.356 Y-13.679
N10005 X33.376 Y-13.612 Z-3.089
N10010 X33.402 Y-13.46 Z-3.094
N10015 X33.422 Y-13.241 Z-3.099
N10020 X33.45 Y-12.803 Z-3.107
N10025 X33.483 Y-12.366 Z-3.116
N10030 X33.522 Y-11.928 Z-3.128
N10035 X33.566 Y-11.49 Z-3.142
N10040 X33.616 Y-11.052 Z-3.158
N10045 X33.671 Y-10.615 Z-3.178
N10050 X33.732 Y-10.177 Z-3.2
N10055 X33.814 Y-9.632 Z-3.233
N10060 X33.867 Y-9.302 Z-3.256
N10065 X33.943 Y-8.864 Z-3.291
N10070 X34.021 Y-8.426 Z-3.33
N10075 X34.104 Y-7.988 Z-3.374
N10080 X34.146 Y-7.77 Z-3.398
N10085 X34.235 Y-7.332 Z-3.451
N10090 X34.326 Y-6.894 Z-3.51
N10095 X34.419 Y-6.456 Z-3.576
N10100 X34.515 Y-6.019 Z-3.648
N10105 X34.611 Y-5.581 Z-3.728
N10110 X34.708 Y-5.143 Z-3.816
N10115 X34.805 Y-4.706 Z-3.912
N10120 X34.853 Y-4.487 Z-3.962
N10125 X34.947 Y-4.049 Z-4.069
N10130 X35.038 Y-3.611 Z-4.182
N10135 X35.081 Y-3.392 Z-4.24
N10140 X35.127 Y-3.128 Z-4.306
N10145 X35.153 Y-2.955 Z-4.344
N10150 X35.18 Y-2.736 Z-4.386
N10155 X35.198 Y-2.517 Z-4.416
N10160 X35.199 Y-2.298
N10165 X35.185 Y-1.641 Z-4.394
N10170 X35.178 Y-1.204 Z-4.384
N10175 X35.174 Y-0.766 Z-4.376
N10180 X35.171 Y-0.328 Z-4.372
N10185 Y0.328
N10190 X35.174 Y0.766 Z-4.377
N10195 X35.178 Y1.204 Z-4.384
N10200 X35.185 Y1.641 Z-4.395
N10205 X35.2 Y2.298 Z-4.417
N10210 X35.198 Y2.517 Z-4.415
N10215 X35.178 Y2.736 Z-4.384
N10220 X35.151 Y2.955 Z-4.342
N10225 X35.118 Y3.173 Z-4.293
N10230 X35.079 Y3.392 Z-4.237
N10235 X34.991 Y3.83 Z-4.122
N10240 X34.898 Y4.268 Z-4.012
N10245 X34.803 Y4.706 Z-3.909
N10250 X34.707 Y5.143 Z-3.815
N10255 X34.61 Y5.581 Z-3.727
N10260 X34.513 Y6.019 Z-3.647
N10265 X34.418 Y6.456 Z-3.575
N10270 X34.324 Y6.894 Z-3.509
N10275 X34.233 Y7.332 Z-3.45
N10280 X34.146 Y7.77 Z-3.398
N10285 X34.061 Y8.207 Z-3.351
N10290 X33.98 Y8.645 Z-3.31
N10295 X33.904 Y9.083 Z-3.273
N10300 X33.832 Y9.52 Z-3.241
N10305 X33.764 Y9.958 Z-3.213
N10310 X33.701 Y10.396 Z-3.188
N10315 X33.643 Y10.834 Z-3.167
N10320 X33.59 Y11.271 Z-3.15
N10325 X33.543 Y11.709 Z-3.134
N10330 X33.501 Y12.147 Z-3.122
N10335 X33.466 Y12.584 Z-3.111
N10340 X33.422 Y13.241 Z-3.099
N10345 X33.402 Y13.46 Z-3.094
N10350 X33.376 Y13.612 Z-3.089
N10355 X33.356 Y13.679 Z-3.087
N10360 X33.272 Y13.898
N10365 X33.157 Y14.073 Z-3.093
N10370 X33.125 Y14.117 Z-3.095
N10375 X32.939 Y14.337 Z-3.101
N10380 X32.558 Y14.773 Z-3.112
N10385 X32.282 Y15.098 Z-3.122
N10390 X32.007 Y15.43 Z-3.134
N10395 X31.829 Y15.649 Z-3.144
N10400 X31.625 Y15.904 Z-3.156
N10405 X31.313 Y16.305 Z-3.178
N10410 X31.146 Y16.524 Z-3.191
N10415 X30.82 Y16.962 Z-3.222
N10420 X30.501 Y17.399 Z-3.258
N10425 X30.312 Y17.665 Z-3.283
N10430 X30.038 Y18.056 Z-3.323
N10435 X29.874 Y18.293 Z-3.35
N10440 X29.59 Y18.713 Z-3.403
N10445 X29.299 Y19.15 Z-3.466
N10450 X29.154 Y19.369 Z-3.5
N10455 X28.999 Y19.608 Z-3.541
N10460 X28.78 Y19.948 Z-3.603
N10465 X28.561 Y20.29 Z-3.671
N10470 X28.312 Y20.682 Z-3.757
N10475 X28.124 Y20.978 Z-3.827
N10480 X27.894 Y21.339 Z-3.92
N10485 X27.686 Y21.664 Z-4.009
N10490 X27.467 Y22.003 Z-4.109
N10495 X27.248 Y22.337 Z-4.214
N10500 X27.033 Y22.652 Z-4.314
N10505 X26.869 Y22.871 Z-4.373
N10510 X26.81 Y22.944 Z-4.388
N10515 X26.687 Y23.09 Z-4.414
N10520 X26.592 Y23.189 Z-4.418
N10525 X26.373 Y23.4 Z-4.41
N10530 X25.935 Y23.823 Z-4.393
N10535 X25.565 Y24.184 Z-4.383
N10540 X25.122 Y24.622 Z-4.377
N10545 X24.622 Y25.122 Z-4.378
N10550 X24.184 Y25.565 Z-4.383
N10555 X23.823 Y25.935 Z-4.393
N10560 X23.528 Y26.241 Z-4.405
N10565 X23.309 Y26.47 Z-4.416
N10570 X23.189 Y26.592 Z-4.419
N10575 X23.09 Y26.685 Z-4.412
N10580 X22.941 Y26.81 Z-4.385
N10585 X22.871 Y26.867 Z-4.371
N10590 X22.652 Y27.03 Z-4.312
N10595 X22.433 Y27.181 Z-4.243
N10600 X22.214 Y27.326 Z-4.173
N10605 X21.995 Y27.469 Z-4.105
N10610 X21.662 Y27.686 Z-4.007
N10615 X21.32 Y27.905 Z-3.913
N10620 X20.976 Y28.124 Z-3.826
N10625 X20.631 Y28.342 Z-3.744
N10630 X20.245 Y28.589 Z-3.661
N10635 X19.945 Y28.78 Z-3.602
N10640 X19.588 Y29.011 Z-3.537
N10645 X19.271 Y29.218 Z-3.484
N10650 X18.931 Y29.442 Z-3.433
N10655 X18.613 Y29.656 Z-3.389
N10660 X18.275 Y29.886 Z-3.348
N10665 X17.975 Y30.093 Z-3.314
N10670 X17.618 Y30.344 Z-3.278
N10675 X17.356 Y30.531 Z-3.254
N10680 X16.962 Y30.819 Z-3.222
N10685 X16.524 Y31.145 Z-3.191
N10690 X16.182 Y31.406 Z-3.17
N10695 X15.867 Y31.653 Z-3.154
N10700 X15.43 Y32.006 Z-3.134
N10705 X15.097 Y32.282 Z-3.122
N10710 X14.773 Y32.557 Z-3.112
N10715 X14.335 Y32.939 Z-3.101
N10720 X14.117 Y33.124 Z-3.095
N10725 X14.071 Y33.157 Z-3.092
N10730 X13.898 Y33.271 Z-3.087
N10735 X13.679 Y33.356
N10740 X13.612 Y33.376 Z-3.089
N10745 X13.46 Y33.402 Z-3.094
N10750 X13.241 Y33.422 Z-3.099
N10755 X12.803 Y33.45 Z-3.107
N10760 X12.366 Y33.483 Z-3.116
N10765 X11.928 Y33.521 Z-3.128
N10770 X11.49 Y33.566 Z-3.142
N10775 X11.052 Y33.616 Z-3.158
N10780 X10.615 Y33.671 Z-3.178
N10785 X10.177 Y33.732 Z-3.2
N10790 X9.632 Y33.814 Z-3.233
N10795 X9.302 Y33.867 Z-3.256
N10800 X8.864 Y33.943 Z-3.291
N10805 X8.363 Y34.033 Z-3.336
N10810 X7.988 Y34.104 Z-3.374
N10815 X7.551 Y34.19 Z-3.424
N10820 X7.113 Y34.28 Z-3.48
N10825 X6.675 Y34.372 Z-3.542
N10830 X6.238 Y34.467 Z-3.611
N10835 X5.8 Y34.563 Z-3.687
N10840 X5.362 Y34.66 Z-3.771
N10845 X4.924 Y34.757 Z-3.863
N10850 X4.487 Y34.853 Z-3.962
N10855 X4.231 Y34.908 Z-4.024
N10860 X3.83 Y34.993 Z-4.125
N10865 X3.392 Y35.081 Z-4.24
N10870 X3.129 Y35.127 Z-4.306
N10875 X2.955 Y35.153 Z-4.344
N10880 X2.736 Y35.18 Z-4.386
N10885 X2.517 Y35.199 Z-4.416
N10890 X2.298
N10895 X1.641 Y35.185 Z-4.394
N10900 X0.985 Y35.176 Z-4.38
N10905 X0.547 Y35.172 Z-4.374
N10910 X0.109 Y35.171 Z-4.373
N10915 X-0.547 Y35.172 Z-4.374
N10920 X-1.204 Y35.178 Z-4.384
N10925 X-1.86 Y35.19 Z-4.402
N10930 X-2.298 Y35.2 Z-4.418
N10935 X-2.517 Y35.198 Z-4.415
N10940 X-2.736 Y35.178 Z-4.384
N10945 X-2.955 Y35.151 Z-4.342
N10950 X-3.117 Y35.127 Z-4.306
N10955 X-3.392 Y35.079 Z-4.237
N10960 X-3.83 Y34.991 Z-4.122
N10965 X-4.268 Y34.898 Z-4.012
N10970 X-4.706 Y34.803 Z-3.909
N10975 X-5.143 Y34.707 Z-3.815
N10980 X-5.581 Y34.61 Z-3.727
N10985 X-6.019 Y34.513 Z-3.647
N10990 X-6.456 Y34.418 Z-3.575
N10995 X-6.894 Y34.324 Z-3.509
N11000 X-7.332 Y34.233 Z-3.45
N11005 X-7.77 Y34.146 Z-3.398
N11010 X-8.207 Y34.061 Z-3.351
N11015 X-8.645 Y33.98 Z-3.31
N11020 X-9.083 Y33.904 Z-3.273
N11025 X-9.63 Y33.814 Z-3.233
N11030 X-10.177 Y33.731 Z-3.2
N11035 X-10.615 Y33.671 Z-3.178
N11040 X-11.052 Y33.616 Z-3.158
N11045 X-11.49 Y33.566 Z-3.142
N11050 X-11.928 Y33.521 Z-3.128
N11055 X-12.366 Y33.483 Z-3.116
N11060 X-12.803 Y33.451 Z-3.107
N11065 X-13.241 Y33.422 Z-3.099
N11070 X-13.46 Y33.402 Z-3.094
N11075 X-13.612 Y33.376 Z-3.089
N11080 X-13.679 Y33.356 Z-3.087
N11085 X-13.898 Y33.272
N11090 X-14.071 Y33.157 Z-3.093
N11095 X-14.117 Y33.125 Z-3.095
N11100 X-14.337 Y32.939 Z-3.101
N11105 X-14.586 Y32.72 Z-3.107
N11110 X-14.992 Y32.371 Z-3.119
N11115 X-15.211 Y32.187 Z-3.126
N11120 X-15.43 Y32.006 Z-3.134
N11125 X-15.649 Y31.829 Z-3.144
N11130 X-15.904 Y31.625 Z-3.156
N11135 X-16.305 Y31.313 Z-3.177
N11140 X-16.524 Y31.146 Z-3.191
N11145 X-16.962 Y30.82 Z-3.222
N11150 X-17.399 Y30.501 Z-3.258
N11155 X-17.665 Y30.312 Z-3.283
N11160 X-18.056 Y30.038 Z-3.323
N11165 X-18.293 Y29.874 Z-3.35
N11170 X-18.713 Y29.59 Z-3.403
N11175 X-18.941 Y29.437 Z-3.435
N11180 X-19.369 Y29.154 Z-3.5
N11185 X-19.608 Y28.999 Z-3.541
N11190 X-20.026 Y28.73 Z-3.618
N11195 X-20.29 Y28.561 Z-3.671
N11200 X-20.682 Y28.312 Z-3.757
N11205 X-20.978 Y28.124 Z-3.827
N11210 X-21.339 Y27.894 Z-3.92
N11215 X-21.664 Y27.686 Z-4.009
N11220 X-22.003 Y27.467 Z-4.109
N11225 X-22.337 Y27.248 Z-4.214
N11230 X-22.652 Y27.033 Z-4.314
N11235 X-22.871 Y26.869 Z-4.373
N11240 X-22.943 Y26.81 Z-4.388
N11245 X-23.09 Y26.686 Z-4.414
N11250 X-23.189 Y26.592 Z-4.418
N11255 X-23.4 Y26.373 Z-4.41
N11260 X-23.746 Y26.014 Z-4.395
N11265 X-24.184 Y25.565 Z-4.383
N11270 X-24.466 Y25.278 Z-4.378
N11275 X-24.902 Y24.841 Z-4.376
N11280 X-25.343 Y24.403 Z-4.38
N11285 X-25.716 Y24.036 Z-4.387
N11290 X-26.014 Y23.746 Z-4.396
N11295 X-26.47 Y23.309 Z-4.416
N11300 X-26.592 Y23.189 Z-4.418
N11305 X-26.685 Y23.09 Z-4.412
N11310 X-26.81 Y22.941 Z-4.385
N11315 X-26.867 Y22.871 Z-4.37
N11320 X-27.03 Y22.652 Z-4.312
N11325 X-27.181 Y22.433 Z-4.243
N11330 X-27.326 Y22.214 Z-4.173
N11335 X-27.47 Y21.995 Z-4.105
N11340 X-27.686 Y21.661 Z-4.007
N11345 X-27.905 Y21.32 Z-3.913
N11350 X-28.124 Y20.976 Z-3.826
N11355 X-28.342 Y20.631 Z-3.744
N11360 X-28.589 Y20.245 Z-3.661
N11365 X-28.78 Y19.947 Z-3.602
N11370 X-29.011 Y19.588 Z-3.537
N11375 X-29.218 Y19.271 Z-3.484
N11380 X-29.442 Y18.931 Z-3.433
N11385 X-29.656 Y18.613 Z-3.389
N11390 X-29.886 Y18.275 Z-3.348
N11395 X-30.093 Y17.975 Z-3.314
N11400 X-30.344 Y17.618 Z-3.278
N11405 X-30.531 Y17.356 Z-3.254
N11410 X-30.819 Y16.962 Z-3.222
N11415 X-31.145 Y16.524 Z-3.191
N11420 X-31.406 Y16.182 Z-3.17
N11425 X-31.653 Y15.867 Z-3.154
N11430 X-32.006 Y15.43 Z-3.134
N11435 X-32.282 Y15.097 Z-3.122
N11440 X-32.557 Y14.773 Z-3.112
N11445 X-32.747 Y14.554 Z-3.106
N11450 X-32.94 Y14.335 Z-3.101
N11455 X-33.125 Y14.117 Z-3.095
N11460 X-33.157 Y14.071 Z-3.092
N11465 X-33.271 Y13.898 Z-3.087
N11470 X-33.356 Y13.679
N11475 X-33.376 Y13.612 Z-3.089
N11480 X-33.402 Y13.46 Z-3.094
N11485 X-33.422 Y13.241 Z-3.099
N11490 X-33.45 Y12.803 Z-3.107
N11495 X-33.483 Y12.366 Z-3.116
N11500 X-33.521 Y11.928 Z-3.128
N11505 X-33.566 Y11.49 Z-3.142
N11510 X-33.616 Y11.052 Z-3.158
N11515 X-33.671 Y10.615 Z-3.178
N11520 X-33.732 Y10.177 Z-3.2
N11525 X-33.814 Y9.632 Z-3.233
N11530 X-33.867 Y9.302 Z-3.256
N11535 X-33.943 Y8.864 Z-3.291
N11540 X-34.033 Y8.363 Z-3.336
N11545 X-34.104 Y7.988 Z-3.374
N11550 X-34.146 Y7.77 Z-3.398
N11555 X-34.235 Y7.332 Z-3.451
N11560 X-34.326 Y6.894 Z-3.51
N11565 X-34.419 Y6.456 Z-3.576
N11570 X-34.515 Y6.019 Z-3.648
N11575 X-34.611 Y5.581 Z-3.728
N11580 X-34.708 Y5.143 Z-3.816
N11585 X-34.805 Y4.706 Z-3.912
N11590 X-34.853 Y4.487 Z-3.962
N11595 X-34.908 Y4.231 Z-4.024
N11600 X-34.993 Y3.83 Z-4.125
N11605 X-35.081 Y3.392 Z-4.24
N11610 X-35.127 Y3.129 Z-4.306
N11615 X-35.153 Y2.955 Z-4.344
N11620 X-35.18 Y2.736 Z-4.386
N11625 X-35.199 Y2.517 Z-4.416
N11630 Y2.298
N11635 X-35.185 Y1.641 Z-4.394
N11640 X-35.176 Y0.985 Z-4.38
N11645 X-35.172 Y0.547 Z-4.374
N11650 Y0.109 Z-4.373
N11655 X-35.171 Y-0.328
N11660 X-35.174 Y-0.766 Z-4.377
N11665 X-35.178 Y-1.204 Z-4.384
N11670 X-35.19 Y-1.86 Z-4.402
N11675 X-35.2 Y-2.298 Z-4.418
N11680 X-35.198 Y-2.517 Z-4.415
N11685 X-35.178 Y-2.736 Z-4.384
N11690 X-35.151 Y-2.955 Z-4.342
N11695 X-35.127 Y-3.118 Z-4.306
N11700 X-35.079 Y-3.392 Z-4.237
N11705 X-34.991 Y-3.83 Z-4.122
N11710 X-34.898 Y-4.268 Z-4.012
N11715 X-34.803 Y-4.706 Z-3.909
N11720 X-34.755 Y-4.924 Z-3.861
N11725 X-34.658 Y-5.362 Z-3.77
N11730 X-34.561 Y-5.8 Z-3.686
N11735 X-34.465 Y-6.238 Z-3.61
N11740 X-34.371 Y-6.675 Z-3.541
N11745 X-34.279 Y-7.113 Z-3.479
N11750 X-34.246 Y-7.272 Z-3.458
N11755 X-34.221 Y-7.461 Z-3.442
N11760 X-34.217 Y-7.557 Z-3.44
N11765 Y-7.654
N11770 X-34.228 Y-7.847 Z-3.447
N11775 X-34.265 Y-8.232 Z-3.47
N11780 X-34.278 Y-8.426 Z-3.479
N11785 Y-8.619
N11790 X-34.272 Y-8.715 Z-3.475
N11795 X-34.259 Y-8.811 Z-3.467
N11800 X-34.214 Y-9.083 Z-3.438
N11805 X-34.145 Y-9.52 Z-3.398
N11810 X-34.081 Y-9.958 Z-3.362
N11815 X-34.021 Y-10.396 Z-3.33
N11820 X-33.965 Y-10.834 Z-3.302
N11825 X-33.914 Y-11.271 Z-3.278
N11830 X-33.869 Y-11.709 Z-3.257
N11835 X-33.848 Y-11.928 Z-3.248
N11840 X-33.81 Y-12.366 Z-3.232
N11845 X-33.779 Y-12.803 Z-3.219
N11850 X-33.752 Y-13.241 Z-3.208
N11855 X-33.736 Y-13.46 Z-3.202
N11860 X-33.701 Y-13.679 Z-3.193
N11865 X-33.633 Y-13.898 Z-3.189
N11870 X-33.595 Y-13.99 Z-3.19
N11875 X-33.531 Y-14.117 Z-3.192
N11880 X-33.373 Y-14.335 Z-3.201
N11885 X-33.157 Y-14.586 Z-3.211
N11890 X-32.939 Y-14.833 Z-3.219
N11895 X-32.612 Y-15.211 Z-3.234
N11900 X-32.427 Y-15.43 Z-3.245
N11905 X-32.246 Y-15.649 Z-3.256
N11910 X-32.063 Y-15.872 Z-3.269
N11915 X-31.844 Y-16.144 Z-3.287
N11920 X-31.546 Y-16.524 Z-3.315
N11925 X-31.377 Y-16.743 Z-3.332
N11930 X-31.188 Y-16.992 Z-3.355
N11935 X-30.884 Y-17.399 Z-3.395
N11940 X-30.723 Y-17.618 Z-3.419
N11945 X-30.531 Y-17.883 Z-3.45
N11950 X-30.251 Y-18.275 Z-3.501
N11955 X-30.093 Y-18.498 Z-3.533
N11960 X-29.874 Y-18.812 Z-3.581
N11965 X-29.642 Y-19.15 Z-3.638
N11970 X-29.437 Y-19.451 Z-3.692
N11975 X-29.196 Y-19.807 Z-3.763
N11980 X-28.999 Y-20.102 Z-3.827
N11985 X-28.758 Y-20.463 Z-3.911
N11990 X-28.561 Y-20.758 Z-3.985
N11995 X-28.32 Y-21.12 Z-4.083
N12000 X-28.124 Y-21.412 Z-4.168
N12005 X-27.876 Y-21.777 Z-4.281
N12010 X-27.686 Y-22.053 Z-4.372
N12015 X-27.467 Y-22.367 Z-4.481
N12020 X-27.248 Y-22.671 Z-4.589
N12025 X-27.094 Y-22.871 Z-4.651
N12030 X-26.91 Y-23.09 Z-4.702
N12035 X-26.81 Y-23.201 Z-4.719
N12040 X-26.705 Y-23.309 Z-4.722
N12045 X-26.48 Y-23.528 Z-4.713
N12050 X-26.154 Y-23.844 Z-4.699
N12055 X-25.716 Y-24.272 Z-4.685
N12060 X-25.278 Y-24.706 Z-4.679
N12065 X-24.841 Y-25.143 Z-4.678
N12070 X-24.403 Y-25.584 Z-4.683
N12075 X-23.965 Y-26.03 Z-4.695
N12080 X-23.632 Y-26.373 Z-4.709
N12085 X-23.421 Y-26.592 Z-4.72
N12090 X-23.309 Y-26.706 Z-4.723
N12095 X-23.2 Y-26.81 Z-4.717
N12100 X-23.09 Y-26.908 Z-4.699
N12105 X-22.871 Y-27.092 Z-4.649
N12110 X-22.652 Y-27.26 Z-4.58
N12115 X-22.364 Y-27.467 Z-4.478
N12120 X-21.995 Y-27.724 Z-4.351
N12125 X-21.732 Y-27.905 Z-4.265
N12130 X-21.339 Y-28.172 Z-4.145
N12135 X-21.084 Y-28.342 Z-4.072
N12140 X-20.756 Y-28.561 Z-3.984
N12145 X-20.428 Y-28.78 Z-3.901
N12150 X-20.101 Y-28.999 Z-3.826
N12155 X-19.774 Y-29.218 Z-3.755
N12160 X-19.369 Y-29.492 Z-3.677
N12165 X-19.129 Y-29.656 Z-3.633
N12170 X-18.713 Y-29.943 Z-3.565
N12175 X-18.494 Y-30.096 Z-3.532
N12180 X-18.187 Y-30.312 Z-3.489
N12185 X-17.837 Y-30.564 Z-3.445
N12190 X-17.581 Y-30.75 Z-3.415
N12195 X-17.181 Y-31.046 Z-3.373
N12200 X-16.743 Y-31.377 Z-3.332
N12205 X-16.421 Y-31.625 Z-3.306
N12210 X-16.086 Y-31.891 Z-3.283
N12215 X-15.867 Y-32.067 Z-3.269
N12220 X-15.605 Y-32.282 Z-3.254
N12225 X-15.342 Y-32.501 Z-3.24
N12230 X-14.992 Y-32.801 Z-3.225
N12235 X-14.773 Y-32.991 Z-3.217
N12240 X-14.554 Y-33.185 Z-3.21
N12245 X-14.331 Y-33.376 Z-3.201
N12250 X-14.117 Y-33.531 Z-3.192
N12255 X-13.99 Y-33.595 Z-3.19
N12260 X-13.898 Y-33.633 Z-3.189
N12265 X-13.679 Y-33.701 Z-3.193
N12270 X-13.46 Y-33.735 Z-3.202
N12275 X-13.241 Y-33.752 Z-3.208
N12280 X-12.803 Y-33.778 Z-3.219
N12285 X-12.316 Y-33.814 Z-3.233
N12290 X-11.928 Y-33.847 Z-3.248
N12295 X-11.49 Y-33.891 Z-3.267
N12300 X-11.052 Y-33.939 Z-3.289
N12305 X-10.615 Y-33.992 Z-3.315
N12310 X-10.177 Y-34.05 Z-3.345
N12315 X-9.739 Y-34.113 Z-3.379
N12320 X-9.302 Y-34.18 Z-3.418
N12325 X-8.86 Y-34.252 Z-3.462
N12330 X-8.426 Y-34.325 Z-3.51
N12335 X-7.988 Y-34.403 Z-3.564
N12340 X-7.551 Y-34.484 Z-3.624
N12345 X-7.113 Y-34.567 Z-3.691
N12350 X-6.894 Y-34.609 Z-3.727
N12355 X-6.456 Y-34.695 Z-3.804
N12360 X-6.019 Y-34.782 Z-3.888
N12365 X-5.581 Y-34.869 Z-3.98
N12370 X-5.143 Y-34.956 Z-4.08
N12375 X-4.706 Y-35.041 Z-4.187
N12380 X-4.487 Y-35.083 Z-4.243
N12385 X-4.049 Y-35.164 Z-4.362
N12390 X-3.611 Y-35.241 Z-4.485
N12395 X-3.392 Y-35.275 Z-4.547
N12400 X-3.173 Y-35.306 Z-4.604
N12405 X-2.955 Y-35.331 Z-4.653
N12410 X-2.801 Y-35.346 Z-4.683
N12415 X-2.736 Y-35.351 Z-4.694
N12420 X-2.517 Y-35.365 Z-4.723
N12425 X-2.298 Y-35.364 Z-4.72
N12430 X-1.641 Y-35.353 Z-4.697
N12435 X-0.985 Y-35.345 Z-4.681
N12440 X-0.328 Y-35.342 Z-4.674
N12445 X0.328
N12450 X0.766 Y-35.344 Z-4.678
N12455 X1.204 Y-35.347 Z-4.686
N12460 X1.641 Y-35.353 Z-4.697
N12465 X2.298 Y-35.365 Z-4.722
N12470 X2.517
N12475 X2.736 Y-35.35 Z-4.691
N12480 X2.955 Y-35.33 Z-4.651
N12485 X3.173 Y-35.305 Z-4.601
N12490 X3.392 Y-35.274 Z-4.544
N12495 X3.611 Y-35.239 Z-4.482
N12500 X4.049 Y-35.162 Z-4.359
N12505 X4.487 Y-35.081 Z-4.241
N12510 X4.924 Y-34.997 Z-4.13
N12515 X5.362 Y-34.911 Z-4.027
N12520 X5.8 Y-34.824 Z-3.932
N12525 X6.238 Y-34.737 Z-3.844
N12530 X6.675 Y-34.651 Z-3.763
N12535 X7.113 Y-34.566 Z-3.69
N12540 X7.551 Y-34.483 Z-3.623
N12545 X7.988 Y-34.402 Z-3.563
N12550 X8.426 Y-34.324 Z-3.509
N12555 X8.864 Y-34.25 Z-3.461
N12560 X9.302 Y-34.18 Z-3.418
N12565 X9.52 Y-34.145 Z-3.398
N12570 X9.958 Y-34.081 Z-3.362
N12575 X10.396 Y-34.02 Z-3.33
N12580 X10.834 Y-33.965 Z-3.302
N12585 X11.271 Y-33.914 Z-3.278
N12590 X11.709 Y-33.869 Z-3.257
N12595 X12.147 Y-33.828 Z-3.239
N12600 X12.584 Y-33.794 Z-3.225
N12605 X13.022 Y-33.765 Z-3.213
N12610 X13.241 Y-33.752 Z-3.208
N12615 X13.46 Y-33.736 Z-3.202
N12620 X13.679 Y-33.701 Z-3.193
N12625 X13.898 Y-33.634 Z-3.189
N12630 X13.991 Y-33.595 Z-3.19
N12635 X14.117 Y-33.531 Z-3.192
N12640 X14.335 Y-33.374 Z-3.202
N12645 X14.586 Y-33.157 Z-3.211
N12650 X14.833 Y-32.939 Z-3.219
N12655 X15.085 Y-32.72 Z-3.229
N12660 X15.43 Y-32.428 Z-3.245
N12665 X15.649 Y-32.246 Z-3.256
N12670 X15.873 Y-32.063 Z-3.269
N12675 X16.144 Y-31.844 Z-3.287
N12680 X16.524 Y-31.546 Z-3.315
N12685 X16.743 Y-31.377 Z-3.332
N12690 X16.992 Y-31.188 Z-3.355
N12695 X17.399 Y-30.884 Z-3.395
N12700 X17.618 Y-30.723 Z-3.419
N12705 X17.883 Y-30.531 Z-3.451
N12710 X18.275 Y-30.251 Z-3.502
N12715 X18.499 Y-30.093 Z-3.533
N12720 X18.812 Y-29.874 Z-3.581
N12725 X19.15 Y-29.642 Z-3.638
N12730 X19.451 Y-29.437 Z-3.692
N12735 X19.807 Y-29.196 Z-3.763
N12740 X20.102 Y-28.999 Z-3.827
N12745 X20.463 Y-28.758 Z-3.911
N12750 X20.758 Y-28.561 Z-3.985
N12755 X21.12 Y-28.32 Z-4.083
N12760 X21.412 Y-28.124 Z-4.168
N12765 X21.777 Y-27.876 Z-4.281
N12770 X22.053 Y-27.686 Z-4.372
N12775 X22.433 Y-27.42 Z-4.504
N12780 X22.671 Y-27.248 Z-4.589
N12785 X22.871 Y-27.094 Z-4.651
N12790 X23.09 Y-26.91 Z-4.702
N12795 X23.201 Y-26.81 Z-4.719
N12800 X23.309 Y-26.705 Z-4.722
N12805 X23.528 Y-26.48 Z-4.713
N12810 X23.965 Y-26.03 Z-4.694
N12815 X24.272 Y-25.716 Z-4.685
N12820 X24.706 Y-25.278 Z-4.679
N12825 X25.143 Y-24.841 Z-4.678
N12830 X25.584 Y-24.403 Z-4.683
N12835 X25.935 Y-24.058 Z-4.692
N12840 X26.255 Y-23.746 Z-4.704
N12845 X26.592 Y-23.421 Z-4.721
N12850 X26.706 Y-23.309 Z-4.723
N12855 X26.81 Y-23.2 Z-4.717
N12860 X26.908 Y-23.09 Z-4.699
N12865 X27.029 Y-22.947 Z-4.667
N12870 X27.092 Y-22.871 Z-4.649
N12875 X27.26 Y-22.652 Z-4.58
N12880 X27.467 Y-22.364 Z-4.478
N12885 X27.686 Y-22.051 Z-4.369
N12890 X27.905 Y-21.732 Z-4.265
N12895 X28.124 Y-21.41 Z-4.166
N12900 X28.342 Y-21.084 Z-4.072
N12905 X28.561 Y-20.756 Z-3.983
N12910 X28.78 Y-20.428 Z-3.901
N12915 X28.999 Y-20.101 Z-3.826
N12920 X29.218 Y-19.774 Z-3.755
N12925 X29.492 Y-19.369 Z-3.677
N12930 X29.656 Y-19.128 Z-3.633
N12935 X29.943 Y-18.713 Z-3.565
N12940 X30.095 Y-18.494 Z-3.532
N12945 X30.312 Y-18.187 Z-3.489
N12950 X30.564 Y-17.837 Z-3.445
N12955 X30.75 Y-17.581 Z-3.415
N12960 X31.046 Y-17.181 Z-3.373
N12965 X31.376 Y-16.743 Z-3.332
N12970 X31.625 Y-16.421 Z-3.306
N12975 X31.891 Y-16.086 Z-3.283
N12980 X32.066 Y-15.867 Z-3.269
N12985 X32.282 Y-15.604 Z-3.254
N12990 X32.501 Y-15.342 Z-3.24
N12995 X32.801 Y-14.992 Z-3.225
N13000 X32.991 Y-14.773 Z-3.217
N13005 X33.185 Y-14.554 Z-3.21
N13010 X33.376 Y-14.331 Z-3.201
N13015 X33.531 Y-14.117 Z-3.192
N13020 X33.595 Y-13.99 Z-3.19
N13025 X33.633 Y-13.898 Z-3.189
N13030 X33.701 Y-13.679 Z-3.193
N13035 X33.736 Y-13.46 Z-3.202
N13040 X33.752 Y-13.241 Z-3.208
N13045 X33.779 Y-12.803 Z-3.219
N13050 X33.814 Y-12.322 Z-3.233
N13055 X33.848 Y-11.928 Z-3.248
N13060 X33.891 Y-11.49 Z-3.267
N13065 X33.939 Y-11.052 Z-3.289
N13070 X33.992 Y-10.615 Z-3.316
N13075 X34.051 Y-10.177 Z-3.345
N13080 X34.113 Y-9.739 Z-3.379
N13085 X34.18 Y-9.302 Z-3.418
N13090 X34.252 Y-8.858 Z-3.462
N13095 X34.325 Y-8.426 Z-3.51
N13100 X34.403 Y-7.988 Z-3.564
N13105 X34.471 Y-7.622 Z-3.614
N13110 X34.525 Y-7.332 Z-3.657
N13115 X34.609 Y-6.894 Z-3.727
N13120 X34.695 Y-6.456 Z-3.804
N13125 X34.782 Y-6.019 Z-3.888
N13130 X34.869 Y-5.581 Z-3.98
N13135 X34.956 Y-5.143 Z-4.08
N13140 X35.041 Y-4.706 Z-4.187
N13145 X35.083 Y-4.487 Z-4.243
N13150 X35.164 Y-4.049 Z-4.361
N13155 X35.24 Y-3.611 Z-4.485
N13160 X35.275 Y-3.392 Z-4.547
N13165 X35.306 Y-3.173 Z-4.604
N13170 X35.331 Y-2.955 Z-4.653
N13175 X35.351 Y-2.736 Z-4.694
N13180 X35.365 Y-2.517 Z-4.723
N13185 X35.364 Y-2.298 Z-4.72
N13190 X35.353 Y-1.641 Z-4.697
N13195 X35.345 Y-0.985 Z-4.681
N13200 X35.342 Y-0.328 Z-4.674
N13205 Y0.328
N13210 X35.345 Y0.985 Z-4.681
N13215 X35.35 Y1.423 Z-4.691
N13220 X35.36 Y2.079 Z-4.713
N13225 X35.365 Y2.298 Z-4.722
N13230 Y2.517
N13235 X35.35 Y2.736 Z-4.691
N13240 X35.33 Y2.955 Z-4.651
N13245 X35.305 Y3.173 Z-4.601
N13250 X35.274 Y3.392 Z-4.544
N13255 X35.239 Y3.611 Z-4.483
N13260 X35.162 Y4.049 Z-4.359
N13265 X35.081 Y4.487 Z-4.241
N13270 X34.997 Y4.924 Z-4.13
N13275 X34.911 Y5.362 Z-4.027
N13280 X34.824 Y5.8 Z-3.931
N13285 X34.781 Y6.019 Z-3.886
N13290 X34.689 Y6.481 Z-3.798
N13295 X34.608 Y6.894 Z-3.725
N13300 X34.524 Y7.332 Z-3.656
N13305 X34.442 Y7.77 Z-3.593
N13310 X34.363 Y8.207 Z-3.535
N13315 X34.287 Y8.645 Z-3.484
N13320 X34.214 Y9.083 Z-3.438
N13325 X34.145 Y9.52 Z-3.398
N13330 X34.081 Y9.958 Z-3.362
N13335 X34.02 Y10.396 Z-3.33
N13340 X33.965 Y10.834 Z-3.302
N13345 X33.914 Y11.271 Z-3.278
N13350 X33.869 Y11.709 Z-3.257
N13355 X33.848 Y11.928 Z-3.248
N13360 X33.81 Y12.366 Z-3.232
N13365 X33.779 Y12.803 Z-3.219
N13370 X33.752 Y13.241 Z-3.208
N13375 X33.736 Y13.46 Z-3.202
N13380 X33.701 Y13.679 Z-3.193
N13385 X33.634 Y13.898 Z-3.189
N13390 X33.595 Y13.991 Z-3.19
N13395 X33.531 Y14.117 Z-3.193
N13400 X33.373 Y14.335 Z-3.202
N13405 X33.157 Y14.586 Z-3.211
N13410 X32.939 Y14.834 Z-3.219
N13415 X32.72 Y15.086 Z-3.229
N13420 X32.428 Y15.43 Z-3.245
N13425 X32.246 Y15.649 Z-3.256
N13430 X32.063 Y15.873 Z-3.269
N13435 X31.844 Y16.144 Z-3.287
N13440 X31.547 Y16.524 Z-3.315
N13445 X31.377 Y16.743 Z-3.333
N13450 X31.188 Y16.993 Z-3.355
N13455 X30.885 Y17.399 Z-3.396
N13460 X30.723 Y17.618 Z-3.419
N13465 X30.407 Y18.056 Z-3.473
N13470 X30.251 Y18.275 Z-3.502
N13475 X30.093 Y18.499 Z-3.533
N13480 X29.874 Y18.812 Z-3.581
N13485 X29.642 Y19.15 Z-3.638
N13490 X29.437 Y19.451 Z-3.692
N13495 X29.197 Y19.807 Z-3.763
N13500 X28.999 Y20.102 Z-3.827
N13505 X28.758 Y20.463 Z-3.911
N13510 X28.561 Y20.758 Z-3.985
N13515 X28.32 Y21.12 Z-4.083
N13520 X28.124 Y21.412 Z-4.168
N13525 X27.876 Y21.777 Z-4.281
N13530 X27.686 Y22.054 Z-4.373
N13535 X27.467 Y22.367 Z-4.482
N13540 X27.248 Y22.671 Z-4.589
N13545 X27.094 Y22.871 Z-4.651
N13550 X26.91 Y23.09 Z-4.702
N13555 X26.81 Y23.201 Z-4.719
N13560 X26.705 Y23.309 Z-4.722
N13565 X26.592 Y23.42 Z-4.719
N13570 X26.154 Y23.844 Z-4.699
N13575 X25.716 Y24.272 Z-4.685
N13580 X25.278 Y24.706 Z-4.679
N13585 X24.841 Y25.143 Z-4.678
N13590 X24.403 Y25.584 Z-4.683
N13595 X24.058 Y25.935 Z-4.692
N13600 X23.746 Y26.255 Z-4.704
N13605 X23.421 Y26.592 Z-4.721
N13610 X23.309 Y26.706 Z-4.723
N13615 X23.2 Y26.81 Z-4.717
N13620 X23.09 Y26.908 Z-4.699
N13625 X22.947 Y27.029 Z-4.667
N13630 X22.871 Y27.092 Z-4.648
N13635 X22.652 Y27.26 Z-4.58
N13640 X22.364 Y27.467 Z-4.477
N13645 X22.051 Y27.686 Z-4.369
N13650 X21.732 Y27.905 Z-4.265
N13655 X21.41 Y28.124 Z-4.166
N13660 X21.084 Y28.342 Z-4.072
N13665 X20.756 Y28.561 Z-3.983
N13670 X20.428 Y28.78 Z-3.901
N13675 X20.026 Y29.049 Z-3.809
N13680 X19.774 Y29.218 Z-3.755
N13685 X19.45 Y29.437 Z-3.692
N13690 X19.128 Y29.656 Z-3.633
N13695 X18.811 Y29.874 Z-3.58
N13700 X18.494 Y30.095 Z-3.532
N13705 X18.056 Y30.406 Z-3.472
N13710 X17.837 Y30.563 Z-3.445
N13715 X17.58 Y30.75 Z-3.415
N13720 X17.181 Y31.046 Z-3.373
N13725 X16.962 Y31.21 Z-3.352
N13730 X16.703 Y31.406 Z-3.329
N13735 X16.305 Y31.716 Z-3.298
N13740 X16.086 Y31.89 Z-3.282
N13745 X15.649 Y32.245 Z-3.256
N13750 X15.342 Y32.501 Z-3.24
N13755 X15.085 Y32.72 Z-3.229
N13760 X14.773 Y32.991 Z-3.217
N13765 X14.554 Y33.184 Z-3.21
N13770 X14.331 Y33.376 Z-3.201
N13775 X14.117 Y33.53 Z-3.192
N13780 X13.99 Y33.595 Z-3.19
N13785 X13.898 Y33.633 Z-3.189
N13790 X13.679 Y33.701 Z-3.193
N13795 X13.46 Y33.735 Z-3.202
N13800 X13.241 Y33.752 Z-3.208
N13805 X12.803 Y33.778 Z-3.219
N13810 X12.322 Y33.814 Z-3.233
N13815 X11.928 Y33.848 Z-3.248
N13820 X11.49 Y33.891 Z-3.267
N13825 X11.052 Y33.939 Z-3.289
N13830 X10.615 Y33.992 Z-3.315
N13835 X10.177 Y34.05 Z-3.345
N13840 X9.739 Y34.113 Z-3.379
N13845 X9.302 Y34.18 Z-3.418
N13850 X8.86 Y34.252 Z-3.462
N13855 X8.426 Y34.325 Z-3.51
N13860 X7.988 Y34.403 Z-3.564
N13865 X7.621 Y34.471 Z-3.614
N13870 X7.113 Y34.567 Z-3.691
N13875 X6.675 Y34.652 Z-3.764
N13880 X6.238 Y34.739 Z-3.845
N13885 X5.8 Y34.826 Z-3.933
N13890 X5.362 Y34.913 Z-4.029
N13895 X4.924 Y34.999 Z-4.132
N13900 X4.487 Y35.083 Z-4.243
N13905 X4.049 Y35.164 Z-4.362
N13910 X3.611 Y35.241 Z-4.485
N13915 X3.392 Y35.275 Z-4.547
N13920 X3.173 Y35.306 Z-4.604
N13925 X2.955 Y35.331 Z-4.653
N13930 X2.736 Y35.352 Z-4.694
N13935 X2.517 Y35.365 Z-4.723
N13940 X2.298 Y35.364 Z-4.72
N13945 X1.641 Y35.353 Z-4.697
N13950 X0.985 Y35.345 Z-4.681
N13955 X0.547 Y35.342 Z-4.675
N13960 X0.109 Z-4.674
N13965 X-0.328
N13970 X-0.766 Y35.344 Z-4.678
N13975 X-1.204 Y35.348 Z-4.686
N13980 X-1.86 Y35.357 Z-4.705
N13985 X-2.298 Y35.365 Z-4.722
N13990 X-2.517 Z-4.723
N13995 X-2.736 Y35.35 Z-4.691
N14000 X-2.955 Y35.33 Z-4.651
N14005 X-3.173 Y35.305 Z-4.601
N14010 X-3.392 Y35.274 Z-4.544
N14015 X-3.611 Y35.239 Z-4.482
N14020 X-4.049 Y35.162 Z-4.359
N14025 X-4.487 Y35.081 Z-4.241
N14030 X-4.706 Y35.039 Z-4.184
N14035 X-5.143 Y34.954 Z-4.078
N14040 X-5.581 Y34.868 Z-3.978
N14045 X-6.019 Y34.781 Z-3.887
N14050 X-6.456 Y34.694 Z-3.803
N14055 X-6.894 Y34.608 Z-3.726
N14060 X-7.332 Y34.524 Z-3.656
N14065 X-7.77 Y34.442 Z-3.593
N14070 X-8.207 Y34.363 Z-3.536
N14075 X-8.645 Y34.287 Z-3.484
N14080 X-9.083 Y34.214 Z-3.438
N14085 X-9.52 Y34.145 Z-3.398
N14090 X-9.958 Y34.081 Z-3.362
N14095 X-10.396 Y34.021 Z-3.33
N14100 X-10.834 Y33.965 Z-3.302
N14105 X-11.271 Y33.914 Z-3.278
N14110 X-11.709 Y33.869 Z-3.257
N14115 X-11.928 Y33.848 Z-3.248
N14120 X-12.366 Y33.81 Z-3.232
N14125 X-12.803 Y33.779 Z-3.219
N14130 X-13.241 Y33.752 Z-3.208
N14135 X-13.46 Y33.736 Z-3.202
N14140 X-13.679 Y33.701 Z-3.193
N14145 X-13.898 Y33.633 Z-3.189
N14150 X-13.99 Y33.595 Z-3.19
N14155 X-14.117 Y33.531 Z-3.192
N14160 X-14.335 Y33.373 Z-3.201
N14165 X-14.586 Y33.157 Z-3.211
N14170 X-14.833 Y32.939 Z-3.219
N14175 X-15.211 Y32.612 Z-3.234
N14180 X-15.43 Y32.428 Z-3.245
N14185 X-15.649 Y32.246 Z-3.256
N14190 X-15.873 Y32.063 Z-3.269
N14195 X-16.144 Y31.844 Z-3.287
N14200 X-16.524 Y31.546 Z-3.315
N14205 X-16.743 Y31.377 Z-3.332
N14210 X-17.181 Y31.047 Z-3.373
N14215 X-17.399 Y30.884 Z-3.395
N14220 X-17.618 Y30.723 Z-3.419
N14225 X-17.883 Y30.531 Z-3.451
N14230 X-18.275 Y30.251 Z-3.501
N14235 X-18.498 Y30.093 Z-3.533
N14240 X-18.931 Y29.792 Z-3.601
N14245 X-19.15 Y29.642 Z-3.638
N14250 X-19.451 Y29.437 Z-3.692
N14255 X-19.807 Y29.197 Z-3.763
N14260 X-20.102 Y28.999 Z-3.827
N14265 X-20.463 Y28.758 Z-3.911
N14270 X-20.758 Y28.561 Z-3.985
N14275 X-21.12 Y28.32 Z-4.083
N14280 X-21.412 Y28.124 Z-4.168
N14285 X-21.777 Y27.876 Z-4.281
N14290 X-22.054 Y27.686 Z-4.373
N14295 X-22.367 Y27.467 Z-4.482
N14300 X-22.671 Y27.248 Z-4.589
N14305 X-22.871 Y27.094 Z-4.651
N14310 X-23.09 Y26.91 Z-4.702
N14315 X-23.201 Y26.81 Z-4.719
N14320 X-23.309 Y26.705 Z-4.722
N14325 X-23.42 Y26.592 Z-4.718
N14330 X-23.844 Y26.154 Z-4.699
N14335 X-24.272 Y25.716 Z-4.685
N14340 X-24.622 Y25.363 Z-4.679
N14345 X-25.143 Y24.841 Z-4.678
N14350 X-25.584 Y24.403 Z-4.683
N14355 X-26.03 Y23.965 Z-4.695
N14360 X-26.373 Y23.632 Z-4.709
N14365 X-26.592 Y23.421 Z-4.72
N14370 X-26.706 Y23.309 Z-4.723
N14375 X-26.81 Y23.2 Z-4.717
N14380 X-26.908 Y23.09 Z-4.699
N14385 X-27.092 Y22.871 Z-4.649
N14390 X-27.26 Y22.652 Z-4.58
N14395 X-27.467 Y22.364 Z-4.478
N14400 X-27.724 Y21.995 Z-4.351
N14405 X-27.905 Y21.732 Z-4.265
N14410 X-28.171 Y21.339 Z-4.145
N14415 X-28.342 Y21.084 Z-4.072
N14420 X-28.561 Y20.756 Z-3.984
N14425 X-28.78 Y20.428 Z-3.901
N14430 X-28.999 Y20.101 Z-3.826
N14435 X-29.218 Y19.774 Z-3.755
N14440 X-29.437 Y19.45 Z-3.692
N14445 X-29.656 Y19.128 Z-3.633
N14450 X-29.874 Y18.811 Z-3.58
N14455 X-30.095 Y18.494 Z-3.532
N14460 X-30.406 Y18.056 Z-3.472
N14465 X-30.563 Y17.837 Z-3.445
N14470 X-30.75 Y17.58 Z-3.415
N14475 X-31.046 Y17.181 Z-3.373
N14480 X-31.377 Y16.743 Z-3.332
N14485 X-31.625 Y16.421 Z-3.306
N14490 X-31.89 Y16.086 Z-3.282
N14495 X-32.245 Y15.649 Z-3.256
N14500 X-32.501 Y15.342 Z-3.24
N14505 X-32.72 Y15.085 Z-3.229
N14510 X-32.991 Y14.773 Z-3.217
N14515 X-33.184 Y14.554 Z-3.21
N14520 X-33.376 Y14.331 Z-3.201
N14525 X-33.53 Y14.117 Z-3.192
N14530 X-33.595 Y13.99 Z-3.19
N14535 X-33.633 Y13.898 Z-3.189
N14540 X-33.701 Y13.679 Z-3.193
N14545 X-33.735 Y13.46 Z-3.202
N14550 X-33.752 Y13.241 Z-3.208
N14555 X-33.778 Y12.803 Z-3.219
N14560 X-33.814 Y12.322 Z-3.233
N14565 X-33.848 Y11.928 Z-3.248
N14570 X-33.891 Y11.49 Z-3.267
N14575 X-33.939 Y11.052 Z-3.289
N14580 X-33.992 Y10.615 Z-3.315
N14585 X-34.05 Y10.177 Z-3.345
N14590 X-34.113 Y9.739 Z-3.379
N14595 X-34.18 Y9.302 Z-3.418
N14600 X-34.252 Y8.86 Z-3.462
N14605 X-34.325 Y8.426 Z-3.51
N14610 X-34.403 Y7.988 Z-3.564
N14615 X-34.471 Y7.622 Z-3.614
N14620 X-34.525 Y7.332 Z-3.657
N14625 X-34.609 Y6.894 Z-3.727
N14630 X-34.695 Y6.456 Z-3.804
N14635 X-34.782 Y6.019 Z-3.888
N14640 X-34.869 Y5.581 Z-3.98
N14645 X-34.956 Y5.143 Z-4.08
N14650 X-35.041 Y4.706 Z-4.187
N14655 X-35.124 Y4.268 Z-4.302
N14660 X-35.203 Y3.83 Z-4.423
N14665 X-35.241 Y3.611 Z-4.485
N14670 X-35.275 Y3.392 Z-4.547
N14675 X-35.306 Y3.173 Z-4.604
N14680 X-35.332 Y2.955 Z-4.653
N14685 X-35.352 Y2.736 Z-4.694
N14690 X-35.365 Y2.517 Z-4.723
N14695 X-35.364 Y2.298 Z-4.72
N14700 X-35.353 Y1.641 Z-4.697
N14705 X-35.345 Y0.985 Z-4.681
N14710 X-35.342 Y0.547 Z-4.675
N14715 Y0.328 Z-4.674
N14720 Y-0.328
N14725 X-35.344 Y-0.766 Z-4.678
N14730 X-35.348 Y-1.204 Z-4.686
N14735 X-35.357 Y-1.86 Z-4.705
N14740 X-35.365 Y-2.298 Z-4.722
N14745 Y-2.517 Z-4.723
N14750 X-35.35 Y-2.736 Z-4.691
N14755 X-35.33 Y-2.955 Z-4.651
N14760 X-35.305 Y-3.173 Z-4.601
N14765 X-35.274 Y-3.392 Z-4.544
N14770 X-35.239 Y-3.611 Z-4.482
N14775 X-35.162 Y-4.049 Z-4.359
N14780 X-35.081 Y-4.487 Z-4.241
N14785 X-34.997 Y-4.924 Z-4.13
N14790 X-34.911 Y-5.362 Z-4.027
N14795 X-34.824 Y-5.8 Z-3.932
N14800 X-34.737 Y-6.238 Z-3.844
N14805 X-34.651 Y-6.675 Z-3.763
N14810 X-34.608 Y-6.894 Z-3.726
N14815 X-34.52 Y-7.352 Z-3.653
N14820 X-34.442 Y-7.77 Z-3.593
N14825 X-34.363 Y-8.207 Z-3.536
N14830 X-34.287 Y-8.645 Z-3.484
N14835 X-34.259 Y-8.811 Z-3.467
N14840 X-34.241 Y-9.001 Z-3.455
N14845 X-34.24 Y-9.097 Z-3.454
N14850 X-34.244 Y-9.193 Z-3.457
N14855 X-34.261 Y-9.386 Z-3.468
N14860 X-34.312 Y-9.769 Z-3.501
N14865 X-34.332 Y-9.962 Z-3.515
N14870 X-34.34 Y-10.155 Z-3.52
N14875 X-34.337 Y-10.252 Z-3.518
N14880 X-34.328 Y-10.347 Z-3.512
N14885 X-34.269 Y-10.834 Z-3.473
N14890 X-34.221 Y-11.271 Z-3.443
N14895 X-34.178 Y-11.709 Z-3.417
N14900 X-34.139 Y-12.147 Z-3.394
N14905 X-34.106 Y-12.584 Z-3.376
N14910 X-34.079 Y-13.022 Z-3.361
N14915 X-34.053 Y-13.46 Z-3.347
N14920 X-34.033 Y-13.642 Z-3.339
N14925 X-34.025 Y-13.679 Z-3.337
N14930 X-33.973 Y-13.898 Z-3.332
N14935 X-33.886 Y-14.117 Z-3.33
N14940 X-33.814 Y-14.258 Z-3.333
N14945 X-33.769 Y-14.335 Z-3.336
N14950 X-33.595 Y-14.563 Z-3.347
N14955 X-33.157 Y-15.058 Z-3.368
N14960 X-32.834 Y-15.43 Z-3.387
N14965 X-32.648 Y-15.649 Z-3.401
N14970 X-32.464 Y-15.867 Z-3.415
N14975 X-32.282 Y-16.089 Z-3.432
N14980 X-32.063 Y-16.357 Z-3.453
N14985 X-31.756 Y-16.743 Z-3.489
N14990 X-31.585 Y-16.962 Z-3.511
N14995 X-31.406 Y-17.193 Z-3.537
N15000 X-31.188 Y-17.48 Z-3.571
N15005 X-30.92 Y-17.837 Z-3.618
N15010 X-30.75 Y-18.065 Z-3.65
N15015 X-30.531 Y-18.363 Z-3.696
N15020 X-30.277 Y-18.713 Z-3.754
N15025 X-30.093 Y-18.968 Z-3.801
N15030 X-29.808 Y-19.369 Z-3.88
N15035 X-29.654 Y-19.588 Z-3.926
N15040 X-29.437 Y-19.896 Z-3.996
N15045 X-29.193 Y-20.245 Z-4.082
N15050 X-28.999 Y-20.521 Z-4.154
N15055 X-28.733 Y-20.901 Z-4.262
N15060 X-28.561 Y-21.144 Z-4.336
N15065 X-28.342 Y-21.452 Z-4.434
N15070 X-28.108 Y-21.777 Z-4.544
N15075 X-27.905 Y-22.055 Z-4.644
N15080 X-27.686 Y-22.349 Z-4.755
N15085 X-27.455 Y-22.652 Z-4.873
N15090 X-27.278 Y-22.871 Z-4.95
N15095 X-27.088 Y-23.09 Z-5.006
N15100 X-27.029 Y-23.156 Z-5.021
N15105 X-26.888 Y-23.309 Z-5.044
N15110 X-26.81 Y-23.386
N15115 X-26.592 Y-23.6 Z-5.035
N15120 X-26.154 Y-24.028 Z-5.015
N15125 X-25.716 Y-24.46 Z-5.002
N15130 X-25.278 Y-24.895 Z-4.997
N15135 X-24.841 Y-25.333 Z-4.998
N15140 X-24.403 Y-25.774 Z-5.004
N15145 X-24.029 Y-26.154 Z-5.015
N15150 X-23.746 Y-26.442 Z-5.028
N15155 X-23.528 Y-26.667 Z-5.041
N15160 X-23.386 Y-26.81 Z-5.045
N15165 X-23.309 Y-26.887 Z-5.043
N15170 X-23.154 Y-27.029 Z-5.018
N15175 X-23.09 Y-27.087 Z-5.004
N15180 X-22.871 Y-27.277 Z-4.947
N15185 X-22.634 Y-27.467 Z-4.863
N15190 X-22.347 Y-27.686 Z-4.751
N15195 X-21.995 Y-27.947 Z-4.62
N15200 X-21.754 Y-28.124 Z-4.535
N15205 X-21.451 Y-28.342 Z-4.433
N15210 X-21.12 Y-28.577 Z-4.327
N15215 X-20.832 Y-28.78 Z-4.241
N15220 X-20.463 Y-29.039 Z-4.138
N15225 X-20.208 Y-29.218 Z-4.071
N15230 X-19.807 Y-29.499 Z-3.975
N15235 X-19.584 Y-29.656 Z-3.924
N15240 X-19.275 Y-29.874 Z-3.86
N15245 X-18.931 Y-30.119 Z-3.793
N15250 X-18.663 Y-30.312 Z-3.745
N15255 X-18.275 Y-30.595 Z-3.682
N15260 X-18.056 Y-30.756 Z-3.649
N15265 X-17.77 Y-30.969 Z-3.609
N15270 X-17.399 Y-31.248 Z-3.561
N15275 X-17.181 Y-31.416 Z-3.536
N15280 X-16.91 Y-31.625 Z-3.506
N15285 X-16.524 Y-31.929 Z-3.468
N15290 X-16.305 Y-32.105 Z-3.449
N15295 X-16.086 Y-32.283 Z-3.431
N15300 X-15.823 Y-32.501 Z-3.412
N15305 X-15.563 Y-32.72 Z-3.395
N15310 X-15.211 Y-33.023 Z-3.376
N15315 X-14.811 Y-33.376 Z-3.358
N15320 X-14.554 Y-33.602 Z-3.346
N15325 X-14.335 Y-33.769 Z-3.336
N15330 X-14.258 Y-33.814 Z-3.333
N15335 X-14.117 Y-33.886 Z-3.33
N15340 X-13.898 Y-33.973 Z-3.332
N15345 X-13.679 Y-34.025 Z-3.337
N15350 X-13.641 Y-34.033 Z-3.339
N15355 X-13.46 Y-34.052 Z-3.346
N15360 X-12.803 Y-34.092 Z-3.367
N15365 X-12.366 Y-34.122 Z-3.384
N15370 X-11.928 Y-34.158 Z-3.405
N15375 X-11.49 Y-34.199 Z-3.429
N15380 X-10.987 Y-34.252 Z-3.462
N15385 X-10.615 Y-34.295 Z-3.49
N15390 X-10.177 Y-34.35 Z-3.526
N15395 X-9.739 Y-34.409 Z-3.568
N15400 X-9.302 Y-34.471 Z-3.614
N15405 X-8.864 Y-34.538 Z-3.667
N15410 X-8.426 Y-34.606 Z-3.724
N15415 X-7.988 Y-34.678 Z-3.787
N15420 X-7.551 Y-34.752 Z-3.858
N15425 X-7.113 Y-34.827 Z-3.934
N15430 X-6.675 Y-34.904 Z-4.018
N15435 X-6.238 Y-34.981 Z-4.11
N15440 X-5.8 Y-35.058 Z-4.209
N15445 X-5.362 Y-35.133 Z-4.315
N15450 X-4.924 Y-35.207 Z-4.429
N15455 X-4.706 Y-35.242 Z-4.489
N15460 X-4.268 Y-35.311 Z-4.614
N15465 X-3.83 Y-35.375 Z-4.745
N15470 X-3.611 Y-35.405 Z-4.811
N15475 X-3.392 Y-35.431 Z-4.874
N15480 X-3.173 Y-35.454 Z-4.931
N15485 X-2.955 Y-35.472 Z-4.98
N15490 X-2.736 Y-35.486 Z-5.019
N15495 X-2.517 Y-35.495 Z-5.047
N15500 X-2.298 Y-35.493 Z-5.041
N15505 X-1.641 Y-35.485 Z-5.017
N15510 X-0.985 Y-35.479 Z-5.
N15515 X-0.547 Y-35.477 Z-4.994
N15520 X-0.328 Y-35.476 Z-4.992
N15525 X0.328
N15530 X0.766 Y-35.478 Z-4.997
N15535 X1.204 Y-35.481 Z-5.005
N15540 X1.641 Y-35.485 Z-5.017
N15545 X2.298 Y-35.494 Z-5.043
N15550 X2.517 Y-35.495 Z-5.047
N15555 X2.736 Y-35.485 Z-5.017
N15560 X2.955 Y-35.471 Z-4.978
N15565 X3.173 Y-35.453 Z-4.928
N15570 X3.392 Y-35.43 Z-4.871
N15575 X3.611 Y-35.403 Z-4.808
N15580 X4.049 Y-35.342 Z-4.675
N15585 X4.487 Y-35.276 Z-4.547
N15590 X4.924 Y-35.205 Z-4.427
N15595 X5.362 Y-35.132 Z-4.313
N15600 X5.8 Y-35.056 Z-4.207
N15605 X6.238 Y-34.98 Z-4.108
N15610 X6.675 Y-34.903 Z-4.017
N15615 X7.113 Y-34.826 Z-3.933
N15620 X7.551 Y-34.751 Z-3.857
N15625 X7.988 Y-34.677 Z-3.787
N15630 X8.426 Y-34.606 Z-3.723
N15635 X8.864 Y-34.537 Z-3.666
N15640 X9.305 Y-34.471 Z-3.614
N15645 X9.739 Y-34.408 Z-3.568
N15650 X10.177 Y-34.35 Z-3.526
N15655 X10.615 Y-34.295 Z-3.49
N15660 X11.052 Y-34.245 Z-3.457
N15665 X11.49 Y-34.199 Z-3.429
N15670 X11.928 Y-34.158 Z-3.405
N15675 X12.366 Y-34.122 Z-3.384
N15680 X12.803 Y-34.092 Z-3.368
N15685 X13.46 Y-34.053 Z-3.347
N15690 X13.642 Y-34.033 Z-3.339
N15695 X13.679 Y-34.025 Z-3.337
N15700 X13.898 Y-33.974 Z-3.332
N15705 X14.117 Y-33.886 Z-3.33
N15710 X14.258 Y-33.814 Z-3.333
N15715 X14.335 Y-33.769 Z-3.336
N15720 X14.564 Y-33.595 Z-3.347
N15725 X15.058 Y-33.157 Z-3.368
N15730 X15.308 Y-32.939 Z-3.381
N15735 X15.649 Y-32.648 Z-3.401
N15740 X15.867 Y-32.464 Z-3.415
N15745 X16.089 Y-32.282 Z-3.432
N15750 X16.357 Y-32.063 Z-3.453
N15755 X16.743 Y-31.756 Z-3.489
N15760 X16.962 Y-31.585 Z-3.511
N15765 X17.193 Y-31.406 Z-3.537
N15770 X17.48 Y-31.188 Z-3.571
N15775 X17.837 Y-30.92 Z-3.618
N15780 X18.066 Y-30.75 Z-3.651
N15785 X18.363 Y-30.531 Z-3.696
N15790 X18.713 Y-30.277 Z-3.755
N15795 X18.969 Y-30.093 Z-3.801
N15800 X19.276 Y-29.874 Z-3.86
N15805 X19.588 Y-29.654 Z-3.926
N15810 X19.896 Y-29.437 Z-3.996
N15815 X20.245 Y-29.193 Z-4.082
N15820 X20.521 Y-28.999 Z-4.154
N15825 X20.901 Y-28.733 Z-4.262
N15830 X21.144 Y-28.561 Z-4.336
N15835 X21.452 Y-28.342 Z-4.434
N15840 X21.777 Y-28.108 Z-4.544
N15845 X22.055 Y-27.905 Z-4.644
N15850 X22.349 Y-27.686 Z-4.755
N15855 X22.652 Y-27.455 Z-4.873
N15860 X22.871 Y-27.278 Z-4.95
N15865 X23.09 Y-27.088 Z-5.006
N15870 X23.156 Y-27.029 Z-5.021
N15875 X23.309 Y-26.888 Z-5.045
N15880 X23.386 Y-26.81 Z-5.044
N15885 X23.6 Y-26.592 Z-5.035
N15890 X24.028 Y-26.154 Z-5.015
N15895 X24.403 Y-25.774 Z-5.004
N15900 X24.841 Y-25.333 Z-4.997
N15905 X25.333 Y-24.841 Z-4.998
N15910 X25.774 Y-24.403 Z-5.004
N15915 X26.154 Y-24.029 Z-5.016
N15920 X26.443 Y-23.746 Z-5.029
N15925 X26.667 Y-23.528 Z-5.041
N15930 X26.81 Y-23.386 Z-5.045
N15935 X26.887 Y-23.309 Z-5.043
N15940 X27.029 Y-23.154 Z-5.018
N15945 X27.087 Y-23.09 Z-5.004
N15950 X27.277 Y-22.871 Z-4.947
N15955 X27.467 Y-22.634 Z-4.863
N15960 X27.686 Y-22.347 Z-4.751
N15965 X27.947 Y-21.995 Z-4.62
N15970 X28.124 Y-21.754 Z-4.534
N15975 X28.342 Y-21.45 Z-4.432
N15980 X28.577 Y-21.12 Z-4.327
N15985 X28.78 Y-20.832 Z-4.24
N15990 X29.039 Y-20.463 Z-4.138
N15995 X29.218 Y-20.208 Z-4.071
N16000 X29.499 Y-19.807 Z-3.975
N16005 X29.656 Y-19.584 Z-3.924
N16010 X29.874 Y-19.275 Z-3.86
N16015 X30.119 Y-18.931 Z-3.793
N16020 X30.312 Y-18.663 Z-3.745
N16025 X30.595 Y-18.275 Z-3.682
N16030 X30.756 Y-18.056 Z-3.649
N16035 X31.083 Y-17.618 Z-3.589
N16040 X31.248 Y-17.399 Z-3.561
N16045 X31.416 Y-17.181 Z-3.536
N16050 X31.625 Y-16.909 Z-3.506
