%
O01013
(Using high feed G1 F5000. instead of G0.)
(T3 D=16. CR=0. - ZMIN=-71.602 - fresa con punta plana)
N10 G90 G94 G17
N15 G21
(When using Fusion for Personal Use, the feedrate of rapid)
(moves is reduced to match the feedrate of cutting moves,)
(which can increase machining time. Unrestricted rapid moves)
(are available with a Fusion Subscription.)
N20 G53 G0 Z0.

(Adaptativo2)
N25 T3 M6
N30 S5000 M3
N35 G17 G90 G94
N40 G54
N45 M8
N50 G1 X-61.636 Y-78.252 F5000.
N55 G0 G43 Z15. H3
N60 G1 Z5. F1000.
N65 Z-8.748
N70 Z-10.348
N75 X-61.634 Y-78.244 Z-10.505
N80 X-61.628 Y-78.222 Z-10.66
N85 X-61.619 Y-78.185 Z-10.813
N90 X-61.606 Y-78.134 Z-10.961
N95 X-61.589 Y-78.069 Z-11.103
N100 X-61.569 Y-77.99 Z-11.237
N105 X-61.546 Y-77.9 Z-11.363
N110 X-61.52 Y-77.798 Z-11.48
N115 X-61.491 Y-77.685 Z-11.585
N120 X-61.46 Y-77.563 Z-11.679
N125 X-61.426 Y-77.432 Z-11.759
N130 X-61.391 Y-77.295 Z-11.826
N135 X-61.354 Y-77.152 Z-11.879
N140 X-61.317 Y-77.004 Z-11.918
N145 X-61.278 Y-76.854 Z-11.941
N150 X-61.239 Y-76.702 Z-11.948
N155 G3 X-59.986 Y-67.991 I-39.57 J10.136
N160 G1 Y-67.841
N165 X-60.275 Y-66.419
N170 X-60.511 Y-64.988
N175 X-60.706 Y-63.55
N180 X-60.865 Y-62.108
N185 X-60.995 Y-60.663
N190 X-61.102 Y-59.216
N195 X-61.189 Y-57.768
N200 X-61.261 Y-56.319
N205 X-61.319 Y-54.869
N210 X-61.366 Y-53.419
N215 X-61.405 Y-51.969
N220 X-61.437 Y-50.518
N225 X-61.463 Y-49.068
N230 X-61.484 Y-47.617
N235 X-61.501 Y-46.166
N240 X-61.515 Y-44.716
N245 X-61.527 Y-43.265
N250 X-61.536 Y-41.814
N255 X-61.544 Y-40.363
N260 X-61.55 Y-38.912
N265 X-61.56 Y-36.011
N270 X-61.566 Y-33.109
N275 X-61.572 Y-28.757
N280 X-61.576 Y-22.953
N285 X-61.578 Y-17.15
N290 X-61.582 Y8.965
N295 X-61.584 Y33.629
N300 X-61.586 Y52.49
N305 X-61.528 Y52.848
N310 X-61.16 Y54.251
N315 X-60.375 Y55.471
N320 X-59.364 Y56.511
N325 X-58.208 Y57.389
N330 X-56.957 Y58.123
N335 X-55.641 Y58.735
N340 X-54.282 Y59.242
N345 X-52.893 Y59.661
N350 X-51.484 Y60.007
N355 X-50.062 Y60.292
N360 X-48.63 Y60.526
N365 X-47.192 Y60.718
N370 X-45.749 Y60.875
N375 X-44.304 Y61.004
N380 X-42.857 Y61.109
N385 X-41.409 Y61.196
N390 X-39.96 Y61.266
N395 X-38.51 Y61.323
N400 X-37.06 Y61.37
N405 X-35.61 Y61.409
N410 X-34.159 Y61.44
N415 X-32.709 Y61.466
N420 X-31.258 Y61.487
N425 X-29.807 Y61.504
N430 X-28.357 Y61.518
N435 X-26.906 Y61.529
N440 X-25.455 Y61.538
N445 X-24.004 Y61.546
N450 X-22.553 Y61.552
N455 X-19.652 Y61.561
N460 X-16.75 Y61.568
N465 X-12.398 Y61.573
N470 X-6.594 Y61.577
N475 X5.012 Y61.581
N480 X18.07 Y61.582
N485 X52.89 Y61.586
N490 X54.283 Y61.183
N495 X55.499 Y60.391
N500 X56.535 Y59.375
N505 X57.408 Y58.217
N510 X58.139 Y56.963
N515 X58.748 Y55.646
N520 X59.253 Y54.286
N525 X59.671 Y52.897
N530 X60.015 Y51.488
N535 X60.298 Y50.065
N540 X60.531 Y48.633
N545 X60.722 Y47.194
N550 X60.879 Y45.752
N555 X61.007 Y44.307
N560 X61.112 Y42.86
N565 X61.197 Y41.412
N570 X61.268 Y39.962
N575 X61.325 Y38.513
N580 X61.371 Y37.063
N585 X61.41 Y35.612
N590 X61.441 Y34.162
N595 X61.466 Y32.711
N600 X61.487 Y31.261
N605 X61.504 Y29.81
N610 X61.518 Y28.359
N615 X61.529 Y26.908
N620 X61.538 Y25.458
N625 X61.546 Y24.007
N630 X61.552 Y22.556
N635 X61.561 Y19.654
N640 X61.568 Y16.753
N645 X61.573 Y12.4
N650 X61.577 Y6.597
N655 X61.58 Y-2.108
N660 X61.586 Y-52.887
N665 X61.184 Y-54.281
N670 X60.392 Y-55.497
N675 X59.377 Y-56.533
N680 X58.218 Y-57.407
N685 X56.965 Y-58.138
N690 X55.649 Y-58.747
N695 X54.289 Y-59.252
N700 X52.899 Y-59.67
N705 X51.49 Y-60.014
N710 X50.067 Y-60.298
N715 X48.635 Y-60.531
N720 X47.197 Y-60.722
N725 X45.754 Y-60.879
N730 X44.309 Y-61.007
N735 X42.862 Y-61.112
N740 X41.414 Y-61.197
N745 X39.965 Y-61.267
N750 X38.515 Y-61.325
N755 X37.065 Y-61.371
N760 X35.615 Y-61.41
N765 X34.164 Y-61.441
N770 X32.714 Y-61.466
N775 X31.263 Y-61.487
N780 X29.812 Y-61.504
N785 X28.361 Y-61.518
N790 X26.911 Y-61.529
N795 X25.46 Y-61.538
N800 X24.009 Y-61.546
N805 X22.558 Y-61.552
N810 X19.657 Y-61.561
N815 X16.755 Y-61.568
N820 X13.853 Y-61.572
N825 X8.05 Y-61.577
N830 X-2.106 Y-61.58
N835 X-36.926 Y-61.584
N840 X-45.631 Y-61.585
N845 X-47.063 Y-61.354
N850 X-48.347 Y-60.678
N855 X-49.459 Y-59.746
N860 X-50.409 Y-58.65
N865 X-51.213 Y-57.442
N870 X-51.889 Y-56.158
N875 X-52.454 Y-54.822
N880 X-52.927 Y-53.45
N885 X-53.319 Y-52.054
N890 X-53.645 Y-50.64
N895 X-53.915 Y-49.214
N900 X-54.138 Y-47.781
N905 X-54.322 Y-46.342
N910 X-54.474 Y-44.899
N915 X-54.599 Y-43.454
N920 X-54.703 Y-42.006
N925 X-54.787 Y-40.558
N930 X-54.857 Y-39.109
N935 X-54.915 Y-37.659
N940 X-54.962 Y-36.209
N945 X-55.001 Y-34.759
N950 X-55.033 Y-33.308
N955 X-55.059 Y-31.858
N960 X-55.08 Y-30.407
N965 X-55.098 Y-28.956
N970 X-55.113 Y-27.506
N975 X-55.125 Y-26.055
N980 X-55.134 Y-24.604
N985 X-55.142 Y-23.153
N990 X-55.149 Y-21.702
N995 X-55.159 Y-18.801
N1000 X-55.166 Y-15.899
N1005 X-55.172 Y-11.547
N1010 X-55.177 Y-5.743
N1015 X-55.18 Y4.412
N1020 X-55.183 Y27.626
N1025 X-55.185 Y43.585
N1030 X-55.041 Y45.028
N1035 X-54.561 Y46.398
N1040 X-53.818 Y47.644
N1045 X-52.882 Y48.752
N1050 X-51.803 Y49.722
N1055 X-50.62 Y50.562
N1060 X-49.362 Y51.284
N1065 X-48.049 Y51.901
N1070 X-46.696 Y52.426
N1075 X-45.315 Y52.872
N1080 X-43.914 Y53.247
N1085 X-42.498 Y53.564
N1090 X-41.072 Y53.831
N1095 X-39.638 Y54.054
N1100 X-38.2 Y54.242
N1105 X-36.757 Y54.398
N1110 X-35.313 Y54.529
N1115 X-33.866 Y54.639
N1120 X-32.418 Y54.73
N1125 X-30.969 Y54.806
N1130 X-29.52 Y54.869
N1135 X-28.07 Y54.922
N1140 X-26.62 Y54.966
N1145 X-25.169 Y55.002
N1150 X-23.719 Y55.033
N1155 X-22.268 Y55.058
N1160 X-20.817 Y55.079
N1165 X-19.367 Y55.096
N1170 X-17.916 Y55.111
N1175 X-16.465 Y55.123
N1180 X-15.014 Y55.133
N1185 X-13.564 Y55.141
N1190 X-12.113 Y55.148
N1195 X-9.211 Y55.158
N1200 X-6.309 Y55.165
N1205 X-1.957 Y55.172
N1210 X3.846 Y55.177
N1215 X14.002 Y55.181
N1220 X25.609 Y55.183
N1225 X43.019 Y55.185
N1230 X44.47 Y55.183
N1235 X45.876 Y54.827
N1240 X47.173 Y54.177
N1245 X48.336 Y53.309
N1250 X49.359 Y52.28
N1255 X50.248 Y51.134
N1260 X51.016 Y49.903
N1265 X51.672 Y48.609
N1270 X52.232 Y47.271
N1275 X52.707 Y45.9
N1280 X53.109 Y44.506
N1285 X53.447 Y43.095
N1290 X53.732 Y41.672
N1295 X53.972 Y40.242
N1300 X54.173 Y38.805
N1305 X54.341 Y37.364
N1310 X54.481 Y35.92
N1315 X54.599 Y34.474
N1320 X54.697 Y33.026
N1325 X54.778 Y31.577
N1330 X54.846 Y30.128
N1335 X54.903 Y28.679
N1340 X54.95 Y27.228
N1345 X54.989 Y25.778
N1350 X55.022 Y24.328
N1355 X55.049 Y22.877
N1360 X55.071 Y21.426
N1365 X55.09 Y19.976
N1370 X55.105 Y18.525
N1375 X55.118 Y17.074
N1380 X55.129 Y15.623
N1385 X55.138 Y14.173
N1390 X55.145 Y12.722
N1395 X55.151 Y11.271
N1400 X55.161 Y8.369
N1405 X55.167 Y5.468
N1410 X55.173 Y1.115
N1415 X55.178 Y-4.688
N1420 X55.181 Y-14.844
N1425 X55.183 Y-23.549
N1430 X55.185 Y-43.86
N1435 X54.978 Y-45.296
N1440 X54.444 Y-46.645
N1445 X53.66 Y-47.867
N1450 X52.694 Y-48.948
N1455 X51.592 Y-49.893
N1460 X50.393 Y-50.71
N1465 X49.123 Y-51.411
N1470 X47.802 Y-52.01
N1475 X46.443 Y-52.519
N1480 X45.058 Y-52.95
N1485 X43.653 Y-53.314
N1490 X42.235 Y-53.62
N1495 X40.808 Y-53.878
N1500 X39.373 Y-54.094
N1505 X37.933 Y-54.275
N1510 X36.491 Y-54.426
N1515 X35.045 Y-54.553
N1520 X33.598 Y-54.658
N1525 X32.15 Y-54.746
N1530 X30.701 Y-54.82
N1535 X29.252 Y-54.881
N1540 X27.802 Y-54.932
N1545 X26.351 Y-54.974
N1550 X24.901 Y-55.009
N1555 X23.45 Y-55.038
N1560 X22. Y-55.062
N1565 X20.549 Y-55.083
N1570 X19.098 Y-55.099
N1575 X17.648 Y-55.113
N1580 X16.197 Y-55.125
N1585 X14.746 Y-55.134
N1590 X13.295 Y-55.142
N1595 X11.844 Y-55.149
N1600 X8.943 Y-55.159
N1605 X6.041 Y-55.166
N1610 X1.689 Y-55.173
N1615 X-4.115 Y-55.178
N1620 X-14.27 Y-55.181
N1625 X-21.525 Y-55.183
N1630 X-37.484 Y-55.184
N1635 X-38.91 Y-54.917
N1640 X-40.243 Y-54.345
N1645 X-41.45 Y-53.54
N1650 X-42.521 Y-52.561
N1655 X-43.457 Y-51.453
N1660 X-44.269 Y-50.251
N1665 X-44.967 Y-48.979
N1670 X-45.565 Y-47.657
N1675 X-46.074 Y-46.298
N1680 X-46.506 Y-44.913
N1685 X-46.872 Y-43.509
N1690 X-47.181 Y-42.092
N1695 X-47.441 Y-40.664
N1700 X-47.66 Y-39.23
N1705 X-47.844 Y-37.791
N1710 X-47.998 Y-36.348
N1715 X-48.128 Y-34.903
N1720 X-48.236 Y-33.457
N1725 X-48.326 Y-32.009
N1730 X-48.402 Y-30.56
N1735 X-48.465 Y-29.11
N1740 X-48.518 Y-27.66
N1745 X-48.562 Y-26.21
N1750 X-48.598 Y-24.76
N1755 X-48.629 Y-23.309
N1760 X-48.654 Y-21.859
N1765 X-48.676 Y-20.408
N1770 X-48.693 Y-18.957
N1775 X-48.708 Y-17.507
N1780 X-48.72 Y-16.056
N1785 X-48.73 Y-14.605
N1790 X-48.739 Y-13.154
N1795 X-48.746 Y-11.703
N1800 X-48.757 Y-8.802
N1805 X-48.764 Y-5.9
N1810 X-48.772 Y-1.548
N1815 X-48.777 Y4.256
N1820 X-48.781 Y12.961
N1825 X-48.783 Y26.018
N1830 X-48.784 Y36.174
N1835 X-48.626 Y37.616
N1840 X-48.188 Y38.999
N1845 X-47.509 Y40.281
N1850 X-46.637 Y41.441
N1855 X-45.618 Y42.473
N1860 X-44.487 Y43.382
N1865 X-43.271 Y44.174
N1870 X-41.993 Y44.86
N1875 X-40.668 Y45.451
N1880 X-39.309 Y45.958
N1885 X-37.924 Y46.392
N1890 X-36.521 Y46.762
N1895 X-35.105 Y47.077
N1900 X-33.679 Y47.344
N1905 X-32.246 Y47.57
N1910 X-30.808 Y47.762
N1915 X-29.366 Y47.924
N1920 X-27.922 Y48.061
N1925 X-26.475 Y48.176
N1930 X-25.028 Y48.273
N1935 X-23.579 Y48.355
N1940 X-22.13 Y48.423
N1945 X-20.68 Y48.481
N1950 X-19.23 Y48.53
N1955 X-17.78 Y48.57
N1960 X-16.33 Y48.605
N1965 X-14.879 Y48.633
N1970 X-13.429 Y48.657
N1975 X-11.978 Y48.678
N1980 X-10.527 Y48.695
N1985 X-9.076 Y48.709
N1990 X-7.626 Y48.721
N1995 X-6.175 Y48.731
N2000 X-4.724 Y48.739
N2005 X-3.273 Y48.746
N2010 X-0.372 Y48.757
N2015 X2.53 Y48.764
N2020 X6.883 Y48.772
N2025 X12.686 Y48.777
N2030 X21.391 Y48.781
N2035 X35.899 Y48.784
N2040 X37.346 Y48.683
N2045 X38.746 Y48.299
N2050 X40.05 Y47.664
N2055 X41.234 Y46.826
N2060 X42.291 Y45.833
N2065 X43.223 Y44.72
N2070 X44.036 Y43.519
N2075 X44.741 Y42.251
N2080 X45.349 Y40.933
N2085 X45.871 Y39.58
N2090 X46.318 Y38.199
N2095 X46.699 Y36.799
N2100 X47.023 Y35.385
N2105 X47.299 Y33.961
N2110 X47.532 Y32.529
N2115 X47.73 Y31.092
N2120 X47.897 Y29.65
N2125 X48.038 Y28.207
N2130 X48.157 Y26.761
N2135 X48.257 Y25.313
N2140 X48.341 Y23.865
N2145 X48.412 Y22.416
N2150 X48.472 Y20.966
N2155 X48.522 Y19.516
N2160 X48.564 Y18.066
N2165 X48.599 Y16.616
N2170 X48.629 Y15.165
N2175 X48.654 Y13.714
N2180 X48.674 Y12.264
N2185 X48.692 Y10.813
N2190 X48.706 Y9.362
N2195 X48.719 Y7.911
N2200 X48.729 Y6.461
N2205 X48.738 Y5.01
N2210 X48.745 Y3.559
N2215 X48.751 Y2.108
N2220 X48.76 Y-0.793
N2225 X48.767 Y-3.695
N2230 X48.773 Y-8.048
N2235 X48.778 Y-13.851
N2240 X48.782 Y-24.007
N2245 X48.784 Y-35.613
N2250 X48.729 Y-37.063
N2255 X48.397 Y-38.475
N2260 X47.806 Y-39.8
N2265 X47.003 Y-41.009
N2270 X46.036 Y-42.091
N2275 X44.944 Y-43.046
N2280 X43.758 Y-43.881
N2285 X42.502 Y-44.607
N2290 X41.193 Y-45.233
N2295 X39.846 Y-45.772
N2300 X38.471 Y-46.233
N2305 X37.074 Y-46.627
N2310 X35.663 Y-46.962
N2315 X34.24 Y-47.247
N2320 X32.809 Y-47.488
N2325 X31.373 Y-47.693
N2330 X29.933 Y-47.865
N2335 X28.489 Y-48.011
N2340 X27.043 Y-48.134
N2345 X25.596 Y-48.238
N2350 X24.148 Y-48.325
N2355 X22.699 Y-48.399
N2360 X21.25 Y-48.461
N2365 X19.8 Y-48.512
N2370 X18.35 Y-48.556
N2375 X16.899 Y-48.593
N2380 X15.449 Y-48.623
N2385 X13.998 Y-48.649
N2390 X12.547 Y-48.671
N2395 X11.097 Y-48.689
N2400 X9.646 Y-48.704
N2405 X8.195 Y-48.716
N2410 X6.744 Y-48.727
N2415 X5.294 Y-48.736
N2420 X3.843 Y-48.744
N2425 X2.392 Y-48.75
N2430 X-0.51 Y-48.759
N2435 X-3.411 Y-48.766
N2440 X-7.764 Y-48.773
N2445 X-9.215 Y-48.775
N2450 X-16.469 Y-48.78
N2455 X-29.526 Y-48.783
N2460 X-30.971 Y-48.647
N2465 X-32.362 Y-48.236
N2470 X-33.657 Y-47.582
N2475 X-34.833 Y-46.733
N2480 X-35.883 Y-45.731
N2485 X-36.809 Y-44.614
N2490 X-37.618 Y-43.41
N2495 X-38.321 Y-42.141
N2500 X-38.927 Y-40.823
N2505 X-39.449 Y-39.469
N2510 X-39.896 Y-38.089
N2515 X-40.278 Y-36.689
N2520 X-40.603 Y-35.275
N2525 X-40.879 Y-33.851
N2530 X-41.114 Y-32.419
N2535 X-41.313 Y-30.982
N2540 X-41.481 Y-29.541
N2545 X-41.623 Y-28.097
N2550 X-41.744 Y-26.651
N2555 X-41.845 Y-25.204
N2560 X-41.93 Y-23.756
N2565 X-42.003 Y-22.307
N2570 X-42.063 Y-20.857
N2575 X-42.114 Y-19.407
N2580 X-42.157 Y-17.957
N2585 X-42.193 Y-16.507
N2590 X-42.223 Y-15.056
N2595 X-42.249 Y-13.605
N2600 X-42.27 Y-12.155
N2605 X-42.288 Y-10.704
N2610 X-42.303 Y-9.253
N2615 X-42.316 Y-7.802
N2620 X-42.327 Y-6.352
N2625 X-42.336 Y-4.901
N2630 X-42.343 Y-3.45
N2635 X-42.349 Y-1.999
N2640 X-42.359 Y0.902
N2645 X-42.366 Y3.804
N2650 X-42.373 Y8.156
N2655 X-42.378 Y13.96
N2660 X-42.382 Y24.116
N2665 X-42.383 Y27.017
N2670 Y28.468
N2675 X-42.334 Y29.918
N2680 X-42.044 Y31.34
N2685 X-41.508 Y32.688
N2690 X-40.761 Y33.931
N2695 X-39.845 Y35.056
N2700 X-38.796 Y36.059
N2705 X-37.646 Y36.944
N2710 X-36.42 Y37.719
N2715 X-35.135 Y38.393
N2720 X-33.807 Y38.977
N2725 X-32.446 Y39.48
N2730 X-31.061 Y39.913
N2735 X-29.659 Y40.284
N2740 X-28.243 Y40.601
N2745 X-26.818 Y40.871
N2750 X-25.385 Y41.102
N2755 X-23.948 Y41.298
N2760 X-22.507 Y41.465
N2765 X-21.063 Y41.607
N2770 X-19.617 Y41.727
N2775 X-18.17 Y41.829
N2780 X-16.721 Y41.915
N2785 X-15.272 Y41.988
N2790 X-13.823 Y42.049
N2795 X-12.373 Y42.101
N2800 X-10.923 Y42.145
N2805 X-9.472 Y42.183
N2810 X-8.022 Y42.214
N2815 X-6.571 Y42.24
N2820 X-5.121 Y42.263
N2825 X-3.67 Y42.282
N2830 X-2.219 Y42.298
N2835 X-0.769 Y42.311
N2840 X0.682 Y42.322
N2845 X2.133 Y42.332
N2850 X3.584 Y42.34
N2855 X5.035 Y42.347
N2860 X7.936 Y42.357
N2865 X10.838 Y42.365
N2870 X15.19 Y42.372
N2875 X20.994 Y42.378
N2880 X28.248 Y42.381
N2885 X29.699 Y42.363
N2890 X31.128 Y42.112
N2895 X32.489 Y41.612
N2900 X33.75 Y40.894
N2905 X34.894 Y40.002
N2910 X35.916 Y38.972
N2915 X36.818 Y37.836
N2920 X37.609 Y36.62
N2925 X38.298 Y35.343
N2930 X38.895 Y34.021
N2935 X39.41 Y32.664
N2940 X39.853 Y31.283
N2945 X40.232 Y29.882
N2950 X40.557 Y28.468
N2955 X40.834 Y27.044
N2960 X41.07 Y25.613
N2965 X41.272 Y24.176
N2970 X41.442 Y22.735
N2975 X41.587 Y21.292
N2980 X41.711 Y19.846
N2985 X41.815 Y18.399
N2990 X41.903 Y16.951
N2995 X41.978 Y15.502
N3000 X42.041 Y14.052
N3005 X42.094 Y12.603
N3010 X42.14 Y11.152
N3015 X42.178 Y9.702
N3020 X42.21 Y8.252
N3025 X42.237 Y6.801
N3030 X42.26 Y5.35
N3035 X42.279 Y3.9
N3040 X42.295 Y2.449
N3045 X42.309 Y0.998
N3050 X42.321 Y-0.453
N3055 X42.331 Y-1.903
N3060 X42.339 Y-3.354
N3065 X42.346 Y-4.805
N3070 X42.357 Y-7.707
N3075 X42.364 Y-10.608
N3080 X42.372 Y-14.961
N3085 X42.378 Y-20.764
N3090 X42.38 Y-25.117
N3095 X42.381 Y-28.018
N3100 X42.379 Y-29.469
N3105 X42.167 Y-30.904
N3110 X41.704 Y-32.279
N3115 X41.017 Y-33.557
N3120 X40.15 Y-34.72
N3125 X39.139 Y-35.761
N3130 X38.018 Y-36.682
N3135 X36.813 Y-37.49
N3140 X35.545 Y-38.195
N3145 X34.229 Y-38.806
N3150 X32.878 Y-39.333
N3155 X31.499 Y-39.787
N3160 X30.102 Y-40.176
N3165 X28.69 Y-40.508
N3170 X27.267 Y-40.793
N3175 X25.836 Y-41.035
N3180 X24.4 Y-41.241
N3185 X22.96 Y-41.417
N3190 X21.517 Y-41.566
N3195 X20.072 Y-41.692
N3200 X18.625 Y-41.799
N3205 X17.177 Y-41.89
N3210 X15.728 Y-41.967
N3215 X14.279 Y-42.032
N3220 X12.829 Y-42.086
N3225 X11.379 Y-42.133
N3230 X9.928 Y-42.172
N3235 X8.478 Y-42.205
N3240 X7.027 Y-42.233
N3245 X5.577 Y-42.256
N3250 X4.126 Y-42.276
N3255 X2.675 Y-42.293
N3260 X1.225 Y-42.307
N3265 X-0.226 Y-42.319
N3270 X-1.677 Y-42.329
N3275 X-3.128 Y-42.338
N3280 X-4.579 Y-42.345
N3285 X-7.48 Y-42.356
N3290 X-10.382 Y-42.364
N3295 X-14.734 Y-42.372
N3300 X-20.538 Y-42.378
N3305 X-21.988 Y-42.379
N3310 X-23.438 Y-42.329
N3315 X-24.86 Y-42.04
N3320 X-26.21 Y-41.508
N3325 X-27.456 Y-40.766
N3330 X-28.585 Y-39.854
N3335 X-29.592 Y-38.81
N3340 X-30.482 Y-37.664
N3345 X-31.262 Y-36.44
N3350 X-31.941 Y-35.158
N3355 X-32.53 Y-33.832
N3360 X-33.037 Y-32.473
N3365 X-33.474 Y-31.09
N3370 X-33.849 Y-29.688
N3375 X-34.17 Y-28.273
N3380 X-34.444 Y-26.849
N3385 X-34.677 Y-25.417
N3390 X-34.876 Y-23.98
N3395 X-35.046 Y-22.539
N3400 X-35.189 Y-21.095
N3405 X-35.312 Y-19.649
N3410 X-35.415 Y-18.202
N3415 X-35.503 Y-16.754
N3420 X-35.577 Y-15.305
N3425 X-35.64 Y-13.856
N3430 X-35.693 Y-12.406
N3435 X-35.738 Y-10.956
N3440 X-35.777 Y-9.505
N3445 X-35.809 Y-8.055
N3450 X-35.836 Y-6.604
N3455 X-35.859 Y-5.154
N3460 X-35.878 Y-3.703
N3465 X-35.895 Y-2.252
N3470 X-35.908 Y-0.801
N3475 X-35.92 Y0.649
N3480 X-35.93 Y2.1
N3485 X-35.938 Y3.551
N3490 X-35.945 Y5.002
N3495 X-35.956 Y7.903
N3500 X-35.964 Y10.805
N3505 X-35.972 Y15.158
N3510 X-35.978 Y20.961
N3515 X-35.976 Y22.412
N3520 X-35.815 Y23.854
N3525 X-35.415 Y25.248
N3530 X-34.79 Y26.558
N3535 X-33.977 Y27.759
N3540 X-33.013 Y28.843
N3545 X-31.93 Y29.809
N3550 X-30.756 Y30.661
N3555 X-29.512 Y31.408
N3560 X-28.215 Y32.059
N3565 X-26.879 Y32.624
N3570 X-25.513 Y33.112
N3575 X-24.124 Y33.532
N3580 X-22.719 Y33.893
N3585 X-21.302 Y34.203
N3590 X-19.875 Y34.468
N3595 X-18.442 Y34.695
N3600 X-17.004 Y34.888
N3605 X-15.563 Y35.053
N3610 X-14.119 Y35.194
N3615 X-12.673 Y35.314
N3620 X-11.226 Y35.415
N3625 X-9.778 Y35.502
N3630 X-8.329 Y35.575
N3635 X-6.879 Y35.638
N3640 X-5.429 Y35.69
N3645 X-3.979 Y35.735
N3650 X-2.529 Y35.773
N3655 X-1.078 Y35.805
N3660 X0.372 Y35.833
N3665 X1.823 Y35.856
N3670 X3.274 Y35.876
N3675 X4.724 Y35.892
N3680 X6.175 Y35.906
N3685 X7.626 Y35.918
N3690 X9.077 Y35.928
N3695 X10.528 Y35.937
N3700 X11.978 Y35.944
N3705 X14.88 Y35.955
N3710 X16.331 Y35.96
N3715 X19.232 Y35.966
N3720 X20.683 Y35.969
N3725 X22.134 Y35.971
N3730 X23.58 Y35.856
N3735 X24.988 Y35.504
N3740 X26.317 Y34.922
N3745 X27.54 Y34.142
N3750 X28.648 Y33.205
N3755 X29.636 Y32.142
N3760 X30.509 Y30.984
N3765 X31.275 Y29.752
N3770 X31.944 Y28.464
N3775 X32.524 Y27.134
N3780 X33.026 Y25.773
N3785 X33.459 Y24.388
N3790 X33.83 Y22.986
N3795 X34.149 Y21.571
N3800 X34.422 Y20.146
N3805 X34.656 Y18.714
N3810 X34.855 Y17.277
N3815 X35.025 Y15.836
N3820 X35.17 Y14.392
N3825 X35.293 Y12.947
N3830 X35.398 Y11.5
N3835 X35.487 Y10.052
N3840 X35.563 Y8.603
N3845 X35.627 Y7.153
N3850 X35.681 Y5.704
N3855 X35.728 Y4.253
N3860 X35.767 Y2.803
N3865 X35.8 Y1.353
N3870 X35.828 Y-0.098
N3875 X35.852 Y-1.548
N3880 X35.872 Y-2.999
N3885 X35.889 Y-4.45
N3890 X35.904 Y-5.901
N3895 X35.916 Y-7.351
N3900 X35.926 Y-8.802
N3905 X35.935 Y-10.253
N3910 X35.943 Y-11.704
N3915 X35.954 Y-14.605
N3920 X35.963 Y-17.507
N3925 X35.971 Y-21.86
N3930 X35.896 Y-23.308
N3935 X35.589 Y-24.727
N3940 X35.048 Y-26.073
N3945 X34.302 Y-27.317
N3950 X33.392 Y-28.447
N3955 X32.351 Y-29.457
N3960 X31.209 Y-30.352
N3965 X29.989 Y-31.138
N3970 X28.711 Y-31.824
N3975 X27.388 Y-32.42
N3980 X26.032 Y-32.936
N3985 X24.651 Y-33.381
N3990 X23.252 Y-33.764
N3995 X21.839 Y-34.092
N4000 X20.415 Y-34.374
N4005 X18.985 Y-34.614
N4010 X17.548 Y-34.82
N4015 X16.108 Y-34.995
N4020 X14.665 Y-35.144
N4025 X13.22 Y-35.271
N4030 X11.773 Y-35.379
N4035 X10.325 Y-35.471
N4040 X8.876 Y-35.549
N4045 X7.427 Y-35.615
N4050 X5.977 Y-35.672
N4055 X4.527 Y-35.719
N4060 X3.077 Y-35.76
N4065 X1.627 Y-35.794
N4070 X0.176 Y-35.823
N4075 X-1.275 Y-35.848
N4080 X-2.725 Y-35.869
N4085 X-4.176 Y-35.886
N4090 X-5.627 Y-35.901
N4095 X-7.077 Y-35.914
N4100 X-8.528 Y-35.925
N4105 X-9.979 Y-35.934
N4110 X-11.43 Y-35.941
N4115 X-14.332 Y-35.953
N4120 X-15.782 Y-35.956
N4125 X-17.227 Y-35.826
N4130 X-18.631 Y-35.459
N4135 X-19.954 Y-34.864
N4140 X-21.172 Y-34.076
N4145 X-22.274 Y-33.131
N4150 X-23.256 Y-32.064
N4155 X-24.125 Y-30.902
N4160 X-24.887 Y-29.668
N4165 X-25.552 Y-28.378
N4170 X-26.13 Y-27.047
N4175 X-26.629 Y-25.685
N4180 X-27.06 Y-24.3
N4185 X-27.431 Y-22.897
N4190 X-27.748 Y-21.481
N4195 X-28.021 Y-20.056
N4200 X-28.254 Y-18.624
N4205 X-28.453 Y-17.187
N4210 X-28.623 Y-15.746
N4215 X-28.767 Y-14.303
N4220 X-28.89 Y-12.857
N4225 X-28.995 Y-11.41
N4230 X-29.084 Y-9.962
N4235 X-29.16 Y-8.513
N4240 X-29.225 Y-7.064
N4245 X-29.279 Y-5.614
N4250 X-29.326 Y-4.164
N4255 X-29.365 Y-2.714
N4260 X-29.398 Y-1.263
N4265 X-29.427 Y0.187
N4270 X-29.451 Y1.638
N4275 X-29.471 Y3.089
N4280 X-29.488 Y4.539
N4285 X-29.503 Y5.99
N4290 X-29.515 Y7.441
N4295 X-29.526 Y8.892
N4300 X-29.535 Y10.343
N4305 X-29.542 Y11.793
N4310 X-29.548 Y13.244
N4315 X-29.554 Y14.695
N4320 X-29.536 Y16.146
N4325 X-29.319 Y17.58
N4330 X-28.87 Y18.96
N4335 X-28.207 Y20.251
N4340 X-27.366 Y21.432
N4345 X-26.382 Y22.499
N4350 X-25.285 Y23.448
N4355 X-24.101 Y24.286
N4360 X-22.85 Y25.022
N4365 X-21.549 Y25.663
N4370 X-20.209 Y26.221
N4375 X-18.841 Y26.703
N4380 X-17.451 Y27.12
N4385 X-16.046 Y27.478
N4390 X-14.628 Y27.786
N4395 X-13.201 Y28.05
N4400 X-11.768 Y28.277
N4405 X-10.33 Y28.471
N4410 X-8.889 Y28.636
N4415 X-7.445 Y28.777
N4420 X-5.999 Y28.898
N4425 X-4.552 Y29.
N4430 X-3.104 Y29.088
N4435 X-1.655 Y29.162
N4440 X-0.206 Y29.226
N4445 X1.244 Y29.28
N4450 X2.694 Y29.326
N4455 X4.145 Y29.365
N4460 X5.595 Y29.398
N4465 X7.046 Y29.426
N4470 X8.496 Y29.45
N4475 X9.947 Y29.47
N4480 X11.398 Y29.487
N4485 X12.849 Y29.502
N4490 X14.299 Y29.514
N4495 X15.75 Y29.52
N4500 X17.193 Y29.37
N4505 X18.593 Y28.988
N4510 X19.911 Y28.383
N4515 X21.125 Y27.587
N4520 X22.223 Y26.639
N4525 X23.204 Y25.571
N4530 X24.072 Y24.408
N4535 X24.835 Y23.174
N4540 X25.501 Y21.885
N4545 X26.08 Y20.555
N4550 X26.582 Y19.194
N4555 X27.015 Y17.809
N4560 X27.389 Y16.407
N4565 X27.709 Y14.992
N4570 X27.985 Y13.568
N4575 X28.221 Y12.136
N4580 X28.423 Y10.7
N4585 X28.595 Y9.259
N4590 X28.742 Y7.816
N4595 X28.868 Y6.37
N4600 X28.975 Y4.923
N4605 X29.067 Y3.475
N4610 X29.144 Y2.027
N4615 X29.21 Y0.577
N4620 X29.267 Y-0.872
N4625 X29.314 Y-2.322
N4630 X29.355 Y-3.773
N4635 X29.39 Y-5.223
N4640 X29.419 Y-6.674
N4645 X29.444 Y-8.124
N4650 X29.465 Y-9.575
N4655 X29.483 Y-11.026
N4660 X29.498 Y-12.476
N4665 X29.511 Y-13.927
N4670 X29.521 Y-15.378
N4675 X29.428 Y-16.826
N4680 X29.105 Y-18.24
N4685 X28.553 Y-19.582
N4690 X27.803 Y-20.824
N4695 X26.891 Y-21.952
N4700 X25.851 Y-22.964
N4705 X24.71 Y-23.86
N4710 X23.493 Y-24.649
N4715 X22.216 Y-25.339
N4720 X20.896 Y-25.94
N4725 X19.541 Y-26.46
N4730 X18.162 Y-26.91
N4735 X16.764 Y-27.298
N4740 X15.352 Y-27.632
N4745 X13.93 Y-27.918
N4750 X12.5 Y-28.164
N4755 X11.064 Y-28.374
N4760 X9.625 Y-28.553
N4765 X8.182 Y-28.707
N4770 X6.737 Y-28.838
N4775 X5.291 Y-28.949
N4780 X3.843 Y-29.044
N4785 X2.394 Y-29.125
N4790 X0.945 Y-29.194
N4795 X-0.504 Y-29.253
N4800 X-1.954 Y-29.303
N4805 X-3.405 Y-29.345
N4810 X-4.855 Y-29.381
N4815 X-6.306 Y-29.412
N4820 X-7.756 Y-29.438
N4825 X-9.207 Y-29.457
N4830 X-10.652 Y-29.331
N4835 X-12.058 Y-28.971
N4840 X-13.385 Y-28.385
N4845 X-14.609 Y-27.607
N4850 X-15.718 Y-26.671
N4855 X-16.711 Y-25.613
N4860 X-17.589 Y-24.458
N4865 X-18.361 Y-23.23
N4870 X-19.036 Y-21.946
N4875 X-19.623 Y-20.619
N4880 X-20.132 Y-19.26
N4885 X-20.572 Y-17.878
N4890 X-20.95 Y-16.477
N4895 X-21.276 Y-15.063
N4900 X-21.556 Y-13.64
N4905 X-21.795 Y-12.209
N4910 X-22. Y-10.773
N4915 X-22.176 Y-9.332
N4920 X-22.326 Y-7.889
N4925 X-22.454 Y-6.444
N4930 X-22.563 Y-4.997
N4935 X-22.656 Y-3.55
N4940 X-22.735 Y-2.101
N4945 X-22.802 Y-0.652
N4950 X-22.859 Y0.798
N4955 X-22.908 Y2.248
N4960 X-22.95 Y3.698
N4965 X-22.985 Y5.149
N4970 X-23.015 Y6.599
N4975 X-23.04 Y8.05
N4980 X-23.043 Y9.501
N4985 X-22.854 Y10.939
N4990 X-22.433 Y12.328
N4995 X-21.795 Y13.63
N5000 X-20.974 Y14.827
N5005 X-20.007 Y15.908
N5010 X-18.925 Y16.874
N5015 X-17.752 Y17.729
N5020 X-16.51 Y18.479
N5025 X-15.216 Y19.135
N5030 X-13.882 Y19.705
N5035 X-12.518 Y20.2
N5040 X-11.132 Y20.627
N5045 X-9.728 Y20.996
N5050 X-8.313 Y21.313
N5055 X-6.888 Y21.585
N5060 X-5.456 Y21.819
N5065 X-4.019 Y22.019
N5070 X-2.578 Y22.191
N5075 X-1.135 Y22.337
N5080 X0.311 Y22.463
N5085 X1.757 Y22.569
N5090 X3.205 Y22.661
N5095 X4.654 Y22.739
N5100 X6.103 Y22.805
N5105 X7.553 Y22.861
N5110 X9.003 Y22.907
N5115 X10.451 Y22.813
N5120 X11.864 Y22.483
N5125 X13.202 Y21.923
N5130 X14.44 Y21.165
N5135 X15.563 Y20.247
N5140 X16.569 Y19.202
N5145 X17.461 Y18.058
N5150 X18.247 Y16.838
N5155 X18.933 Y15.56
N5160 X19.531 Y14.238
N5165 X20.05 Y12.883
N5170 X20.499 Y11.503
N5175 X20.886 Y10.105
N5180 X21.219 Y8.693
N5185 X21.505 Y7.271
N5190 X21.751 Y5.841
N5195 X21.961 Y4.405
N5200 X22.141 Y2.966
N5205 X22.295 Y1.523
N5210 X22.427 Y0.078
N5215 X22.539 Y-1.368
N5220 X22.635 Y-2.816
N5225 X22.717 Y-4.264
N5230 X22.786 Y-5.714
N5235 X22.846 Y-7.163
N5240 X22.896 Y-8.613
N5245 X22.857 Y-10.063
N5250 X22.592 Y-11.49
N5255 X22.091 Y-12.851
N5260 X21.384 Y-14.118
N5265 X20.505 Y-15.272
N5270 X19.49 Y-16.31
N5275 X18.371 Y-17.232
N5280 X17.169 Y-18.046
N5285 X15.905 Y-18.758
N5290 X14.594 Y-19.379
N5295 X13.247 Y-19.918
N5300 X11.873 Y-20.385
N5305 X10.48 Y-20.787
N5310 X9.071 Y-21.134
N5315 X7.651 Y-21.432
N5320 X6.223 Y-21.688
N5325 X4.789 Y-21.908
N5330 X3.35 Y-22.095
N5335 X1.908 Y-22.256
N5340 X0.464 Y-22.393
N5345 X-0.982 Y-22.51
N5350 X-2.43 Y-22.61
N5355 X-3.88 Y-22.577
N5360 X-5.304 Y-22.296
N5365 X-6.657 Y-21.774
N5370 X-7.912 Y-21.045
N5375 X-9.051 Y-20.148
N5380 X-10.073 Y-19.118
N5385 X-10.979 Y-17.985
N5390 X-11.777 Y-16.772
N5395 X-12.474 Y-15.5
N5400 X-13.081 Y-14.183
N5405 X-13.608 Y-12.831
N5410 X-13.794 Y-12.267
N5415 X-13.921 Y-11.943
N5420 X-14.08 Y-11.634
N5425 X-14.272 Y-11.343
N5430 X-15.562 Y-9.596
N5435 X-15.833 Y-9.222
N5440 X-16.312 Y-8.552
N5445 X-16.568 Y-8.156
N5450 X-16.792 Y-7.749
N5455 X-16.831 Y-7.676
N5460 X-17.044 Y-7.197
N5465 X-17.272 Y-6.641
N5470 X-17.391 Y-6.237
N5475 X-17.525 Y-5.757
N5480 X-17.619 Y-5.278
N5485 X-17.699 Y-4.798
N5490 X-17.752 Y-4.464
N5495 X-18.208 Y-1.439
N5500 X-18.313 Y-0.48
N5505 X-18.316 Y0.
N5510 X-18.313 Y0.48
N5515 X-18.208 Y1.439
N5520 X-17.752 Y4.464
N5525 X-17.699 Y4.798
N5530 X-17.619 Y5.278
N5535 X-17.525 Y5.757
N5540 X-17.391 Y6.237
N5545 X-17.272 Y6.641
N5550 X-17.044 Y7.197
N5555 X-16.831 Y7.676
N5560 X-16.792 Y7.749
N5565 X-16.568 Y8.156
N5570 X-16.312 Y8.552
N5575 X-15.833 Y9.222
N5580 X-15.562 Y9.596
N5585 X-14.146 Y11.515
N5590 X-13.914 Y11.824
N5595 X-13.784 Y11.994
N5600 X-13.434 Y12.446
N5605 X-13.409 Y12.474
N5610 X-12.945 Y12.954
N5615 X-12.474 Y13.409
N5620 X-12.446 Y13.434
N5625 X-11.994 Y13.784
N5630 X-11.824 Y13.914
N5635 X-11.515 Y14.146
N5640 X-9.596 Y15.562
N5645 X-9.222 Y15.833
N5650 X-8.552 Y16.312
N5655 X-8.156 Y16.568
N5660 X-7.749 Y16.792
N5665 X-7.676 Y16.831
N5670 X-7.197 Y17.044
N5675 X-6.641 Y17.272
N5680 X-6.237 Y17.391
N5685 X-5.757 Y17.525
N5690 X-5.278 Y17.619
N5695 X-4.798 Y17.699
N5700 X-4.464 Y17.752
N5705 X-1.439 Y18.208
N5710 X-0.48 Y18.313
N5715 X0. Y18.316
N5720 X0.48 Y18.313
N5725 X1.439 Y18.208
N5730 X4.464 Y17.752
N5735 X4.798 Y17.699
N5740 X5.278 Y17.619
N5745 X5.757 Y17.525
N5750 X6.237 Y17.391
N5755 X6.641 Y17.272
N5760 X7.197 Y17.044
N5765 X7.676 Y16.831
N5770 X7.749 Y16.792
N5775 X8.156 Y16.568
N5780 X8.552 Y16.312
N5785 X9.222 Y15.833
N5790 X9.596 Y15.562
N5795 X11.515 Y14.146
N5800 X11.824 Y13.914
N5805 X11.994 Y13.784
N5810 X12.446 Y13.434
N5815 X12.474 Y13.409
N5820 X12.954 Y12.945
N5825 X13.409 Y12.474
N5830 X13.434 Y12.446
N5835 X13.784 Y11.994
N5840 X13.914 Y11.824
N5845 X14.146 Y11.515
N5850 X15.562 Y9.596
N5855 X15.833 Y9.222
N5860 X16.312 Y8.552
N5865 X16.568 Y8.156
N5870 X16.792 Y7.749
N5875 X16.83 Y7.676
N5880 X17.044 Y7.197
N5885 X17.272 Y6.641
N5890 X17.391 Y6.237
N5895 X17.525 Y5.757
N5900 X17.619 Y5.278
N5905 X17.699 Y4.798
N5910 X17.752 Y4.464
N5915 X18.208 Y1.439
N5920 X18.313 Y0.48
N5925 X18.316 Y0.
N5930 X18.313 Y-0.48
N5935 X18.208 Y-1.439
N5940 X17.752 Y-4.464
N5945 X17.699 Y-4.798
N5950 X17.619 Y-5.278
N5955 X17.525 Y-5.757
N5960 X17.391 Y-6.237
N5965 X17.272 Y-6.641
N5970 X17.044 Y-7.197
N5975 X16.83 Y-7.676
N5980 X16.792 Y-7.749
N5985 X16.568 Y-8.156
N5990 X16.312 Y-8.552
N5995 X15.833 Y-9.222
N6000 X15.562 Y-9.596
N6005 X14.146 Y-11.515
N6010 X13.914 Y-11.824
N6015 X13.784 Y-11.994
N6020 X13.434 Y-12.446
N6025 X13.409 Y-12.474
N6030 X12.945 Y-12.954
N6035 X12.474 Y-13.409
N6040 X12.446 Y-13.434
N6045 X11.994 Y-13.784
N6050 X11.824 Y-13.914
N6055 X11.515 Y-14.146
N6060 X9.596 Y-15.562
N6065 X9.222 Y-15.833
N6070 X8.552 Y-16.312
N6075 X8.156 Y-16.568
N6080 X7.749 Y-16.792
N6085 X7.676 Y-16.831
N6090 X7.197 Y-17.044
N6095 X6.641 Y-17.272
N6100 X6.237 Y-17.391
N6105 X5.757 Y-17.525
N6110 X5.278 Y-17.619
N6115 X4.798 Y-17.699
N6120 X4.464 Y-17.752
N6125 X1.439 Y-18.208
N6130 X0.48 Y-18.313
N6135 X0. Y-18.316
N6140 X-0.48 Y-18.313
N6145 X-1.439 Y-18.208
N6150 X-4.464 Y-17.752
N6155 X-4.798 Y-17.699
N6160 X-5.278 Y-17.619
N6165 X-5.757 Y-17.525
N6170 X-6.237 Y-17.391
N6175 X-6.641 Y-17.272
N6180 X-7.197 Y-17.044
N6185 X-7.676 Y-16.831
N6190 X-7.749 Y-16.792
N6195 X-8.156 Y-16.568
N6200 X-8.552 Y-16.312
N6205 X-9.222 Y-15.833
N6210 X-9.596 Y-15.562
N6215 X-11.515 Y-14.146
N6220 X-11.824 Y-13.914
N6225 X-11.994 Y-13.784
N6230 X-12.243 Y-13.591
N6235 X-12.323 Y-13.546 Z-11.943
N6240 X-12.402 Y-13.501 Z-11.926
N6245 X-12.479 Y-13.458 Z-11.899
N6250 X-12.553 Y-13.416 Z-11.862
N6255 X-12.639 Y-13.39 Z-11.808
N6260 X-12.718 Y-13.367 Z-11.743
N6265 X-12.787 Y-13.346 Z-11.667
N6270 X-12.847 Y-13.328 Z-11.582
N6275 X-12.894 Y-13.314 Z-11.489
N6280 X-12.925 Y-13.309 Z-11.411
N6285 X-12.947 Y-13.306 Z-11.33
N6290 X-12.96 Y-13.304 Z-11.247
N6295 X-12.965 Y-13.303 Z-11.163
N6300 Z5.
N6305 X-10.318 Y-26.532
N6310 Z-7.398
N6315 Z-8.998
N6320 X-10.316 Y-26.524 Z-9.155
N6325 X-10.31 Y-26.502 Z-9.31
N6330 X-10.3 Y-26.465 Z-9.463
N6335 X-10.287 Y-26.414 Z-9.611
N6340 X-10.271 Y-26.349 Z-9.753
N6345 X-10.251 Y-26.27 Z-9.887
N6350 X-10.227 Y-26.18 Z-10.013
N6355 X-10.201 Y-26.078 Z-10.13
N6360 X-10.172 Y-25.965 Z-10.235
N6365 X-10.141 Y-25.843 Z-10.329
N6370 X-10.108 Y-25.712 Z-10.409
N6375 X-10.072 Y-25.575 Z-10.476
N6380 X-10.036 Y-25.432 Z-10.529
N6385 X-9.998 Y-25.284 Z-10.568
N6390 X-9.959 Y-25.134 Z-10.591
N6395 X-9.921 Y-24.982 Z-10.598
N6400 G3 X-8.668 Y-16.271 I-39.57 J10.136
N6405 G1 Y-15.909
N6410 X-8.663 Y-15.499
N6415 X-8.729 Y-15.096
N6420 X-8.863 Y-14.709
N6425 X-9.061 Y-14.351
N6430 X-9.317 Y-14.032
N6435 X-9.624 Y-13.762
N6440 X-10.555 Y-13.074
N6445 X-11.342 Y-12.474
N6450 X-11.515 Y-12.329
N6455 X-12.329 Y-11.515
N6460 X-12.474 Y-11.342
N6465 X-13.074 Y-10.555
N6470 X-14.137 Y-9.116
N6475 X-14.491 Y-8.636
N6480 X-14.825 Y-8.156
N6485 X-15.138 Y-7.676
N6490 X-15.353 Y-7.336
N6495 X-15.427 Y-7.197
N6500 X-15.656 Y-6.717
N6505 X-15.833 Y-6.266
N6510 X-16.008 Y-5.757
N6515 X-16.136 Y-5.278
N6520 X-16.241 Y-4.798
N6525 X-16.312 Y-4.405
N6530 X-16.76 Y-1.439
N6535 X-16.866 Y-0.48
N6540 X-16.868 Y0.
N6545 X-16.866 Y0.48
N6550 X-16.76 Y1.439
N6555 X-16.312 Y4.405
N6560 X-16.241 Y4.798
N6565 X-16.136 Y5.278
N6570 X-16.008 Y5.757
N6575 X-15.833 Y6.266
N6580 X-15.656 Y6.717
N6585 X-15.427 Y7.197
N6590 X-15.353 Y7.336
N6595 X-15.138 Y7.676
N6600 X-14.825 Y8.156
N6605 X-14.491 Y8.636
N6610 X-13.429 Y10.075
N6615 X-13.074 Y10.555
N6620 X-12.474 Y11.342
N6625 X-12.329 Y11.515
N6630 X-11.515 Y12.329
N6635 X-11.342 Y12.474
N6640 X-10.555 Y13.074
N6645 X-9.116 Y14.137
N6650 X-8.636 Y14.491
N6655 X-8.156 Y14.825
N6660 X-7.676 Y15.138
N6665 X-7.336 Y15.353
N6670 X-7.197 Y15.427
N6675 X-6.717 Y15.656
N6680 X-6.266 Y15.833
N6685 X-5.757 Y16.008
N6690 X-5.278 Y16.136
N6695 X-4.798 Y16.241
N6700 X-4.405 Y16.312
N6705 X-1.439 Y16.76
N6710 X-0.48 Y16.866
N6715 X0. Y16.868
N6720 X0.48 Y16.866
N6725 X1.439 Y16.76
N6730 X4.405 Y16.312
N6735 X4.798 Y16.241
N6740 X5.278 Y16.136
N6745 X5.757 Y16.008
N6750 X6.266 Y15.833
N6755 X6.717 Y15.656
N6760 X7.197 Y15.427
N6765 X7.336 Y15.353
N6770 X7.676 Y15.138
N6775 X8.156 Y14.825
N6780 X8.636 Y14.491
N6785 X10.075 Y13.429
N6790 X10.555 Y13.074
N6795 X11.342 Y12.474
N6800 X11.515 Y12.329
N6805 X12.329 Y11.515
N6810 X12.474 Y11.342
N6815 X13.074 Y10.555
N6820 X14.137 Y9.116
N6825 X14.491 Y8.636
N6830 X14.825 Y8.156
N6835 X15.138 Y7.676
N6840 X15.353 Y7.336
N6845 X15.427 Y7.197
N6850 X15.656 Y6.717
N6855 X15.833 Y6.266
N6860 X16.008 Y5.757
N6865 X16.136 Y5.278
N6870 X16.241 Y4.798
N6875 X16.312 Y4.405
N6880 X16.76 Y1.439
N6885 X16.866 Y0.48
N6890 X16.868 Y0.
N6895 X16.866 Y-0.48
N6900 X16.76 Y-1.439
N6905 X16.312 Y-4.405
N6910 X16.241 Y-4.798
N6915 X16.136 Y-5.278
N6920 X16.008 Y-5.757
N6925 X15.833 Y-6.266
N6930 X15.656 Y-6.717
N6935 X15.427 Y-7.197
N6940 X15.353 Y-7.336
N6945 X15.138 Y-7.676
N6950 X14.825 Y-8.156
N6955 X14.491 Y-8.636
N6960 X13.429 Y-10.075
N6965 X13.074 Y-10.555
N6970 X12.474 Y-11.342
N6975 X12.329 Y-11.515
N6980 X11.515 Y-12.329
N6985 X11.342 Y-12.474
N6990 X10.555 Y-13.074
N6995 X9.116 Y-14.137
N7000 X8.636 Y-14.491
N7005 X8.156 Y-14.825
N7010 X7.676 Y-15.138
N7015 X7.336 Y-15.353
N7020 X7.197 Y-15.427
N7025 X6.717 Y-15.656
N7030 X6.266 Y-15.833
N7035 X5.757 Y-16.008
N7040 X5.278 Y-16.136
N7045 X4.798 Y-16.241
N7050 X4.405 Y-16.312
N7055 X1.439 Y-16.76
N7060 X0.48 Y-16.866
N7065 X0. Y-16.868
N7070 X-0.48 Y-16.866
N7075 X-1.439 Y-16.76
N7080 X-4.405 Y-16.312
N7085 X-4.798 Y-16.241
N7090 X-5.278 Y-16.136
N7095 X-5.757 Y-16.008
N7100 X-5.849 Y-15.997 Z-10.593
N7105 X-5.939 Y-15.987 Z-10.576
N7110 X-6.027 Y-15.977 Z-10.549
N7115 X-6.111 Y-15.967 Z-10.512
N7120 X-6.115 Z-10.511
N7125 X-6.205 Y-15.977 Z-10.456
N7130 X-6.287 Y-15.987 Z-10.389
N7135 X-6.359 Y-15.995 Z-10.312
N7140 X-6.42 Y-16.002 Z-10.225
N7145 X-6.469 Y-16.007 Z-10.132
N7150 X-6.505 Y-16.016 Z-10.029
N7155 X-6.527 Y-16.022 Z-9.922
N7160 X-6.535 Y-16.023 Z-9.813
N7165 Z5.
N7170 X-8.87 Y-25.802
N7175 Z-6.048
N7180 Z-7.648
N7185 X-8.868 Y-25.794 Z-7.805
N7190 X-8.862 Y-25.772 Z-7.96
N7195 X-8.853 Y-25.735 Z-8.113
N7200 X-8.84 Y-25.684 Z-8.261
N7205 X-8.823 Y-25.619 Z-8.403
N7210 X-8.803 Y-25.541 Z-8.537
N7215 X-8.78 Y-25.45 Z-8.663
N7220 X-8.754 Y-25.348 Z-8.78
N7225 X-8.725 Y-25.235 Z-8.885
N7230 X-8.693 Y-25.113 Z-8.979
N7235 X-8.66 Y-24.982 Z-9.059
N7240 X-8.625 Y-24.845 Z-9.126
N7245 X-8.588 Y-24.702 Z-9.179
N7250 X-8.55 Y-24.554 Z-9.218
N7255 X-8.512 Y-24.404 Z-9.241
N7260 X-8.473 Y-24.252 Z-9.248
N7265 G3 X-7.22 Y-15.541 I-39.57 J10.136
N7270 G1 Y-15.21
N7275 X-7.219 Y-14.794
N7280 X-7.288 Y-14.384
N7285 X-7.426 Y-13.992
N7290 X-7.629 Y-13.628
N7295 X-7.891 Y-13.305
N7300 X-8.203 Y-13.031
N7305 X-9.116 Y-12.358
N7310 X-9.601 Y-11.994
N7315 X-10.227 Y-11.515
N7320 X-10.555 Y-11.245
N7325 X-10.781 Y-11.035
N7330 X-11.035 Y-10.784
N7335 X-11.246 Y-10.555
N7340 X-11.515 Y-10.227
N7345 X-11.999 Y-9.596
N7350 X-12.358 Y-9.116
N7355 X-13.434 Y-7.656
N7360 X-13.731 Y-7.197
N7365 X-14.002 Y-6.717
N7370 X-14.257 Y-6.237
N7375 X-14.393 Y-5.928
N7380 X-14.458 Y-5.757
N7385 X-14.618 Y-5.278
N7390 X-14.754 Y-4.798
N7395 X-14.862 Y-4.318
N7400 X-14.945 Y-3.838
N7405 X-15.023 Y-3.358
N7410 X-15.313 Y-1.439
N7415 X-15.353 Y-1.166
N7420 X-15.374 Y-0.96
N7425 X-15.419 Y-0.48
N7430 X-15.42 Y0.
N7435 X-15.419 Y0.48
N7440 X-15.374 Y0.96
N7445 X-15.353 Y1.166
N7450 X-15.313 Y1.439
N7455 X-15.023 Y3.358
N7460 X-14.945 Y3.838
N7465 X-14.862 Y4.318
N7470 X-14.754 Y4.798
N7475 X-14.618 Y5.278
N7480 X-14.458 Y5.757
N7485 X-14.393 Y5.928
N7490 X-14.257 Y6.237
N7495 X-14.002 Y6.717
N7500 X-13.731 Y7.197
N7505 X-13.434 Y7.656
N7510 X-12.358 Y9.116
N7515 X-11.994 Y9.601
N7520 X-11.515 Y10.227
N7525 X-11.245 Y10.555
N7530 X-11.035 Y10.781
N7535 X-10.784 Y11.035
N7540 X-10.555 Y11.246
N7545 X-10.227 Y11.515
N7550 X-9.596 Y11.999
N7555 X-9.116 Y12.358
N7560 X-7.656 Y13.434
N7565 X-7.197 Y13.731
N7570 X-6.717 Y14.002
N7575 X-6.237 Y14.257
N7580 X-5.928 Y14.393
N7585 X-5.757 Y14.458
N7590 X-5.278 Y14.618
N7595 X-4.798 Y14.754
N7600 X-4.318 Y14.862
N7605 X-3.838 Y14.945
N7610 X-3.358 Y15.023
N7615 X-1.439 Y15.313
N7620 X-1.166 Y15.353
N7625 X-0.96 Y15.374
N7630 X-0.48 Y15.419
N7635 X0. Y15.42
N7640 X0.48 Y15.419
N7645 X0.96 Y15.374
N7650 X1.166 Y15.353
N7655 X1.439 Y15.313
N7660 X3.358 Y15.023
N7665 X3.838 Y14.945
N7670 X4.318 Y14.862
N7675 X4.798 Y14.754
N7680 X5.278 Y14.618
N7685 X5.757 Y14.458
N7690 X5.928 Y14.393
N7695 X6.237 Y14.257
N7700 X6.717 Y14.002
N7705 X7.197 Y13.731
N7710 X7.656 Y13.434
N7715 X9.116 Y12.358
N7720 X9.601 Y11.994
N7725 X10.227 Y11.515
N7730 X10.555 Y11.245
N7735 X10.781 Y11.035
N7740 X11.035 Y10.784
N7745 X11.246 Y10.555
N7750 X11.515 Y10.227
N7755 X11.999 Y9.596
N7760 X12.358 Y9.116
N7765 X13.434 Y7.656
N7770 X13.731 Y7.197
N7775 X14.002 Y6.717
N7780 X14.257 Y6.237
N7785 X14.393 Y5.928
N7790 X14.458 Y5.757
N7795 X14.618 Y5.278
N7800 X14.754 Y4.798
N7805 X14.862 Y4.318
N7810 X14.945 Y3.838
N7815 X15.023 Y3.358
N7820 X15.313 Y1.439
N7825 X15.353 Y1.166
N7830 X15.374 Y0.96
N7835 X15.419 Y0.48
N7840 X15.42 Y0.
N7845 X15.419 Y-0.48
N7850 X15.374 Y-0.96
N7855 X15.353 Y-1.166
N7860 X15.313 Y-1.439
N7865 X15.023 Y-3.358
N7870 X14.945 Y-3.838
N7875 X14.862 Y-4.318
N7880 X14.754 Y-4.798
N7885 X14.618 Y-5.278
N7890 X14.458 Y-5.757
N7895 X14.393 Y-5.928
N7900 X14.257 Y-6.237
N7905 X14.002 Y-6.717
N7910 X13.731 Y-7.197
N7915 X13.434 Y-7.656
N7920 X12.358 Y-9.116
N7925 X11.994 Y-9.601
N7930 X11.515 Y-10.227
N7935 X11.246 Y-10.555
N7940 X11.035 Y-10.784
N7945 X10.781 Y-11.035
N7950 X10.555 Y-11.245
N7955 X10.227 Y-11.515
N7960 X9.596 Y-11.999
N7965 X9.116 Y-12.358
N7970 X7.656 Y-13.434
N7975 X7.197 Y-13.731
N7980 X6.717 Y-14.002
N7985 X6.237 Y-14.257
N7990 X5.928 Y-14.393
N7995 X5.757 Y-14.458
N8000 X5.278 Y-14.618
N8005 X4.798 Y-14.754
N8010 X4.318 Y-14.862
N8015 X3.838 Y-14.945
N8020 X3.358 Y-15.023
N8025 X1.439 Y-15.313
N8030 X1.166 Y-15.353
N8035 X0.96 Y-15.374
N8040 X0.48 Y-15.419
N8045 X0. Y-15.42
N8050 X-0.48 Y-15.419
N8055 X-0.96 Y-15.374
N8060 X-1.166 Y-15.353
N8065 X-1.439 Y-15.313
N8070 X-3.358 Y-15.023
N8075 X-3.838 Y-14.945
N8080 X-4.255 Y-14.873
N8085 X-4.364 Y-14.866 Z-9.241
N8090 X-4.472 Y-14.858 Z-9.218
N8095 X-4.57 Y-14.869 Z-9.181
N8100 X-4.663 Y-14.88 Z-9.132
N8105 X-4.749 Y-14.889 Z-9.071
N8110 X-4.826 Y-14.898 Z-8.998
N8115 X-4.885 Y-14.916 Z-8.922
N8120 X-4.935 Y-14.931 Z-8.839
N8125 X-4.975 Y-14.943 Z-8.751
N8130 X-5.004 Y-14.951 Z-8.657
N8135 X-5.022 Y-14.956 Z-8.561
N8140 X-5.028 Y-14.958 Z-8.463
N8145 Z5.
N8150 X-7.422 Y-24.738
N8155 Z-4.698
N8160 Z-6.298
N8165 X-7.42 Y-24.73 Z-6.455
N8170 X-7.415 Y-24.708 Z-6.61
N8175 X-7.405 Y-24.671 Z-6.763
N8180 X-7.392 Y-24.62 Z-6.911
N8185 X-7.375 Y-24.555 Z-7.053
N8190 X-7.355 Y-24.477 Z-7.187
N8195 X-7.332 Y-24.386 Z-7.313
N8200 X-7.306 Y-24.284 Z-7.43
N8205 X-7.277 Y-24.171 Z-7.535
N8210 X-7.246 Y-24.049 Z-7.629
N8215 X-7.212 Y-23.918 Z-7.709
N8220 X-7.177 Y-23.781 Z-7.776
N8225 X-7.14 Y-23.638 Z-7.829
N8230 X-7.103 Y-23.49 Z-7.868
N8235 X-7.064 Y-23.34 Z-7.891
N8240 X-7.025 Y-23.188 Z-7.898
N8245 G3 X-5.772 Y-14.477 I-39.57 J10.136
N8250 G1 Y-14.241
N8255 X-5.766 Y-14.146
N8260 X-5.776 Y-13.787
N8265 X-5.851 Y-13.436
N8270 X-5.988 Y-13.104
N8275 X-6.182 Y-12.802
N8280 X-6.428 Y-12.54
N8285 X-6.717 Y-12.327
N8290 X-7.197 Y-11.992
N8295 X-7.676 Y-11.641
N8300 X-8.156 Y-11.287
N8305 X-8.493 Y-11.035
N8310 X-9.124 Y-10.555
N8315 X-9.596 Y-10.154
N8320 X-10.154 Y-9.596
N8325 X-10.555 Y-9.124
N8330 X-11.035 Y-8.493
N8335 X-11.287 Y-8.156
N8340 X-11.641 Y-7.676
N8345 X-11.994 Y-7.193
N8350 X-12.327 Y-6.717
N8355 X-12.474 Y-6.473
N8360 X-12.605 Y-6.237
N8365 X-12.954 Y-5.524
N8370 X-13.062 Y-5.278
N8375 X-13.24 Y-4.798
N8380 X-13.372 Y-4.318
N8385 X-13.48 Y-3.838
N8390 X-13.575 Y-3.358
N8395 X-13.865 Y-1.439
N8400 X-13.97 Y-0.48
N8405 X-13.973 Y0.
N8410 X-13.97 Y0.48
N8415 X-13.865 Y1.439
N8420 X-13.575 Y3.358
N8425 X-13.48 Y3.838
N8430 X-13.372 Y4.318
N8435 X-13.24 Y4.798
N8440 X-13.062 Y5.278
N8445 X-12.954 Y5.524
N8450 X-12.605 Y6.237
N8455 X-12.474 Y6.473
N8460 X-12.327 Y6.717
N8465 X-11.992 Y7.197
N8470 X-11.641 Y7.676
N8475 X-11.287 Y8.156
N8480 X-11.035 Y8.493
N8485 X-10.555 Y9.124
N8490 X-10.154 Y9.596
N8495 X-9.596 Y10.154
N8500 X-9.124 Y10.555
N8505 X-8.493 Y11.035
N8510 X-8.156 Y11.287
N8515 X-7.676 Y11.641
N8520 X-7.193 Y11.994
N8525 X-6.717 Y12.327
N8530 X-6.473 Y12.474
N8535 X-6.237 Y12.605
N8540 X-5.524 Y12.954
N8545 X-5.278 Y13.062
N8550 X-4.798 Y13.24
N8555 X-4.318 Y13.372
N8560 X-3.838 Y13.48
N8565 X-3.358 Y13.575
N8570 X-1.439 Y13.865
N8575 X-0.48 Y13.97
N8580 X0. Y13.973
N8585 X0.48 Y13.97
N8590 X1.439 Y13.865
N8595 X3.358 Y13.575
N8600 X3.838 Y13.48
N8605 X4.318 Y13.372
N8610 X4.798 Y13.24
N8615 X5.278 Y13.062
N8620 X5.524 Y12.954
N8625 X6.237 Y12.605
N8630 X6.473 Y12.474
N8635 X6.717 Y12.327
N8640 X7.197 Y11.992
N8645 X7.676 Y11.641
N8650 X8.156 Y11.287
N8655 X8.493 Y11.035
N8660 X9.124 Y10.555
N8665 X9.596 Y10.154
N8670 X10.154 Y9.596
N8675 X10.555 Y9.124
N8680 X11.035 Y8.493
N8685 X11.287 Y8.156
N8690 X11.641 Y7.676
N8695 X11.994 Y7.193
N8700 X12.327 Y6.717
N8705 X12.474 Y6.473
N8710 X12.605 Y6.237
N8715 X12.954 Y5.524
N8720 X13.062 Y5.278
N8725 X13.24 Y4.798
N8730 X13.372 Y4.318
N8735 X13.48 Y3.838
N8740 X13.575 Y3.358
N8745 X13.865 Y1.439
N8750 X13.97 Y0.48
N8755 X13.973 Y0.
N8760 X13.97 Y-0.48
N8765 X13.865 Y-1.439
N8770 X13.575 Y-3.358
N8775 X13.48 Y-3.838
N8780 X13.372 Y-4.318
N8785 X13.24 Y-4.798
N8790 X13.062 Y-5.278
N8795 X12.954 Y-5.524
N8800 X12.605 Y-6.237
N8805 X12.474 Y-6.473
N8810 X12.327 Y-6.717
N8815 X11.992 Y-7.197
N8820 X11.641 Y-7.676
N8825 X11.287 Y-8.156
N8830 X11.035 Y-8.493
N8835 X10.555 Y-9.124
N8840 X10.154 Y-9.596
N8845 X9.596 Y-10.154
N8850 X9.124 Y-10.555
N8855 X8.493 Y-11.035
N8860 X8.156 Y-11.287
N8865 X7.676 Y-11.641
N8870 X7.193 Y-11.994
N8875 X6.717 Y-12.327
N8880 X6.473 Y-12.474
N8885 X6.237 Y-12.605
N8890 X5.524 Y-12.954
N8895 X5.278 Y-13.062
N8900 X4.798 Y-13.24
N8905 X4.318 Y-13.372
N8910 X3.838 Y-13.48
N8915 X3.358 Y-13.575
N8920 X1.439 Y-13.865
N8925 X0.48 Y-13.97
N8930 X0. Y-13.973
N8935 X-0.48 Y-13.97
N8940 X-1.439 Y-13.865
N8945 X-3.358 Y-13.575
N8950 X-3.838 Y-13.48
N8955 X-3.925 Y-13.473 Z-7.893
N8960 X-4.011 Y-13.466 Z-7.879
N8965 X-4.094 Y-13.459 Z-7.855
N8970 X-4.195 Y-13.47 Z-7.811
N8975 X-4.289 Y-13.481 Z-7.754
N8980 X-4.374 Y-13.49 Z-7.684
N8985 X-4.449 Y-13.499 Z-7.602
N8990 X-4.506 Y-13.515 Z-7.515
N8995 X-4.552 Y-13.528 Z-7.421
N9000 X-4.586 Y-13.538 Z-7.322
N9005 X-4.606 Y-13.543 Z-7.218
N9010 X-4.613 Y-13.545 Z-7.113
N9015 Z5.
N9020 X-5.974 Y-23.65
N9025 Z-3.348
N9030 Z-4.948
N9035 X-5.973 Y-23.642 Z-5.105
N9040 X-5.967 Y-23.62 Z-5.26
N9045 X-5.957 Y-23.583 Z-5.413
N9050 X-5.944 Y-23.532 Z-5.561
N9055 X-5.928 Y-23.467 Z-5.703
N9060 X-5.908 Y-23.389 Z-5.837
N9065 X-5.884 Y-23.298 Z-5.963
N9070 X-5.858 Y-23.196 Z-6.08
N9075 X-5.829 Y-23.083 Z-6.185
N9080 X-5.798 Y-22.961 Z-6.279
N9085 X-5.765 Y-22.831 Z-6.359
N9090 X-5.729 Y-22.693 Z-6.426
N9095 X-5.693 Y-22.55 Z-6.479
N9100 X-5.655 Y-22.402 Z-6.518
N9105 X-5.616 Y-22.252 Z-6.541
N9110 X-5.577 Y-22.1 Z-6.548
N9115 G3 X-4.325 Y-13.39 I-39.57 J10.136
N9120 G1 Y-13.249
N9125 X-4.355 Y-12.864
N9130 X-4.454 Y-12.492
N9135 X-4.621 Y-12.144
N9140 X-4.848 Y-11.833
N9145 X-5.129 Y-11.569
N9150 X-5.453 Y-11.36
N9155 X-5.757 Y-11.202
N9160 X-6.033 Y-11.035
N9165 X-6.237 Y-10.907
N9170 X-7.197 Y-10.215
N9175 X-7.384 Y-10.075
N9180 X-8.156 Y-9.493
N9185 X-8.596 Y-9.116
N9190 X-9.116 Y-8.596
N9195 X-9.493 Y-8.156
N9200 X-10.075 Y-7.384
N9205 X-10.215 Y-7.197
N9210 X-10.907 Y-6.237
N9215 X-11.035 Y-6.033
N9220 X-11.202 Y-5.757
N9225 X-11.451 Y-5.278
N9230 X-11.652 Y-4.798
N9235 X-11.843 Y-4.318
N9240 X-11.994 Y-3.792
N9245 X-12.11 Y-3.358
N9250 X-12.192 Y-2.879
N9255 X-12.272 Y-2.399
N9260 X-12.417 Y-1.439
N9265 X-12.523 Y-0.48
N9270 X-12.525 Y0.
N9275 X-12.523 Y0.48
N9280 X-12.417 Y1.439
N9285 X-12.272 Y2.399
N9290 X-12.192 Y2.879
N9295 X-12.11 Y3.358
N9300 X-11.994 Y3.792
N9305 X-11.843 Y4.318
N9310 X-11.652 Y4.798
N9315 X-11.451 Y5.278
N9320 X-11.202 Y5.757
N9325 X-11.035 Y6.033
N9330 X-10.907 Y6.237
N9335 X-10.215 Y7.197
N9340 X-10.075 Y7.384
N9345 X-9.493 Y8.156
N9350 X-9.116 Y8.596
N9355 X-8.596 Y9.116
N9360 X-8.156 Y9.493
N9365 X-7.384 Y10.075
N9370 X-7.197 Y10.215
N9375 X-6.237 Y10.907
N9380 X-6.033 Y11.035
N9385 X-5.757 Y11.202
N9390 X-5.278 Y11.451
N9395 X-4.798 Y11.652
N9400 X-4.318 Y11.843
N9405 X-3.792 Y11.994
N9410 X-3.358 Y12.11
N9415 X-2.879 Y12.192
N9420 X-2.399 Y12.272
N9425 X-1.439 Y12.417
N9430 X-0.48 Y12.523
N9435 X0. Y12.525
N9440 X0.48 Y12.523
N9445 X1.439 Y12.417
N9450 X2.399 Y12.272
N9455 X2.879 Y12.192
N9460 X3.358 Y12.11
N9465 X3.792 Y11.994
N9470 X4.318 Y11.843
N9475 X4.798 Y11.652
N9480 X5.278 Y11.451
N9485 X5.757 Y11.202
N9490 X6.033 Y11.035
N9495 X6.237 Y10.907
N9500 X7.197 Y10.215
N9505 X7.384 Y10.075
N9510 X8.156 Y9.493
N9515 X8.596 Y9.116
N9520 X9.116 Y8.596
N9525 X9.493 Y8.156
N9530 X10.075 Y7.384
N9535 X10.215 Y7.197
N9540 X10.907 Y6.237
N9545 X11.035 Y6.033
N9550 X11.202 Y5.757
N9555 X11.451 Y5.278
N9560 X11.652 Y4.798
N9565 X11.843 Y4.318
N9570 X11.994 Y3.792
N9575 X12.11 Y3.358
N9580 X12.192 Y2.879
N9585 X12.272 Y2.399
N9590 X12.417 Y1.439
N9595 X12.523 Y0.48
N9600 X12.525 Y0.
N9605 X12.523 Y-0.48
N9610 X12.417 Y-1.439
N9615 X12.272 Y-2.399
N9620 X12.192 Y-2.879
N9625 X12.11 Y-3.358
N9630 X11.994 Y-3.792
N9635 X11.843 Y-4.318
N9640 X11.652 Y-4.798
N9645 X11.451 Y-5.278
N9650 X11.202 Y-5.757
N9655 X11.035 Y-6.033
N9660 X10.907 Y-6.237
N9665 X10.215 Y-7.197
N9670 X10.075 Y-7.384
N9675 X9.493 Y-8.156
N9680 X9.116 Y-8.596
N9685 X8.596 Y-9.116
N9690 X8.156 Y-9.493
N9695 X7.384 Y-10.075
N9700 X7.197 Y-10.215
N9705 X6.237 Y-10.907
N9710 X6.033 Y-11.035
N9715 X5.757 Y-11.202
N9720 X5.278 Y-11.451
N9725 X4.798 Y-11.652
N9730 X4.318 Y-11.843
N9735 X3.792 Y-11.994
N9740 X3.358 Y-12.11
N9745 X2.879 Y-12.192
N9750 X2.399 Y-12.272
N9755 X1.439 Y-12.417
N9760 X0.48 Y-12.523
N9765 X0. Y-12.525
N9770 X-0.48 Y-12.523
N9775 X-1.439 Y-12.417
N9780 X-2.399 Y-12.272
N9785 X-2.879 Y-12.192
N9790 X-2.984 Y-12.185 Z-6.541
N9795 X-3.088 Y-12.178 Z-6.52
N9800 X-3.187 Y-12.189 Z-6.485
N9805 X-3.28 Y-12.2 Z-6.437
N9810 X-3.366 Y-12.209 Z-6.377
N9815 X-3.443 Y-12.218 Z-6.306
N9820 X-3.504 Y-12.236 Z-6.229
N9825 X-3.556 Y-12.252 Z-6.146
N9830 X-3.597 Y-12.264 Z-6.055
N9835 X-3.627 Y-12.273 Z-5.961
N9840 X-3.645 Y-12.279 Z-5.863
N9845 X-3.651 Y-12.28 Z-5.763
N9850 Z5.
N9855 X-4.527 Y-22.495
N9860 Z-1.998
N9865 Z-3.598
N9870 X-4.525 Y-22.488 Z-3.755
N9875 X-4.519 Y-22.465 Z-3.91
N9880 X-4.51 Y-22.429 Z-4.063
N9885 X-4.497 Y-22.377 Z-4.211
N9890 X-4.48 Y-22.312 Z-4.353
N9895 X-4.46 Y-22.234 Z-4.487
N9900 X-4.437 Y-22.143 Z-4.613
N9905 X-4.41 Y-22.041 Z-4.73
N9910 X-4.382 Y-21.929 Z-4.835
N9915 X-4.35 Y-21.806 Z-4.929
N9920 X-4.317 Y-21.676 Z-5.009
N9925 X-4.282 Y-21.538 Z-5.076
N9930 X-4.245 Y-21.395 Z-5.129
N9935 X-4.207 Y-21.248 Z-5.168
N9940 X-4.169 Y-21.097 Z-5.191
N9945 X-4.13 Y-20.945 Z-5.198
N9950 G3 X-2.877 Y-12.235 I-39.57 J10.136
N9955 G1 Y-12.085
N9960 X-2.949 Y-11.692
N9965 X-3.093 Y-11.321
N9970 X-3.306 Y-10.983
N9975 X-3.579 Y-10.692
N9980 X-3.903 Y-10.458
N9985 X-4.264 Y-10.29
N9990 X-4.318 Y-10.272
N9995 X-4.798 Y-10.051
N10000 X-5.278 Y-9.784
N10005 X-5.757 Y-9.466
N10010 X-6.237 Y-9.145
N10015 X-7.197 Y-8.425
N10020 X-7.509 Y-8.156
N10025 X-7.676 Y-7.995
N10030 X-7.995 Y-7.676
N10035 X-8.156 Y-7.509
N10040 X-8.425 Y-7.197
N10045 X-9.145 Y-6.237
N10050 X-9.466 Y-5.757
N10055 X-9.784 Y-5.278
N10060 X-10.051 Y-4.798
N10065 X-10.272 Y-4.318
N10070 X-10.555 Y-3.514
N10075 X-10.607 Y-3.358
N10080 X-10.717 Y-2.879
N10085 X-10.823 Y-2.399
N10090 X-10.969 Y-1.439
N10095 X-11.025 Y-0.96
N10100 X-11.075 Y-0.48
N10105 X-11.077 Y0.
N10110 X-11.075 Y0.48
N10115 X-11.025 Y0.96
N10120 X-10.969 Y1.439
N10125 X-10.823 Y2.399
N10130 X-10.717 Y2.879
N10135 X-10.607 Y3.358
N10140 X-10.555 Y3.514
N10145 X-10.272 Y4.318
N10150 X-10.051 Y4.798
N10155 X-9.784 Y5.278
N10160 X-9.466 Y5.757
N10165 X-9.145 Y6.237
N10170 X-8.425 Y7.197
N10175 X-8.156 Y7.509
N10180 X-7.995 Y7.676
N10185 X-7.676 Y7.995
N10190 X-7.509 Y8.156
N10195 X-7.197 Y8.425
N10200 X-6.237 Y9.145
N10205 X-5.757 Y9.466
N10210 X-5.278 Y9.784
N10215 X-4.798 Y10.051
N10220 X-4.318 Y10.272
N10225 X-3.514 Y10.555
N10230 X-3.358 Y10.607
N10235 X-2.879 Y10.717
N10240 X-2.399 Y10.823
N10245 X-1.439 Y10.969
N10250 X-0.96 Y11.025
N10255 X-0.48 Y11.075
N10260 X0. Y11.077
N10265 X0.48 Y11.075
N10270 X0.96 Y11.025
N10275 X1.439 Y10.969
N10280 X2.399 Y10.823
N10285 X2.879 Y10.717
N10290 X3.358 Y10.607
N10295 X3.514 Y10.555
N10300 X4.318 Y10.272
N10305 X4.798 Y10.051
N10310 X5.278 Y9.784
N10315 X5.757 Y9.466
N10320 X6.237 Y9.145
N10325 X7.197 Y8.425
N10330 X7.509 Y8.156
N10335 X7.676 Y7.995
N10340 X7.995 Y7.676
N10345 X8.156 Y7.509
N10350 X8.425 Y7.197
N10355 X9.145 Y6.237
N10360 X9.466 Y5.757
N10365 X9.784 Y5.278
N10370 X10.051 Y4.798
N10375 X10.272 Y4.318
N10380 X10.555 Y3.514
N10385 X10.607 Y3.358
N10390 X10.717 Y2.879
N10395 X10.823 Y2.399
N10400 X10.969 Y1.439
N10405 X11.025 Y0.96
N10410 X11.075 Y0.48
N10415 X11.077 Y0.
N10420 X11.075 Y-0.48
N10425 X11.025 Y-0.96
N10430 X10.969 Y-1.439
N10435 X10.823 Y-2.399
N10440 X10.717 Y-2.879
N10445 X10.607 Y-3.358
N10450 X10.555 Y-3.514
N10455 X10.272 Y-4.318
N10460 X10.051 Y-4.798
N10465 X9.784 Y-5.278
N10470 X9.466 Y-5.757
N10475 X9.145 Y-6.237
N10480 X8.425 Y-7.197
N10485 X8.156 Y-7.509
N10490 X7.995 Y-7.676
N10495 X7.676 Y-7.995
N10500 X7.509 Y-8.156
N10505 X7.197 Y-8.425
N10510 X6.237 Y-9.145
N10515 X5.757 Y-9.466
N10520 X5.278 Y-9.784
N10525 X4.798 Y-10.051
N10530 X4.318 Y-10.272
N10535 X3.514 Y-10.555
N10540 X3.358 Y-10.607
N10545 X2.879 Y-10.717
N10550 X2.399 Y-10.823
N10555 X1.439 Y-10.969
N10560 X0.96 Y-11.025
N10565 X0.48 Y-11.075
N10570 X0. Y-11.077
N10575 X-0.48 Y-11.075
N10580 X-0.96 Y-11.025
N10585 X-1.439 Y-10.969
N10590 X-2.183 Y-10.856
N10595 X-2.276 Y-10.851 Z-5.193
N10600 X-2.369 Y-10.845 Z-5.176
N10605 X-2.466 Y-10.856 Z-5.145
N10610 X-2.559 Y-10.867 Z-5.101
N10615 X-2.645 Y-10.876 Z-5.046
N10620 X-2.723 Y-10.885 Z-4.98
N10625 X-2.791 Y-10.906 Z-4.902
N10630 X-2.848 Y-10.924 Z-4.815
N10635 X-2.894 Y-10.938 Z-4.721
N10640 X-2.927 Y-10.948 Z-4.622
N10645 X-2.947 Y-10.954 Z-4.518
N10650 X-2.954 Y-10.956 Z-4.413
N10655 Z5.
N10660 X-3.079 Y-21.37
N10665 Z-0.648
N10670 Z-2.248
N10675 X-3.077 Y-21.362 Z-2.405
N10680 X-3.071 Y-21.34 Z-2.56
N10685 X-3.062 Y-21.303 Z-2.713
N10690 X-3.049 Y-21.252 Z-2.861
N10695 X-3.032 Y-21.187 Z-3.003
N10700 X-3.012 Y-21.109 Z-3.137
N10705 X-2.989 Y-21.018 Z-3.263
N10710 X-2.963 Y-20.916 Z-3.38
N10715 X-2.934 Y-20.803 Z-3.485
N10720 X-2.903 Y-20.681 Z-3.579
N10725 X-2.869 Y-20.55 Z-3.659
N10730 X-2.834 Y-20.413 Z-3.726
N10735 X-2.797 Y-20.27 Z-3.779
N10740 X-2.759 Y-20.122 Z-3.818
N10745 X-2.721 Y-19.972 Z-3.841
N10750 X-2.682 Y-19.82 Z-3.848
N10755 G3 X-1.429 Y-11.109 I-39.57 J10.136
N10760 G1 Y-10.959
N10765 X-1.445 Y-10.81
N10770 X-1.549 Y-10.444
N10775 X-1.719 Y-10.103
N10780 X-1.948 Y-9.798
N10785 X-2.228 Y-9.541
N10790 X-2.551 Y-9.339
N10795 X-2.906 Y-9.199
N10800 X-3.193 Y-9.116
N10805 X-3.358 Y-9.063
N10810 X-3.838 Y-8.871
N10815 X-4.318 Y-8.635
N10820 X-5.148 Y-8.156
N10825 X-5.278 Y-8.068
N10830 X-5.809 Y-7.676
N10835 X-6.237 Y-7.342
N10840 X-6.406 Y-7.197
N10845 X-6.717 Y-6.913
N10850 X-6.913 Y-6.717
N10855 X-7.197 Y-6.406
N10860 X-7.342 Y-6.237
N10865 X-7.676 Y-5.809
N10870 X-8.068 Y-5.278
N10875 X-8.156 Y-5.148
N10880 X-8.636 Y-4.317
N10885 X-8.871 Y-3.838
N10890 X-9.063 Y-3.358
N10895 X-9.116 Y-3.193
N10900 X-9.347 Y-2.399
N10905 X-9.435 Y-1.919
N10910 X-9.52 Y-1.439
N10915 X-9.575 Y-0.96
N10920 X-9.627 Y-0.48
N10925 X-9.63 Y0.
N10930 X-9.627 Y0.48
N10935 X-9.575 Y0.96
N10940 X-9.52 Y1.439
N10945 X-9.435 Y1.919
N10950 X-9.347 Y2.399
N10955 X-9.116 Y3.193
N10960 X-9.063 Y3.358
N10965 X-8.871 Y3.838
N10970 X-8.635 Y4.318
N10975 X-8.156 Y5.148
N10980 X-8.068 Y5.278
N10985 X-7.676 Y5.809
N10990 X-7.342 Y6.237
N10995 X-7.197 Y6.406
N11000 X-6.913 Y6.717
N11005 X-6.717 Y6.913
N11010 X-6.406 Y7.197
N11015 X-6.237 Y7.342
N11020 X-5.809 Y7.676
N11025 X-5.278 Y8.068
N11030 X-5.148 Y8.156
N11035 X-4.317 Y8.636
N11040 X-3.838 Y8.871
N11045 X-3.358 Y9.063
N11050 X-3.193 Y9.116
N11055 X-2.399 Y9.347
N11060 X-1.919 Y9.435
N11065 X-1.439 Y9.52
N11070 X-0.96 Y9.575
N11075 X-0.48 Y9.627
N11080 X0. Y9.63
N11085 X0.48 Y9.627
N11090 X0.96 Y9.575
N11095 X1.439 Y9.52
N11100 X1.919 Y9.435
N11105 X2.399 Y9.347
N11110 X3.193 Y9.116
N11115 X3.358 Y9.063
N11120 X3.838 Y8.871
N11125 X4.318 Y8.635
N11130 X5.148 Y8.156
N11135 X5.278 Y8.068
N11140 X5.809 Y7.676
N11145 X6.237 Y7.342
N11150 X6.406 Y7.197
N11155 X6.717 Y6.913
N11160 X6.913 Y6.717
N11165 X7.197 Y6.406
N11170 X7.342 Y6.237
N11175 X7.676 Y5.809
N11180 X8.068 Y5.278
N11185 X8.156 Y5.148
N11190 X8.636 Y4.317
N11195 X8.871 Y3.838
N11200 X9.063 Y3.358
N11205 X9.116 Y3.193
N11210 X9.347 Y2.399
N11215 X9.435 Y1.919
N11220 X9.52 Y1.439
N11225 X9.575 Y0.96
N11230 X9.627 Y0.48
N11235 X9.63 Y0.
N11240 X9.627 Y-0.48
N11245 X9.575 Y-0.96
N11250 X9.52 Y-1.439
N11255 X9.435 Y-1.919
N11260 X9.347 Y-2.399
N11265 X9.116 Y-3.193
N11270 X9.063 Y-3.358
N11275 X8.871 Y-3.838
N11280 X8.635 Y-4.318
N11285 X8.156 Y-5.148
N11290 X8.068 Y-5.278
N11295 X7.676 Y-5.809
N11300 X7.342 Y-6.237
N11305 X7.197 Y-6.406
N11310 X6.913 Y-6.717
N11315 X6.717 Y-6.913
N11320 X6.406 Y-7.197
N11325 X6.237 Y-7.342
N11330 X5.809 Y-7.676
N11335 X5.278 Y-8.068
N11340 X5.148 Y-8.156
N11345 X4.318 Y-8.635
N11350 X4.246 Y-8.693 Z-3.843
N11355 X4.174 Y-8.749 Z-3.826
N11360 X4.105 Y-8.804 Z-3.799
N11365 X4.039 Y-8.857 Z-3.762
N11370 X3.982 Y-8.927 Z-3.708
N11375 X3.931 Y-8.991 Z-3.643
N11380 X3.885 Y-9.047 Z-3.567
N11385 X3.846 Y-9.096 Z-3.482
N11390 X3.815 Y-9.134 Z-3.389
N11395 X3.799 Y-9.161 Z-3.311
N11400 X3.788 Y-9.18 Z-3.23
N11405 X3.781 Y-9.191 Z-3.147
N11410 X3.778 Y-9.195 Z-3.063
N11415 Z5.
N11420 X-19.88 Y1.818
N11425 Z0.702
N11430 Z-0.898
N11435 X-19.873 Y1.816 Z-1.055
N11440 X-19.851 Y1.81 Z-1.21
N11445 X-19.814 Y1.8 Z-1.363
N11450 X-19.763 Y1.787 Z-1.511
N11455 X-19.698 Y1.77 Z-1.653
N11460 X-19.62 Y1.75 Z-1.787
N11465 X-19.529 Y1.726 Z-1.913
N11470 X-19.427 Y1.699 Z-2.03
N11475 X-19.314 Y1.67 Z-2.135
N11480 X-19.192 Y1.638 Z-2.229
N11485 X-19.062 Y1.604 Z-2.309
N11490 X-18.925 Y1.568 Z-2.376
N11495 X-18.782 Y1.531 Z-2.429
N11500 X-18.634 Y1.492 Z-2.468
N11505 X-18.484 Y1.453 Z-2.491
N11510 X-18.332 Y1.414 Z-2.498
N11515 G3 X-9.628 Y0.12 I10.322 J39.522
N11520 G1 X-9.547
N11525 X-8.849 Y0.299
N11530 X-7.478 Y0.773
N11535 X-6.785 Y0.987
N11540 X-6.43 Y1.064
N11545 X-6.341 Y1.077
N11550 X-6.25 Y1.087
N11555 X-6.161 Y1.11 Z-2.493
N11560 X-6.073 Y1.134 Z-2.476
N11565 X-5.988 Y1.156 Z-2.449
N11570 X-5.906 Y1.178 Z-2.412
N11575 X-5.826 Y1.22 Z-2.358
N11580 X-5.753 Y1.258 Z-2.293
N11585 X-5.689 Y1.292 Z-2.217
N11590 X-5.634 Y1.32 Z-2.132
N11595 X-5.59 Y1.344 Z-2.039
N11600 X-5.565 Y1.361 Z-1.961
N11605 X-5.547 Y1.374 Z-1.88
N11610 X-5.536 Y1.382 Z-1.797
N11615 X-5.532 Y1.385 Z-1.713
N11620 Z5.
N11625 X-61.636 Y-78.252
N11630 Z-22.248
N11635 Z-23.848
N11640 X-61.634 Y-78.244 Z-24.005
N11645 X-61.628 Y-78.222 Z-24.16
N11650 X-61.619 Y-78.185 Z-24.313
N11655 X-61.606 Y-78.134 Z-24.461
N11660 X-61.589 Y-78.069 Z-24.603
N11665 X-61.569 Y-77.99 Z-24.737
N11670 X-61.546 Y-77.9 Z-24.863
N11675 X-61.52 Y-77.798 Z-24.98
N11680 X-61.491 Y-77.685 Z-25.085
N11685 X-61.46 Y-77.563 Z-25.179
N11690 X-61.426 Y-77.432 Z-25.259
N11695 X-61.391 Y-77.295 Z-25.326
N11700 X-61.354 Y-77.152 Z-25.379
N11705 X-61.317 Y-77.004 Z-25.418
N11710 X-61.278 Y-76.854 Z-25.441
N11715 X-61.239 Y-76.702 Z-25.448
N11720 G3 X-59.986 Y-67.991 I-39.57 J10.136
N11725 G1 Y-67.841
N11730 X-60.275 Y-66.419
N11735 X-60.511 Y-64.988
N11740 X-60.706 Y-63.55
N11745 X-60.865 Y-62.108
N11750 X-60.995 Y-60.663
N11755 X-61.102 Y-59.216
N11760 X-61.189 Y-57.768
N11765 X-61.261 Y-56.319
N11770 X-61.319 Y-54.869
N11775 X-61.366 Y-53.419
N11780 X-61.405 Y-51.969
N11785 X-61.437 Y-50.518
N11790 X-61.463 Y-49.068
N11795 X-61.484 Y-47.617
N11800 X-61.501 Y-46.166
N11805 X-61.515 Y-44.716
N11810 X-61.527 Y-43.265
N11815 X-61.536 Y-41.814
N11820 X-61.544 Y-40.363
N11825 X-61.55 Y-38.912
N11830 X-61.56 Y-36.011
N11835 X-61.566 Y-33.109
N11840 X-61.572 Y-28.757
N11845 X-61.576 Y-22.953
N11850 X-61.578 Y-17.15
N11855 X-61.582 Y8.965
N11860 X-61.584 Y33.629
N11865 X-61.586 Y52.49
N11870 X-61.528 Y52.848
N11875 X-61.16 Y54.251
N11880 X-60.375 Y55.471
N11885 X-59.364 Y56.511
N11890 X-58.208 Y57.389
N11895 X-56.957 Y58.123
N11900 X-55.641 Y58.735
N11905 X-54.282 Y59.242
N11910 X-52.893 Y59.661
N11915 X-51.484 Y60.007
N11920 X-50.062 Y60.292
N11925 X-48.63 Y60.526
N11930 X-47.192 Y60.718
N11935 X-45.749 Y60.875
N11940 X-44.304 Y61.004
N11945 X-42.857 Y61.109
N11950 X-41.409 Y61.196
N11955 X-39.96 Y61.266
N11960 X-38.51 Y61.323
N11965 X-37.06 Y61.37
N11970 X-35.61 Y61.409
N11975 X-34.159 Y61.44
N11980 X-32.709 Y61.466
N11985 X-31.258 Y61.487
N11990 X-29.807 Y61.504
N11995 X-28.357 Y61.518
N12000 X-26.906 Y61.529
N12005 X-25.455 Y61.538
N12010 X-24.004 Y61.546
N12015 X-22.553 Y61.552
N12020 X-19.652 Y61.561
N12025 X-16.75 Y61.568
N12030 X-12.398 Y61.573
N12035 X-6.594 Y61.577
N12040 X5.012 Y61.581
N12045 X18.07 Y61.582
N12050 X52.89 Y61.586
N12055 X54.283 Y61.183
N12060 X55.499 Y60.391
N12065 X56.535 Y59.375
N12070 X57.408 Y58.217
N12075 X58.139 Y56.963
N12080 X58.748 Y55.646
N12085 X59.253 Y54.286
N12090 X59.671 Y52.897
N12095 X60.015 Y51.488
N12100 X60.298 Y50.065
N12105 X60.531 Y48.633
N12110 X60.722 Y47.194
N12115 X60.879 Y45.752
N12120 X61.007 Y44.307
N12125 X61.112 Y42.86
N12130 X61.197 Y41.412
N12135 X61.268 Y39.962
N12140 X61.325 Y38.513
N12145 X61.371 Y37.063
N12150 X61.41 Y35.612
N12155 X61.441 Y34.162
N12160 X61.466 Y32.711
N12165 X61.487 Y31.261
N12170 X61.504 Y29.81
N12175 X61.518 Y28.359
N12180 X61.529 Y26.908
N12185 X61.538 Y25.458
N12190 X61.546 Y24.007
N12195 X61.552 Y22.556
N12200 X61.561 Y19.654
N12205 X61.568 Y16.753
N12210 X61.573 Y12.4
N12215 X61.577 Y6.597
N12220 X61.58 Y-2.108
N12225 X61.586 Y-52.887
N12230 X61.184 Y-54.281
N12235 X60.392 Y-55.497
N12240 X59.377 Y-56.533
N12245 X58.218 Y-57.407
N12250 X56.965 Y-58.138
N12255 X55.649 Y-58.747
N12260 X54.289 Y-59.252
N12265 X52.899 Y-59.67
N12270 X51.49 Y-60.014
N12275 X50.067 Y-60.298
N12280 X48.635 Y-60.531
N12285 X47.197 Y-60.722
N12290 X45.754 Y-60.879
N12295 X44.309 Y-61.007
N12300 X42.862 Y-61.112
N12305 X41.414 Y-61.197
N12310 X39.965 Y-61.267
N12315 X38.515 Y-61.325
N12320 X37.065 Y-61.371
N12325 X35.615 Y-61.41
N12330 X34.164 Y-61.441
N12335 X32.714 Y-61.466
N12340 X31.263 Y-61.487
N12345 X29.812 Y-61.504
N12350 X28.361 Y-61.518
N12355 X26.911 Y-61.529
N12360 X25.46 Y-61.538
N12365 X24.009 Y-61.546
N12370 X22.558 Y-61.552
N12375 X19.657 Y-61.561
N12380 X16.755 Y-61.568
N12385 X13.853 Y-61.572
N12390 X8.05 Y-61.577
N12395 X-2.106 Y-61.58
N12400 X-36.926 Y-61.584
N12405 X-45.631 Y-61.585
N12410 X-47.063 Y-61.354
N12415 X-48.347 Y-60.678
N12420 X-49.459 Y-59.746
N12425 X-50.409 Y-58.65
N12430 X-51.213 Y-57.442
N12435 X-51.889 Y-56.158
N12440 X-52.454 Y-54.822
N12445 X-52.927 Y-53.45
N12450 X-53.319 Y-52.054
N12455 X-53.645 Y-50.64
N12460 X-53.915 Y-49.214
N12465 X-54.138 Y-47.781
N12470 X-54.322 Y-46.342
N12475 X-54.474 Y-44.899
N12480 X-54.599 Y-43.454
N12485 X-54.703 Y-42.006
N12490 X-54.787 Y-40.558
N12495 X-54.857 Y-39.109
N12500 X-54.915 Y-37.659
N12505 X-54.962 Y-36.209
N12510 X-55.001 Y-34.759
N12515 X-55.033 Y-33.308
N12520 X-55.059 Y-31.858
N12525 X-55.08 Y-30.407
N12530 X-55.098 Y-28.956
N12535 X-55.113 Y-27.506
N12540 X-55.125 Y-26.055
N12545 X-55.134 Y-24.604
N12550 X-55.142 Y-23.153
N12555 X-55.149 Y-21.702
N12560 X-55.159 Y-18.801
N12565 X-55.166 Y-15.899
N12570 X-55.172 Y-11.547
N12575 X-55.177 Y-5.743
N12580 X-55.18 Y4.412
N12585 X-55.183 Y27.626
N12590 X-55.185 Y43.585
N12595 X-55.041 Y45.028
N12600 X-54.561 Y46.398
N12605 X-53.818 Y47.644
N12610 X-52.882 Y48.752
N12615 X-51.803 Y49.722
N12620 X-50.62 Y50.562
N12625 X-49.362 Y51.284
N12630 X-48.049 Y51.901
N12635 X-46.696 Y52.426
N12640 X-45.315 Y52.872
N12645 X-43.914 Y53.247
N12650 X-42.498 Y53.564
N12655 X-41.072 Y53.831
N12660 X-39.638 Y54.054
N12665 X-38.2 Y54.242
N12670 X-36.757 Y54.398
N12675 X-35.313 Y54.529
N12680 X-33.866 Y54.639
N12685 X-32.418 Y54.73
N12690 X-30.969 Y54.806
N12695 X-29.52 Y54.869
N12700 X-28.07 Y54.922
N12705 X-26.62 Y54.966
N12710 X-25.169 Y55.002
N12715 X-23.719 Y55.033
N12720 X-22.268 Y55.058
N12725 X-20.817 Y55.079
N12730 X-19.367 Y55.096
N12735 X-17.916 Y55.111
N12740 X-16.465 Y55.123
N12745 X-15.014 Y55.133
N12750 X-13.564 Y55.141
N12755 X-12.113 Y55.148
N12760 X-9.211 Y55.158
N12765 X-6.309 Y55.165
N12770 X-1.957 Y55.172
N12775 X3.846 Y55.177
N12780 X14.002 Y55.181
N12785 X25.609 Y55.183
N12790 X43.019 Y55.185
N12795 X44.47 Y55.183
N12800 X45.876 Y54.827
N12805 X47.173 Y54.177
N12810 X48.336 Y53.309
N12815 X49.359 Y52.28
N12820 X50.248 Y51.134
N12825 X51.016 Y49.903
N12830 X51.672 Y48.609
N12835 X52.232 Y47.271
N12840 X52.707 Y45.9
N12845 X53.109 Y44.506
N12850 X53.447 Y43.095
N12855 X53.732 Y41.672
N12860 X53.972 Y40.242
N12865 X54.173 Y38.805
N12870 X54.341 Y37.364
N12875 X54.481 Y35.92
N12880 X54.599 Y34.474
N12885 X54.697 Y33.026
N12890 X54.778 Y31.577
N12895 X54.846 Y30.128
N12900 X54.903 Y28.679
N12905 X54.95 Y27.228
N12910 X54.989 Y25.778
N12915 X55.022 Y24.328
N12920 X55.049 Y22.877
N12925 X55.071 Y21.426
N12930 X55.09 Y19.976
N12935 X55.105 Y18.525
N12940 X55.118 Y17.074
N12945 X55.129 Y15.623
N12950 X55.138 Y14.173
N12955 X55.145 Y12.722
N12960 X55.151 Y11.271
N12965 X55.161 Y8.369
N12970 X55.167 Y5.468
N12975 X55.173 Y1.115
N12980 X55.178 Y-4.688
N12985 X55.181 Y-14.844
N12990 X55.183 Y-23.549
N12995 X55.185 Y-43.86
N13000 X54.978 Y-45.296
N13005 X54.444 Y-46.645
N13010 X53.66 Y-47.867
N13015 X52.694 Y-48.948
N13020 X51.592 Y-49.893
N13025 X50.393 Y-50.71
N13030 X49.123 Y-51.411
N13035 X47.802 Y-52.01
N13040 X46.443 Y-52.519
N13045 X45.058 Y-52.95
N13050 X43.653 Y-53.314
N13055 X42.235 Y-53.62
N13060 X40.808 Y-53.878
N13065 X39.373 Y-54.094
N13070 X37.933 Y-54.275
N13075 X36.491 Y-54.426
N13080 X35.045 Y-54.553
N13085 X33.598 Y-54.658
N13090 X32.15 Y-54.746
N13095 X30.701 Y-54.82
N13100 X29.252 Y-54.881
N13105 X27.802 Y-54.932
N13110 X26.351 Y-54.974
N13115 X24.901 Y-55.009
N13120 X23.45 Y-55.038
N13125 X22. Y-55.062
N13130 X20.549 Y-55.083
N13135 X19.098 Y-55.099
N13140 X17.648 Y-55.113
N13145 X16.197 Y-55.125
N13150 X14.746 Y-55.134
N13155 X13.295 Y-55.142
N13160 X11.844 Y-55.149
N13165 X8.943 Y-55.159
N13170 X6.041 Y-55.166
N13175 X1.689 Y-55.173
N13180 X-4.115 Y-55.178
N13185 X-14.27 Y-55.181
N13190 X-21.525 Y-55.183
N13195 X-37.484 Y-55.184
N13200 X-38.91 Y-54.917
N13205 X-40.243 Y-54.345
N13210 X-41.45 Y-53.54
N13215 X-42.521 Y-52.561
N13220 X-43.457 Y-51.453
N13225 X-44.269 Y-50.251
N13230 X-44.967 Y-48.979
N13235 X-45.565 Y-47.657
N13240 X-46.074 Y-46.298
N13245 X-46.506 Y-44.913
N13250 X-46.872 Y-43.509
N13255 X-47.181 Y-42.092
N13260 X-47.441 Y-40.664
N13265 X-47.66 Y-39.23
N13270 X-47.844 Y-37.791
N13275 X-47.998 Y-36.348
N13280 X-48.128 Y-34.903
N13285 X-48.236 Y-33.457
N13290 X-48.326 Y-32.009
N13295 X-48.402 Y-30.56
N13300 X-48.465 Y-29.11
N13305 X-48.518 Y-27.66
N13310 X-48.562 Y-26.21
N13315 X-48.598 Y-24.76
N13320 X-48.629 Y-23.309
N13325 X-48.654 Y-21.859
N13330 X-48.676 Y-20.408
N13335 X-48.693 Y-18.957
N13340 X-48.708 Y-17.507
N13345 X-48.72 Y-16.056
N13350 X-48.73 Y-14.605
N13355 X-48.739 Y-13.154
N13360 X-48.746 Y-11.703
N13365 X-48.757 Y-8.802
N13370 X-48.764 Y-5.9
N13375 X-48.772 Y-1.548
N13380 X-48.777 Y4.256
N13385 X-48.781 Y12.961
N13390 X-48.783 Y26.018
N13395 X-48.784 Y36.174
N13400 X-48.626 Y37.616
N13405 X-48.188 Y38.999
N13410 X-47.509 Y40.281
N13415 X-46.637 Y41.441
N13420 X-45.618 Y42.473
N13425 X-44.487 Y43.382
N13430 X-43.271 Y44.174
N13435 X-41.993 Y44.86
N13440 X-40.668 Y45.451
N13445 X-39.309 Y45.958
N13450 X-37.924 Y46.392
N13455 X-36.521 Y46.762
N13460 X-35.105 Y47.077
N13465 X-33.679 Y47.344
N13470 X-32.246 Y47.57
N13475 X-30.808 Y47.762
N13480 X-29.366 Y47.924
N13485 X-27.922 Y48.061
N13490 X-26.475 Y48.176
N13495 X-25.028 Y48.273
N13500 X-23.579 Y48.355
N13505 X-22.13 Y48.423
N13510 X-20.68 Y48.481
N13515 X-19.23 Y48.53
N13520 X-17.78 Y48.57
N13525 X-16.33 Y48.605
N13530 X-14.879 Y48.633
N13535 X-13.429 Y48.657
N13540 X-11.978 Y48.678
N13545 X-10.527 Y48.695
N13550 X-9.076 Y48.709
N13555 X-7.626 Y48.721
N13560 X-6.175 Y48.731
N13565 X-4.724 Y48.739
N13570 X-3.273 Y48.746
N13575 X-0.372 Y48.757
N13580 X2.53 Y48.764
N13585 X6.883 Y48.772
N13590 X12.686 Y48.777
N13595 X21.391 Y48.781
N13600 X35.899 Y48.784
N13605 X37.346 Y48.683
N13610 X38.746 Y48.299
N13615 X40.05 Y47.664
N13620 X41.234 Y46.826
N13625 X42.291 Y45.833
N13630 X43.223 Y44.72
N13635 X44.036 Y43.519
N13640 X44.741 Y42.251
N13645 X45.349 Y40.933
N13650 X45.871 Y39.58
N13655 X46.318 Y38.199
N13660 X46.699 Y36.799
N13665 X47.023 Y35.385
N13670 X47.299 Y33.961
N13675 X47.532 Y32.529
N13680 X47.73 Y31.092
N13685 X47.897 Y29.65
N13690 X48.038 Y28.207
N13695 X48.157 Y26.761
N13700 X48.257 Y25.313
N13705 X48.341 Y23.865
N13710 X48.412 Y22.416
N13715 X48.472 Y20.966
N13720 X48.522 Y19.516
N13725 X48.564 Y18.066
N13730 X48.599 Y16.616
N13735 X48.629 Y15.165
N13740 X48.654 Y13.714
N13745 X48.674 Y12.264
N13750 X48.692 Y10.813
N13755 X48.706 Y9.362
N13760 X48.719 Y7.911
N13765 X48.729 Y6.461
N13770 X48.738 Y5.01
N13775 X48.745 Y3.559
N13780 X48.751 Y2.108
N13785 X48.76 Y-0.793
N13790 X48.767 Y-3.695
N13795 X48.773 Y-8.048
N13800 X48.778 Y-13.851
N13805 X48.782 Y-24.007
N13810 X48.784 Y-35.613
N13815 X48.729 Y-37.063
N13820 X48.397 Y-38.475
N13825 X47.806 Y-39.8
N13830 X47.003 Y-41.009
N13835 X46.036 Y-42.091
N13840 X44.944 Y-43.046
N13845 X43.758 Y-43.881
N13850 X42.502 Y-44.607
N13855 X41.193 Y-45.233
N13860 X39.846 Y-45.772
N13865 X38.471 Y-46.233
N13870 X37.074 Y-46.627
N13875 X35.663 Y-46.962
N13880 X34.24 Y-47.247
N13885 X32.809 Y-47.488
N13890 X31.373 Y-47.693
N13895 X29.933 Y-47.865
N13900 X28.489 Y-48.011
N13905 X27.043 Y-48.134
N13910 X25.596 Y-48.238
N13915 X24.148 Y-48.325
N13920 X22.699 Y-48.399
N13925 X21.25 Y-48.461
N13930 X19.8 Y-48.512
N13935 X18.35 Y-48.556
N13940 X16.899 Y-48.593
N13945 X15.449 Y-48.623
N13950 X13.998 Y-48.649
N13955 X12.547 Y-48.671
N13960 X11.097 Y-48.689
N13965 X9.646 Y-48.704
N13970 X8.195 Y-48.716
N13975 X6.744 Y-48.727
N13980 X5.294 Y-48.736
N13985 X3.843 Y-48.744
N13990 X2.392 Y-48.75
N13995 X-0.51 Y-48.759
N14000 X-3.411 Y-48.766
N14005 X-7.764 Y-48.773
N14010 X-9.215 Y-48.775
N14015 X-16.469 Y-48.78
N14020 X-29.526 Y-48.783
N14025 X-30.971 Y-48.647
N14030 X-32.362 Y-48.236
N14035 X-33.657 Y-47.582
N14040 X-34.833 Y-46.733
N14045 X-35.883 Y-45.731
N14050 X-36.809 Y-44.614
N14055 X-37.618 Y-43.41
N14060 X-38.321 Y-42.141
N14065 X-38.927 Y-40.823
N14070 X-39.449 Y-39.469
N14075 X-39.896 Y-38.089
N14080 X-40.278 Y-36.689
N14085 X-40.603 Y-35.275
N14090 X-40.879 Y-33.851
N14095 X-41.114 Y-32.419
N14100 X-41.313 Y-30.982
N14105 X-41.481 Y-29.541
N14110 X-41.623 Y-28.097
N14115 X-41.744 Y-26.651
N14120 X-41.845 Y-25.204
N14125 X-41.93 Y-23.756
N14130 X-42.003 Y-22.307
N14135 X-42.063 Y-20.857
N14140 X-42.114 Y-19.407
N14145 X-42.157 Y-17.957
N14150 X-42.193 Y-16.507
N14155 X-42.223 Y-15.056
N14160 X-42.249 Y-13.605
N14165 X-42.27 Y-12.155
N14170 X-42.288 Y-10.704
N14175 X-42.303 Y-9.253
N14180 X-42.316 Y-7.802
N14185 X-42.327 Y-6.352
N14190 X-42.336 Y-4.901
N14195 X-42.343 Y-3.45
N14200 X-42.349 Y-1.999
N14205 X-42.359 Y0.902
N14210 X-42.366 Y3.804
N14215 X-42.373 Y8.156
N14220 X-42.378 Y13.96
N14225 X-42.382 Y24.116
N14230 X-42.383 Y27.017
N14235 Y28.468
N14240 X-42.334 Y29.918
N14245 X-42.044 Y31.34
N14250 X-41.508 Y32.688
N14255 X-40.761 Y33.931
N14260 X-39.845 Y35.056
N14265 X-38.796 Y36.059
N14270 X-37.646 Y36.944
N14275 X-36.42 Y37.719
N14280 X-35.135 Y38.393
N14285 X-33.807 Y38.977
N14290 X-32.446 Y39.48
N14295 X-31.061 Y39.913
N14300 X-29.659 Y40.284
N14305 X-28.243 Y40.601
N14310 X-26.818 Y40.871
N14315 X-25.385 Y41.102
N14320 X-23.948 Y41.298
N14325 X-22.507 Y41.465
N14330 X-21.063 Y41.607
N14335 X-19.617 Y41.727
N14340 X-18.17 Y41.829
N14345 X-16.721 Y41.915
N14350 X-15.272 Y41.988
N14355 X-13.823 Y42.049
N14360 X-12.373 Y42.101
N14365 X-10.923 Y42.145
N14370 X-9.472 Y42.183
N14375 X-8.022 Y42.214
N14380 X-6.571 Y42.24
N14385 X-5.121 Y42.263
N14390 X-3.67 Y42.282
N14395 X-2.219 Y42.298
N14400 X-0.769 Y42.311
N14405 X0.682 Y42.322
N14410 X2.133 Y42.332
N14415 X3.584 Y42.34
N14420 X5.035 Y42.347
N14425 X7.936 Y42.357
N14430 X10.838 Y42.365
N14435 X15.19 Y42.372
N14440 X20.994 Y42.378
N14445 X28.248 Y42.381
N14450 X29.699 Y42.363
N14455 X31.128 Y42.112
N14460 X32.489 Y41.612
N14465 X33.75 Y40.894
N14470 X34.894 Y40.002
N14475 X35.916 Y38.972
N14480 X36.818 Y37.836
N14485 X37.609 Y36.62
N14490 X38.298 Y35.343
N14495 X38.895 Y34.021
N14500 X39.41 Y32.664
N14505 X39.853 Y31.283
N14510 X40.232 Y29.882
N14515 X40.557 Y28.468
N14520 X40.834 Y27.044
N14525 X41.07 Y25.613
N14530 X41.272 Y24.176
N14535 X41.442 Y22.735
N14540 X41.587 Y21.292
N14545 X41.711 Y19.846
N14550 X41.815 Y18.399
N14555 X41.903 Y16.951
N14560 X41.978 Y15.502
N14565 X42.041 Y14.052
N14570 X42.094 Y12.603
N14575 X42.14 Y11.152
N14580 X42.178 Y9.702
N14585 X42.21 Y8.252
N14590 X42.237 Y6.801
N14595 X42.26 Y5.35
N14600 X42.279 Y3.9
N14605 X42.295 Y2.449
N14610 X42.309 Y0.998
N14615 X42.321 Y-0.453
N14620 X42.331 Y-1.903
N14625 X42.339 Y-3.354
N14630 X42.346 Y-4.805
N14635 X42.357 Y-7.707
N14640 X42.364 Y-10.608
N14645 X42.372 Y-14.961
N14650 X42.378 Y-20.764
N14655 X42.38 Y-25.117
N14660 X42.381 Y-28.018
N14665 X42.379 Y-29.469
N14670 X42.167 Y-30.904
N14675 X41.704 Y-32.279
N14680 X41.017 Y-33.557
N14685 X40.15 Y-34.72
N14690 X39.139 Y-35.761
N14695 X38.018 Y-36.682
N14700 X36.813 Y-37.49
N14705 X35.545 Y-38.195
N14710 X34.229 Y-38.806
N14715 X32.878 Y-39.333
N14720 X31.499 Y-39.787
N14725 X30.102 Y-40.176
N14730 X28.69 Y-40.508
N14735 X27.267 Y-40.793
N14740 X25.836 Y-41.035
N14745 X24.4 Y-41.241
N14750 X22.96 Y-41.417
N14755 X21.517 Y-41.566
N14760 X20.072 Y-41.692
N14765 X18.625 Y-41.799
N14770 X17.177 Y-41.89
N14775 X15.728 Y-41.967
N14780 X14.279 Y-42.032
N14785 X12.829 Y-42.086
N14790 X11.379 Y-42.133
N14795 X9.928 Y-42.172
N14800 X8.478 Y-42.205
N14805 X7.027 Y-42.233
N14810 X5.577 Y-42.256
N14815 X4.126 Y-42.276
N14820 X2.675 Y-42.293
N14825 X1.225 Y-42.307
N14830 X-0.226 Y-42.319
N14835 X-1.677 Y-42.329
N14840 X-3.128 Y-42.338
N14845 X-4.579 Y-42.345
N14850 X-7.48 Y-42.356
N14855 X-10.382 Y-42.364
N14860 X-14.734 Y-42.372
N14865 X-20.538 Y-42.378
N14870 X-21.988 Y-42.379
N14875 X-23.438 Y-42.329
N14880 X-24.86 Y-42.04
N14885 X-26.21 Y-41.508
N14890 X-27.456 Y-40.766
N14895 X-28.585 Y-39.854
N14900 X-29.592 Y-38.81
N14905 X-30.482 Y-37.664
N14910 X-31.262 Y-36.44
N14915 X-31.941 Y-35.158
N14920 X-32.53 Y-33.832
N14925 X-33.037 Y-32.473
N14930 X-33.474 Y-31.09
N14935 X-33.849 Y-29.688
N14940 X-34.17 Y-28.273
N14945 X-34.444 Y-26.849
N14950 X-34.677 Y-25.417
N14955 X-34.876 Y-23.98
N14960 X-35.046 Y-22.539
N14965 X-35.189 Y-21.095
N14970 X-35.312 Y-19.649
N14975 X-35.415 Y-18.202
N14980 X-35.503 Y-16.754
N14985 X-35.577 Y-15.305
N14990 X-35.64 Y-13.856
N14995 X-35.693 Y-12.406
N15000 X-35.738 Y-10.956
N15005 X-35.777 Y-9.505
N15010 X-35.809 Y-8.055
N15015 X-35.836 Y-6.604
N15020 X-35.859 Y-5.154
N15025 X-35.878 Y-3.703
N15030 X-35.895 Y-2.252
N15035 X-35.908 Y-0.801
N15040 X-35.92 Y0.649
N15045 X-35.93 Y2.1
N15050 X-35.938 Y3.551
N15055 X-35.945 Y5.002
N15060 X-35.956 Y7.903
N15065 X-35.964 Y10.805
N15070 X-35.972 Y15.158
N15075 X-35.978 Y20.961
N15080 X-35.976 Y22.412
N15085 X-35.815 Y23.854
N15090 X-35.415 Y25.248
N15095 X-34.79 Y26.558
N15100 X-33.977 Y27.759
N15105 X-33.013 Y28.843
N15110 X-31.93 Y29.809
N15115 X-30.756 Y30.661
N15120 X-29.512 Y31.408
N15125 X-28.215 Y32.059
N15130 X-26.879 Y32.624
N15135 X-25.513 Y33.112
N15140 X-24.124 Y33.532
N15145 X-22.719 Y33.893
N15150 X-21.302 Y34.203
N15155 X-19.875 Y34.468
N15160 X-18.442 Y34.695
N15165 X-17.004 Y34.888
N15170 X-15.563 Y35.053
N15175 X-14.119 Y35.194
N15180 X-12.673 Y35.314
N15185 X-11.226 Y35.415
N15190 X-9.778 Y35.502
N15195 X-8.329 Y35.575
N15200 X-6.879 Y35.638
N15205 X-5.429 Y35.69
N15210 X-3.979 Y35.735
N15215 X-2.529 Y35.773
N15220 X-1.078 Y35.805
N15225 X0.372 Y35.833
N15230 X1.823 Y35.856
N15235 X3.274 Y35.876
N15240 X4.724 Y35.892
N15245 X6.175 Y35.906
N15250 X7.626 Y35.918
N15255 X9.077 Y35.928
N15260 X10.528 Y35.937
N15265 X11.978 Y35.944
N15270 X14.88 Y35.955
N15275 X16.331 Y35.96
N15280 X19.232 Y35.966
N15285 X20.683 Y35.969
N15290 X22.134 Y35.971
N15295 X23.58 Y35.856
N15300 X24.988 Y35.504
N15305 X26.317 Y34.922
N15310 X27.54 Y34.142
N15315 X28.648 Y33.205
N15320 X29.636 Y32.142
N15325 X30.509 Y30.984
N15330 X31.275 Y29.752
N15335 X31.944 Y28.464
N15340 X32.524 Y27.134
N15345 X33.026 Y25.773
N15350 X33.459 Y24.388
N15355 X33.83 Y22.986
N15360 X34.149 Y21.571
N15365 X34.422 Y20.146
N15370 X34.656 Y18.714
N15375 X34.855 Y17.277
N15380 X35.025 Y15.836
N15385 X35.17 Y14.392
N15390 X35.293 Y12.947
N15395 X35.398 Y11.5
N15400 X35.487 Y10.052
N15405 X35.563 Y8.603
N15410 X35.627 Y7.153
N15415 X35.681 Y5.704
N15420 X35.728 Y4.253
N15425 X35.767 Y2.803
N15430 X35.8 Y1.353
N15435 X35.828 Y-0.098
N15440 X35.852 Y-1.548
N15445 X35.872 Y-2.999
N15450 X35.889 Y-4.45
N15455 X35.904 Y-5.901
N15460 X35.916 Y-7.351
N15465 X35.926 Y-8.802
N15470 X35.935 Y-10.253
N15475 X35.943 Y-11.704
N15480 X35.954 Y-14.605
N15485 X35.963 Y-17.507
N15490 X35.971 Y-21.86
N15495 X35.896 Y-23.308
N15500 X35.589 Y-24.727
N15505 X35.048 Y-26.073
N15510 X34.302 Y-27.317
N15515 X33.392 Y-28.447
N15520 X32.351 Y-29.457
N15525 X31.209 Y-30.352
N15530 X29.989 Y-31.138
N15535 X28.711 Y-31.824
N15540 X27.388 Y-32.42
N15545 X26.032 Y-32.936
N15550 X24.651 Y-33.381
N15555 X23.252 Y-33.764
N15560 X21.839 Y-34.092
N15565 X20.415 Y-34.374
N15570 X18.985 Y-34.614
N15575 X17.548 Y-34.82
N15580 X16.108 Y-34.995
N15585 X14.665 Y-35.144
N15590 X13.22 Y-35.271
N15595 X11.773 Y-35.379
N15600 X10.325 Y-35.471
N15605 X8.876 Y-35.549
N15610 X7.427 Y-35.615
N15615 X5.977 Y-35.672
N15620 X4.527 Y-35.719
N15625 X3.077 Y-35.76
N15630 X1.627 Y-35.794
N15635 X0.176 Y-35.823
N15640 X-1.275 Y-35.848
N15645 X-2.725 Y-35.869
N15650 X-4.176 Y-35.886
N15655 X-5.627 Y-35.901
N15660 X-7.077 Y-35.914
N15665 X-8.528 Y-35.925
N15670 X-9.979 Y-35.934
N15675 X-11.43 Y-35.941
N15680 X-14.332 Y-35.953
N15685 X-15.782 Y-35.956
N15690 X-17.227 Y-35.826
N15695 X-18.631 Y-35.459
N15700 X-19.954 Y-34.864
N15705 X-21.172 Y-34.076
N15710 X-22.274 Y-33.131
N15715 X-23.256 Y-32.064
N15720 X-24.125 Y-30.902
N15725 X-24.887 Y-29.668
N15730 X-25.552 Y-28.378
N15735 X-26.13 Y-27.047
N15740 X-26.629 Y-25.685
N15745 X-27.06 Y-24.3
N15750 X-27.431 Y-22.897
N15755 X-27.748 Y-21.481
N15760 X-28.021 Y-20.056
N15765 X-28.254 Y-18.624
N15770 X-28.453 Y-17.187
N15775 X-28.484 Y-16.923
N15780 X-28.561 Y-16.503
N15785 X-28.692 Y-16.096
N15790 X-28.875 Y-15.709
N15795 X-29.106 Y-15.35
N15800 X-29.457 Y-14.873
N15805 X-29.809 Y-14.393
N15810 X-30.125 Y-13.914
N15815 X-30.382 Y-13.434
N15820 X-30.636 Y-12.954
N15825 X-30.706 Y-12.791
N15830 X-30.829 Y-12.474
N15835 X-30.991 Y-11.994
N15840 X-31.186 Y-11.245
N15845 X-31.229 Y-11.035
N15850 X-31.382 Y-10.075
N15855 X-32.685 Y-1.439
N15860 X-32.79 Y-0.48
N15865 X-32.793 Y0.
N15870 X-32.79 Y0.48
N15875 X-32.685 Y1.439
N15880 X-31.382 Y10.075
N15885 X-31.229 Y11.035
N15890 X-31.186 Y11.245
N15895 X-31.116 Y11.515
N15900 X-30.823 Y12.936
N15905 X-30.588 Y14.367
N15910 X-30.398 Y15.806
N15915 X-30.121 Y17.23
N15920 X-29.654 Y18.603
N15925 X-28.997 Y19.897
N15930 X-28.172 Y21.09
N15935 X-27.207 Y22.174
N15940 X-26.129 Y23.145
N15945 X-24.962 Y24.007
N15950 X-23.727 Y24.767
N15955 X-22.438 Y25.434
N15960 X-21.109 Y26.015
N15965 X-19.748 Y26.52
N15970 X-18.708 Y26.849
N15975 X-18.369 Y26.977
N15980 X-18.046 Y27.141
N15985 X-17.743 Y27.34
N15990 X-14.873 Y29.457
N15995 X-14.393 Y29.809
N16000 X-13.914 Y30.125
N16005 X-13.434 Y30.382
N16010 X-12.954 Y30.636
N16015 X-12.791 Y30.706
N16020 X-12.474 Y30.829
N16025 X-11.994 Y30.991
N16030 X-11.245 Y31.186
N16035 X-11.035 Y31.229
N16040 X-10.075 Y31.382
N16045 X-1.439 Y32.685
N16050 X-0.48 Y32.79
N16055 X0. Y32.793
N16060 X0.48 Y32.79
N16065 X1.439 Y32.685
N16070 X10.075 Y31.382
N16075 X11.035 Y31.229
N16080 X11.245 Y31.186
N16085 X11.515 Y31.116
N16090 X12.936 Y30.823
N16095 X14.367 Y30.587
N16100 X15.805 Y30.394
N16105 X17.229 Y30.117
N16110 X18.603 Y29.65
N16115 X19.897 Y28.994
N16120 X21.091 Y28.17
N16125 X22.174 Y27.204
N16130 X23.145 Y26.127
N16135 X24.008 Y24.96
N16140 X24.769 Y23.725
N16145 X25.435 Y22.436
N16150 X26.016 Y21.107
N16155 X26.521 Y19.746
N16160 X26.849 Y18.708
N16165 X26.977 Y18.369
N16170 X27.141 Y18.046
N16175 X27.34 Y17.743
N16180 X29.457 Y14.873
N16185 X29.809 Y14.393
N16190 X30.125 Y13.914
N16195 X30.382 Y13.434
N16200 X30.636 Y12.954
N16205 X30.706 Y12.791
N16210 X30.829 Y12.474
N16215 X30.991 Y11.994
N16220 X31.186 Y11.245
N16225 X31.229 Y11.035
N16230 X31.382 Y10.075
N16235 X32.685 Y1.439
N16240 X32.79 Y0.48
N16245 X32.793 Y0.
N16250 X32.79 Y-0.48
N16255 X32.685 Y-1.439
N16260 X31.382 Y-10.075
N16265 X31.229 Y-11.035
N16270 X31.186 Y-11.245
N16275 X31.116 Y-11.515
N16280 X30.823 Y-12.936
N16285 X30.587 Y-14.367
N16290 X30.393 Y-15.805
N16295 X30.115 Y-17.229
N16300 X29.649 Y-18.603
N16305 X28.993 Y-19.897
N16310 X28.168 Y-21.09
N16315 X27.203 Y-22.174
N16320 X26.125 Y-23.145
N16325 X24.959 Y-24.008
N16330 X23.723 Y-24.768
N16335 X22.435 Y-25.434
N16340 X21.105 Y-26.015
N16345 X19.745 Y-26.52
N16350 X18.711 Y-26.847
N16355 X18.372 Y-26.975
N16360 X18.049 Y-27.139
N16365 X17.746 Y-27.338
N16370 X14.873 Y-29.457
N16375 X14.393 Y-29.809
N16380 X13.914 Y-30.125
N16385 X13.434 Y-30.382
N16390 X12.954 Y-30.636
N16395 X12.791 Y-30.706
N16400 X12.474 Y-30.829
N16405 X11.994 Y-30.991
N16410 X11.245 Y-31.186
N16415 X11.035 Y-31.229
N16420 X10.075 Y-31.382
N16425 X1.439 Y-32.685
N16430 X0.48 Y-32.79
N16435 X0. Y-32.793
N16440 X-0.48 Y-32.79
N16445 X-1.439 Y-32.685
N16450 X-10.075 Y-31.382
N16455 X-11.035 Y-31.229
N16460 X-11.245 Y-31.186
N16465 X-11.994 Y-30.991
N16470 X-12.474 Y-30.829
N16475 X-12.791 Y-30.706
N16480 X-12.954 Y-30.636
N16485 X-13.434 Y-30.382
N16490 X-13.914 Y-30.125
N16495 X-14.393 Y-29.809
N16500 X-14.873 Y-29.457
N16505 X-21.634 Y-24.469
N16510 X-22.276 Y-23.989
N16515 X-22.55 Y-23.779
N16520 X-22.864 Y-23.509
N16525 X-23.029 Y-23.357
N16530 X-23.357 Y-23.029
N16535 X-23.509 Y-22.864
N16540 X-23.779 Y-22.55
N16545 X-23.989 Y-22.276
N16550 X-24.501 Y-21.59
N16555 X-29.106 Y-15.35
N16560 G3 X-29.474 Y-15.011 Z-25.408 I-1.254 J-0.994
N16565 G2 X-31.077 Y-13.8 Z-25.248 I9.111 J13.725
N16570 X-34.421 Y-9.874 I10.714 J12.514
N16575 X-34.651 Y-9.169 I1.365 J0.834
N16580 G1 X-35.732 Y4.198
N16585 G2 X-35.619 Y4.931 I1.595 J0.129
N16590 X-32.718 Y9.611 I15.256 J-6.217
N16595 X-31.562 Y10.796 Z-25.38 I12.355 J-10.897
N16600 G3 X-31.116 Y11.515 Z-25.448 I-1.088 J1.173
N16605 G1 X-30.991 Y11.994
N16610 X-30.829 Y12.474
N16615 X-30.706 Y12.791
N16620 X-30.636 Y12.954
N16625 X-30.382 Y13.434
N16630 X-30.125 Y13.914
N16635 X-29.809 Y14.393
N16640 X-29.457 Y14.873
N16645 X-24.469 Y21.634
N16650 X-23.989 Y22.276
N16655 X-23.779 Y22.55
N16660 X-23.509 Y22.864
N16665 X-23.357 Y23.029
N16670 X-23.029 Y23.357
N16675 X-22.864 Y23.509
N16680 X-22.55 Y23.779
N16685 X-22.276 Y23.989
N16690 X-21.59 Y24.501
N16695 X-17.743 Y27.34
N16700 G3 X-17.282 Y27.928 Z-25.388 I-0.994 J1.254
N16705 G2 X-16.468 Y29.485 Z-25.248 I15.171 J-6.939
N16710 X-12.929 Y33.689 I14.357 J-8.496
N16715 X-12.101 Y34.057 I1.037 J-1.218
N16720 G1 X4.142 Y36.203
N16725 G2 X5.037 Y36.062 I0.21 J-1.586
N16730 X9.683 Y32.787 I-7.148 J-15.073
N16735 X10.737 Y31.629 Z-25.373 I-11.794 J-11.798
N16740 G3 X11.515 Y31.116 Z-25.448 I1.232 J1.02
N16745 G1 X11.994 Y30.991
N16750 X12.474 Y30.829
N16755 X12.791 Y30.706
N16760 X12.954 Y30.636
N16765 X13.434 Y30.382
N16770 X13.914 Y30.125
N16775 X14.393 Y29.809
N16780 X14.873 Y29.457
N16785 X21.634 Y24.469
N16790 X22.276 Y23.989
N16795 X22.55 Y23.779
N16800 X22.864 Y23.509
N16805 X23.029 Y23.357
N16810 X23.357 Y23.029
N16815 X23.509 Y22.864
N16820 X23.779 Y22.55
N16825 X23.989 Y22.276
N16830 X24.501 Y21.59
N16835 X27.34 Y17.743
N16840 G3 X27.928 Y17.282 Z-25.388 I1.254 J0.994
N16845 G2 X29.485 Y16.468 Z-25.248 I-6.939 J-15.171
N16850 X33.689 Y12.929 I-8.496 J-14.357
N16855 X34.057 Y12.101 I-1.218 J-1.037
N16860 G1 X36.203 Y-4.142
N16865 G2 X36.062 Y-5.037 I-1.586 J-0.21
N16870 X32.787 Y-9.683 I-15.073 J7.148
N16875 X31.629 Y-10.737 Z-25.373 I-11.798 J11.794
N16880 G3 X31.116 Y-11.515 Z-25.448 I1.02 J-1.232
N16885 G1 X30.991 Y-11.994
N16890 X30.829 Y-12.474
N16895 X30.706 Y-12.791
N16900 X30.636 Y-12.954
N16905 X30.382 Y-13.434
N16910 X30.125 Y-13.914
N16915 X29.809 Y-14.393
N16920 X29.457 Y-14.873
N16925 X24.469 Y-21.634
N16930 X23.989 Y-22.276
N16935 X23.779 Y-22.55
N16940 X23.509 Y-22.864
N16945 X23.357 Y-23.029
N16950 X23.029 Y-23.357
N16955 X22.864 Y-23.509
N16960 X22.55 Y-23.779
N16965 X22.276 Y-23.989
N16970 X21.59 Y-24.501
N16975 X17.746 Y-27.338
N16980 X17.68 Y-27.403 Z-25.443
N16985 X17.616 Y-27.467 Z-25.426
N16990 X17.553 Y-27.53 Z-25.399
N16995 X17.493 Y-27.589 Z-25.362
N17000 X17.444 Y-27.665 Z-25.308
N17005 X17.4 Y-27.735 Z-25.243
N17010 X17.362 Y-27.796 Z-25.167
N17015 X17.328 Y-27.848 Z-25.082
N17020 X17.302 Y-27.89 Z-24.989
N17025 X17.289 Y-27.918 Z-24.911
N17030 X17.28 Y-27.938 Z-24.83
N17035 X17.274 Y-27.951 Z-24.747
N17040 X17.272 Y-27.955 Z-24.663
N17045 Z5.
N17050 X-31.073 Y-29.936
N17055 Z-20.898
N17060 Z-22.498
N17065 X-31.067 Y-29.932 Z-22.655
N17070 X-31.048 Y-29.919 Z-22.81
N17075 X-31.016 Y-29.898 Z-22.963
N17080 X-30.973 Y-29.868 Z-23.111
N17085 X-30.917 Y-29.831 Z-23.253
N17090 X-30.85 Y-29.785 Z-23.387
N17095 X-30.773 Y-29.733 Z-23.513
N17100 X-30.685 Y-29.674 Z-23.63
N17105 X-30.589 Y-29.609 Z-23.735
N17110 X-30.484 Y-29.538 Z-23.829
N17115 X-30.373 Y-29.463 Z-23.909
N17120 X-30.255 Y-29.383 Z-23.976
N17125 X-30.133 Y-29.3 Z-24.029
N17130 X-30.006 Y-29.215 Z-24.068
N17135 X-29.878 Y-29.128 Z-24.091
N17140 X-29.748 Y-29.04 Z-24.098
N17145 G3 X-23.03 Y-23.356 I-22.872 J33.844
N17150 G1 X-22.93 Y-23.244
N17155 X-22.789 Y-22.885
N17160 X-22.716 Y-22.506
N17165 X-22.713 Y-22.12
N17170 X-22.781 Y-21.74
N17175 X-22.918 Y-21.379
N17180 X-23.119 Y-21.05
N17185 X-23.509 Y-20.524
N17190 X-28.032 Y-14.393
N17195 X-28.385 Y-13.914
N17200 X-28.713 Y-13.434
N17205 X-28.993 Y-12.954
N17210 X-29.216 Y-12.474
N17215 X-29.437 Y-11.994
N17220 X-29.607 Y-11.515
N17225 X-29.743 Y-11.035
N17230 X-29.84 Y-10.555
N17235 X-29.935 Y-10.075
N17240 X-31.237 Y-1.439
N17245 X-31.343 Y-0.48
N17250 X-31.345 Y0.
N17255 X-31.343 Y0.48
N17260 X-31.237 Y1.439
N17265 X-29.935 Y10.075
N17270 X-29.84 Y10.555
N17275 X-29.743 Y11.035
N17280 X-29.607 Y11.515
N17285 X-29.437 Y11.994
N17290 X-29.216 Y12.474
N17295 X-28.993 Y12.954
N17300 X-28.713 Y13.434
N17305 X-28.385 Y13.914
N17310 X-26.971 Y15.833
N17315 X-23.43 Y20.63
N17320 X-23.029 Y21.17
N17325 X-22.695 Y21.59
N17330 X-22.55 Y21.759
N17335 X-22.274 Y22.07
N17340 X-22.07 Y22.274
N17345 X-21.759 Y22.55
N17350 X-21.59 Y22.695
N17355 X-21.17 Y23.029
N17360 X-20.524 Y23.509
N17365 X-14.393 Y28.032
N17370 X-13.914 Y28.385
N17375 X-13.434 Y28.713
N17380 X-12.954 Y28.993
N17385 X-12.474 Y29.216
N17390 X-11.994 Y29.437
N17395 X-11.515 Y29.607
N17400 X-11.035 Y29.743
N17405 X-10.555 Y29.84
N17410 X-10.075 Y29.935
N17415 X-1.439 Y31.237
N17420 X-0.48 Y31.343
N17425 X0. Y31.345
N17430 X0.48 Y31.343
N17435 X1.439 Y31.237
N17440 X10.075 Y29.935
N17445 X10.555 Y29.84
N17450 X11.035 Y29.743
N17455 X11.515 Y29.607
N17460 X11.994 Y29.437
N17465 X12.474 Y29.216
N17470 X12.954 Y28.993
N17475 X13.434 Y28.713
N17480 X13.914 Y28.385
N17485 X15.833 Y26.97
N17490 X20.63 Y23.43
N17495 X21.17 Y23.029
N17500 X21.59 Y22.695
N17505 X21.759 Y22.55
N17510 X22.07 Y22.274
N17515 X22.274 Y22.07
N17520 X22.55 Y21.759
N17525 X22.695 Y21.59
N17530 X23.029 Y21.17
N17535 X23.509 Y20.524
N17540 X28.032 Y14.393
N17545 X28.385 Y13.914
N17550 X28.713 Y13.434
N17555 X28.993 Y12.954
N17560 X29.216 Y12.474
N17565 X29.437 Y11.994
N17570 X29.607 Y11.515
N17575 X29.743 Y11.035
N17580 X29.84 Y10.555
N17585 X29.935 Y10.075
N17590 X31.237 Y1.439
N17595 X31.343 Y0.48
N17600 X31.345 Y0.
N17605 X31.343 Y-0.48
N17610 X31.237 Y-1.439
N17615 X29.935 Y-10.075
N17620 X29.84 Y-10.555
N17625 X29.743 Y-11.035
N17630 X29.607 Y-11.515
N17635 X29.437 Y-11.994
N17640 X29.216 Y-12.474
N17645 X28.992 Y-12.954
N17650 X28.713 Y-13.434
N17655 X28.385 Y-13.914
N17660 X26.97 Y-15.833
N17665 X23.43 Y-20.63
N17670 X23.029 Y-21.17
N17675 X22.695 Y-21.59
N17680 X22.55 Y-21.759
N17685 X22.274 Y-22.07
N17690 X22.07 Y-22.274
N17695 X21.759 Y-22.55
N17700 X21.59 Y-22.695
N17705 X21.17 Y-23.029
N17710 X20.524 Y-23.509
N17715 X14.393 Y-28.032
N17720 X13.914 Y-28.385
N17725 X13.434 Y-28.713
N17730 X12.954 Y-28.993
N17735 X12.474 Y-29.216
N17740 X11.994 Y-29.437
N17745 X11.515 Y-29.607
N17750 X11.035 Y-29.743
N17755 X10.555 Y-29.84
N17760 X10.075 Y-29.935
N17765 X1.439 Y-31.237
N17770 X0.48 Y-31.343
N17775 X0. Y-31.345
N17780 X-0.48 Y-31.343
N17785 X-1.439 Y-31.237
N17790 X-10.075 Y-29.935
N17795 X-10.555 Y-29.84
N17800 X-11.035 Y-29.743
N17805 X-11.515 Y-29.607
N17810 X-11.994 Y-29.437
N17815 X-12.474 Y-29.216
N17820 X-12.954 Y-28.993
N17825 X-13.434 Y-28.713
N17830 X-13.914 Y-28.385
N17835 X-15.833 Y-26.971
N17840 X-20.63 Y-23.43
N17845 X-21.11 Y-23.074
N17850 X-21.192 Y-23.03 Z-24.093
N17855 X-21.272 Y-22.987 Z-24.076
N17860 X-21.35 Y-22.945 Z-24.049
N17865 X-21.424 Y-22.905 Z-24.012
N17870 X-21.511 Y-22.881 Z-23.958
N17875 X-21.59 Y-22.859 Z-23.893
N17880 X-21.66 Y-22.84 Z-23.817
N17885 X-21.72 Y-22.824 Z-23.732
N17890 X-21.768 Y-22.81 Z-23.639
N17895 X-21.798 Y-22.806 Z-23.561
N17900 X-21.82 Y-22.803 Z-23.48
N17905 X-21.834 Y-22.801 Z-23.397
N17910 X-21.838 Z-23.313
N17915 Z5.
N17920 X-30.132 Y-28.972
N17925 Z-19.548
N17930 Z-21.148
N17935 X-30.126 Y-28.968 Z-21.305
N17940 X-30.107 Y-28.955 Z-21.46
N17945 X-30.075 Y-28.933 Z-21.613
N17950 X-30.031 Y-28.903 Z-21.761
N17955 X-29.976 Y-28.865 Z-21.903
N17960 X-29.909 Y-28.82 Z-22.037
N17965 X-29.832 Y-28.767 Z-22.163
N17970 X-29.745 Y-28.707 Z-22.28
N17975 X-29.649 Y-28.642 Z-22.385
N17980 X-29.545 Y-28.571 Z-22.479
N17985 X-29.434 Y-28.495 Z-22.559
N17990 X-29.317 Y-28.414 Z-22.626
N17995 X-29.195 Y-28.331 Z-22.679
N18000 X-29.069 Y-28.245 Z-22.718
N18005 X-28.941 Y-28.157 Z-22.741
N18010 X-28.811 Y-28.069 Z-22.748
N18015 G3 X-22.125 Y-22.347 I-23.062 J33.715
N18020 G1 X-22.064 Y-22.277
N18025 X-21.975 Y-22.156
N18030 X-21.814 Y-21.822
N18035 X-21.722 Y-21.464
N18040 X-21.702 Y-21.094
N18045 X-21.755 Y-20.728
N18050 X-21.879 Y-20.379
N18055 X-22.07 Y-20.062
N18060 X-22.713 Y-19.191
N18065 X-26.608 Y-13.914
N18070 X-26.868 Y-13.548
N18075 X-27.347 Y-12.866
N18080 X-27.584 Y-12.474
N18085 X-27.829 Y-11.994
N18090 X-28.026 Y-11.515
N18095 X-28.214 Y-11.035
N18100 X-28.307 Y-10.706
N18105 X-28.473 Y-10.075
N18110 X-28.555 Y-9.596
N18115 X-28.631 Y-9.116
N18120 X-29.746 Y-1.727
N18125 X-29.79 Y-1.439
N18130 X-29.895 Y-0.48
N18135 X-29.897 Y0.
N18140 X-29.895 Y0.48
N18145 X-29.79 Y1.439
N18150 X-28.704 Y8.636
N18155 X-28.631 Y9.116
N18160 X-28.555 Y9.596
N18165 X-28.473 Y10.075
N18170 X-28.307 Y10.706
N18175 X-28.214 Y11.035
N18180 X-28.026 Y11.515
N18185 X-27.827 Y11.998
N18190 X-27.584 Y12.474
N18195 X-27.347 Y12.866
N18200 X-26.868 Y13.548
N18205 X-26.608 Y13.914
N18210 X-22.359 Y19.671
N18215 X-22.004 Y20.151
N18220 X-21.61 Y20.63
N18225 X-21.19 Y21.11
N18230 X-21.11 Y21.19
N18235 X-20.63 Y21.61
N18240 X-20.151 Y22.004
N18245 X-19.413 Y22.55
N18250 X-13.914 Y26.608
N18255 X-13.548 Y26.868
N18260 X-12.866 Y27.347
N18265 X-12.474 Y27.584
N18270 X-11.994 Y27.829
N18275 X-11.515 Y28.026
N18280 X-11.035 Y28.214
N18285 X-10.706 Y28.307
N18290 X-10.075 Y28.473
N18295 X-9.596 Y28.555
N18300 X-9.116 Y28.631
N18305 X-1.727 Y29.746
N18310 X-1.439 Y29.79
N18315 X-0.48 Y29.895
N18320 X0. Y29.897
N18325 X0.48 Y29.895
N18330 X1.439 Y29.79
N18335 X8.636 Y28.704
N18340 X9.116 Y28.631
N18345 X9.596 Y28.555
N18350 X10.075 Y28.473
N18355 X10.706 Y28.307
N18360 X11.035 Y28.214
N18365 X11.515 Y28.026
N18370 X11.998 Y27.827
N18375 X12.474 Y27.584
N18380 X12.866 Y27.347
N18385 X13.548 Y26.868
N18390 X13.914 Y26.608
N18395 X19.671 Y22.359
N18400 X20.151 Y22.004
N18405 X20.63 Y21.61
N18410 X21.11 Y21.19
N18415 X21.19 Y21.11
N18420 X21.61 Y20.63
N18425 X22.004 Y20.151
N18430 X22.55 Y19.413
N18435 X26.608 Y13.914
N18440 X26.868 Y13.548
N18445 X27.347 Y12.866
N18450 X27.584 Y12.474
N18455 X27.829 Y11.994
N18460 X28.026 Y11.515
N18465 X28.214 Y11.035
N18470 X28.307 Y10.706
N18475 X28.473 Y10.075
N18480 X28.555 Y9.596
N18485 X28.631 Y9.116
N18490 X29.746 Y1.727
N18495 X29.79 Y1.439
N18500 X29.895 Y0.48
N18505 X29.897 Y0.
N18510 X29.895 Y-0.48
N18515 X29.79 Y-1.439
N18520 X28.704 Y-8.636
N18525 X28.631 Y-9.116
N18530 X28.555 Y-9.596
N18535 X28.473 Y-10.075
N18540 X28.307 Y-10.706
N18545 X28.214 Y-11.035
N18550 X28.026 Y-11.515
N18555 X27.827 Y-11.998
N18560 X27.584 Y-12.474
N18565 X27.347 Y-12.866
N18570 X26.868 Y-13.548
N18575 X26.608 Y-13.914
N18580 X22.359 Y-19.671
N18585 X22.004 Y-20.151
N18590 X21.61 Y-20.63
N18595 X21.19 Y-21.11
N18600 X21.11 Y-21.19
N18605 X20.63 Y-21.61
N18610 X20.151 Y-22.004
N18615 X19.413 Y-22.55
N18620 X13.914 Y-26.608
N18625 X13.548 Y-26.868
N18630 X12.866 Y-27.347
N18635 X12.474 Y-27.584
N18640 X11.994 Y-27.829
N18645 X11.515 Y-28.026
N18650 X11.035 Y-28.214
N18655 X10.706 Y-28.307
N18660 X10.075 Y-28.473
N18665 X9.596 Y-28.555
N18670 X9.116 Y-28.631
N18675 X1.727 Y-29.746
N18680 X1.439 Y-29.79
N18685 X0.48 Y-29.895
N18690 X0. Y-29.897
N18695 X-0.48 Y-29.895
N18700 X-1.439 Y-29.79
N18705 X-8.636 Y-28.704
N18710 X-9.116 Y-28.631
N18715 X-9.596 Y-28.555
N18720 X-10.075 Y-28.473
N18725 X-10.706 Y-28.307
N18730 X-11.035 Y-28.214
N18735 X-11.515 Y-28.026
N18740 X-11.998 Y-27.827
N18745 X-12.474 Y-27.584
N18750 X-12.866 Y-27.347
N18755 X-13.548 Y-26.868
N18760 X-13.914 Y-26.608
N18765 X-19.671 Y-22.359
N18770 X-20.062 Y-22.07
N18775 X-20.143 Y-22.026 Z-22.743
N18780 X-20.224 Y-21.983 Z-22.726
N18785 X-20.302 Y-21.942 Z-22.699
N18790 X-20.376 Y-21.902 Z-22.662
N18795 X-20.463 Y-21.878 Z-22.608
N18800 X-20.543 Y-21.856 Z-22.543
N18805 X-20.613 Y-21.837 Z-22.467
N18810 X-20.672 Y-21.821 Z-22.382
N18815 X-20.72 Y-21.807 Z-22.289
N18820 X-20.751 Y-21.803 Z-22.211
N18825 X-20.773 Y-21.8 Z-22.13
N18830 X-20.786 Y-21.799 Z-22.047
N18835 X-20.791 Y-21.798 Z-21.963
N18840 Z5.
N18845 X-29.063 Y-28.005
N18850 Z-18.198
N18855 Z-19.798
N18860 X-29.056 Y-28. Z-19.955
N18865 X-29.037 Y-27.987 Z-20.11
N18870 X-29.006 Y-27.965 Z-20.263
N18875 X-28.963 Y-27.935 Z-20.411
N18880 X-28.908 Y-27.897 Z-20.553
N18885 X-28.841 Y-27.851 Z-20.687
N18890 X-28.764 Y-27.797 Z-20.813
N18895 X-28.678 Y-27.737 Z-20.93
N18900 X-28.582 Y-27.67 Z-21.035
N18905 X-28.479 Y-27.598 Z-21.129
N18910 X-28.368 Y-27.522 Z-21.209
N18915 X-28.252 Y-27.44 Z-21.276
N18920 X-28.13 Y-27.356 Z-21.329
N18925 X-28.005 Y-27.269 Z-21.368
N18930 X-27.878 Y-27.18 Z-21.391
N18935 X-27.749 Y-27.091 Z-21.398
N18940 G3 X-21.109 Y-21.316 I-23.33 J33.53
N18945 G1 X-21.053 Y-21.251
N18950 X-20.964 Y-21.131
N18955 X-20.801 Y-20.797
N18960 X-20.708 Y-20.438
N18965 X-20.686 Y-20.067
N18970 X-20.739 Y-19.7
N18975 X-20.862 Y-19.349
N18980 X-21.053 Y-19.031
N18985 X-25.536 Y-12.954
N18990 X-25.858 Y-12.474
N18995 X-26.159 Y-11.994
N19000 X-26.388 Y-11.597
N19005 X-26.43 Y-11.515
N19010 X-26.641 Y-11.035
N19015 X-26.812 Y-10.555
N19020 X-26.969 Y-10.075
N19025 X-27.08 Y-9.596
N19030 X-27.178 Y-9.116
N19035 X-27.256 Y-8.636
N19040 X-28.342 Y-1.439
N19045 X-28.447 Y-0.48
N19050 X-28.45 Y0.
N19055 X-28.447 Y0.48
N19060 X-28.342 Y1.439
N19065 X-27.256 Y8.636
N19070 X-27.178 Y9.116
N19075 X-27.08 Y9.596
N19080 X-26.969 Y10.075
N19085 X-26.812 Y10.555
N19090 X-26.641 Y11.035
N19095 X-26.43 Y11.515
N19100 X-26.388 Y11.597
N19105 X-26.159 Y11.994
N19110 X-25.858 Y12.474
N19115 X-25.536 Y12.954
N19120 X-20.934 Y19.191
N19125 X-20.63 Y19.548
N19130 X-20.151 Y20.103
N19135 X-20.103 Y20.151
N19140 X-19.548 Y20.63
N19145 X-19.191 Y20.934
N19150 X-12.954 Y25.536
N19155 X-12.474 Y25.858
N19160 X-11.994 Y26.159
N19165 X-11.597 Y26.388
N19170 X-11.515 Y26.43
N19175 X-11.035 Y26.641
N19180 X-10.555 Y26.812
N19185 X-10.075 Y26.969
N19190 X-9.596 Y27.08
N19195 X-9.116 Y27.178
N19200 X-8.636 Y27.256
N19205 X-1.439 Y28.342
N19210 X-0.48 Y28.447
N19215 X0. Y28.45
N19220 X0.48 Y28.447
N19225 X1.439 Y28.342
N19230 X8.636 Y27.256
N19235 X9.116 Y27.178
N19240 X9.596 Y27.08
N19245 X10.075 Y26.969
N19250 X10.555 Y26.812
N19255 X11.035 Y26.641
N19260 X11.515 Y26.43
N19265 X11.597 Y26.388
N19270 X11.994 Y26.159
N19275 X12.474 Y25.858
N19280 X12.954 Y25.536
N19285 X19.191 Y20.934
N19290 X19.548 Y20.63
N19295 X20.103 Y20.151
N19300 X20.151 Y20.103
N19305 X20.63 Y19.548
N19310 X20.934 Y19.191
N19315 X25.536 Y12.954
N19320 X25.858 Y12.474
N19325 X26.159 Y11.994
N19330 X26.388 Y11.597
N19335 X26.43 Y11.515
N19340 X26.641 Y11.035
N19345 X26.812 Y10.555
N19350 X26.969 Y10.075
N19355 X27.08 Y9.596
N19360 X27.178 Y9.116
N19365 X27.256 Y8.636
N19370 X28.342 Y1.439
N19375 X28.447 Y0.48
N19380 X28.45 Y0.
N19385 X28.447 Y-0.48
N19390 X28.342 Y-1.439
N19395 X27.256 Y-8.636
N19400 X27.178 Y-9.116
N19405 X27.08 Y-9.596
N19410 X26.969 Y-10.075
N19415 X26.812 Y-10.555
N19420 X26.641 Y-11.035
N19425 X26.43 Y-11.515
N19430 X26.388 Y-11.597
N19435 X26.159 Y-11.994
N19440 X25.858 Y-12.474
N19445 X25.536 Y-12.954
N19450 X20.934 Y-19.191
N19455 X20.63 Y-19.548
N19460 X20.151 Y-20.103
N19465 X20.103 Y-20.151
N19470 X19.548 Y-20.63
N19475 X19.191 Y-20.934
N19480 X12.954 Y-25.536
N19485 X12.474 Y-25.858
N19490 X11.994 Y-26.159
N19495 X11.597 Y-26.388
N19500 X11.515 Y-26.43
N19505 X11.035 Y-26.641
N19510 X10.555 Y-26.812
N19515 X10.075 Y-26.969
N19520 X9.596 Y-27.08
N19525 X9.116 Y-27.178
N19530 X8.636 Y-27.256
N19535 X1.439 Y-28.342
N19540 X0.48 Y-28.447
N19545 X0. Y-28.45
N19550 X-0.48 Y-28.447
N19555 X-1.439 Y-28.342
N19560 X-8.636 Y-27.256
N19565 X-9.116 Y-27.178
N19570 X-9.596 Y-27.08
N19575 X-10.075 Y-26.969
N19580 X-10.555 Y-26.812
N19585 X-11.035 Y-26.641
N19590 X-11.515 Y-26.43
N19595 X-11.597 Y-26.388
N19600 X-11.994 Y-26.159
N19605 X-12.474 Y-25.858
N19610 X-12.954 Y-25.536
N19615 X-18.953 Y-21.11
N19620 X-19.034 Y-21.067 Z-21.393
N19625 X-19.115 Y-21.024 Z-21.376
N19630 X-19.193 Y-20.982 Z-21.349
N19635 X-19.267 Y-20.943 Z-21.312
N19640 X-19.354 Y-20.919 Z-21.258
N19645 X-19.434 Y-20.897 Z-21.193
N19650 X-19.504 Y-20.878 Z-21.117
N19655 X-19.563 Y-20.862 Z-21.032
N19660 X-19.611 Y-20.849 Z-20.939
N19665 X-19.642 Y-20.845 Z-20.861
N19670 X-19.664 Y-20.842 Z-20.78
N19675 X-19.677 Y-20.84 Z-20.697
N19680 X-19.682 Z-20.613
N19685 Z5.
N19690 X-20.451 Y-31.535
N19695 Z-16.848
N19700 Z-18.448
N19705 X-20.45 Y-31.528 Z-18.605
N19710 X-20.444 Y-31.506 Z-18.76
N19715 X-20.434 Y-31.469 Z-18.913
N19720 X-20.421 Y-31.417 Z-19.061
N19725 X-20.405 Y-31.352 Z-19.203
N19730 X-20.385 Y-31.274 Z-19.337
N19735 X-20.361 Y-31.184 Z-19.463
N19740 X-20.335 Y-31.081 Z-19.58
N19745 X-20.306 Y-30.969 Z-19.685
N19750 X-20.275 Y-30.847 Z-19.779
N19755 X-20.242 Y-30.716 Z-19.859
N19760 X-20.206 Y-30.579 Z-19.926
N19765 X-20.17 Y-30.435 Z-19.979
N19770 X-20.132 Y-30.288 Z-20.018
N19775 X-20.093 Y-30.137 Z-20.041
N19780 X-20.054 Y-29.985 Z-20.048
N19785 G3 X-18.802 Y-21.275 I-39.57 J10.136
N19790 G1 Y-20.912
N19795 X-18.793 Y-20.433
N19800 X-18.861 Y-19.958
N19805 X-19.003 Y-19.5
N19810 X-19.215 Y-19.07
N19815 X-19.493 Y-18.679
N19820 X-19.671 Y-18.467
N19825 X-19.859 Y-18.232
N19830 X-20.151 Y-17.842
N19835 X-23.989 Y-12.64
N19840 X-24.111 Y-12.474
N19845 X-24.455 Y-11.994
N19850 X-24.469 Y-11.975
N19855 X-24.747 Y-11.515
N19860 X-25.009 Y-11.035
N19865 X-25.246 Y-10.555
N19870 X-25.431 Y-10.075
N19875 X-25.576 Y-9.596
N19880 X-25.704 Y-9.116
N19885 X-25.799 Y-8.636
N19890 X-25.908 Y-7.975
N19895 X-26.894 Y-1.439
N19900 X-27. Y-0.48
N19905 X-27.002 Y0.
N19910 X-27. Y0.48
N19915 X-26.894 Y1.439
N19920 X-25.908 Y7.975
N19925 X-25.799 Y8.636
N19930 X-25.704 Y9.116
N19935 X-25.576 Y9.596
N19940 X-25.428 Y10.083
N19945 X-25.246 Y10.555
N19950 X-25.009 Y11.035
N19955 X-24.747 Y11.515
N19960 X-24.469 Y11.975
N19965 X-24.455 Y11.994
N19970 X-24.111 Y12.474
N19975 X-23.05 Y13.914
N19980 X-20.151 Y17.842
N19985 X-19.859 Y18.232
N19990 X-19.671 Y18.467
N19995 X-19.466 Y18.711
N20000 X-19.191 Y19.009
N20005 X-19.009 Y19.191
N20010 X-18.711 Y19.466
N20015 X-18.467 Y19.671
N20020 X-18.232 Y19.859
N20025 X-17.842 Y20.151
N20030 X-12.64 Y23.989
N20035 X-12.474 Y24.111
N20040 X-11.994 Y24.455
N20045 X-11.975 Y24.469
N20050 X-11.515 Y24.747
N20055 X-11.035 Y25.009
N20060 X-10.555 Y25.246
N20065 X-10.075 Y25.431
N20070 X-9.596 Y25.576
N20075 X-9.116 Y25.704
N20080 X-8.636 Y25.799
N20085 X-7.975 Y25.908
N20090 X-1.439 Y26.894
N20095 X-0.48 Y27.
N20100 X0. Y27.002
N20105 X0.48 Y27.
N20110 X1.439 Y26.894
N20115 X7.975 Y25.908
N20120 X8.636 Y25.799
N20125 X9.116 Y25.704
N20130 X9.596 Y25.576
N20135 X10.083 Y25.428
N20140 X10.555 Y25.246
N20145 X11.035 Y25.009
N20150 X11.515 Y24.747
N20155 X11.975 Y24.469
N20160 X11.994 Y24.455
N20165 X12.474 Y24.111
N20170 X13.914 Y23.05
N20175 X17.842 Y20.151
N20180 X18.232 Y19.859
N20185 X18.467 Y19.671
N20190 X18.711 Y19.466
N20195 X19.009 Y19.191
N20200 X19.191 Y19.009
N20205 X19.466 Y18.711
N20210 X19.671 Y18.467
N20215 X19.859 Y18.232
N20220 X20.151 Y17.842
N20225 X23.989 Y12.64
N20230 X24.111 Y12.474
N20235 X24.455 Y11.994
