%
O01014
(Using high feed G1 F5000. instead of G0.)
(T4 D=6. CR=0. - ZMIN=-53.798 - fresa con punta plana)
N10 G90 G94 G17
N15 G21
(When using Fusion for Personal Use, the feedrate of rapid)
(moves is reduced to match the feedrate of cutting moves,)
(which can increase machining time. Unrestricted rapid moves)
(are available with a Fusion Subscription.)
N20 G53 G0 Z0.

(Adaptativo3)
N25 T4 M6
N30 S5000 M3
N35 G17 G90 G94
N40 G54
N45 M8
N50 G1 X13.599 Y12.854 F5000.
N55 G0 G43 Z15. H4
N60 G1 Z5. F1000.
N65 Z-10.748
N70 Z-11.348
N75 X13.593 Y12.85 Z-11.442
N80 X13.574 Y12.839 Z-11.534
N85 X13.543 Y12.821 Z-11.621
N90 X13.501 Y12.796 Z-11.701
N95 X13.448 Y12.764 Z-11.773
N100 X13.387 Y12.728 Z-11.834
N105 X13.317 Y12.687 Z-11.883
N110 X13.243 Y12.643 Z-11.919
N115 X13.164 Y12.596 Z-11.941
N120 X13.083 Y12.548 Z-11.948
N125 G3 X10.441 Y10.571 I7.805 J-13.18
N130 G1 X10.335 Y10.465
N135 X10.266 Y10.332
N140 X10.221 Y10.189
N145 X10.192 Y10.041
N150 X10.17 Y9.841
N155 X10.162 Y9.574
N160 X10.178 Y9.251
N165 X10.229 Y8.859
N170 X10.304 Y8.51
N175 X10.359 Y8.32
N180 X10.44 Y8.139
N185 X10.546 Y7.971
N190 X11.768 Y6.315
N195 X12.189 Y5.733
N200 X12.298 Y5.532
N205 X12.504 Y5.13
N210 X12.624 Y4.727
N215 X12.681 Y4.526
N220 X12.777 Y3.923
N225 X13.262 Y0.704
N230 X13.286 Y0.503
N235 X13.32 Y0.101
N240 Y-0.101
N245 X13.286 Y-0.503
N250 X13.262 Y-0.704
N255 X12.774 Y-3.94
N260 X12.681 Y-4.526
N265 X12.624 Y-4.727
N270 X12.504 Y-5.13
N275 X12.298 Y-5.532
N280 X12.189 Y-5.733
N285 X11.752 Y-6.337
N290 X9.823 Y-8.952
N295 X9.757 Y-9.039
N300 X9.667 Y-9.153
N305 X9.555 Y-9.283
N310 X9.283 Y-9.555
N315 X9.153 Y-9.667
N320 X9.039 Y-9.757
N325 X8.952 Y-9.823
N330 X6.315 Y-11.768
N335 X5.733 Y-12.189
N340 X5.532 Y-12.298
N345 X5.13 Y-12.504
N350 X4.727 Y-12.624
N355 X4.526 Y-12.681
N360 X3.923 Y-12.777
N365 X0.704 Y-13.262
N370 X0.503 Y-13.286
N375 X0.101 Y-13.32
N380 X-0.101
N385 X-0.503 Y-13.286
N390 X-0.704 Y-13.262
N395 X-3.94 Y-12.774
N400 X-4.526 Y-12.681
N405 X-4.727 Y-12.624
N410 X-5.13 Y-12.504
N415 X-5.532 Y-12.298
N420 X-5.733 Y-12.189
N425 X-6.337 Y-11.752
N430 X-8.952 Y-9.823
N435 X-9.039 Y-9.757
N440 X-9.153 Y-9.667
N445 X-9.283 Y-9.555
N450 X-9.555 Y-9.283
N455 X-9.667 Y-9.153
N460 X-9.757 Y-9.039
N465 X-9.823 Y-8.952
N470 X-11.768 Y-6.315
N475 X-12.189 Y-5.733
N480 X-12.298 Y-5.532
N485 X-12.504 Y-5.13
N490 X-12.624 Y-4.727
N495 X-12.681 Y-4.526
N500 X-12.777 Y-3.923
N505 X-13.262 Y-0.704
N510 X-13.286 Y-0.503
N515 X-13.32 Y-0.101
N520 Y0.101
N525 X-13.286 Y0.503
N530 X-13.262 Y0.704
N535 X-12.774 Y3.94
N540 X-12.681 Y4.526
N545 X-12.624 Y4.727
N550 X-12.504 Y5.13
N555 X-12.298 Y5.532
N560 X-12.189 Y5.733
N565 X-11.752 Y6.337
N570 X-9.823 Y8.952
N575 X-9.757 Y9.039
N580 X-9.667 Y9.153
N585 X-9.555 Y9.283
N590 X-9.283 Y9.555
N595 X-9.153 Y9.667
N600 X-9.039 Y9.757
N605 X-8.952 Y9.823
N610 X-6.315 Y11.768
N615 X-5.733 Y12.189
N620 X-5.532 Y12.298
N625 X-5.13 Y12.504
N630 X-4.727 Y12.624
N635 X-4.526 Y12.681
N640 X-3.923 Y12.777
N645 X-0.704 Y13.262
N650 X-0.503 Y13.286
N655 X-0.101 Y13.32
N660 X0.101
N665 X0.503 Y13.286
N670 X0.704 Y13.262
N675 X3.94 Y12.774
N680 X4.526 Y12.681
N685 X4.727 Y12.624
N690 X5.13 Y12.504
N695 X5.532 Y12.298
N700 X5.733 Y12.189
N705 X6.337 Y11.752
N710 X8.952 Y9.823
N715 X9.039 Y9.757
N720 X9.153 Y9.667
N725 X9.283 Y9.555
N730 X9.555 Y9.283
N735 X9.667 Y9.153
N740 X9.757 Y9.039
N745 X9.823 Y8.952
N750 X10.546 Y7.971
N755 X10.609 Y7.903
N760 X10.682 Y7.846
N765 X10.75 Y7.817 Z-11.944
N770 X10.816 Y7.788 Z-11.93
N775 X10.881 Y7.76 Z-11.907
N780 X10.951 Y7.752 Z-11.874
N785 X11.016 Y7.744 Z-11.832
N790 X11.087 Y7.757 Z-11.77
N795 X11.147 Y7.768 Z-11.697
N800 X11.195 Y7.777 Z-11.615
N805 X11.23 Y7.783 Z-11.527
N810 X11.248 Y7.791 Z-11.438
N815 X11.255 Y7.794 Z-11.348
N820 Z5.
N825 X12.278 Y12.037
N830 Z-9.398
N835 Z-9.998
N840 X12.272 Y12.033 Z-10.092
N845 X12.254 Y12.02 Z-10.184
N850 X12.224 Y12. Z-10.271
N855 X12.184 Y11.972 Z-10.351
N860 X12.134 Y11.937 Z-10.423
N865 X12.075 Y11.896 Z-10.484
N870 X12.009 Y11.85 Z-10.533
N875 X11.937 Y11.801 Z-10.569
N880 X11.862 Y11.749 Z-10.591
N885 X11.785 Y11.695 Z-10.598
N890 G3 X9.289 Y9.536 I8.717 J-12.596
N895 G1 X9.191 Y9.423
N900 X9.141 Y9.281
N905 X9.103 Y9.128
N910 X9.071 Y8.938
N915 X9.052 Y8.705
N920 X9.051 Y8.423
N925 X9.078 Y8.082
N930 X9.144 Y7.667
N935 X9.152 Y7.634
N940 X9.208 Y7.457
N945 X9.286 Y7.289
N950 X9.386 Y7.133
N955 X10.419 Y5.733
N960 X10.564 Y5.532
N965 X10.851 Y5.13
N970 X10.964 Y4.92
N975 X11.175 Y4.477
N980 X11.324 Y3.923
N985 X11.359 Y3.722
N990 X11.542 Y2.515
N995 X11.815 Y0.704
N1000 X11.839 Y0.503
N1005 X11.872 Y0.101
N1010 Y-0.101
N1015 X11.839 Y-0.503
N1020 X11.815 Y-0.704
N1025 X11.389 Y-3.52
N1030 X11.359 Y-3.722
N1035 X11.324 Y-3.923
N1040 X11.175 Y-4.477
N1045 X10.959 Y-4.929
N1050 X10.851 Y-5.13
N1055 X10.561 Y-5.535
N1060 X10.419 Y-5.733
N1065 X8.934 Y-7.745
N1070 X8.751 Y-7.981
N1075 X8.55 Y-8.236
N1080 X8.452 Y-8.348
N1085 X8.348 Y-8.452
N1090 X8.236 Y-8.55
N1095 X7.946 Y-8.778
N1100 X7.745 Y-8.934
N1105 X5.733 Y-10.419
N1110 X5.532 Y-10.564
N1115 X5.13 Y-10.851
N1120 X4.92 Y-10.964
N1125 X4.477 Y-11.175
N1130 X3.923 Y-11.324
N1135 X3.722 Y-11.359
N1140 X2.515 Y-11.542
N1145 X0.704 Y-11.815
N1150 X0.503 Y-11.839
N1155 X0.101 Y-11.872
N1160 X-0.101
N1165 X-0.503 Y-11.839
N1170 X-0.704 Y-11.815
N1175 X-3.52 Y-11.389
N1180 X-3.722 Y-11.359
N1185 X-3.923 Y-11.324
N1190 X-4.477 Y-11.175
N1195 X-4.929 Y-10.959
N1200 X-5.13 Y-10.851
N1205 X-5.535 Y-10.561
N1210 X-5.733 Y-10.419
N1215 X-7.745 Y-8.934
N1220 X-7.981 Y-8.751
N1225 X-8.236 Y-8.55
N1230 X-8.348 Y-8.452
N1235 X-8.452 Y-8.348
N1240 X-8.55 Y-8.236
N1245 X-8.778 Y-7.946
N1250 X-8.934 Y-7.745
N1255 X-10.419 Y-5.733
N1260 X-10.564 Y-5.532
N1265 X-10.851 Y-5.13
N1270 X-10.964 Y-4.92
N1275 X-11.175 Y-4.477
N1280 X-11.324 Y-3.923
N1285 X-11.359 Y-3.722
N1290 X-11.542 Y-2.515
N1295 X-11.815 Y-0.704
N1300 X-11.839 Y-0.503
N1305 X-11.872 Y-0.101
N1310 Y0.101
N1315 X-11.839 Y0.503
N1320 X-11.815 Y0.704
N1325 X-11.389 Y3.52
N1330 X-11.359 Y3.722
N1335 X-11.324 Y3.923
N1340 X-11.175 Y4.477
N1345 X-10.959 Y4.929
N1350 X-10.851 Y5.13
N1355 X-10.561 Y5.535
N1360 X-10.419 Y5.733
N1365 X-8.934 Y7.745
N1370 X-8.751 Y7.981
N1375 X-8.55 Y8.236
N1380 X-8.452 Y8.348
N1385 X-8.348 Y8.452
N1390 X-8.236 Y8.55
N1395 X-7.946 Y8.778
N1400 X-7.745 Y8.934
N1405 X-5.733 Y10.419
N1410 X-5.532 Y10.564
N1415 X-5.13 Y10.851
N1420 X-4.92 Y10.964
N1425 X-4.477 Y11.175
N1430 X-3.923 Y11.324
N1435 X-3.722 Y11.359
N1440 X-2.515 Y11.542
N1445 X-0.704 Y11.815
N1450 X-0.503 Y11.839
N1455 X-0.101 Y11.872
N1460 X0.101
N1465 X0.503 Y11.839
N1470 X0.704 Y11.815
N1475 X3.52 Y11.389
N1480 X3.722 Y11.359
N1485 X3.923 Y11.324
N1490 X4.477 Y11.175
N1495 X4.929 Y10.959
N1500 X5.13 Y10.851
N1505 X5.535 Y10.561
N1510 X5.733 Y10.419
N1515 X7.745 Y8.934
N1520 X7.981 Y8.751
N1525 X8.236 Y8.55
N1530 X8.348 Y8.452
N1535 X8.452 Y8.348
N1540 X8.55 Y8.236
N1545 X8.778 Y7.946
N1550 X8.934 Y7.745
N1555 X9.386 Y7.133
N1560 X9.449 Y7.065
N1565 X9.522 Y7.008
N1570 X9.589 Y6.978 Z-10.594
N1575 X9.656 Y6.949 Z-10.58
N1580 X9.721 Y6.921 Z-10.557
N1585 X9.791 Y6.913 Z-10.524
N1590 X9.856 Y6.906 Z-10.482
N1595 X9.927 Y6.919 Z-10.42
N1600 X9.987 Y6.93 Z-10.347
N1605 X10.035 Y6.939 Z-10.265
N1610 X10.069 Y6.945 Z-10.177
N1615 X10.088 Y6.953 Z-10.088
N1620 X10.094 Y6.955 Z-9.998
N1625 Z5.
N1630 X-7.838 Y-13.236
N1635 Z-8.048
N1640 Z-8.648
N1645 X-7.836 Y-13.229 Z-8.742
N1650 X-7.83 Y-13.207 Z-8.834
N1655 X-7.822 Y-13.172 Z-8.921
N1660 X-7.809 Y-13.125 Z-9.001
N1665 X-7.794 Y-13.066 Z-9.073
N1670 X-7.776 Y-12.996 Z-9.134
N1675 X-7.756 Y-12.918 Z-9.183
N1680 X-7.735 Y-12.834 Z-9.219
N1685 X-7.712 Y-12.745 Z-9.241
N1690 X-7.689 Y-12.655 Z-9.248
N1695 G3 X-7.219 Y-9.388 I-14.839 J3.801
N1700 G1 Y-9.167
N1705 X-7.195 Y-9.018
N1710 X-7.179 Y-8.805
N1715 X-7.181 Y-8.518
N1720 X-7.211 Y-8.17
N1725 X-7.282 Y-7.747
N1730 X-7.302 Y-7.666
N1735 X-7.368 Y-7.475
N1740 X-7.466 Y-7.298
N1745 X-7.593 Y-7.141
N1750 X-7.749 Y-6.94
N1755 X-9.153 Y-5.037
N1760 X-9.231 Y-4.929
N1765 X-9.513 Y-4.526
N1770 X-9.555 Y-4.461
N1775 X-9.622 Y-4.325
N1780 X-9.839 Y-3.835
N1785 X-9.844 Y-3.822
N1790 X-9.965 Y-3.319
N1795 X-10.003 Y-3.118
N1800 X-10.367 Y-0.704
N1805 X-10.391 Y-0.503
N1810 X-10.425 Y-0.101
N1815 Y0.101
N1820 X-10.391 Y0.503
N1825 X-10.367 Y0.704
N1830 X-10.003 Y3.118
N1835 X-9.965 Y3.319
N1840 X-9.844 Y3.822
N1845 X-9.757 Y4.021
N1850 X-9.622 Y4.325
N1855 X-9.555 Y4.461
N1860 X-9.513 Y4.526
N1865 X-9.231 Y4.929
N1870 X-9.153 Y5.037
N1875 X-7.745 Y6.946
N1880 X-7.593 Y7.141
N1885 X-7.544 Y7.193
N1890 X-7.193 Y7.544
N1895 X-7.141 Y7.593
N1900 X-6.94 Y7.749
N1905 X-5.037 Y9.153
N1910 X-4.929 Y9.231
N1915 X-4.526 Y9.513
N1920 X-4.461 Y9.555
N1925 X-4.325 Y9.622
N1930 X-3.835 Y9.839
N1935 X-3.822 Y9.844
N1940 X-3.319 Y9.965
N1945 X-3.118 Y10.003
N1950 X-0.704 Y10.367
N1955 X-0.503 Y10.391
N1960 X-0.101 Y10.425
N1965 X0.101
N1970 X0.503 Y10.391
N1975 X0.704 Y10.367
N1980 X3.118 Y10.003
N1985 X3.319 Y9.965
N1990 X3.822 Y9.844
N1995 X4.021 Y9.757
N2000 X4.325 Y9.622
N2005 X4.461 Y9.555
N2010 X4.526 Y9.513
N2015 X4.929 Y9.231
N2020 X5.037 Y9.153
N2025 X6.946 Y7.745
N2030 X7.141 Y7.593
N2035 X7.193 Y7.544
N2040 X7.544 Y7.193
N2045 X7.593 Y7.141
N2050 X7.749 Y6.94
N2055 X9.153 Y5.037
N2060 X9.231 Y4.929
N2065 X9.513 Y4.526
N2070 X9.555 Y4.461
N2075 X9.622 Y4.325
N2080 X9.839 Y3.835
N2085 X9.844 Y3.822
N2090 X9.965 Y3.319
N2095 X10.003 Y3.118
N2100 X10.367 Y0.704
N2105 X10.391 Y0.503
N2110 X10.425 Y0.101
N2115 Y-0.101
N2120 X10.391 Y-0.503
N2125 X10.367 Y-0.704
N2130 X10.003 Y-3.118
N2135 X9.965 Y-3.319
N2140 X9.844 Y-3.822
N2145 X9.757 Y-4.021
N2150 X9.622 Y-4.325
N2155 X9.555 Y-4.461
N2160 X9.513 Y-4.526
N2165 X9.231 Y-4.929
N2170 X9.153 Y-5.037
N2175 X7.745 Y-6.946
N2180 X7.593 Y-7.141
N2185 X7.544 Y-7.193
N2190 X7.193 Y-7.544
N2195 X7.141 Y-7.593
N2200 X6.94 Y-7.749
N2205 X5.037 Y-9.153
N2210 X4.929 Y-9.231
N2215 X4.526 Y-9.513
N2220 X4.461 Y-9.555
N2225 X4.325 Y-9.622
N2230 X3.835 Y-9.839
N2235 X3.822 Y-9.844
N2240 X3.319 Y-9.965
N2245 X3.118 Y-10.003
N2250 X0.704 Y-10.367
N2255 X0.503 Y-10.391
N2260 X0.101 Y-10.425
N2265 X-0.101
N2270 X-0.503 Y-10.391
N2275 X-0.704 Y-10.367
N2280 X-3.118 Y-10.003
N2285 X-3.319 Y-9.965
N2290 X-3.822 Y-9.844
N2295 X-4.021 Y-9.757
N2300 X-4.325 Y-9.622
N2305 X-4.461 Y-9.555
N2310 X-4.526 Y-9.513
N2315 X-4.929 Y-9.231
N2320 X-5.037 Y-9.153
N2325 X-6.946 Y-7.745
N2330 X-7.141 Y-7.593
N2335 X-7.193 Y-7.544
N2340 X-7.544 Y-7.193
N2345 X-7.593 Y-7.141
N2350 X-7.665 Y-7.082
N2355 X-7.744 Y-7.035
N2360 X-7.815 Y-7.015 Z-9.244
N2365 X-7.885 Y-6.995 Z-9.23
N2370 X-7.953 Y-6.976 Z-9.207
N2375 X-8.01 Y-6.973 Z-9.182
N2380 X-8.091 Y-6.988 Z-9.13
N2385 X-8.163 Y-7.001 Z-9.065
N2390 X-8.223 Y-7.012 Z-8.99
N2395 X-8.265 Y-7.032 Z-8.912
N2400 X-8.295 Y-7.047 Z-8.827
N2405 X-8.313 Y-7.056 Z-8.739
N2410 X-8.319 Y-7.059 Z-8.648
N2415 Z5.
N2420 X-6.39 Y-12.473
N2425 Z-6.698
N2430 Z-7.298
N2435 X-6.388 Y-12.465 Z-7.392
N2440 X-6.383 Y-12.444 Z-7.484
N2445 X-6.374 Y-12.409 Z-7.571
N2450 X-6.362 Y-12.362 Z-7.651
N2455 X-6.346 Y-12.302 Z-7.723
N2460 X-6.329 Y-12.233 Z-7.784
N2465 X-6.309 Y-12.155 Z-7.833
N2470 X-6.287 Y-12.071 Z-7.869
N2475 X-6.264 Y-11.982 Z-7.891
N2480 X-6.241 Y-11.891 Z-7.898
N2485 G3 X-5.771 Y-8.625 I-14.839 J3.801
N2490 G1 Y-8.478
N2495 X-5.754 Y-8.316
N2500 X-5.75 Y-8.143
N2505 X-5.767 Y-7.833
N2510 X-5.821 Y-7.44
N2515 X-5.896 Y-7.097
N2520 X-5.988 Y-6.824
N2525 X-6.138 Y-6.579
N2530 X-6.337 Y-6.371
N2535 X-6.371 Y-6.337
N2540 X-6.539 Y-6.136
N2545 X-6.858 Y-5.733
N2550 X-6.94 Y-5.625
N2555 X-7.751 Y-4.526
N2560 X-7.899 Y-4.325
N2565 X-8.175 Y-3.923
N2570 X-8.234 Y-3.822
N2575 X-8.285 Y-3.722
N2580 X-8.51 Y-3.168
N2585 X-8.607 Y-2.716
N2590 X-8.646 Y-2.515
N2595 X-8.919 Y-0.704
N2600 X-8.943 Y-0.503
N2605 X-8.977 Y-0.101
N2610 Y0.101
N2615 X-8.943 Y0.503
N2620 X-8.919 Y0.704
N2625 X-8.646 Y2.515
N2630 X-8.607 Y2.716
N2635 X-8.51 Y3.168
N2640 X-8.285 Y3.722
N2645 X-8.234 Y3.822
N2650 X-8.175 Y3.923
N2655 X-7.899 Y4.325
N2660 X-7.141 Y5.353
N2665 X-6.94 Y5.625
N2670 X-6.858 Y5.733
N2675 X-6.538 Y6.137
N2680 X-6.371 Y6.337
N2685 X-6.337 Y6.371
N2690 X-6.136 Y6.539
N2695 X-5.733 Y6.858
N2700 X-5.625 Y6.94
N2705 X-4.526 Y7.751
N2710 X-4.325 Y7.899
N2715 X-3.923 Y8.175
N2720 X-3.822 Y8.234
N2725 X-3.722 Y8.285
N2730 X-3.168 Y8.51
N2735 X-2.716 Y8.607
N2740 X-2.515 Y8.646
N2745 X-0.704 Y8.919
N2750 X-0.503 Y8.943
N2755 X-0.101 Y8.977
N2760 X0.101
N2765 X0.503 Y8.943
N2770 X0.704 Y8.919
N2775 X2.515 Y8.646
N2780 X2.716 Y8.607
N2785 X3.168 Y8.51
N2790 X3.722 Y8.285
N2795 X3.822 Y8.234
N2800 X3.923 Y8.175
N2805 X4.325 Y7.899
N2810 X5.353 Y7.141
N2815 X5.625 Y6.94
N2820 X5.733 Y6.858
N2825 X6.137 Y6.538
N2830 X6.337 Y6.371
N2835 X6.371 Y6.337
N2840 X6.539 Y6.136
N2845 X6.858 Y5.733
N2850 X6.94 Y5.625
N2855 X7.751 Y4.526
N2860 X7.899 Y4.325
N2865 X8.175 Y3.923
N2870 X8.234 Y3.822
N2875 X8.285 Y3.722
N2880 X8.51 Y3.168
N2885 X8.607 Y2.716
N2890 X8.646 Y2.515
N2895 X8.919 Y0.704
N2900 X8.943 Y0.503
N2905 X8.977 Y0.101
N2910 Y-0.101
N2915 X8.943 Y-0.503
N2920 X8.919 Y-0.704
N2925 X8.646 Y-2.515
N2930 X8.607 Y-2.716
N2935 X8.51 Y-3.168
N2940 X8.285 Y-3.722
N2945 X8.234 Y-3.822
N2950 X8.175 Y-3.923
N2955 X7.899 Y-4.325
N2960 X7.141 Y-5.353
N2965 X6.94 Y-5.625
N2970 X6.858 Y-5.733
N2975 X6.538 Y-6.137
N2980 X6.371 Y-6.337
N2985 X6.337 Y-6.371
N2990 X6.136 Y-6.539
N2995 X5.733 Y-6.858
N3000 X5.625 Y-6.94
N3005 X4.526 Y-7.751
N3010 X4.325 Y-7.899
N3015 X3.923 Y-8.175
N3020 X3.822 Y-8.234
N3025 X3.722 Y-8.285
N3030 X3.168 Y-8.51
N3035 X2.716 Y-8.607
N3040 X2.515 Y-8.646
N3045 X0.704 Y-8.919
N3050 X0.503 Y-8.943
N3055 X0.101 Y-8.977
N3060 X-0.101
N3065 X-0.503 Y-8.943
N3070 X-0.704 Y-8.919
N3075 X-2.515 Y-8.646
N3080 X-2.716 Y-8.607
N3085 X-3.168 Y-8.51
N3090 X-3.722 Y-8.285
N3095 X-3.822 Y-8.234
N3100 X-3.923 Y-8.175
N3105 X-4.325 Y-7.899
N3110 X-5.353 Y-7.141
N3115 X-5.625 Y-6.94
N3120 X-5.733 Y-6.858
N3125 X-6.137 Y-6.538
N3130 X-6.337 Y-6.371
N3135 X-6.414 Y-6.32
N3140 X-6.498 Y-6.282
N3145 X-6.568 Y-6.269 Z-7.894
N3150 X-6.638 Y-6.257 Z-7.881
N3155 X-6.705 Y-6.245 Z-7.86
N3160 X-6.783 Y-6.259 Z-7.823
N3165 X-6.854 Y-6.273 Z-7.775
N3170 X-6.918 Y-6.284 Z-7.718
N3175 X-6.97 Y-6.313 Z-7.646
N3180 X-7.012 Y-6.336 Z-7.567
N3185 X-7.042 Y-6.353 Z-7.481
N3190 X-7.061 Y-6.363 Z-7.391
N3195 X-7.067 Y-6.367 Z-7.299
N3200 Z5.
N3205 X-4.942 Y-11.822
N3210 Z-5.348
N3215 Z-5.948
N3220 X-4.941 Y-11.815 Z-6.042
N3225 X-4.935 Y-11.793 Z-6.134
N3230 X-4.926 Y-11.759 Z-6.221
N3235 X-4.914 Y-11.711 Z-6.301
N3240 X-4.899 Y-11.652 Z-6.373
N3245 X-4.881 Y-11.582 Z-6.434
N3250 X-4.861 Y-11.505 Z-6.483
N3255 X-4.839 Y-11.42 Z-6.519
N3260 X-4.817 Y-11.332 Z-6.541
N3265 X-4.793 Y-11.241 Z-6.548
N3270 G3 X-4.324 Y-7.974 I-14.839 J3.801
N3275 G1 Y-7.834
N3280 X-4.3 Y-7.602
N3285 X-4.297 Y-7.452
N3290 X-4.311 Y-7.262
N3295 X-4.36 Y-6.94
N3300 X-4.477 Y-6.445
N3305 X-4.525 Y-6.294
N3310 X-4.63 Y-6.05
N3315 X-4.779 Y-5.831
N3320 X-4.967 Y-5.643
N3325 X-5.102 Y-5.532
N3330 X-5.532 Y-5.102
N3335 X-5.675 Y-4.929
N3340 X-6.566 Y-3.722
N3345 X-6.703 Y-3.52
N3350 X-6.836 Y-3.319
N3355 X-6.945 Y-3.118
N3360 X-7.023 Y-2.917
N3365 X-7.173 Y-2.515
N3370 X-7.289 Y-1.911
N3375 X-7.472 Y-0.704
N3380 X-7.495 Y-0.503
N3385 X-7.529 Y-0.101
N3390 Y0.101
N3395 X-7.495 Y0.503
N3400 X-7.472 Y0.704
N3405 X-7.289 Y1.911
N3410 X-7.173 Y2.515
N3415 X-7.023 Y2.917
N3420 X-6.945 Y3.118
N3425 X-6.836 Y3.319
N3430 X-6.703 Y3.52
N3435 X-6.566 Y3.722
N3440 X-5.675 Y4.929
N3445 X-5.532 Y5.102
N3450 X-5.102 Y5.532
N3455 X-4.929 Y5.675
N3460 X-3.722 Y6.566
N3465 X-3.52 Y6.703
N3470 X-3.319 Y6.836
N3475 X-3.118 Y6.945
N3480 X-2.917 Y7.023
N3485 X-2.515 Y7.173
N3490 X-1.911 Y7.289
N3495 X-0.704 Y7.472
N3500 X-0.503 Y7.495
N3505 X-0.101 Y7.529
N3510 X0.101
N3515 X0.503 Y7.495
N3520 X0.704 Y7.472
N3525 X1.911 Y7.289
N3530 X2.515 Y7.173
N3535 X2.917 Y7.023
N3540 X3.118 Y6.945
N3545 X3.319 Y6.836
N3550 X3.52 Y6.703
N3555 X3.722 Y6.566
N3560 X4.929 Y5.675
N3565 X5.102 Y5.532
N3570 X5.532 Y5.102
N3575 X5.675 Y4.929
N3580 X6.566 Y3.722
N3585 X6.703 Y3.52
N3590 X6.836 Y3.319
N3595 X6.945 Y3.118
N3600 X7.023 Y2.917
N3605 X7.173 Y2.515
N3610 X7.289 Y1.911
N3615 X7.472 Y0.704
N3620 X7.495 Y0.503
N3625 X7.529 Y0.101
N3630 Y-0.101
N3635 X7.495 Y-0.503
N3640 X7.472 Y-0.704
N3645 X7.289 Y-1.911
N3650 X7.173 Y-2.515
N3655 X7.023 Y-2.917
N3660 X6.945 Y-3.118
N3665 X6.836 Y-3.319
N3670 X6.703 Y-3.52
N3675 X6.566 Y-3.722
N3680 X5.675 Y-4.929
N3685 X5.532 Y-5.102
N3690 X5.102 Y-5.532
N3695 X4.929 Y-5.675
N3700 X3.722 Y-6.566
N3705 X3.52 Y-6.703
N3710 X3.319 Y-6.836
N3715 X3.118 Y-6.945
N3720 X2.917 Y-7.023
N3725 X2.515 Y-7.173
N3730 X1.911 Y-7.289
N3735 X0.704 Y-7.472
N3740 X0.503 Y-7.495
N3745 X0.101 Y-7.529
N3750 X-0.101
N3755 X-0.503 Y-7.495
N3760 X-0.704 Y-7.472
N3765 X-1.911 Y-7.289
N3770 X-2.515 Y-7.173
N3775 X-2.917 Y-7.023
N3780 X-3.118 Y-6.945
N3785 X-3.319 Y-6.836
N3790 X-3.52 Y-6.703
N3795 X-3.722 Y-6.566
N3800 X-4.929 Y-5.675
N3805 X-4.967 Y-5.643
N3810 X-5.045 Y-5.593
N3815 X-5.129 Y-5.555
N3820 X-5.198 Y-5.542 Z-6.544
N3825 X-5.266 Y-5.531 Z-6.532
N3830 X-5.332 Y-5.519 Z-6.511
N3835 X-5.41 Y-5.533 Z-6.475
N3840 X-5.482 Y-5.546 Z-6.428
N3845 X-5.546 Y-5.558 Z-6.371
N3850 X-5.599 Y-5.588 Z-6.3
N3855 X-5.641 Y-5.611 Z-6.22
N3860 X-5.672 Y-5.629 Z-6.133
N3865 X-5.691 Y-5.639 Z-6.042
N3870 X-5.698 Y-5.643 Z-5.949
N3875 Z5.
N3880 X-3.495 Y-11.005
N3885 Z-3.998
N3890 Z-4.598
N3895 X-3.493 Y-10.998 Z-4.692
N3900 X-3.487 Y-10.976 Z-4.784
N3905 X-3.478 Y-10.941 Z-4.871
N3910 X-3.466 Y-10.894 Z-4.951
N3915 X-3.451 Y-10.835 Z-5.023
N3920 X-3.433 Y-10.765 Z-5.084
N3925 X-3.413 Y-10.687 Z-5.133
N3930 X-3.392 Y-10.603 Z-5.169
N3935 X-3.369 Y-10.514 Z-5.191
N3940 X-3.346 Y-10.424 Z-5.198
N3945 G3 X-2.876 Y-7.157 I-14.839 J3.801
N3950 G1 Y-6.96
N3955 X-2.867 Y-6.81
N3960 X-2.871 Y-6.66
N3965 X-2.89 Y-6.482
N3970 X-2.939 Y-6.221
N3975 X-3.055 Y-5.8
N3980 X-3.17 Y-5.482
N3985 X-3.285 Y-5.241
N3990 X-3.443 Y-5.027
N3995 X-3.638 Y-4.846
N4000 X-3.722 Y-4.782
N4005 X-4.29 Y-4.325
N4010 X-4.325 Y-4.29
N4015 X-4.782 Y-3.722
N4020 X-4.935 Y-3.52
N4025 X-5.231 Y-3.118
N4030 X-5.331 Y-2.979
N4035 X-5.497 Y-2.716
N4040 X-5.532 Y-2.649
N4045 X-5.599 Y-2.515
N4050 X-5.679 Y-2.313
N4055 X-5.817 Y-1.911
N4060 X-5.861 Y-1.71
N4065 X-5.934 Y-1.29
N4070 X-5.963 Y-1.106
N4075 X-6.024 Y-0.704
N4080 X-6.048 Y-0.503
N4085 X-6.082 Y-0.101
N4090 Y0.101
N4095 X-6.048 Y0.503
N4100 X-6.024 Y0.704
N4105 X-5.963 Y1.106
N4110 X-5.931 Y1.308
N4115 X-5.861 Y1.71
N4120 X-5.817 Y1.911
N4125 X-5.679 Y2.313
N4130 X-5.599 Y2.515
N4135 X-5.532 Y2.649
N4140 X-5.497 Y2.716
N4145 X-5.331 Y2.979
N4150 X-5.231 Y3.118
N4155 X-4.929 Y3.529
N4160 X-4.782 Y3.722
N4165 X-4.325 Y4.29
N4170 X-4.29 Y4.325
N4175 X-3.722 Y4.782
N4180 X-3.52 Y4.935
N4185 X-3.118 Y5.231
N4190 X-2.979 Y5.331
N4195 X-2.716 Y5.497
N4200 X-2.649 Y5.532
N4205 X-2.515 Y5.599
N4210 X-2.313 Y5.679
N4215 X-1.911 Y5.817
N4220 X-1.71 Y5.861
N4225 X-1.29 Y5.934
N4230 X-1.106 Y5.963
N4235 X-0.704 Y6.024
N4240 X-0.503 Y6.048
N4245 X-0.101 Y6.082
N4250 X0.101
N4255 X0.503 Y6.048
N4260 X0.704 Y6.024
N4265 X1.106 Y5.963
N4270 X1.308 Y5.931
N4275 X1.71 Y5.861
N4280 X1.911 Y5.817
N4285 X2.313 Y5.679
N4290 X2.515 Y5.599
N4295 X2.649 Y5.532
N4300 X2.716 Y5.497
N4305 X2.979 Y5.331
N4310 X3.118 Y5.231
N4315 X3.529 Y4.929
N4320 X3.722 Y4.782
N4325 X4.29 Y4.325
N4330 X4.325 Y4.29
N4335 X4.782 Y3.722
N4340 X4.935 Y3.52
N4345 X5.231 Y3.118
N4350 X5.331 Y2.979
N4355 X5.497 Y2.716
N4360 X5.532 Y2.649
N4365 X5.599 Y2.515
N4370 X5.679 Y2.313
N4375 X5.817 Y1.911
N4380 X5.861 Y1.71
N4385 X5.934 Y1.29
N4390 X5.963 Y1.106
N4395 X6.024 Y0.704
N4400 X6.048 Y0.503
N4405 X6.082 Y0.101
N4410 Y-0.101
N4415 X6.048 Y-0.503
N4420 X6.024 Y-0.704
N4425 X5.963 Y-1.106
N4430 X5.931 Y-1.308
N4435 X5.861 Y-1.71
N4440 X5.817 Y-1.911
N4445 X5.679 Y-2.313
N4450 X5.599 Y-2.515
N4455 X5.532 Y-2.649
N4460 X5.497 Y-2.716
N4465 X5.331 Y-2.979
N4470 X5.231 Y-3.118
N4475 X4.929 Y-3.529
N4480 X4.782 Y-3.722
N4485 X4.325 Y-4.29
N4490 X4.29 Y-4.325
N4495 X3.722 Y-4.782
N4500 X3.52 Y-4.935
N4505 X3.118 Y-5.231
N4510 X2.979 Y-5.331
N4515 X2.716 Y-5.497
N4520 X2.649 Y-5.532
N4525 X2.515 Y-5.599
N4530 X2.313 Y-5.679
N4535 X1.911 Y-5.817
N4540 X1.71 Y-5.861
N4545 X1.29 Y-5.934
N4550 X1.106 Y-5.963
N4555 X0.704 Y-6.024
N4560 X0.503 Y-6.048
N4565 X0.101 Y-6.082
N4570 X-0.101
N4575 X-0.503 Y-6.048
N4580 X-0.704 Y-6.024
N4585 X-1.106 Y-5.963
N4590 X-1.308 Y-5.931
N4595 X-1.71 Y-5.861
N4600 X-1.911 Y-5.817
N4605 X-2.313 Y-5.679
N4610 X-2.515 Y-5.599
N4615 X-2.649 Y-5.532
N4620 X-2.716 Y-5.497
N4625 X-2.979 Y-5.331
N4630 X-3.118 Y-5.231
N4635 X-3.529 Y-4.929
N4640 X-3.638 Y-4.846
N4645 X-3.718 Y-4.798
N4650 X-3.804 Y-4.764
N4655 X-3.895 Y-4.749 Z-5.191
N4660 X-3.985 Y-4.736 Z-5.169
N4665 X-4.062 Y-4.75 Z-5.138
N4670 X-4.133 Y-4.763 Z-5.096
N4675 X-4.198 Y-4.775 Z-5.044
N4680 X-4.248 Y-4.804 Z-4.983
N4685 X-4.29 Y-4.829 Z-4.916
N4690 X-4.324 Y-4.848 Z-4.842
N4695 X-4.348 Y-4.862 Z-4.764
N4700 X-4.363 Y-4.871 Z-4.682
N4705 X-4.368 Y-4.874 Z-4.599
N4710 Z5.
N4715 X-3.673 Y-9.155
N4720 Z-2.648
N4725 Z-3.248
N4730 X-3.672 Y-9.148 Z-3.342
N4735 X-3.666 Y-9.127 Z-3.434
N4740 X-3.657 Y-9.092 Z-3.521
N4745 X-3.645 Y-9.044 Z-3.601
N4750 X-3.63 Y-8.985 Z-3.673
N4755 X-3.612 Y-8.916 Z-3.734
N4760 X-3.592 Y-8.838 Z-3.783
N4765 X-3.571 Y-8.754 Z-3.819
N4770 X-3.548 Y-8.665 Z-3.841
N4775 X-3.525 Y-8.574 Z-3.848
N4780 G3 X-3.055 Y-5.308 I-14.839 J3.801
N4785 G1 Y-5.102
N4790 X-3.033 Y-4.954
N4795 X-3.02 Y-4.748
N4800 X-3.026 Y-4.452
N4805 X-3.08 Y-3.912
N4810 X-3.14 Y-3.625
N4815 X-3.258 Y-3.356
N4820 X-3.429 Y-3.118
N4825 X-3.52 Y-3.016
N4830 X-3.599 Y-2.917
N4835 X-3.923 Y-2.474
N4840 X-4.036 Y-2.313
N4845 X-4.157 Y-2.112
N4850 X-4.253 Y-1.911
N4855 X-4.325 Y-1.744
N4860 X-4.461 Y-1.308
N4865 X-4.509 Y-1.106
N4870 X-4.575 Y-0.704
N4875 X-4.6 Y-0.503
N4880 X-4.634 Y-0.101
N4885 Y0.101
N4890 X-4.6 Y0.503
N4895 X-4.575 Y0.704
N4900 X-4.509 Y1.106
N4905 X-4.461 Y1.308
N4910 X-4.325 Y1.744
N4915 X-4.253 Y1.911
N4920 X-4.157 Y2.112
N4925 X-4.036 Y2.313
N4930 X-3.923 Y2.474
N4935 X-3.599 Y2.917
N4940 X-3.52 Y3.016
N4945 X-3.319 Y3.241
N4950 X-3.245 Y3.319
N4955 X-3.017 Y3.52
N4960 X-2.917 Y3.599
N4965 X-2.474 Y3.923
N4970 X-2.313 Y4.036
N4975 X-2.112 Y4.157
N4980 X-1.911 Y4.253
N4985 X-1.744 Y4.325
N4990 X-1.308 Y4.461
N4995 X-1.106 Y4.509
N5000 X-0.704 Y4.575
N5005 X-0.503 Y4.6
N5010 X-0.101 Y4.634
N5015 X0.101
N5020 X0.503 Y4.6
N5025 X0.704 Y4.575
N5030 X1.106 Y4.509
N5035 X1.308 Y4.461
N5040 X1.744 Y4.325
N5045 X1.911 Y4.253
N5050 X2.112 Y4.157
N5055 X2.313 Y4.036
N5060 X2.474 Y3.923
N5065 X2.917 Y3.599
N5070 X3.016 Y3.52
N5075 X3.241 Y3.319
N5080 X3.319 Y3.245
N5085 X3.52 Y3.017
N5090 X3.599 Y2.917
N5095 X3.923 Y2.474
N5100 X4.036 Y2.313
N5105 X4.157 Y2.112
N5110 X4.253 Y1.911
N5115 X4.325 Y1.744
N5120 X4.461 Y1.308
N5125 X4.509 Y1.106
N5130 X4.575 Y0.704
N5135 X4.6 Y0.503
N5140 X4.634 Y0.101
N5145 Y-0.101
N5150 X4.6 Y-0.503
N5155 X4.575 Y-0.704
N5160 X4.509 Y-1.106
N5165 X4.461 Y-1.308
N5170 X4.325 Y-1.744
N5175 X4.253 Y-1.911
N5180 X4.157 Y-2.112
N5185 X4.036 Y-2.313
N5190 X3.923 Y-2.474
N5195 X3.599 Y-2.917
N5200 X3.52 Y-3.017
N5205 X3.319 Y-3.245
N5210 X3.241 Y-3.319
N5215 X3.016 Y-3.52
N5220 X2.917 Y-3.599
N5225 X2.474 Y-3.923
N5230 X2.313 Y-4.036
N5235 X2.112 Y-4.157
N5240 X1.911 Y-4.253
N5245 X1.744 Y-4.325
N5250 X1.308 Y-4.461
N5255 X1.106 Y-4.509
N5260 X0.704 Y-4.575
N5265 X0.503 Y-4.6
N5270 X0.101 Y-4.634
N5275 X-0.101
N5280 X-0.503 Y-4.6
N5285 X-0.704 Y-4.575
N5290 X-1.106 Y-4.509
N5295 X-1.308 Y-4.461
N5300 X-1.744 Y-4.325
N5305 X-1.911 Y-4.253
N5310 X-2.112 Y-4.157
N5315 X-2.313 Y-4.036
N5320 X-2.474 Y-3.923
N5325 X-2.842 Y-3.654
N5330 X-2.922 Y-3.608
N5335 X-3.009 Y-3.575
N5340 X-3.094 Y-3.563 Z-3.842
N5345 X-3.178 Y-3.551 Z-3.823
N5350 X-3.255 Y-3.565 Z-3.793
N5355 X-3.326 Y-3.578 Z-3.754
N5360 X-3.392 Y-3.59 Z-3.704
N5365 X-3.444 Y-3.621 Z-3.643
N5370 X-3.488 Y-3.648 Z-3.575
N5375 X-3.524 Y-3.669 Z-3.499
N5380 X-3.55 Y-3.684 Z-3.419
N5385 X-3.566 Y-3.694 Z-3.335
N5390 X-3.571 Y-3.697 Z-3.249
N5395 Z5.
N5400 X-2.216 Y-8.239
N5405 Z-1.298
N5410 Z-1.898
N5415 X-2.214 Y-8.232 Z-1.992
N5420 X-2.208 Y-8.21 Z-2.084
N5425 X-2.2 Y-8.176 Z-2.171
N5430 X-2.187 Y-8.128 Z-2.251
N5435 X-2.172 Y-8.069 Z-2.323
N5440 X-2.154 Y-7.999 Z-2.384
N5445 X-2.134 Y-7.922 Z-2.433
N5450 X-2.113 Y-7.837 Z-2.469
N5455 X-2.09 Y-7.749 Z-2.491
N5460 X-2.067 Y-7.658 Z-2.498
N5465 G3 X-1.597 Y-4.391 I-14.839 J3.801
N5470 G1 Y-4.294
N5475 X-1.59 Y-4.141
N5480 X-1.598 Y-3.905
N5485 X-1.699 Y-3.025
N5490 X-1.845 Y-2.151
N5495 X-1.892 Y-1.266
N5500 X-1.802 Y-0.832
N5505 X-1.756 Y-0.731
N5510 X-1.549 Y-0.339
N5515 X-1.393 Y-0.182
N5520 X-1.303 Y-0.117
N5525 X-1.235 Y-0.055
N5530 X-1.177 Y0.018
N5535 X-1.147 Y0.085 Z-2.494
N5540 X-1.118 Y0.152 Z-2.48
N5545 X-1.089 Y0.216 Z-2.457
N5550 X-1.081 Y0.288 Z-2.423
N5555 X-1.073 Y0.355 Z-2.379
N5560 X-1.086 Y0.427 Z-2.315
N5565 X-1.097 Y0.487 Z-2.24
N5570 X-1.106 Y0.535 Z-2.155
N5575 X-1.112 Y0.569 Z-2.064
N5580 X-1.119 Y0.585 Z-1.982
N5585 X-1.121 Y0.59 Z-1.898
N5590 Z5.
N5595 X-23.865 Y-23.266
N5600 Z-24.248
N5605 Z-24.848
N5610 X-23.859 Y-23.262 Z-24.942
N5615 X-23.841 Y-23.25 Z-25.034
N5620 X-23.81 Y-23.23 Z-25.121
N5625 X-23.769 Y-23.204 Z-25.201
N5630 X-23.717 Y-23.171 Z-25.273
N5635 X-23.657 Y-23.132 Z-25.334
N5640 X-23.59 Y-23.088 Z-25.383
N5645 X-23.516 Y-23.041 Z-25.419
N5650 X-23.439 Y-22.992 Z-25.441
N5655 X-23.36 Y-22.941 Z-25.448
N5660 G3 X-20.792 Y-20.869 I-8.278 J12.888
N5665 G1 X-20.69 Y-20.759
N5670 X-20.627 Y-20.623
N5675 X-20.58 Y-20.481
N5680 X-20.543 Y-20.316
N5685 X-20.513 Y-20.112
N5690 X-20.497 Y-19.864
N5695 X-20.502 Y-19.563
N5700 X-20.537 Y-19.199
N5705 X-20.617 Y-18.753
N5710 X-20.68 Y-18.515
N5715 X-20.735 Y-18.348
N5720 X-20.811 Y-18.189
N5725 X-20.907 Y-18.04
N5730 X-25.535 Y-11.768
N5735 X-25.649 Y-11.609
N5740 X-25.978 Y-11.102
N5745 X-26.214 Y-10.537
N5750 X-26.342 Y-9.958
N5755 X-26.374 Y-9.757
N5760 X-27.739 Y-0.704
N5765 X-27.763 Y-0.503
N5770 X-27.797 Y-0.101
N5775 Y0.101
N5780 X-27.763 Y0.503
N5785 X-27.739 Y0.704
N5790 X-26.374 Y9.757
N5795 X-26.342 Y9.958
N5800 X-26.214 Y10.537
N5805 X-25.978 Y11.102
N5810 X-25.649 Y11.609
N5815 X-25.535 Y11.768
N5820 X-20.191 Y19.01
N5825 X-20.016 Y19.228
N5830 X-19.669 Y19.652
N5835 X-19.657 Y19.665
N5840 X-19.211 Y20.03
N5845 X-19.01 Y20.191
N5850 X-11.768 Y25.535
N5855 X-11.609 Y25.649
N5860 X-11.102 Y25.978
N5865 X-10.537 Y26.214
N5870 X-9.958 Y26.342
N5875 X-9.757 Y26.374
N5880 X-0.704 Y27.739
N5885 X-0.503 Y27.763
N5890 X-0.101 Y27.797
N5895 X0.101
N5900 X0.503 Y27.763
N5905 X0.704 Y27.739
N5910 X9.757 Y26.374
N5915 X9.958 Y26.342
N5920 X10.537 Y26.214
N5925 X11.102 Y25.978
N5930 X11.609 Y25.649
N5935 X11.768 Y25.535
N5940 X19.01 Y20.191
N5945 X19.228 Y20.016
N5950 X19.652 Y19.669
N5955 X19.665 Y19.657
N5960 X20.03 Y19.211
N5965 X20.191 Y19.01
N5970 X25.535 Y11.768
N5975 X25.649 Y11.609
N5980 X25.978 Y11.102
N5985 X26.214 Y10.537
N5990 X26.342 Y9.958
N5995 X26.374 Y9.757
N6000 X27.739 Y0.704
N6005 X27.763 Y0.503
N6010 X27.797 Y0.101
N6015 Y-0.101
N6020 X27.763 Y-0.503
N6025 X27.739 Y-0.704
N6030 X26.374 Y-9.757
N6035 X26.342 Y-9.958
N6040 X26.214 Y-10.537
N6045 X25.978 Y-11.102
N6050 X25.649 Y-11.609
N6055 X25.535 Y-11.768
N6060 X20.191 Y-19.01
N6065 X20.016 Y-19.228
N6070 X19.669 Y-19.652
N6075 X19.657 Y-19.665
N6080 X19.211 Y-20.03
N6085 X19.01 Y-20.191
N6090 X11.768 Y-25.535
N6095 X11.609 Y-25.649
N6100 X11.102 Y-25.978
N6105 X10.537 Y-26.214
N6110 X9.958 Y-26.342
N6115 X9.757 Y-26.374
N6120 X0.704 Y-27.739
N6125 X0.503 Y-27.763
N6130 X0.101 Y-27.797
N6135 X-0.101
N6140 X-0.503 Y-27.763
N6145 X-0.704 Y-27.739
N6150 X-9.757 Y-26.374
N6155 X-9.958 Y-26.342
N6160 X-10.537 Y-26.214
N6165 X-11.102 Y-25.978
N6170 X-11.609 Y-25.649
N6175 X-11.768 Y-25.535
N6180 X-19.01 Y-20.191
N6185 X-19.228 Y-20.016
N6190 X-19.652 Y-19.669
N6195 X-19.665 Y-19.657
N6200 X-20.03 Y-19.211
N6205 X-20.191 Y-19.01
N6210 X-20.907 Y-18.04
N6215 X-20.97 Y-17.972
N6220 X-21.043 Y-17.915
N6225 X-21.11 Y-17.886 Z-25.444
N6230 X-21.177 Y-17.857 Z-25.43
N6235 X-21.242 Y-17.829 Z-25.407
N6240 X-21.312 Y-17.821 Z-25.374
N6245 X-21.377 Y-17.813 Z-25.332
N6250 X-21.448 Y-17.826 Z-25.27
N6255 X-21.508 Y-17.837 Z-25.197
N6260 X-21.556 Y-17.846 Z-25.115
N6265 X-21.59 Y-17.852 Z-25.027
N6270 X-21.609 Y-17.86 Z-24.938
N6275 X-21.616 Y-17.862 Z-24.848
N6280 Z5.
N6285 X22.853 Y22.01
N6290 Z-22.898
N6295 Z-23.498
N6300 X22.847 Y22.006 Z-23.592
N6305 X22.828 Y21.995 Z-23.684
N6310 X22.797 Y21.976 Z-23.771
N6315 X22.755 Y21.951 Z-23.851
N6320 X22.702 Y21.92 Z-23.923
N6325 X22.64 Y21.883 Z-23.984
N6330 X22.571 Y21.843 Z-24.033
N6335 X22.496 Y21.798 Z-24.069
N6340 X22.418 Y21.752 Z-24.091
N6345 X22.337 Y21.704 Z-24.098
N6350 G3 X19.695 Y19.726 I7.805 J-13.18
N6355 G1 X19.589 Y19.62
N6360 X19.524 Y19.485
N6365 X19.477 Y19.343
N6370 X19.44 Y19.182
N6375 X19.41 Y18.983
N6380 X19.394 Y18.741
N6385 X19.399 Y18.447
N6390 X19.432 Y18.092
N6395 X19.483 Y17.805
N6400 X19.537 Y17.597
N6405 X19.621 Y17.399
N6410 X19.735 Y17.217
N6415 X24.241 Y11.111
N6420 X24.34 Y10.964
N6425 X24.661 Y10.447
N6430 X24.876 Y9.895
N6435 X24.983 Y9.354
N6440 X25.017 Y9.153
N6445 X26.292 Y0.704
N6450 X26.316 Y0.503
N6455 X26.349 Y0.101
N6460 Y-0.101
N6465 X26.316 Y-0.503
N6470 X26.292 Y-0.704
N6475 X25.017 Y-9.153
N6480 X24.983 Y-9.354
N6485 X24.876 Y-9.895
N6490 X24.661 Y-10.447
N6495 X24.34 Y-10.964
N6500 X24.241 Y-11.111
N6505 X19.006 Y-18.206
N6510 X18.84 Y-18.407
N6515 X18.407 Y-18.84
N6520 X18.199 Y-19.01
N6525 X11.111 Y-24.241
N6530 X10.964 Y-24.34
N6535 X10.447 Y-24.661
N6540 X9.895 Y-24.876
N6545 X9.354 Y-24.983
N6550 X9.153 Y-25.017
N6555 X0.704 Y-26.292
N6560 X0.503 Y-26.316
N6565 X0.101 Y-26.349
N6570 X-0.101
N6575 X-0.503 Y-26.316
N6580 X-0.704 Y-26.292
N6585 X-9.153 Y-25.017
N6590 X-9.354 Y-24.983
N6595 X-9.895 Y-24.876
N6600 X-10.447 Y-24.661
N6605 X-10.964 Y-24.34
N6610 X-11.111 Y-24.241
N6615 X-18.206 Y-19.006
N6620 X-18.407 Y-18.84
N6625 X-18.84 Y-18.407
N6630 X-19.01 Y-18.199
N6635 X-24.241 Y-11.111
N6640 X-24.34 Y-10.964
N6645 X-24.661 Y-10.447
N6650 X-24.876 Y-9.895
N6655 X-24.983 Y-9.354
N6660 X-25.017 Y-9.153
N6665 X-26.292 Y-0.704
N6670 X-26.316 Y-0.503
N6675 X-26.349 Y-0.101
N6680 Y0.101
N6685 X-26.316 Y0.503
N6690 X-26.292 Y0.704
N6695 X-25.017 Y9.153
N6700 X-24.983 Y9.354
N6705 X-24.876 Y9.895
N6710 X-24.661 Y10.447
N6715 X-24.34 Y10.964
N6720 X-24.241 Y11.111
N6725 X-19.006 Y18.206
N6730 X-18.84 Y18.407
N6735 X-18.407 Y18.84
N6740 X-18.199 Y19.01
N6745 X-11.111 Y24.241
N6750 X-10.964 Y24.34
N6755 X-10.447 Y24.661
N6760 X-9.895 Y24.876
N6765 X-9.354 Y24.983
N6770 X-9.153 Y25.017
N6775 X-0.704 Y26.292
N6780 X-0.503 Y26.316
N6785 X-0.101 Y26.349
N6790 X0.101
N6795 X0.503 Y26.316
N6800 X0.704 Y26.292
N6805 X9.153 Y25.017
N6810 X9.354 Y24.983
N6815 X9.895 Y24.876
N6820 X10.447 Y24.661
N6825 X10.964 Y24.34
N6830 X11.111 Y24.241
N6835 X18.206 Y19.006
N6840 X18.407 Y18.84
N6845 X18.84 Y18.407
N6850 X19.01 Y18.199
N6855 X19.735 Y17.217
N6860 X19.798 Y17.149
N6865 X19.871 Y17.092
N6870 X19.939 Y17.063 Z-24.094
N6875 X20.005 Y17.034 Z-24.08
N6880 X20.07 Y17.006 Z-24.057
N6885 X20.14 Y16.998 Z-24.024
N6890 X20.205 Y16.99 Z-23.982
N6895 X20.276 Y17.003 Z-23.92
N6900 X20.336 Y17.014 Z-23.847
N6905 X20.384 Y17.023 Z-23.765
N6910 X20.419 Y17.029 Z-23.677
N6915 X20.437 Y17.037 Z-23.588
N6920 X20.444 Y17.039 Z-23.498
N6925 Z5.
N6930 X-21.799 Y-20.898
N6935 Z-21.548
N6940 Z-22.148
N6945 X-21.793 Y-20.894 Z-22.242
N6950 X-21.774 Y-20.883 Z-22.334
N6955 X-21.743 Y-20.864 Z-22.421
N6960 X-21.701 Y-20.839 Z-22.501
N6965 X-21.648 Y-20.808 Z-22.573
N6970 X-21.586 Y-20.772 Z-22.634
N6975 X-21.517 Y-20.731 Z-22.683
N6980 X-21.443 Y-20.686 Z-22.719
N6985 X-21.364 Y-20.64 Z-22.741
N6990 X-21.283 Y-20.592 Z-22.748
N6995 G3 X-18.641 Y-18.614 I-7.805 J13.18
N7000 G1 X-18.535 Y-18.508
N7005 X-18.481 Y-18.368
N7010 X-18.442 Y-18.223
N7015 X-18.409 Y-18.043
N7020 X-18.386 Y-17.821
N7025 X-18.38 Y-17.552
N7030 X-18.398 Y-17.227
N7035 X-18.453 Y-16.831
N7040 X-18.481 Y-16.709
N7045 X-18.536 Y-16.522
N7050 X-18.617 Y-16.345
N7055 X-18.721 Y-16.181
N7060 X-22.867 Y-10.561
N7065 X-23.012 Y-10.36
N7070 X-23.34 Y-9.794
N7075 X-23.355 Y-9.757
N7080 X-23.499 Y-9.354
N7085 X-23.554 Y-9.153
N7090 X-23.637 Y-8.69
N7095 X-23.66 Y-8.55
N7100 X-24.844 Y-0.703
N7105 X-24.868 Y-0.503
N7110 X-24.902 Y-0.101
N7115 Y0.101
N7120 X-24.868 Y0.503
N7125 X-24.844 Y0.704
N7130 X-23.66 Y8.55
N7135 X-23.626 Y8.751
N7140 X-23.554 Y9.153
N7145 X-23.499 Y9.354
N7150 X-23.346 Y9.782
N7155 X-23.34 Y9.794
N7160 X-23.012 Y10.36
N7165 X-22.867 Y10.561
N7170 X-18.118 Y16.999
N7175 X-18.004 Y17.142
N7180 X-17.794 Y17.401
N7185 X-17.629 Y17.602
N7190 X-17.602 Y17.629
N7195 X-17.2 Y17.957
N7200 X-17.142 Y18.004
N7205 X-16.999 Y18.118
N7210 X-10.561 Y22.867
N7215 X-10.36 Y23.012
N7220 X-9.794 Y23.34
N7225 X-9.757 Y23.355
N7230 X-9.354 Y23.499
N7235 X-9.153 Y23.554
N7240 X-8.69 Y23.637
N7245 X-8.55 Y23.66
N7250 X-0.703 Y24.844
N7255 X-0.503 Y24.868
N7260 X-0.101 Y24.902
N7265 X0.101
N7270 X0.503 Y24.868
N7275 X0.704 Y24.844
N7280 X8.55 Y23.66
N7285 X8.751 Y23.626
N7290 X9.153 Y23.554
N7295 X9.354 Y23.499
N7300 X9.782 Y23.346
N7305 X9.794 Y23.34
N7310 X10.36 Y23.012
N7315 X10.561 Y22.867
N7320 X16.999 Y18.118
N7325 X17.142 Y18.004
N7330 X17.401 Y17.794
N7335 X17.602 Y17.629
N7340 X17.629 Y17.602
N7345 X17.957 Y17.2
N7350 X18.004 Y17.142
N7355 X18.118 Y16.999
N7360 X22.867 Y10.561
N7365 X23.012 Y10.36
N7370 X23.34 Y9.794
N7375 X23.355 Y9.757
N7380 X23.499 Y9.354
N7385 X23.554 Y9.153
N7390 X23.637 Y8.69
N7395 X23.66 Y8.55
N7400 X24.844 Y0.703
N7405 X24.868 Y0.503
N7410 X24.902 Y0.101
N7415 Y-0.101
N7420 X24.868 Y-0.503
N7425 X24.844 Y-0.704
N7430 X23.66 Y-8.55
N7435 X23.626 Y-8.751
N7440 X23.554 Y-9.153
N7445 X23.499 Y-9.354
N7450 X23.346 Y-9.782
N7455 X23.34 Y-9.794
N7460 X23.012 Y-10.36
N7465 X22.867 Y-10.561
N7470 X18.118 Y-16.999
N7475 X18.004 Y-17.142
N7480 X17.794 Y-17.401
N7485 X17.629 Y-17.602
N7490 X17.602 Y-17.629
N7495 X17.2 Y-17.957
N7500 X17.142 Y-18.004
N7505 X16.999 Y-18.118
N7510 X10.561 Y-22.867
N7515 X10.36 Y-23.012
N7520 X9.794 Y-23.34
N7525 X9.757 Y-23.355
N7530 X9.354 Y-23.499
N7535 X9.153 Y-23.554
N7540 X8.69 Y-23.637
N7545 X8.55 Y-23.66
N7550 X0.703 Y-24.844
N7555 X0.503 Y-24.868
N7560 X0.101 Y-24.902
N7565 X-0.101
N7570 X-0.503 Y-24.868
N7575 X-0.704 Y-24.844
N7580 X-8.55 Y-23.66
N7585 X-8.751 Y-23.626
N7590 X-9.153 Y-23.554
N7595 X-9.354 Y-23.499
N7600 X-9.782 Y-23.346
N7605 X-9.794 Y-23.34
N7610 X-10.36 Y-23.012
N7615 X-10.561 Y-22.867
N7620 X-16.999 Y-18.118
N7625 X-17.142 Y-18.004
N7630 X-17.401 Y-17.794
N7635 X-17.602 Y-17.629
N7640 X-17.629 Y-17.602
N7645 X-17.957 Y-17.2
N7650 X-18.004 Y-17.142
N7655 X-18.118 Y-16.999
N7660 X-18.721 Y-16.181
N7665 X-18.784 Y-16.113
N7670 X-18.857 Y-16.056
N7675 X-18.924 Y-16.026 Z-22.744
N7680 X-18.991 Y-15.997 Z-22.73
N7685 X-19.056 Y-15.969 Z-22.707
N7690 X-19.126 Y-15.961 Z-22.674
N7695 X-19.191 Y-15.954 Z-22.632
N7700 X-19.262 Y-15.967 Z-22.57
N7705 X-19.322 Y-15.978 Z-22.497
N7710 X-19.37 Y-15.987 Z-22.415
N7715 X-19.404 Y-15.993 Z-22.327
N7720 X-19.423 Y-16.001 Z-22.238
N7725 X-19.429 Y-16.003 Z-22.148
N7730 Z5.
N7735 X-20.848 Y-19.94
N7740 Z-20.198
N7745 Z-20.798
N7750 X-20.841 Y-19.936 Z-20.892
N7755 X-20.822 Y-19.925 Z-20.984
N7760 X-20.791 Y-19.906 Z-21.071
N7765 X-20.749 Y-19.881 Z-21.151
N7770 X-20.696 Y-19.85 Z-21.223
N7775 X-20.635 Y-19.814 Z-21.284
N7780 X-20.566 Y-19.773 Z-21.333
N7785 X-20.491 Y-19.728 Z-21.369
N7790 X-20.412 Y-19.682 Z-21.391
N7795 X-20.331 Y-19.634 Z-21.398
N7800 G3 X-17.689 Y-17.656 I-7.805 J13.18
N7805 G1 X-17.53 Y-17.497
N7810 X-17.473 Y-17.358
N7815 X-17.432 Y-17.214
N7820 X-17.397 Y-17.039
N7825 X-17.372 Y-16.824
N7830 X-17.363 Y-16.563
N7835 X-17.378 Y-16.247
N7840 X-17.426 Y-15.863
N7845 X-17.462 Y-15.69
N7850 X-17.517 Y-15.497
N7855 X-17.599 Y-15.314
N7860 X-17.706 Y-15.145
N7865 X-21.625 Y-9.833
N7870 X-21.679 Y-9.757
N7875 X-21.793 Y-9.555
N7880 X-22.016 Y-9.142
N7885 X-22.021 Y-9.132
N7890 X-22.147 Y-8.751
N7895 X-22.204 Y-8.55
N7900 X-22.304 Y-7.946
N7905 X-23.396 Y-0.704
N7910 X-23.42 Y-0.503
N7915 X-23.454 Y-0.101
N7920 Y0.101
N7925 X-23.42 Y0.503
N7930 X-23.396 Y0.704
N7935 X-22.304 Y7.946
N7940 X-22.204 Y8.55
N7945 X-22.147 Y8.751
N7950 X-22.021 Y9.132
N7955 X-22.01 Y9.153
N7960 X-21.793 Y9.555
N7965 X-21.679 Y9.757
N7970 X-21.625 Y9.833
N7975 X-16.932 Y16.194
N7980 X-16.797 Y16.362
N7985 X-16.362 Y16.797
N7990 X-16.194 Y16.932
N7995 X-9.833 Y21.625
N8000 X-9.757 Y21.679
N8005 X-9.555 Y21.793
N8010 X-9.142 Y22.016
N8015 X-9.132 Y22.021
N8020 X-8.751 Y22.147
N8025 X-8.55 Y22.204
N8030 X-7.946 Y22.304
N8035 X-0.704 Y23.396
N8040 X-0.503 Y23.42
N8045 X-0.101 Y23.454
N8050 X0.101
N8055 X0.503 Y23.42
N8060 X0.704 Y23.396
N8065 X7.946 Y22.304
N8070 X8.55 Y22.204
N8075 X8.751 Y22.147
N8080 X9.132 Y22.021
N8085 X9.153 Y22.01
N8090 X9.555 Y21.793
N8095 X9.757 Y21.679
N8100 X9.833 Y21.625
N8105 X16.194 Y16.932
N8110 X16.362 Y16.797
N8115 X16.797 Y16.362
N8120 X16.932 Y16.194
N8125 X21.625 Y9.833
N8130 X21.679 Y9.757
N8135 X21.793 Y9.555
N8140 X22.016 Y9.142
N8145 X22.021 Y9.132
N8150 X22.147 Y8.751
N8155 X22.204 Y8.55
N8160 X22.304 Y7.946
N8165 X23.396 Y0.704
N8170 X23.42 Y0.503
N8175 X23.454 Y0.101
N8180 Y-0.101
N8185 X23.42 Y-0.503
N8190 X23.396 Y-0.704
N8195 X22.304 Y-7.946
N8200 X22.204 Y-8.55
N8205 X22.147 Y-8.751
N8210 X22.021 Y-9.132
N8215 X22.01 Y-9.153
N8220 X21.793 Y-9.555
N8225 X21.679 Y-9.757
N8230 X21.625 Y-9.833
N8235 X16.932 Y-16.194
N8240 X16.797 Y-16.362
N8245 X16.362 Y-16.797
N8250 X16.194 Y-16.932
N8255 X9.833 Y-21.625
N8260 X9.757 Y-21.679
N8265 X9.555 Y-21.793
N8270 X9.142 Y-22.016
N8275 X9.132 Y-22.021
N8280 X8.751 Y-22.147
N8285 X8.55 Y-22.204
N8290 X7.946 Y-22.304
N8295 X0.704 Y-23.396
N8300 X0.503 Y-23.42
N8305 X0.101 Y-23.454
N8310 X-0.101
N8315 X-0.503 Y-23.42
N8320 X-0.704 Y-23.396
N8325 X-7.946 Y-22.304
N8330 X-8.55 Y-22.204
N8335 X-8.751 Y-22.147
N8340 X-9.132 Y-22.021
N8345 X-9.153 Y-22.01
N8350 X-9.555 Y-21.793
N8355 X-9.757 Y-21.679
N8360 X-9.833 Y-21.625
N8365 X-16.194 Y-16.932
N8370 X-16.362 Y-16.797
N8375 X-16.797 Y-16.362
N8380 X-16.932 Y-16.194
N8385 X-17.706 Y-15.145
N8390 X-17.769 Y-15.077
N8395 X-17.842 Y-15.02
N8400 X-17.91 Y-14.99 Z-21.394
N8405 X-17.976 Y-14.961 Z-21.38
N8410 X-18.041 Y-14.933 Z-21.357
N8415 X-18.111 Y-14.925 Z-21.324
N8420 X-18.176 Y-14.918 Z-21.282
N8425 X-18.247 Y-14.931 Z-21.22
N8430 X-18.307 Y-14.942 Z-21.147
N8435 X-18.355 Y-14.951 Z-21.065
N8440 X-18.39 Y-14.957 Z-20.977
N8445 X-18.408 Y-14.965 Z-20.888
N8450 X-18.415 Y-14.967 Z-20.798
N8455 Z5.
N8460 X19.505 Y19.289
N8465 Z-18.848
N8470 Z-19.448
N8475 X19.499 Y19.284 Z-19.542
N8480 X19.481 Y19.272 Z-19.634
N8485 X19.452 Y19.251 Z-19.721
N8490 X19.412 Y19.222 Z-19.801
N8495 X19.362 Y19.187 Z-19.873
N8500 X19.303 Y19.146 Z-19.934
N8505 X19.238 Y19.1 Z-19.983
N8510 X19.167 Y19.049 Z-20.019
N8515 X19.092 Y18.997 Z-20.041
N8520 X19.015 Y18.943 Z-20.048
N8525 G3 X16.54 Y16.76 I8.834 J-12.514
N8530 G1 X16.443 Y16.646
N8535 X16.364 Y16.518
N8540 X16.308 Y16.379
N8545 X16.265 Y16.235
N8550 X16.233 Y16.089
N8555 X16.211 Y15.94
N8560 X16.197 Y15.791
N8565 X16.19 Y15.641
N8570 Y15.491
N8575 X16.197 Y15.341
N8580 X16.208 Y15.192
N8585 X16.225 Y15.043
N8590 X16.228 Y15.018
N8595 X16.28 Y14.794
N8600 X16.367 Y14.581
N8605 X16.488 Y14.385
N8610 X20.217 Y9.331
N8615 X20.342 Y9.153
N8620 X20.418 Y9.029
N8625 X20.659 Y8.55
N8630 X20.733 Y8.348
N8635 X20.821 Y8.056
N8640 X20.852 Y7.946
N8645 X20.915 Y7.544
N8650 X20.978 Y7.141
N8655 X21.949 Y0.704
N8660 X21.972 Y0.503
N8665 X22.006 Y0.101
N8670 Y-0.101
N8675 X21.972 Y-0.503
N8680 X21.949 Y-0.704
N8685 X20.947 Y-7.343
N8690 X20.884 Y-7.745
N8695 X20.852 Y-7.946
N8700 X20.821 Y-8.056
N8705 X20.733 Y-8.348
N8710 X20.659 Y-8.55
N8715 X20.418 Y-9.029
N8720 X20.342 Y-9.153
N8725 X20.217 Y-9.331
N8730 X16.044 Y-14.987
N8735 X15.993 Y-15.054
N8740 X15.722 Y-15.389
N8745 X15.59 Y-15.544
N8750 X15.544 Y-15.59
N8755 X15.389 Y-15.722
N8760 X15.054 Y-15.993
N8765 X14.987 Y-16.044
N8770 X9.331 Y-20.217
N8775 X9.153 Y-20.342
N8780 X9.029 Y-20.418
N8785 X8.55 Y-20.659
N8790 X8.348 Y-20.733
N8795 X8.056 Y-20.821
N8800 X7.946 Y-20.852
N8805 X7.544 Y-20.915
N8810 X7.141 Y-20.978
N8815 X0.704 Y-21.949
N8820 X0.503 Y-21.972
N8825 X0.101 Y-22.006
N8830 X-0.101
N8835 X-0.503 Y-21.972
N8840 X-0.704 Y-21.949
N8845 X-7.343 Y-20.947
N8850 X-7.745 Y-20.884
N8855 X-7.946 Y-20.852
N8860 X-8.056 Y-20.821
N8865 X-8.348 Y-20.733
N8870 X-8.55 Y-20.659
N8875 X-9.029 Y-20.418
N8880 X-9.153 Y-20.342
N8885 X-9.331 Y-20.217
N8890 X-14.987 Y-16.044
N8895 X-15.054 Y-15.993
N8900 X-15.389 Y-15.722
N8905 X-15.544 Y-15.59
N8910 X-15.59 Y-15.544
N8915 X-15.722 Y-15.389
N8920 X-15.993 Y-15.054
N8925 X-16.044 Y-14.987
N8930 X-20.217 Y-9.331
N8935 X-20.342 Y-9.153
N8940 X-20.418 Y-9.029
N8945 X-20.659 Y-8.55
N8950 X-20.733 Y-8.348
N8955 X-20.821 Y-8.056
N8960 X-20.852 Y-7.946
N8965 X-20.915 Y-7.544
N8970 X-20.978 Y-7.141
N8975 X-21.949 Y-0.704
N8980 X-21.972 Y-0.503
N8985 X-22.006 Y-0.101
N8990 Y0.101
N8995 X-21.972 Y0.503
N9000 X-21.949 Y0.704
N9005 X-20.947 Y7.343
N9010 X-20.884 Y7.745
N9015 X-20.852 Y7.946
N9020 X-20.821 Y8.056
N9025 X-20.733 Y8.348
N9030 X-20.659 Y8.55
N9035 X-20.418 Y9.029
N9040 X-20.342 Y9.153
N9045 X-20.217 Y9.331
N9050 X-16.044 Y14.987
N9055 X-15.993 Y15.054
N9060 X-15.722 Y15.389
N9065 X-15.59 Y15.544
N9070 X-15.544 Y15.59
N9075 X-15.389 Y15.722
N9080 X-15.054 Y15.993
N9085 X-14.987 Y16.044
N9090 X-9.331 Y20.217
N9095 X-9.153 Y20.342
N9100 X-9.029 Y20.418
N9105 X-8.55 Y20.659
N9110 X-8.348 Y20.733
N9115 X-8.056 Y20.821
N9120 X-7.946 Y20.852
N9125 X-7.544 Y20.915
N9130 X-7.141 Y20.978
N9135 X-0.704 Y21.949
N9140 X-0.503 Y21.972
N9145 X-0.101 Y22.006
N9150 X0.101
N9155 X0.503 Y21.972
N9160 X0.704 Y21.949
N9165 X7.343 Y20.947
N9170 X7.745 Y20.884
N9175 X7.946 Y20.852
N9180 X8.056 Y20.821
N9185 X8.348 Y20.733
N9190 X8.55 Y20.659
N9195 X9.029 Y20.418
N9200 X9.153 Y20.342
N9205 X9.331 Y20.217
N9210 X14.987 Y16.044
N9215 X15.054 Y15.993
N9220 X15.389 Y15.722
N9225 X15.544 Y15.59
N9230 X15.59 Y15.544
N9235 X15.722 Y15.389
N9240 X15.993 Y15.054
N9245 X16.044 Y14.987
N9250 X16.488 Y14.385
N9255 X16.551 Y14.317
N9260 X16.623 Y14.26
N9265 X16.691 Y14.231 Z-20.044
N9270 X16.758 Y14.202 Z-20.03
N9275 X16.822 Y14.174 Z-20.007
N9280 X16.892 Y14.166 Z-19.974
N9285 X16.958 Y14.158 Z-19.932
N9290 X17.028 Y14.171 Z-19.87
N9295 X17.088 Y14.182 Z-19.797
N9300 X17.136 Y14.191 Z-19.715
N9305 X17.171 Y14.197 Z-19.627
N9310 X17.19 Y14.205 Z-19.538
N9315 X17.196 Y14.208 Z-19.448
N9320 Z5.
N9325 X18.735 Y17.958
N9330 Z-17.498
N9335 Z-18.098
N9340 X18.728 Y17.954 Z-18.192
N9345 X18.709 Y17.943 Z-18.284
N9350 X18.678 Y17.925 Z-18.371
N9355 X18.636 Y17.9 Z-18.451
N9360 X18.583 Y17.868 Z-18.523
N9365 X18.522 Y17.832 Z-18.584
N9370 X18.453 Y17.791 Z-18.633
N9375 X18.378 Y17.747 Z-18.669
N9380 X18.299 Y17.7 Z-18.691
N9385 X18.218 Y17.652 Z-18.698
N9390 G3 X15.576 Y15.675 I7.805 J-13.18
N9395 G1 X15.412 Y15.511
N9400 X15.358 Y15.371
N9405 X15.319 Y15.226
N9410 X15.285 Y15.046
N9415 X15.262 Y14.825
N9420 X15.256 Y14.557
N9425 X15.274 Y14.233
N9430 X15.329 Y13.838
N9435 X15.357 Y13.71
N9440 X15.412 Y13.523
N9445 X15.493 Y13.346
N9450 X15.597 Y13.181
N9455 X18.866 Y8.751
N9460 X19.01 Y8.539
N9465 X19.122 Y8.348
N9470 X19.309 Y7.946
N9475 X19.386 Y7.745
N9480 X19.494 Y7.343
N9485 X19.529 Y7.141
N9490 X20.501 Y0.704
N9495 X20.525 Y0.503
N9500 X20.559 Y0.101
N9505 Y-0.101
N9510 X20.525 Y-0.503
N9515 X20.501 Y-0.704
N9520 X19.529 Y-7.141
N9525 X19.494 Y-7.343
N9530 X19.386 Y-7.745
N9535 X19.309 Y-7.946
N9540 X19.122 Y-8.348
N9545 X19.01 Y-8.539
N9550 X18.866 Y-8.751
N9555 X14.987 Y-14.008
N9560 X14.855 Y-14.182
N9565 X14.786 Y-14.271
N9570 X14.687 Y-14.383
N9575 X14.383 Y-14.687
N9580 X14.271 Y-14.786
N9585 X14.182 Y-14.855
N9590 X13.981 Y-15.007
N9595 X8.751 Y-18.866
N9600 X8.539 Y-19.01
N9605 X8.348 Y-19.122
N9610 X7.946 Y-19.309
N9615 X7.745 Y-19.386
N9620 X7.343 Y-19.494
N9625 X7.141 Y-19.529
N9630 X0.704 Y-20.501
N9635 X0.503 Y-20.525
N9640 X0.101 Y-20.559
N9645 X-0.101
N9650 X-0.503 Y-20.525
N9655 X-0.704 Y-20.501
N9660 X-7.141 Y-19.529
N9665 X-7.343 Y-19.494
N9670 X-7.745 Y-19.386
N9675 X-7.946 Y-19.309
N9680 X-8.348 Y-19.122
N9685 X-8.539 Y-19.01
N9690 X-8.751 Y-18.866
N9695 X-14.008 Y-14.987
N9700 X-14.182 Y-14.855
N9705 X-14.271 Y-14.786
N9710 X-14.383 Y-14.687
N9715 X-14.687 Y-14.383
N9720 X-14.786 Y-14.271
N9725 X-14.855 Y-14.182
N9730 X-15.007 Y-13.981
N9735 X-18.866 Y-8.751
N9740 X-19.01 Y-8.539
N9745 X-19.122 Y-8.348
N9750 X-19.309 Y-7.946
N9755 X-19.386 Y-7.745
N9760 X-19.494 Y-7.343
N9765 X-19.529 Y-7.141
N9770 X-20.501 Y-0.704
N9775 X-20.525 Y-0.503
N9780 X-20.559 Y-0.101
N9785 Y0.101
N9790 X-20.525 Y0.503
N9795 X-20.501 Y0.704
N9800 X-19.529 Y7.141
N9805 X-19.494 Y7.343
N9810 X-19.386 Y7.745
N9815 X-19.309 Y7.946
N9820 X-19.122 Y8.348
N9825 X-19.01 Y8.539
N9830 X-18.866 Y8.751
N9835 X-14.987 Y14.008
N9840 X-14.855 Y14.182
N9845 X-14.786 Y14.271
N9850 X-14.687 Y14.383
N9855 X-14.383 Y14.687
N9860 X-14.271 Y14.786
N9865 X-14.182 Y14.855
N9870 X-13.981 Y15.007
N9875 X-8.751 Y18.866
N9880 X-8.539 Y19.01
N9885 X-8.348 Y19.122
N9890 X-7.946 Y19.309
N9895 X-7.745 Y19.386
N9900 X-7.343 Y19.494
N9905 X-7.141 Y19.529
N9910 X-0.704 Y20.501
N9915 X-0.503 Y20.525
N9920 X-0.101 Y20.559
N9925 X0.101
N9930 X0.503 Y20.525
N9935 X0.704 Y20.501
N9940 X7.141 Y19.529
N9945 X7.343 Y19.494
N9950 X7.745 Y19.386
N9955 X7.946 Y19.309
N9960 X8.348 Y19.122
N9965 X8.539 Y19.01
N9970 X8.751 Y18.866
N9975 X14.008 Y14.987
N9980 X14.182 Y14.855
N9985 X14.271 Y14.786
N9990 X14.383 Y14.687
N9995 X14.687 Y14.383
N10000 X14.786 Y14.271
N10005 X14.855 Y14.182
N10010 X15.007 Y13.981
N10015 X15.597 Y13.181
N10020 X15.66 Y13.113
N10025 X15.733 Y13.056
N10030 X15.801 Y13.026 Z-18.694
N10035 X15.868 Y12.997 Z-18.68
N10040 X15.932 Y12.969 Z-18.657
N10045 X16.002 Y12.961 Z-18.624
N10050 X16.067 Y12.954 Z-18.582
N10055 X16.068
N10060 X16.138 Y12.967 Z-18.52
N10065 X16.198 Y12.978 Z-18.447
N10070 X16.246 Y12.987 Z-18.365
N10075 X16.281 Y12.993 Z-18.277
N10080 X16.3 Y13.001 Z-18.188
N10085 X16.306 Y13.003 Z-18.098
N10090 Z5.
N10095 X-17.831 Y-16.836
N10100 Z-16.148
N10105 Z-16.748
N10110 X-17.825 Y-16.832 Z-16.842
N10115 X-17.806 Y-16.821 Z-16.934
N10120 X-17.775 Y-16.802 Z-17.021
N10125 X-17.733 Y-16.777 Z-17.101
N10130 X-17.68 Y-16.746 Z-17.173
N10135 X-17.619 Y-16.71 Z-17.234
N10140 X-17.549 Y-16.669 Z-17.283
N10145 X-17.475 Y-16.624 Z-17.319
N10150 X-17.396 Y-16.578 Z-17.341
N10155 X-17.315 Y-16.53 Z-17.348
N10160 G3 X-14.673 Y-14.552 I-7.805 J13.18
N10165 G1 X-14.512 Y-14.391
N10170 X-14.452 Y-14.254
N10175 X-14.408 Y-14.11
N10180 X-14.373 Y-13.941
N10185 X-14.346 Y-13.733
N10190 X-14.334 Y-13.48
N10195 X-14.344 Y-13.173
N10200 X-14.386 Y-12.801
N10205 X-14.43 Y-12.579
N10210 X-14.484 Y-12.38
N10215 X-14.567 Y-12.191
N10220 X-14.677 Y-12.017
N10225 X-17.401 Y-8.325
N10230 X-17.531 Y-8.147
N10235 X-17.602 Y-8.046
N10240 X-17.664 Y-7.946
N10245 X-17.786 Y-7.745
N10250 X-18.03 Y-7.177
N10255 X-18.133 Y-6.739
N10260 X-18.173 Y-6.538
N10265 X-19.053 Y-0.704
N10270 X-19.077 Y-0.503
N10275 X-19.111 Y-0.101
N10280 Y0.101
N10285 X-19.077 Y0.503
N10290 X-19.053 Y0.704
N10295 X-18.173 Y6.538
N10300 X-18.133 Y6.739
N10305 X-18.03 Y7.177
N10310 X-17.786 Y7.745
N10315 X-17.664 Y7.946
N10320 X-17.602 Y8.046
N10325 X-17.531 Y8.147
N10330 X-17.2 Y8.598
N10335 X-13.97 Y12.975
N10340 X-13.78 Y13.216
N10345 X-13.651 Y13.378
N10350 X-13.579 Y13.458
N10355 X-13.458 Y13.579
N10360 X-13.378 Y13.651
N10365 X-13.176 Y13.812
N10370 X-12.975 Y13.97
N10375 X-8.325 Y17.401
N10380 X-8.147 Y17.531
N10385 X-8.046 Y17.602
N10390 X-7.946 Y17.664
N10395 X-7.745 Y17.786
N10400 X-7.177 Y18.03
N10405 X-6.739 Y18.133
N10410 X-6.538 Y18.173
N10415 X-0.704 Y19.053
N10420 X-0.503 Y19.077
N10425 X-0.101 Y19.111
N10430 X0.101
N10435 X0.503 Y19.077
N10440 X0.704 Y19.053
N10445 X6.538 Y18.173
N10450 X6.739 Y18.133
N10455 X7.177 Y18.03
N10460 X7.745 Y17.786
N10465 X7.946 Y17.664
N10470 X8.046 Y17.602
N10475 X8.147 Y17.531
N10480 X8.598 Y17.2
N10485 X12.975 Y13.97
N10490 X13.216 Y13.78
N10495 X13.378 Y13.651
N10500 X13.458 Y13.579
N10505 X13.579 Y13.458
N10510 X13.651 Y13.378
N10515 X13.812 Y13.176
N10520 X13.97 Y12.975
N10525 X17.401 Y8.325
N10530 X17.531 Y8.147
N10535 X17.602 Y8.046
N10540 X17.664 Y7.946
N10545 X17.786 Y7.745
N10550 X18.03 Y7.177
N10555 X18.133 Y6.739
N10560 X18.173 Y6.538
N10565 X19.053 Y0.704
N10570 X19.077 Y0.503
N10575 X19.111 Y0.101
N10580 Y-0.101
N10585 X19.077 Y-0.503
N10590 X19.053 Y-0.704
N10595 X18.173 Y-6.538
N10600 X18.133 Y-6.739
N10605 X18.03 Y-7.177
N10610 X17.786 Y-7.745
N10615 X17.664 Y-7.946
N10620 X17.602 Y-8.046
N10625 X17.531 Y-8.147
N10630 X17.2 Y-8.598
N10635 X13.97 Y-12.975
N10640 X13.78 Y-13.216
N10645 X13.651 Y-13.378
N10650 X13.579 Y-13.458
N10655 X13.458 Y-13.579
N10660 X13.378 Y-13.651
N10665 X13.176 Y-13.812
N10670 X12.975 Y-13.97
N10675 X8.325 Y-17.401
N10680 X8.147 Y-17.531
N10685 X8.046 Y-17.602
N10690 X7.946 Y-17.664
N10695 X7.745 Y-17.786
N10700 X7.177 Y-18.03
N10705 X6.739 Y-18.133
N10710 X6.538 Y-18.173
N10715 X0.704 Y-19.053
N10720 X0.503 Y-19.077
N10725 X0.101 Y-19.111
N10730 X-0.101
N10735 X-0.503 Y-19.077
N10740 X-0.704 Y-19.053
N10745 X-6.538 Y-18.173
N10750 X-6.739 Y-18.133
N10755 X-7.177 Y-18.03
N10760 X-7.745 Y-17.786
N10765 X-7.946 Y-17.664
N10770 X-8.046 Y-17.602
N10775 X-8.147 Y-17.531
N10780 X-8.598 Y-17.2
N10785 X-12.975 Y-13.97
N10790 X-13.216 Y-13.78
N10795 X-13.378 Y-13.651
N10800 X-13.458 Y-13.579
N10805 X-13.579 Y-13.458
N10810 X-13.651 Y-13.378
N10815 X-13.812 Y-13.176
N10820 X-13.97 Y-12.975
N10825 X-14.677 Y-12.017
N10830 X-14.74 Y-11.949
N10835 X-14.813 Y-11.892
N10840 X-14.881 Y-11.862 Z-17.344
N10845 X-14.947 Y-11.833 Z-17.33
N10850 X-15.012 Y-11.805 Z-17.307
N10855 X-15.082 Y-11.797 Z-17.274
N10860 X-15.147 Y-11.79 Z-17.232
N10865 X-15.218 Y-11.803 Z-17.17
N10870 X-15.278 Y-11.814 Z-17.097
N10875 X-15.326 Y-11.823 Z-17.015
N10880 X-15.361 Y-11.829 Z-16.927
N10885 X-15.379 Y-11.837 Z-16.838
N10890 X-15.386 Y-11.839 Z-16.748
N10895 Z5.
N10900 X16.653 Y15.943
N10905 Z-14.798
N10910 Z-15.398
N10915 X16.647 Y15.939 Z-15.492
N10920 X16.628 Y15.928 Z-15.584
N10925 X16.597 Y15.909 Z-15.671
N10930 X16.555 Y15.884 Z-15.751
N10935 X16.502 Y15.853 Z-15.823
N10940 X16.441 Y15.817 Z-15.884
N10945 X16.371 Y15.776 Z-15.933
N10950 X16.297 Y15.732 Z-15.969
N10955 X16.218 Y15.685 Z-15.991
N10960 X16.137 Y15.637 Z-15.998
N10965 G3 X13.495 Y13.66 I7.805 J-13.18
N10970 G1 X13.329 Y13.493
N10975 X13.275 Y13.353
N10980 X13.236 Y13.205
N10985 X13.203 Y13.022
N10990 X13.182 Y12.797
N10995 X13.177 Y12.523
N11000 X13.199 Y12.193
N11005 X13.257 Y11.791
N11010 X13.279 Y11.697
N11015 X13.334 Y11.514
N11020 X13.414 Y11.34
N11025 X13.517 Y11.178
N11030 X16.05 Y7.745
N11035 X16.197 Y7.544
N11040 X16.324 Y7.343
N11045 X16.443 Y7.141
N11050 X16.53 Y6.94
N11055 X16.689 Y6.538
N11060 X16.733 Y6.337
N11065 X16.816 Y5.934
N11070 X16.908 Y5.331
N11075 X17.605 Y0.704
N11080 X17.629 Y0.503
N11085 X17.663 Y0.101
N11090 Y-0.101
N11095 X17.629 Y-0.503
N11100 X17.605 Y-0.704
N11105 X16.847 Y-5.733
N11110 X16.816 Y-5.934
N11115 X16.733 Y-6.337
N11120 X16.689 Y-6.538
N11125 X16.53 Y-6.94
N11130 X16.443 Y-7.141
N11135 X16.324 Y-7.343
N11140 X16.194 Y-7.548
N11145 X15.993 Y-7.823
N11150 X12.933 Y-11.969
N11155 X12.774 Y-12.174
N11160 X12.61 Y-12.372
N11165 X12.372 Y-12.61
N11170 X12.171 Y-12.777
N11175 X11.969 Y-12.933
N11180 X7.745 Y-16.05
N11185 X7.544 Y-16.197
N11190 X7.343 Y-16.324
N11195 X7.141 Y-16.443
N11200 X6.94 Y-16.53
N11205 X6.538 Y-16.689
N11210 X6.337 Y-16.733
N11215 X5.934 Y-16.816
N11220 X5.331 Y-16.908
N11225 X0.704 Y-17.605
N11230 X0.503 Y-17.629
N11235 X0.101 Y-17.663
N11240 X-0.101
N11245 X-0.503 Y-17.629
N11250 X-0.704 Y-17.605
N11255 X-5.733 Y-16.847
N11260 X-5.934 Y-16.816
N11265 X-6.337 Y-16.733
N11270 X-6.538 Y-16.689
N11275 X-6.94 Y-16.53
N11280 X-7.141 Y-16.443
N11285 X-7.343 Y-16.324
N11290 X-7.548 Y-16.194
N11295 X-7.823 Y-15.993
N11300 X-11.969 Y-12.933
N11305 X-12.174 Y-12.774
N11310 X-12.372 Y-12.61
N11315 X-12.61 Y-12.372
N11320 X-12.777 Y-12.171
N11325 X-12.933 Y-11.969
N11330 X-16.05 Y-7.745
N11335 X-16.197 Y-7.544
N11340 X-16.324 Y-7.343
N11345 X-16.443 Y-7.141
N11350 X-16.53 Y-6.94
N11355 X-16.689 Y-6.538
N11360 X-16.733 Y-6.337
N11365 X-16.816 Y-5.934
N11370 X-16.908 Y-5.331
N11375 X-17.605 Y-0.704
N11380 X-17.629 Y-0.503
N11385 X-17.663 Y-0.101
N11390 Y0.101
N11395 X-17.629 Y0.503
N11400 X-17.605 Y0.704
N11405 X-16.847 Y5.733
N11410 X-16.816 Y5.934
N11415 X-16.733 Y6.337
N11420 X-16.689 Y6.538
N11425 X-16.53 Y6.94
N11430 X-16.443 Y7.141
N11435 X-16.324 Y7.343
N11440 X-16.194 Y7.548
N11445 X-15.993 Y7.823
N11450 X-12.933 Y11.969
N11455 X-12.774 Y12.174
N11460 X-12.61 Y12.372
N11465 X-12.372 Y12.61
N11470 X-12.171 Y12.777
N11475 X-11.969 Y12.933
N11480 X-7.745 Y16.05
N11485 X-7.544 Y16.197
N11490 X-7.343 Y16.324
N11495 X-7.141 Y16.443
N11500 X-6.94 Y16.53
N11505 X-6.538 Y16.689
N11510 X-6.337 Y16.733
N11515 X-5.934 Y16.816
N11520 X-5.331 Y16.908
N11525 X-0.704 Y17.605
N11530 X-0.503 Y17.629
N11535 X-0.101 Y17.663
N11540 X0.101
N11545 X0.503 Y17.629
N11550 X0.704 Y17.605
N11555 X5.733 Y16.847
N11560 X5.934 Y16.816
N11565 X6.337 Y16.733
N11570 X6.538 Y16.689
N11575 X6.94 Y16.53
N11580 X7.141 Y16.443
N11585 X7.343 Y16.324
N11590 X7.548 Y16.194
N11595 X7.823 Y15.993
N11600 X11.969 Y12.933
N11605 X12.174 Y12.774
N11610 X12.372 Y12.61
N11615 X12.61 Y12.372
N11620 X12.777 Y12.171
N11625 X12.933 Y11.969
N11630 X13.517 Y11.178
N11635 X13.58 Y11.11
N11640 X13.653 Y11.053
N11645 X13.72 Y11.024 Z-15.994
N11650 X13.787 Y10.995 Z-15.98
N11655 X13.852 Y10.967 Z-15.957
N11660 X13.922 Y10.959 Z-15.924
N11665 X13.987 Y10.951 Z-15.882
N11670 X14.058 Y10.964 Z-15.82
N11675 X14.118 Y10.975 Z-15.747
N11680 X14.166 Y10.984 Z-15.665
N11685 X14.201 Y10.99 Z-15.577
N11690 X14.219 Y10.998 Z-15.488
N11695 X14.226 Y11.001 Z-15.398
N11700 Z5.
N11705 X15.543 Y14.864
N11710 Z-13.448
N11715 Z-14.048
N11720 X15.537 Y14.861 Z-14.142
N11725 X15.518 Y14.849 Z-14.234
N11730 X15.487 Y14.831 Z-14.321
N11735 X15.444 Y14.806 Z-14.401
N11740 X15.392 Y14.775 Z-14.473
N11745 X15.33 Y14.738 Z-14.534
N11750 X15.261 Y14.697 Z-14.583
N11755 X15.186 Y14.653 Z-14.619
N11760 X15.107 Y14.606 Z-14.641
N11765 X15.027 Y14.559 Z-14.648
N11770 G3 X12.385 Y12.581 I7.805 J-13.18
N11775 G1 X12.279 Y12.475
N11780 X12.228 Y12.334
N11785 X12.19 Y12.181
N11790 X12.159 Y11.991
N11795 X12.139 Y11.76
N11800 X12.138 Y11.479
N11805 X12.164 Y11.139
N11810 X12.229 Y10.725
N11815 X12.239 Y10.685
N11820 X12.294 Y10.507
N11825 X12.373 Y10.339
N11830 X12.473 Y10.182
N11835 X14.786 Y7.048
N11840 X14.862 Y6.94
N11845 X14.987 Y6.731
N11850 X15.096 Y6.538
N11855 X15.188 Y6.336
N11860 X15.334 Y5.934
N11865 X15.383 Y5.733
N11870 X15.457 Y5.331
N11875 X15.49 Y5.13
N11880 X16.158 Y0.704
N11885 X16.182 Y0.503
N11890 X16.216 Y0.101
N11895 Y-0.101
N11900 X16.182 Y-0.503
N11905 X16.158 Y-0.704
N11910 X15.49 Y-5.13
N11915 X15.457 Y-5.331
N11920 X15.383 Y-5.733
N11925 X15.334 Y-5.934
N11930 X15.188 Y-6.337
N11935 X15.096 Y-6.538
N11940 X14.982 Y-6.739
N11945 X14.862 Y-6.94
N11950 X14.786 Y-7.048
N11955 X11.896 Y-10.964
N11960 X11.739 Y-11.165
N11965 X11.572 Y-11.366
N11970 X11.366 Y-11.572
N11975 X11.165 Y-11.739
N11980 X10.964 Y-11.896
N11985 X7.048 Y-14.786
N11990 X6.94 Y-14.862
N11995 X6.731 Y-14.987
N12000 X6.538 Y-15.096
N12005 X6.336 Y-15.188
N12010 X5.934 Y-15.334
N12015 X5.733 Y-15.383
N12020 X5.331 Y-15.457
N12025 X5.13 Y-15.49
N12030 X0.704 Y-16.158
N12035 X0.503 Y-16.182
N12040 X0.101 Y-16.216
N12045 X-0.101
N12050 X-0.503 Y-16.182
N12055 X-0.704 Y-16.158
N12060 X-5.13 Y-15.49
N12065 X-5.331 Y-15.457
N12070 X-5.733 Y-15.383
N12075 X-5.934 Y-15.334
N12080 X-6.337 Y-15.188
N12085 X-6.538 Y-15.096
N12090 X-6.739 Y-14.982
N12095 X-6.94 Y-14.862
N12100 X-7.048 Y-14.786
N12105 X-10.964 Y-11.896
N12110 X-11.165 Y-11.739
N12115 X-11.366 Y-11.572
N12120 X-11.572 Y-11.366
N12125 X-11.739 Y-11.165
N12130 X-11.896 Y-10.964
N12135 X-14.786 Y-7.048
N12140 X-14.862 Y-6.94
N12145 X-14.987 Y-6.731
N12150 X-15.096 Y-6.538
N12155 X-15.188 Y-6.336
N12160 X-15.334 Y-5.934
N12165 X-15.383 Y-5.733
N12170 X-15.457 Y-5.331
N12175 X-15.49 Y-5.13
N12180 X-16.158 Y-0.704
N12185 X-16.182 Y-0.503
N12190 X-16.216 Y-0.101
N12195 Y0.101
N12200 X-16.182 Y0.503
N12205 X-16.158 Y0.704
N12210 X-15.49 Y5.13
N12215 X-15.457 Y5.331
N12220 X-15.383 Y5.733
N12225 X-15.334 Y5.934
N12230 X-15.188 Y6.337
N12235 X-15.096 Y6.538
N12240 X-14.982 Y6.739
N12245 X-14.862 Y6.94
N12250 X-14.786 Y7.048
N12255 X-11.896 Y10.964
N12260 X-11.739 Y11.165
N12265 X-11.572 Y11.366
N12270 X-11.366 Y11.572
N12275 X-11.165 Y11.739
N12280 X-10.964 Y11.896
N12285 X-7.048 Y14.786
N12290 X-6.94 Y14.862
N12295 X-6.731 Y14.987
N12300 X-6.538 Y15.096
N12305 X-6.336 Y15.188
N12310 X-5.934 Y15.334
N12315 X-5.733 Y15.383
N12320 X-5.331 Y15.457
N12325 X-5.13 Y15.49
N12330 X-0.704 Y16.158
N12335 X-0.503 Y16.182
N12340 X-0.101 Y16.216
N12345 X0.101
N12350 X0.503 Y16.182
N12355 X0.704 Y16.158
N12360 X5.13 Y15.49
N12365 X5.331 Y15.457
N12370 X5.733 Y15.383
N12375 X5.934 Y15.334
N12380 X6.337 Y15.188
N12385 X6.538 Y15.096
N12390 X6.739 Y14.982
N12395 X6.94 Y14.862
N12400 X7.048 Y14.786
N12405 X10.964 Y11.896
N12410 X11.165 Y11.739
N12415 X11.366 Y11.572
N12420 X11.572 Y11.366
N12425 X11.739 Y11.165
N12430 X11.896 Y10.964
N12435 X12.473 Y10.182
N12440 X12.536 Y10.114
N12445 X12.609 Y10.057
N12450 X12.677 Y10.027 Z-14.644
N12455 X12.743 Y9.998 Z-14.63
N12460 X12.808 Y9.97 Z-14.607
N12465 X12.878 Y9.962 Z-14.574
N12470 X12.943 Y9.955 Z-14.532
N12475 X13.014 Y9.968 Z-14.47
N12480 X13.074 Y9.979 Z-14.397
N12485 X13.122 Y9.988 Z-14.315
N12490 X13.157 Y9.994 Z-14.227
N12495 X13.175 Y10.002 Z-14.138
N12500 X13.182 Y10.004 Z-14.048
N12505 Z5.
N12510 X14.6 Y13.896
N12515 Z-12.098
N12520 Z-12.698
N12525 X14.593 Y13.892 Z-12.792
N12530 X14.574 Y13.881 Z-12.884
N12535 X14.543 Y13.863 Z-12.971
N12540 X14.501 Y13.837 Z-13.051
N12545 X14.448 Y13.806 Z-13.123
N12550 X14.387 Y13.77 Z-13.184
N12555 X14.318 Y13.729 Z-13.233
N12560 X14.243 Y13.685 Z-13.269
N12565 X14.164 Y13.638 Z-13.291
N12570 X14.083 Y13.59 Z-13.298
N12575 G3 X11.442 Y11.613 I7.805 J-13.18
N12580 G1 X11.277 Y11.448
N12585 X11.224 Y11.307
N12590 X11.185 Y11.158
N12595 X11.153 Y10.974
N12600 X11.131 Y10.748
N12605 X11.128 Y10.474
N12610 X11.149 Y10.142
N12615 X11.209 Y9.738
N12620 X11.229 Y9.651
N12625 X11.284 Y9.469
N12630 X11.364 Y9.296
N12635 X11.467 Y9.135
N12640 X13.086 Y6.94
N12645 X13.381 Y6.538
N12650 X13.528 Y6.337
N12655 X13.579 Y6.25
N12660 X13.828 Y5.787
N12665 X13.981 Y5.324
N12670 X14.032 Y5.13
N12675 X14.101 Y4.727
N12680 X14.134 Y4.526
N12685 X14.71 Y0.704
N12690 X14.734 Y0.503
N12695 X14.768 Y0.101
N12700 Y-0.101
N12705 X14.734 Y-0.503
N12710 X14.71 Y-0.704
N12715 X14.134 Y-4.526
N12720 X14.101 Y-4.727
N12725 X14.032 Y-5.13
N12730 X13.979 Y-5.331
N12735 X13.828 Y-5.787
N12740 X13.579 Y-6.25
N12745 X13.528 Y-6.337
N12750 X13.176 Y-6.817
N12755 X11.75 Y-8.751
N12760 X10.964 Y-9.817
N12765 X10.857 Y-9.958
N12770 X10.699 Y-10.159
N12775 X10.561 Y-10.33
N12780 X10.33 Y-10.561
N12785 X10.159 Y-10.699
N12790 X9.958 Y-10.857
N12795 X9.817 Y-10.964
N12800 X6.94 Y-13.086
N12805 X6.538 Y-13.381
N12810 X6.337 Y-13.528
N12815 X6.25 Y-13.579
N12820 X5.787 Y-13.828
N12825 X5.324 Y-13.981
N12830 X5.13 Y-14.032
N12835 X4.727 Y-14.101
N12840 X4.526 Y-14.134
N12845 X0.704 Y-14.71
N12850 X0.503 Y-14.734
N12855 X0.101 Y-14.768
N12860 X-0.101
N12865 X-0.503 Y-14.734
N12870 X-0.704 Y-14.71
N12875 X-4.526 Y-14.134
N12880 X-4.727 Y-14.101
N12885 X-5.13 Y-14.032
N12890 X-5.331 Y-13.979
N12895 X-5.787 Y-13.828
N12900 X-6.25 Y-13.579
N12905 X-6.337 Y-13.528
N12910 X-6.817 Y-13.176
N12915 X-8.751 Y-11.75
N12920 X-9.817 Y-10.964
N12925 X-9.958 Y-10.857
N12930 X-10.159 Y-10.699
N12935 X-10.33 Y-10.561
N12940 X-10.561 Y-10.33
N12945 X-10.699 Y-10.159
N12950 X-10.857 Y-9.958
N12955 X-10.964 Y-9.817
N12960 X-13.086 Y-6.94
N12965 X-13.381 Y-6.538
N12970 X-13.528 Y-6.337
N12975 X-13.579 Y-6.25
N12980 X-13.828 Y-5.787
N12985 X-13.981 Y-5.324
N12990 X-14.032 Y-5.13
N12995 X-14.101 Y-4.727
N13000 X-14.134 Y-4.526
N13005 X-14.71 Y-0.704
N13010 X-14.734 Y-0.503
N13015 X-14.768 Y-0.101
N13020 Y0.101
N13025 X-14.734 Y0.503
N13030 X-14.71 Y0.704
N13035 X-14.134 Y4.526
N13040 X-14.101 Y4.727
N13045 X-14.032 Y5.13
N13050 X-13.979 Y5.331
N13055 X-13.828 Y5.787
N13060 X-13.579 Y6.25
N13065 X-13.528 Y6.337
N13070 X-13.176 Y6.817
N13075 X-11.75 Y8.751
N13080 X-10.964 Y9.817
N13085 X-10.857 Y9.958
N13090 X-10.699 Y10.159
N13095 X-10.561 Y10.33
N13100 X-10.33 Y10.561
N13105 X-10.159 Y10.699
N13110 X-9.958 Y10.857
N13115 X-9.817 Y10.964
N13120 X-6.94 Y13.086
N13125 X-6.538 Y13.381
N13130 X-6.337 Y13.528
N13135 X-6.25 Y13.579
N13140 X-5.787 Y13.828
N13145 X-5.324 Y13.981
N13150 X-5.13 Y14.032
N13155 X-4.727 Y14.101
N13160 X-4.526 Y14.134
N13165 X-0.704 Y14.71
N13170 X-0.503 Y14.734
N13175 X-0.101 Y14.768
N13180 X0.101
N13185 X0.503 Y14.734
N13190 X0.704 Y14.71
N13195 X4.526 Y14.134
N13200 X4.727 Y14.101
N13205 X5.13 Y14.032
N13210 X5.331 Y13.979
N13215 X5.787 Y13.828
N13220 X6.25 Y13.579
N13225 X6.337 Y13.528
N13230 X6.817 Y13.176
N13235 X8.751 Y11.75
N13240 X9.817 Y10.964
N13245 X9.958 Y10.857
N13250 X10.159 Y10.699
N13255 X10.33 Y10.561
N13260 X10.561 Y10.33
N13265 X10.699 Y10.159
N13270 X10.857 Y9.958
N13275 X10.964 Y9.817
N13280 X11.467 Y9.135
N13285 X11.53 Y9.067
N13290 X11.602 Y9.01
N13295 X11.67 Y8.98 Z-13.294
N13300 X11.737 Y8.951 Z-13.28
N13305 X11.801 Y8.923 Z-13.257
N13310 X11.871 Y8.915 Z-13.224
N13315 X11.937 Y8.908 Z-13.182
N13320 X12.007 Y8.921 Z-13.12
N13325 X12.067 Y8.932 Z-13.047
N13330 X12.115 Y8.941 Z-12.965
N13335 X12.15 Y8.947 Z-12.877
N13340 X12.169 Y8.955 Z-12.788
N13345 X12.175 Y8.957 Z-12.698
N13350 Z5.
N13355 X34.323 Y33.541
N13360 Z-37.748
N13365 Z-38.348
N13370 X34.317 Y33.537 Z-38.442
N13375 X34.298 Y33.526 Z-38.534
N13380 X34.267 Y33.508 Z-38.621
N13385 X34.225 Y33.483 Z-38.701
N13390 X34.172 Y33.452 Z-38.773
N13395 X34.11 Y33.415 Z-38.834
N13400 X34.041 Y33.374 Z-38.883
N13405 X33.966 Y33.33 Z-38.919
N13410 X33.888 Y33.283 Z-38.941
N13415 X33.807 Y33.236 Z-38.948
N13420 G3 X31.165 Y31.258 I7.805 J-13.18
N13425 G1 X31.059 Y31.152
N13430 X31.006 Y31.012
N13435 X30.963 Y30.853
N13440 X30.926 Y30.656
N13445 X30.9 Y30.415
N13450 X30.892 Y30.123
N13455 X30.911 Y29.767
N13460 X30.97 Y29.332
N13465 X31.051 Y28.961
N13470 X31.093 Y28.81
N13475 X31.151 Y28.665
N13480 X31.226 Y28.527
N13485 X31.281 Y28.438
N13490 X31.649 Y27.862
N13495 X32.998 Y25.85
N13500 X33.136 Y25.649
N13505 X33.494 Y25.13
N13510 X34.299 Y24.003
N13515 X34.5 Y23.728
N13520 X39.02 Y17.602
N13525 X39.328 Y17.182
N13530 X39.45 Y16.999
N13535 X39.569 Y16.797
N13540 X39.679 Y16.596
N13545 X39.73 Y16.471
N13550 X39.887 Y15.993
N13555 X39.932 Y15.792
N13560 X40. Y15.389
N13565 X40.031 Y15.188
N13570 X41.155 Y7.745
N13575 X41.216 Y7.343
N13580 X41.346 Y6.538
N13585 X41.443 Y5.934
N13590 X41.554 Y5.331
N13595 X41.593 Y5.13
N13600 X42.077 Y2.716
N13605 X42.119 Y2.515
N13610 X42.257 Y1.911
N13615 X42.398 Y1.308
N13620 X42.444 Y1.106
N13625 X42.547 Y0.65
N13630 X42.569 Y0.503
N13635 X42.604 Y0.101
N13640 Y-0.101
N13645 X42.569 Y-0.503
N13650 X42.547 Y-0.648
N13655 X42.443 Y-1.106
N13660 X42.395 Y-1.308
N13665 X42.251 Y-1.911
N13670 X42.113 Y-2.515
N13675 X42.073 Y-2.716
N13680 X41.597 Y-5.13
N13685 X41.559 Y-5.331
N13690 X41.45 Y-5.934
N13695 X41.249 Y-7.141
N13700 X41.216 Y-7.343
N13705 X41.094 Y-8.147
N13710 X40.031 Y-15.188
N13715 X40. Y-15.389
N13720 X39.932 Y-15.792
N13725 X39.887 Y-15.993
N13730 X39.73 Y-16.471
N13735 X39.679 Y-16.596
N13740 X39.569 Y-16.797
N13745 X39.45 Y-16.999
N13750 X39.328 Y-17.182
N13755 X38.926 Y-17.73
N13760 X34.419 Y-23.838
N13765 X34.272 Y-24.039
N13770 X33.494 Y-25.119
N13775 X33.092 Y-25.704
N13780 X32.993 Y-25.85
N13785 X31.655 Y-27.862
N13790 X31.271 Y-28.465
N13795 X30.879 Y-29.097
N13800 X30.678 Y-29.41
N13805 X30.477 Y-29.721
N13810 X30.366 Y-29.873
N13815 X30.276 Y-29.966
N13820 X29.966 Y-30.276
N13825 X29.873 Y-30.366
N13830 X29.72 Y-30.477
N13835 X29.27 Y-30.766
N13840 X29.069 Y-30.894
N13845 X28.465 Y-31.264
N13850 X27.862 Y-31.649
N13855 X25.85 Y-32.998
N13860 X25.649 Y-33.136
N13865 X25.13 Y-33.494
N13870 X24.003 Y-34.299
N13875 X23.728 Y-34.5
N13880 X17.602 Y-39.02
N13885 X17.182 Y-39.328
N13890 X16.999 Y-39.45
N13895 X16.797 Y-39.569
N13900 X16.596 Y-39.679
N13905 X16.471 Y-39.73
N13910 X15.993 Y-39.887
N13915 X15.792 Y-39.932
N13920 X15.389 Y-40.
N13925 X15.188 Y-40.031
N13930 X7.745 Y-41.155
N13935 X7.343 Y-41.216
N13940 X6.538 Y-41.346
N13945 X5.934 Y-41.443
N13950 X5.331 Y-41.554
N13955 X5.13 Y-41.593
N13960 X2.716 Y-42.077
N13965 X2.515 Y-42.119
N13970 X1.911 Y-42.257
N13975 X1.308 Y-42.398
N13980 X1.106 Y-42.444
N13985 X0.65 Y-42.547
N13990 X0.503 Y-42.569
N13995 X0.101 Y-42.604
N14000 X-0.101
N14005 X-0.503 Y-42.569
N14010 X-0.648 Y-42.547
N14015 X-1.106 Y-42.443
N14020 X-1.308 Y-42.395
N14025 X-1.911 Y-42.251
N14030 X-2.515 Y-42.113
N14035 X-2.716 Y-42.073
N14040 X-5.13 Y-41.597
N14045 X-5.331 Y-41.559
N14050 X-5.934 Y-41.45
N14055 X-7.141 Y-41.249
N14060 X-7.343 Y-41.216
N14065 X-8.147 Y-41.094
N14070 X-15.188 Y-40.031
N14075 X-15.389 Y-40.
N14080 X-15.793 Y-39.932
N14085 X-15.993 Y-39.887
N14090 X-16.471 Y-39.73
N14095 X-16.596 Y-39.679
N14100 X-16.797 Y-39.569
N14105 X-16.999 Y-39.45
N14110 X-17.182 Y-39.328
N14115 X-17.73 Y-38.926
N14120 X-23.838 Y-34.419
N14125 X-24.039 Y-34.272
N14130 X-25.119 Y-33.494
N14135 X-25.704 Y-33.092
N14140 X-25.85 Y-32.993
N14145 X-27.862 Y-31.655
N14150 X-28.465 Y-31.271
N14155 X-29.097 Y-30.879
N14160 X-29.41 Y-30.678
N14165 X-29.721 Y-30.477
N14170 X-29.873 Y-30.366
N14175 X-29.966 Y-30.276
N14180 X-30.276 Y-29.966
N14185 X-30.366 Y-29.873
N14190 X-30.477 Y-29.72
N14195 X-30.767 Y-29.27
N14200 X-30.894 Y-29.069
N14205 X-31.264 Y-28.465
N14210 X-31.649 Y-27.862
N14215 X-32.998 Y-25.85
N14220 X-33.136 Y-25.649
N14225 X-33.494 Y-25.13
N14230 X-34.299 Y-24.003
N14235 X-34.5 Y-23.728
N14240 X-39.02 Y-17.602
N14245 X-39.328 Y-17.182
N14250 X-39.45 Y-16.999
N14255 X-39.569 Y-16.797
N14260 X-39.679 Y-16.596
N14265 X-39.73 Y-16.471
N14270 X-39.887 Y-15.993
N14275 X-39.932 Y-15.792
N14280 X-40. Y-15.389
N14285 X-40.031 Y-15.188
N14290 X-41.155 Y-7.745
N14295 X-41.216 Y-7.343
N14300 X-41.346 Y-6.538
N14305 X-41.443 Y-5.934
N14310 X-41.554 Y-5.331
N14315 X-41.593 Y-5.13
N14320 X-42.077 Y-2.716
N14325 X-42.119 Y-2.515
N14330 X-42.257 Y-1.911
N14335 X-42.398 Y-1.308
N14340 X-42.444 Y-1.106
N14345 X-42.547 Y-0.65
N14350 X-42.569 Y-0.503
N14355 X-42.604 Y-0.101
N14360 Y0.101
N14365 X-42.569 Y0.503
N14370 X-42.547 Y0.648
N14375 X-42.443 Y1.106
N14380 X-42.395 Y1.308
N14385 X-42.251 Y1.911
N14390 X-42.113 Y2.515
N14395 X-42.073 Y2.716
N14400 X-41.597 Y5.13
N14405 X-41.559 Y5.331
N14410 X-41.45 Y5.934
N14415 X-41.249 Y7.141
N14420 X-41.216 Y7.343
N14425 X-41.094 Y8.147
N14430 X-40.031 Y15.188
N14435 X-40. Y15.389
N14440 X-39.932 Y15.793
N14445 X-39.887 Y15.993
N14450 X-39.73 Y16.471
N14455 X-39.679 Y16.596
N14460 X-39.569 Y16.797
N14465 X-39.45 Y16.999
N14470 X-39.328 Y17.182
N14475 X-38.926 Y17.73
N14480 X-34.419 Y23.838
N14485 X-34.272 Y24.039
N14490 X-33.494 Y25.119
N14495 X-33.092 Y25.704
N14500 X-32.993 Y25.85
N14505 X-31.655 Y27.862
N14510 X-31.271 Y28.465
N14515 X-30.879 Y29.097
N14520 X-30.678 Y29.41
N14525 X-30.477 Y29.721
N14530 X-30.366 Y29.873
N14535 X-30.276 Y29.966
N14540 X-29.966 Y30.276
N14545 X-29.873 Y30.366
N14550 X-29.72 Y30.477
N14555 X-29.27 Y30.766
N14560 X-29.069 Y30.894
N14565 X-28.465 Y31.264
N14570 X-27.862 Y31.649
N14575 X-25.85 Y32.998
N14580 X-25.649 Y33.136
N14585 X-25.13 Y33.494
N14590 X-24.003 Y34.299
N14595 X-23.728 Y34.5
N14600 X-17.602 Y39.02
N14605 X-17.182 Y39.328
N14610 X-16.999 Y39.45
N14615 X-16.797 Y39.569
N14620 X-16.596 Y39.679
N14625 X-16.471 Y39.73
N14630 X-15.993 Y39.887
N14635 X-15.792 Y39.932
N14640 X-15.389 Y40.
N14645 X-15.188 Y40.031
N14650 X-7.745 Y41.155
N14655 X-7.343 Y41.216
N14660 X-6.538 Y41.346
N14665 X-5.934 Y41.443
N14670 X-5.331 Y41.554
N14675 X-5.13 Y41.593
N14680 X-2.716 Y42.077
N14685 X-2.515 Y42.119
N14690 X-1.911 Y42.257
N14695 X-1.308 Y42.398
N14700 X-1.106 Y42.444
N14705 X-0.65 Y42.547
N14710 X-0.503 Y42.569
N14715 X-0.101 Y42.604
N14720 X0.101
N14725 X0.503 Y42.569
N14730 X0.648 Y42.547
N14735 X1.106 Y42.443
N14740 X1.308 Y42.395
N14745 X1.911 Y42.251
N14750 X2.515 Y42.113
N14755 X2.716 Y42.073
N14760 X5.13 Y41.597
N14765 X5.331 Y41.559
N14770 X5.934 Y41.45
N14775 X7.141 Y41.249
N14780 X7.343 Y41.216
N14785 X8.147 Y41.094
N14790 X15.188 Y40.031
N14795 X15.389 Y40.
N14800 X15.793 Y39.932
N14805 X15.993 Y39.887
N14810 X16.471 Y39.73
N14815 X16.596 Y39.679
N14820 X16.797 Y39.569
N14825 X16.999 Y39.45
N14830 X17.182 Y39.328
N14835 X17.73 Y38.926
N14840 X23.838 Y34.419
N14845 X24.039 Y34.272
N14850 X25.119 Y33.494
N14855 X25.704 Y33.092
N14860 X25.85 Y32.993
N14865 X27.862 Y31.655
N14870 X28.465 Y31.271
N14875 X29.097 Y30.879
N14880 X29.41 Y30.678
N14885 X29.721 Y30.477
N14890 X29.873 Y30.366
N14895 X29.966 Y30.276
N14900 X30.276 Y29.966
N14905 X30.366 Y29.873
N14910 X30.477 Y29.72
N14915 X30.766 Y29.27
N14920 X30.894 Y29.069
N14925 X31.226 Y28.527
N14930 X31.283 Y28.454
N14935 X31.351 Y28.39
N14940 X31.416 Y28.355 Z-38.944
N14945 X31.48 Y28.321 Z-38.93
N14950 X31.542 Y28.287 Z-38.907
N14955 X31.607 Y28.277 Z-38.876
N14960 X31.669 Y28.267 Z-38.837
N14965 X31.725 Y28.258 Z-38.791
N14970 X31.726
N14975 X31.782 Y28.268 Z-38.73
N14980 X31.829 Y28.275 Z-38.663
N14985 X31.867 Y28.282 Z-38.59
N14990 X31.895 Y28.286 Z-38.512
N14995 X31.911 Y28.289 Z-38.431
N15000 X31.917 Y28.29 Z-38.349
N15005 Z5.
N15010 X32.886 Y32.917
N15015 Z-36.398
N15020 Z-36.998
N15025 X32.881 Y32.912 Z-37.092
N15030 X32.863 Y32.899 Z-37.184
N15035 X32.834 Y32.877 Z-37.271
N15040 X32.795 Y32.847 Z-37.351
N15045 X32.747 Y32.81 Z-37.423
N15050 X32.69 Y32.767 Z-37.484
N15055 X32.626 Y32.718 Z-37.533
N15060 X32.557 Y32.665 Z-37.569
N15065 X32.484 Y32.61 Z-37.591
N15070 X32.409 Y32.553 Z-37.598
N15075 G3 X30.017 Y30.28 I9.291 J-12.179
N15080 G1 X29.924 Y30.163
N15085 X29.864 Y30.025
N15090 X29.813 Y29.868
N15095 X29.767 Y29.673
N15100 X29.732 Y29.443
N15105 X29.712 Y29.163
N15110 X29.715 Y28.839
N15115 X29.751 Y28.446
N15120 X29.782 Y28.264
N15125 X29.823 Y28.089
N15130 X29.887 Y27.921
N15135 X29.972 Y27.763
N15140 X30.286 Y27.258
N15145 X30.555 Y26.856
N15150 X31.634 Y25.246
N15155 X31.684 Y25.174
N15160 X31.774 Y25.045
N15165 X32.35 Y24.241
N15170 X32.69 Y23.771
N15175 X37.686 Y16.999
N15180 X37.976 Y16.596
N15185 X38.117 Y16.395
N15190 X38.229 Y16.194
N15195 X38.322 Y16.019
N15200 X38.334 Y15.993
N15205 X38.411 Y15.792
N15210 X38.531 Y15.389
N15215 X38.58 Y15.188
N15220 X38.675 Y14.585
N15225 X39.889 Y6.538
N15230 X39.981 Y5.934
N15235 X40.112 Y5.13
N15240 X40.179 Y4.727
N15245 X40.214 Y4.526
N15250 X40.619 Y2.515
N15255 X40.747 Y1.911
N15260 X40.888 Y1.308
N15265 X40.937 Y1.095
N15270 X41.024 Y0.704
N15275 X41.059 Y0.503
N15280 X41.093 Y0.101
N15285 Y-0.101
N15290 X41.059 Y-0.503
N15295 X41.024 Y-0.704
N15300 X40.933 Y-1.106
N15305 X40.788 Y-1.71
N15310 X40.741 Y-1.911
N15315 X40.616 Y-2.515
N15320 X40.219 Y-4.526
N15325 X40.184 Y-4.727
N15330 X39.982 Y-5.934
N15335 X39.858 Y-6.739
N15340 X38.675 Y-14.585
N15345 X38.58 Y-15.188
N15350 X38.531 Y-15.389
N15355 X38.411 Y-15.792
N15360 X38.334 Y-15.993
N15365 X38.322 Y-16.019
N15370 X38.229 Y-16.194
N15375 X38.117 Y-16.395
N15380 X37.976 Y-16.596
N15385 X37.686 Y-16.999
N15390 X32.69 Y-23.771
N15395 X32.287 Y-24.324
N15400 X31.767 Y-25.045
N15405 X31.684 Y-25.165
N15410 X30.424 Y-27.057
N15415 X30.291 Y-27.258
N15420 X29.79 Y-28.063
N15425 X29.665 Y-28.264
N15430 X29.538 Y-28.465
N15435 X29.069 Y-29.06
N15440 X29.06 Y-29.069
N15445 X28.465 Y-29.538
N15450 X28.251 Y-29.672
N15455 X27.862 Y-29.911
N15460 X27.258 Y-30.286
N15465 X26.856 Y-30.555
N15470 X25.246 Y-31.634
N15475 X25.174 Y-31.684
N15480 X25.045 Y-31.774
N15485 X24.241 Y-32.35
N15490 X23.771 Y-32.69
N15495 X16.999 Y-37.686
N15500 X16.596 Y-37.976
N15505 X16.395 Y-38.117
N15510 X16.194 Y-38.229
N15515 X16.019 Y-38.322
N15520 X15.993 Y-38.334
N15525 X15.792 Y-38.411
N15530 X15.389 Y-38.531
N15535 X15.188 Y-38.58
N15540 X14.585 Y-38.675
N15545 X6.538 Y-39.889
N15550 X5.934 Y-39.981
N15555 X5.13 Y-40.112
N15560 X4.727 Y-40.179
N15565 X4.526 Y-40.214
N15570 X2.515 Y-40.619
N15575 X1.911 Y-40.747
N15580 X1.308 Y-40.888
N15585 X1.095 Y-40.937
N15590 X0.704 Y-41.024
N15595 X0.503 Y-41.059
N15600 X0.101 Y-41.093
N15605 X-0.101
N15610 X-0.503 Y-41.059
N15615 X-0.704 Y-41.024
N15620 X-1.106 Y-40.933
N15625 X-1.71 Y-40.788
N15630 X-1.911 Y-40.741
N15635 X-2.515 Y-40.616
N15640 X-4.526 Y-40.219
N15645 X-4.727 Y-40.184
N15650 X-5.934 Y-39.982
N15655 X-6.739 Y-39.858
N15660 X-14.585 Y-38.675
N15665 X-15.188 Y-38.58
N15670 X-15.389 Y-38.531
N15675 X-15.792 Y-38.411
N15680 X-15.993 Y-38.334
N15685 X-16.019 Y-38.322
N15690 X-16.194 Y-38.229
N15695 X-16.395 Y-38.117
N15700 X-16.596 Y-37.976
N15705 X-16.999 Y-37.686
N15710 X-23.771 Y-32.69
N15715 X-24.324 Y-32.287
N15720 X-25.045 Y-31.767
N15725 X-25.165 Y-31.684
N15730 X-27.057 Y-30.424
N15735 X-27.258 Y-30.291
N15740 X-28.063 Y-29.79
N15745 X-28.264 Y-29.665
N15750 X-28.465 Y-29.538
N15755 X-29.06 Y-29.069
N15760 X-29.069 Y-29.06
N15765 X-29.538 Y-28.465
N15770 X-29.672 Y-28.251
N15775 X-29.911 Y-27.862
N15780 X-30.286 Y-27.258
N15785 X-30.555 Y-26.856
N15790 X-31.634 Y-25.246
N15795 X-31.684 Y-25.174
N15800 X-31.774 Y-25.045
N15805 X-32.35 Y-24.241
N15810 X-32.69 Y-23.771
N15815 X-37.687 Y-16.999
N15820 X-37.976 Y-16.596
N15825 X-38.117 Y-16.395
N15830 X-38.229 Y-16.194
N15835 X-38.322 Y-16.019
N15840 X-38.334 Y-15.993
N15845 X-38.411 Y-15.792
N15850 X-38.531 Y-15.389
N15855 X-38.58 Y-15.188
N15860 X-38.675 Y-14.585
N15865 X-39.889 Y-6.538
N15870 X-39.981 Y-5.934
N15875 X-40.112 Y-5.13
N15880 X-40.179 Y-4.727
N15885 X-40.214 Y-4.526
N15890 X-40.619 Y-2.515
N15895 X-40.747 Y-1.911
N15900 X-40.888 Y-1.308
N15905 X-40.937 Y-1.095
N15910 X-41.024 Y-0.704
N15915 X-41.059 Y-0.503
N15920 X-41.093 Y-0.101
N15925 Y0.101
N15930 X-41.059 Y0.503
N15935 X-41.024 Y0.704
N15940 X-40.933 Y1.106
N15945 X-40.788 Y1.71
N15950 X-40.741 Y1.911
N15955 X-40.616 Y2.515
N15960 X-40.219 Y4.526
N15965 X-40.184 Y4.727
N15970 X-39.982 Y5.934
N15975 X-39.858 Y6.739
N15980 X-38.675 Y14.585
N15985 X-38.58 Y15.188
N15990 X-38.531 Y15.389
N15995 X-38.411 Y15.792
N16000 X-38.334 Y15.993
N16005 X-38.322 Y16.019
N16010 X-38.229 Y16.194
N16015 X-38.117 Y16.395
N16020 X-37.976 Y16.596
N16025 X-37.686 Y16.999
N16030 X-32.69 Y23.771
N16035 X-32.287 Y24.324
N16040 X-31.767 Y25.045
N16045 X-31.684 Y25.165
N16050 X-30.424 Y27.057
N16055 X-30.291 Y27.258
N16060 X-29.79 Y28.063
N16065 X-29.665 Y28.264
N16070 X-29.538 Y28.465
N16075 X-29.069 Y29.06
N16080 X-29.06 Y29.069
N16085 X-28.465 Y29.538
N16090 X-28.251 Y29.672
N16095 X-27.862 Y29.911
N16100 X-27.258 Y30.286
N16105 X-26.856 Y30.555
N16110 X-25.246 Y31.634
N16115 X-25.174 Y31.684
N16120 X-25.045 Y31.774
N16125 X-24.241 Y32.35
N16130 X-23.771 Y32.69
N16135 X-16.999 Y37.686
N16140 X-16.596 Y37.976
N16145 X-16.395 Y38.117
N16150 X-16.194 Y38.229
N16155 X-16.019 Y38.322
N16160 X-15.993 Y38.334
N16165 X-15.792 Y38.411
N16170 X-15.389 Y38.531
N16175 X-15.188 Y38.58
N16180 X-14.585 Y38.675
N16185 X-6.538 Y39.889
N16190 X-5.934 Y39.981
N16195 X-5.13 Y40.112
N16200 X-4.727 Y40.179
N16205 X-4.526 Y40.214
N16210 X-2.515 Y40.619
N16215 X-1.911 Y40.747
N16220 X-1.308 Y40.888
N16225 X-1.095 Y40.937
N16230 X-0.704 Y41.024
N16235 X-0.503 Y41.059
N16240 X-0.101 Y41.093
N16245 X0.101
N16250 X0.503 Y41.059
N16255 X0.704 Y41.024
N16260 X1.106 Y40.933
N16265 X1.71 Y40.788
N16270 X1.911 Y40.741
N16275 X2.515 Y40.616
N16280 X4.526 Y40.219
N16285 X4.727 Y40.184
N16290 X5.934 Y39.982
N16295 X6.739 Y39.858
N16300 X14.585 Y38.675
N16305 X15.188 Y38.58
N16310 X15.389 Y38.531
N16315 X15.792 Y38.411
N16320 X15.993 Y38.334
N16325 X16.019 Y38.322
N16330 X16.194 Y38.229
N16335 X16.395 Y38.117
N16340 X16.596 Y37.976
N16345 X16.999 Y37.686
N16350 X23.771 Y32.69
N16355 X24.324 Y32.287
N16360 X25.045 Y31.767
N16365 X25.165 Y31.684
N16370 X27.057 Y30.424
N16375 X27.258 Y30.291
N16380 X28.063 Y29.79
N16385 X28.264 Y29.665
N16390 X28.465 Y29.538
N16395 X29.06 Y29.069
N16400 X29.069 Y29.06
N16405 X29.538 Y28.465
N16410 X29.672 Y28.251
N16415 X29.972 Y27.763
N16420 X30.029 Y27.69
N16425 X30.097 Y27.627
N16430 X30.162 Y27.592 Z-37.594
N16435 X30.226 Y27.558 Z-37.58
N16440 X30.289 Y27.525 Z-37.557
N16445 X30.354 Y27.515 Z-37.527
N16450 X30.414 Y27.505 Z-37.488
N16455 X30.47 Y27.497 Z-37.443
N16460 X30.527 Y27.506 Z-37.383
N16465 X30.575 Y27.514 Z-37.315
N16470 X30.613 Y27.52 Z-37.242
N16475 X30.641 Y27.525 Z-37.163
N16480 X30.658 Y27.528 Z-37.082
N16485 X30.664 Y27.529 Z-36.999
N16490 Z5.
N16495 X32.154 Y31.439
N16500 Z-35.048
N16505 Z-35.648
N16510 X32.147 Y31.435 Z-35.742
N16515 X32.128 Y31.424 Z-35.834
N16520 X32.097 Y31.406 Z-35.921
N16525 X32.055 Y31.381 Z-36.001
N16530 X32.002 Y31.349 Z-36.073
N16535 X31.941 Y31.313 Z-36.134
N16540 X31.872 Y31.272 Z-36.183
N16545 X31.797 Y31.228 Z-36.219
N16550 X31.718 Y31.181 Z-36.241
N16555 X31.637 Y31.133 Z-36.248
N16560 G3 X28.995 Y29.156 I7.805 J-13.18
N16565 G1 X28.889 Y29.05
N16570 X28.83 Y28.912
N16575 X28.78 Y28.758
N16580 X28.734 Y28.568
N16585 X28.699 Y28.344
N16590 X28.679 Y28.08
N16595 X28.681 Y27.76
N16600 X28.714 Y27.37
N16605 X28.754 Y27.134
N16610 X28.797 Y26.952
N16615 X28.864 Y26.777
N16620 X28.954 Y26.613
N16625 X29.069 Y26.435
N16630 X29.873 Y25.235
N16635 X30.002 Y25.045
N16640 X30.283 Y24.643
N16645 X30.477 Y24.371
N16650 X30.879 Y23.815
N16655 X31.306 Y23.235
N16660 X36.353 Y16.395
N16665 X36.777 Y15.792
N16670 X36.889 Y15.59
N16675 X36.914 Y15.544
N16680 X36.988 Y15.389
N16685 X37.068 Y15.188
N16690 X37.175 Y14.786
N16695 X37.226 Y14.585
N16700 X37.409 Y13.378
N16705 X38.654 Y5.13
N16710 X38.747 Y4.526
N16715 X38.845 Y3.923
N16720 X38.926 Y3.477
N16725 X39.24 Y1.911
N16730 X39.332 Y1.509
N16735 X39.423 Y1.106
N16740 X39.529 Y0.634
N16745 X39.552 Y0.503
N16750 X39.578 Y0.302
N16755 X39.589 Y0.101
N16760 Y-0.101
N16765 X39.578 Y-0.302
N16770 X39.552 Y-0.503
N16775 X39.529 Y-0.632
N16780 X39.375 Y-1.308
N16785 X39.283 Y-1.71
N16790 X39.237 Y-1.911
N16795 X38.92 Y-3.52
N16800 X38.849 Y-3.923
N16805 X38.748 Y-4.526
N16810 X38.685 Y-4.929
N16815 X38.593 Y-5.532
N16820 X37.287 Y-14.182
N16825 X37.226 Y-14.585
N16830 X37.175 Y-14.786
N16835 X37.068 Y-15.188
N16840 X36.988 Y-15.389
N16845 X36.914 Y-15.544
N16850 X36.889 Y-15.59
N16855 X36.777 Y-15.792
N16860 X36.353 Y-16.395
N16865 X30.879 Y-23.814
N16870 X30.423 Y-24.442
N16875 X30.276 Y-24.648
N16880 X29.999 Y-25.045
N16885 X29.863 Y-25.246
N16890 X29.06 Y-26.453
N16895 X28.933 Y-26.655
N16900 X28.666 Y-27.084
N16905 X28.555 Y-27.258
N16910 X28.424 Y-27.459
N16915 X28.29 Y-27.66
N16920 X28.264 Y-27.694
N16925 X28.104 Y-27.862
N16930 X27.862 Y-28.104
N16935 X27.694 Y-28.264
N16940 X27.66 Y-28.29
N16945 X27.459 Y-28.423
N16950 X27.258 Y-28.553
N16955 X27.057 Y-28.681
N16960 X26.655 Y-28.928
N16965 X26.435 Y-29.069
N16970 X25.235 Y-29.873
N16975 X25.045 Y-30.002
N16980 X24.643 Y-30.283
N16985 X24.371 Y-30.477
N16990 X23.815 Y-30.879
N16995 X23.235 Y-31.306
N17000 X16.395 Y-36.353
N17005 X15.792 Y-36.777
N17010 X15.59 Y-36.889
N17015 X15.544 Y-36.914
N17020 X15.389 Y-36.988
N17025 X15.188 Y-37.068
N17030 X14.786 Y-37.175
N17035 X14.585 Y-37.226
N17040 X13.378 Y-37.409
N17045 X5.13 Y-38.654
N17050 X4.526 Y-38.747
N17055 X3.923 Y-38.845
N17060 X3.477 Y-38.926
N17065 X1.911 Y-39.24
N17070 X1.509 Y-39.332
N17075 X1.106 Y-39.423
N17080 X0.634 Y-39.529
N17085 X0.503 Y-39.552
N17090 X0.302 Y-39.578
N17095 X0.101 Y-39.589
N17100 X-0.101
N17105 X-0.302 Y-39.578
N17110 X-0.503 Y-39.552
N17115 X-0.632 Y-39.529
N17120 X-1.308 Y-39.375
N17125 X-1.71 Y-39.283
N17130 X-1.911 Y-39.237
N17135 X-3.52 Y-38.92
N17140 X-3.923 Y-38.849
N17145 X-4.526 Y-38.748
N17150 X-4.929 Y-38.685
N17155 X-5.532 Y-38.593
N17160 X-14.182 Y-37.287
N17165 X-14.585 Y-37.226
N17170 X-14.786 Y-37.175
N17175 X-15.188 Y-37.068
N17180 X-15.389 Y-36.988
N17185 X-15.544 Y-36.914
N17190 X-15.59 Y-36.889
N17195 X-15.792 Y-36.777
N17200 X-16.395 Y-36.353
N17205 X-23.814 Y-30.879
N17210 X-24.442 Y-30.423
N17215 X-24.648 Y-30.276
N17220 X-25.045 Y-29.999
N17225 X-25.246 Y-29.863
N17230 X-26.453 Y-29.06
N17235 X-26.655 Y-28.933
N17240 X-27.084 Y-28.666
N17245 X-27.258 Y-28.555
N17250 X-27.459 Y-28.424
N17255 X-27.66 Y-28.29
N17260 X-27.694 Y-28.264
N17265 X-27.862 Y-28.104
N17270 X-28.104 Y-27.862
N17275 X-28.264 Y-27.694
N17280 X-28.29 Y-27.66
N17285 X-28.423 Y-27.459
N17290 X-28.553 Y-27.258
N17295 X-28.681 Y-27.057
N17300 X-28.928 Y-26.655
N17305 X-29.069 Y-26.435
N17310 X-29.873 Y-25.235
N17315 X-30.002 Y-25.045
N17320 X-30.283 Y-24.643
N17325 X-30.477 Y-24.371
N17330 X-30.879 Y-23.815
N17335 X-31.306 Y-23.235
N17340 X-36.353 Y-16.395
N17345 X-36.777 Y-15.792
N17350 X-36.889 Y-15.59
N17355 X-36.914 Y-15.544
N17360 X-36.988 Y-15.389
N17365 X-37.068 Y-15.188
N17370 X-37.175 Y-14.786
N17375 X-37.226 Y-14.585
N17380 X-37.409 Y-13.378
N17385 X-38.654 Y-5.13
N17390 X-38.747 Y-4.526
N17395 X-38.845 Y-3.923
N17400 X-38.926 Y-3.477
N17405 X-39.24 Y-1.911
N17410 X-39.332 Y-1.509
N17415 X-39.423 Y-1.106
N17420 X-39.529 Y-0.634
N17425 X-39.552 Y-0.503
N17430 X-39.578 Y-0.302
N17435 X-39.589 Y-0.101
N17440 Y0.101
N17445 X-39.578 Y0.302
N17450 X-39.552 Y0.503
N17455 X-39.529 Y0.632
N17460 X-39.375 Y1.308
N17465 X-39.283 Y1.71
N17470 X-39.237 Y1.911
N17475 X-38.92 Y3.52
N17480 X-38.849 Y3.923
N17485 X-38.748 Y4.526
N17490 X-38.685 Y4.929
N17495 X-38.593 Y5.532
N17500 X-37.287 Y14.182
N17505 X-37.226 Y14.585
N17510 X-37.175 Y14.786
N17515 X-37.068 Y15.188
N17520 X-36.988 Y15.389
N17525 X-36.914 Y15.544
N17530 X-36.889 Y15.59
N17535 X-36.777 Y15.792
N17540 X-36.353 Y16.395
N17545 X-30.879 Y23.814
N17550 X-30.423 Y24.442
N17555 X-30.276 Y24.648
N17560 X-29.999 Y25.045
N17565 X-29.863 Y25.246
N17570 X-29.06 Y26.453
N17575 X-28.933 Y26.655
N17580 X-28.666 Y27.084
N17585 X-28.555 Y27.258
N17590 X-28.424 Y27.459
N17595 X-28.29 Y27.66
N17600 X-28.264 Y27.694
N17605 X-28.104 Y27.862
N17610 X-27.862 Y28.104
N17615 X-27.694 Y28.264
N17620 X-27.66 Y28.29
N17625 X-27.459 Y28.423
N17630 X-27.258 Y28.553
N17635 X-27.057 Y28.681
N17640 X-26.655 Y28.928
N17645 X-26.435 Y29.069
N17650 X-25.235 Y29.873
N17655 X-25.045 Y30.002
N17660 X-24.643 Y30.283
N17665 X-24.371 Y30.477
N17670 X-23.815 Y30.879
N17675 X-23.235 Y31.306
N17680 X-16.395 Y36.353
N17685 X-15.792 Y36.777
N17690 X-15.59 Y36.889
N17695 X-15.544 Y36.914
N17700 X-15.389 Y36.988
N17705 X-15.188 Y37.068
N17710 X-14.786 Y37.175
N17715 X-14.585 Y37.226
N17720 X-13.378 Y37.409
N17725 X-5.13 Y38.654
N17730 X-4.526 Y38.747
N17735 X-3.923 Y38.845
N17740 X-3.477 Y38.926
N17745 X-1.911 Y39.24
N17750 X-1.509 Y39.332
N17755 X-1.106 Y39.423
N17760 X-0.634 Y39.529
N17765 X-0.503 Y39.552
N17770 X-0.302 Y39.578
N17775 X-0.101 Y39.589
N17780 X0.101
N17785 X0.302 Y39.578
N17790 X0.503 Y39.552
N17795 X0.632 Y39.529
N17800 X1.308 Y39.375
N17805 X1.71 Y39.283
N17810 X1.911 Y39.237
N17815 X3.52 Y38.92
N17820 X3.923 Y38.849
N17825 X4.526 Y38.748
N17830 X4.929 Y38.685
N17835 X5.532 Y38.593
N17840 X14.182 Y37.287
N17845 X14.585 Y37.226
N17850 X14.786 Y37.175
N17855 X15.188 Y37.068
N17860 X15.389 Y36.988
N17865 X15.544 Y36.914
N17870 X15.59 Y36.889
N17875 X15.792 Y36.777
N17880 X16.395 Y36.353
N17885 X23.814 Y30.879
N17890 X24.442 Y30.423
N17895 X24.648 Y30.276
N17900 X25.045 Y29.999
N17905 X25.246 Y29.863
N17910 X26.453 Y29.06
N17915 X26.655 Y28.933
N17920 X27.084 Y28.666
N17925 X27.258 Y28.555
N17930 X27.459 Y28.424
N17935 X27.66 Y28.29
N17940 X27.694 Y28.264
N17945 X27.862 Y28.104
N17950 X28.104 Y27.862
N17955 X28.264 Y27.694
N17960 X28.29 Y27.66
N17965 X28.423 Y27.459
N17970 X28.553 Y27.258
N17975 X28.681 Y27.057
N17980 X28.928 Y26.655
N17985 X28.954 Y26.613
N17990 X29.013 Y26.541
N17995 X29.081 Y26.478
N18000 X29.147 Y26.444 Z-36.244
N18005 X29.211 Y26.411 Z-36.23
N18010 X29.274 Y26.379 Z-36.207
N18015 X29.336 Y26.369 Z-36.178
N18020 X29.394 Y26.361 Z-36.143
N18025 X29.448 Y26.353 Z-36.1
N18030 X29.449
N18035 X29.507 Y26.363 Z-36.039
N18040 X29.557 Y26.371 Z-35.971
N18045 X29.597 Y26.378 Z-35.896
N18050 X29.626 Y26.383 Z-35.817
N18055 X29.643 Y26.386 Z-35.734
N18060 X29.649 Y26.387 Z-35.649
N18065 Z5.
N18070 X-30.771 Y-30.759
N18075 Z-33.698
N18080 Z-34.298
N18085 X-30.765 Y-30.755 Z-34.392
N18090 X-30.748 Y-30.742 Z-34.484
N18095 X-30.718 Y-30.721 Z-34.571
N18100 X-30.679 Y-30.692 Z-34.651
N18105 X-30.629 Y-30.656 Z-34.723
N18110 X-30.571 Y-30.614 Z-34.784
N18115 X-30.506 Y-30.567 Z-34.833
N18120 X-30.436 Y-30.515 Z-34.869
N18125 X-30.362 Y-30.462 Z-34.891
N18130 X-30.286 Y-30.406 Z-34.898
N18135 G3 X-27.842 Y-28.189 I-9.009 J12.388
N18140 G1 X-27.746 Y-28.074
N18145 X-27.688 Y-27.935
N18150 X-27.638 Y-27.776
N18155 X-27.594 Y-27.587
N18160 X-27.562 Y-27.365
N18165 X-27.545 Y-27.095
N18170 X-27.55 Y-26.767
N18175 X-27.588 Y-26.37
N18180 X-27.624 Y-26.167
N18185 X-27.671 Y-25.981
N18190 X-27.742 Y-25.803
N18195 X-27.838 Y-25.636
N18200 X-28.264 Y-24.998
N18205 X-28.507 Y-24.643
N18210 X-28.666 Y-24.413
N18215 X-28.935 Y-24.039
N18220 X-29.082 Y-23.838
N18225 X-35.019 Y-15.792
N18230 X-35.104 Y-15.673
N18235 X-35.432 Y-15.188
N18240 X-35.506 Y-15.072
N18245 X-35.548 Y-14.987
N18250 X-35.641 Y-14.786
N18255 X-35.719 Y-14.585
N18260 X-35.772 Y-14.383
N18265 X-35.868 Y-13.981
N18270 X-35.901 Y-13.78
N18275 X-37.388 Y-3.923
N18280 X-37.481 Y-3.319
N18285 X-37.579 Y-2.716
N18290 X-37.741 Y-1.911
N18295 X-37.869 Y-1.308
N18300 X-37.92 Y-1.075
N18305 X-38.003 Y-0.704
N18310 X-38.038 Y-0.503
N18315 X-38.072 Y-0.101
N18320 Y0.101
N18325 X-38.038 Y0.503
N18330 X-38.002 Y0.704
N18335 X-37.911 Y1.106
N18340 X-37.867 Y1.308
N18345 X-37.74 Y1.911
N18350 X-37.582 Y2.716
N18355 X-37.514 Y3.118
N18360 X-37.482 Y3.319
N18365 X-37.388 Y3.923
N18370 X-35.901 Y13.78
N18375 X-35.868 Y13.981
N18380 X-35.772 Y14.383
N18385 X-35.719 Y14.585
N18390 X-35.641 Y14.786
N18395 X-35.548 Y14.987
N18400 X-35.506 Y15.072
N18405 X-35.432 Y15.188
N18410 X-35.104 Y15.673
N18415 X-35.019 Y15.792
N18420 X-29.069 Y23.856
N18425 X-28.867 Y24.132
N18430 X-28.643 Y24.442
N18435 X-28.367 Y24.844
N18440 X-28.231 Y25.045
N18445 X-27.832 Y25.649
N18450 X-27.701 Y25.85
N18455 X-27.576 Y26.051
N18460 X-27.449 Y26.252
N18465 X-27.32 Y26.453
N18470 X-27.057 Y26.784
N18475 X-26.998 Y26.856
N18480 X-26.856 Y26.998
N18485 X-26.784 Y27.057
N18490 X-26.453 Y27.32
N18495 X-26.235 Y27.459
N18500 X-25.911 Y27.66
N18505 X-25.85 Y27.698
N18510 X-25.6 Y27.862
N18515 X-24.998 Y28.264
N18520 X-24.643 Y28.507
N18525 X-24.413 Y28.666
N18530 X-24.039 Y28.935
N18535 X-23.838 Y29.082
N18540 X-15.792 Y35.019
N18545 X-15.673 Y35.104
N18550 X-15.188 Y35.432
N18555 X-15.072 Y35.506
N18560 X-14.987 Y35.548
N18565 X-14.786 Y35.641
N18570 X-14.585 Y35.719
N18575 X-14.383 Y35.772
N18580 X-13.981 Y35.868
N18585 X-13.78 Y35.901
N18590 X-3.923 Y37.388
N18595 X-3.319 Y37.481
N18600 X-2.716 Y37.579
N18605 X-1.911 Y37.741
N18610 X-1.308 Y37.869
N18615 X-1.075 Y37.92
N18620 X-0.704 Y38.003
N18625 X-0.503 Y38.038
N18630 X-0.101 Y38.072
N18635 X0.101
N18640 X0.503 Y38.038
N18645 X0.704 Y38.002
N18650 X1.106 Y37.911
N18655 X1.308 Y37.867
N18660 X1.911 Y37.74
N18665 X2.716 Y37.582
N18670 X3.118 Y37.514
N18675 X3.319 Y37.482
N18680 X3.923 Y37.388
N18685 X13.78 Y35.901
N18690 X13.981 Y35.868
N18695 X14.383 Y35.772
N18700 X14.585 Y35.719
N18705 X14.786 Y35.641
N18710 X14.987 Y35.548
N18715 X15.072 Y35.506
N18720 X15.188 Y35.432
N18725 X15.673 Y35.104
N18730 X15.792 Y35.019
N18735 X23.856 Y29.069
N18740 X24.132 Y28.867
N18745 X24.442 Y28.643
N18750 X24.844 Y28.367
N18755 X25.045 Y28.231
N18760 X25.649 Y27.832
N18765 X25.85 Y27.701
N18770 X26.051 Y27.576
N18775 X26.252 Y27.449
N18780 X26.453 Y27.32
N18785 X26.784 Y27.057
N18790 X26.856 Y26.998
N18795 X26.998 Y26.856
N18800 X27.057 Y26.784
N18805 X27.32 Y26.453
N18810 X27.459 Y26.235
N18815 X27.66 Y25.911
N18820 X27.698 Y25.85
N18825 X27.862 Y25.6
N18830 X28.264 Y24.998
N18835 X28.507 Y24.643
N18840 X28.666 Y24.413
N18845 X28.935 Y24.039
N18850 X29.082 Y23.838
N18855 X35.019 Y15.792
N18860 X35.104 Y15.673
N18865 X35.432 Y15.188
N18870 X35.506 Y15.072
N18875 X35.548 Y14.987
N18880 X35.641 Y14.786
N18885 X35.719 Y14.585
N18890 X35.772 Y14.383
N18895 X35.868 Y13.981
N18900 X35.901 Y13.78
N18905 X37.388 Y3.923
N18910 X37.481 Y3.319
N18915 X37.579 Y2.716
N18920 X37.741 Y1.911
N18925 X37.869 Y1.308
N18930 X37.92 Y1.075
N18935 X38.003 Y0.704
N18940 X38.038 Y0.503
N18945 X38.072 Y0.101
N18950 Y-0.101
N18955 X38.038 Y-0.503
N18960 X38.002 Y-0.704
N18965 X37.911 Y-1.106
N18970 X37.867 Y-1.308
N18975 X37.74 Y-1.911
N18980 X37.582 Y-2.716
N18985 X37.514 Y-3.118
N18990 X37.482 Y-3.319
N18995 X37.388 Y-3.923
N19000 X35.901 Y-13.78
N19005 X35.868 Y-13.981
N19010 X35.772 Y-14.383
N19015 X35.719 Y-14.585
N19020 X35.641 Y-14.786
N19025 X35.548 Y-14.987
N19030 X35.506 Y-15.072
N19035 X35.432 Y-15.188
N19040 X35.104 Y-15.673
N19045 X35.019 Y-15.792
N19050 X29.069 Y-23.856
N19055 X28.867 Y-24.132
N19060 X28.643 Y-24.442
N19065 X28.367 Y-24.844
N19070 X28.231 Y-25.045
N19075 X27.832 Y-25.649
N19080 X27.701 Y-25.85
N19085 X27.576 Y-26.051
N19090 X27.449 Y-26.252
N19095 X27.32 Y-26.453
N19100 X27.057 Y-26.784
N19105 X26.998 Y-26.856
N19110 X26.856 Y-26.998
N19115 X26.784 Y-27.057
N19120 X26.453 Y-27.32
N19125 X26.235 Y-27.459
N19130 X25.911 Y-27.66
N19135 X25.85 Y-27.698
N19140 X25.6 Y-27.862
N19145 X24.998 Y-28.264
N19150 X24.643 Y-28.507
N19155 X24.413 Y-28.666
N19160 X24.039 Y-28.935
N19165 X23.838 Y-29.082
N19170 X15.792 Y-35.019
N19175 X15.673 Y-35.104
N19180 X15.188 Y-35.432
N19185 X15.072 Y-35.506
N19190 X14.987 Y-35.548
N19195 X14.786 Y-35.641
N19200 X14.585 Y-35.719
N19205 X14.383 Y-35.772
N19210 X13.981 Y-35.868
N19215 X13.78 Y-35.901
N19220 X3.923 Y-37.388
N19225 X3.319 Y-37.481
N19230 X2.716 Y-37.579
N19235 X1.911 Y-37.741
N19240 X1.308 Y-37.869
N19245 X1.075 Y-37.92
N19250 X0.704 Y-38.003
N19255 X0.503 Y-38.038
N19260 X0.101 Y-38.072
N19265 X-0.101
N19270 X-0.503 Y-38.038
N19275 X-0.704 Y-38.002
N19280 X-1.106 Y-37.911
N19285 X-1.308 Y-37.867
N19290 X-1.911 Y-37.74
N19295 X-2.716 Y-37.582
N19300 X-3.118 Y-37.514
N19305 X-3.319 Y-37.482
N19310 X-3.923 Y-37.388
N19315 X-13.78 Y-35.901
N19320 X-13.981 Y-35.868
N19325 X-14.383 Y-35.772
N19330 X-14.585 Y-35.719
N19335 X-14.786 Y-35.641
N19340 X-14.987 Y-35.548
N19345 X-15.072 Y-35.506
N19350 X-15.188 Y-35.432
N19355 X-15.673 Y-35.104
N19360 X-15.792 Y-35.019
N19365 X-23.856 Y-29.069
N19370 X-24.132 Y-28.867
N19375 X-24.442 Y-28.643
N19380 X-24.844 Y-28.367
N19385 X-25.045 Y-28.231
N19390 X-25.649 Y-27.832
N19395 X-25.85 Y-27.701
N19400 X-26.051 Y-27.576
N19405 X-26.252 Y-27.449
N19410 X-26.453 Y-27.32
N19415 X-26.784 Y-27.057
N19420 X-26.856 Y-26.998
N19425 X-26.998 Y-26.856
N19430 X-27.057 Y-26.784
N19435 X-27.32 Y-26.453
N19440 X-27.459 Y-26.235
N19445 X-27.66 Y-25.911
N19450 X-27.698 Y-25.85
N19455 X-27.838 Y-25.636
N19460 X-27.897 Y-25.565
N19465 X-27.967 Y-25.504
N19470 X-28.034 Y-25.472 Z-34.894
N19475 X-28.099 Y-25.44 Z-34.88
N19480 X-28.162 Y-25.408 Z-34.857
N19485 X-28.247 Y-25.397 Z-34.815
N19490 X-28.325 Y-25.386 Z-34.76
N19495 X-28.387 Y-25.397 Z-34.699
N19500 X-28.439 Y-25.407 Z-34.63
N19505 X-28.481 Y-25.415 Z-34.553
N19510 X-28.512 Y-25.42 Z-34.472
N19515 X-28.531 Y-25.424 Z-34.386
N19520 X-28.537 Y-25.425 Z-34.299
N19525 Z5.
N19530 X29.953 Y29.42
N19535 Z-32.348
N19540 Z-32.948
N19545 X29.946 Y29.416 Z-33.042
N19550 X29.928 Y29.404 Z-33.134
N19555 X29.898 Y29.384 Z-33.221
N19560 X29.857 Y29.357 Z-33.301
N19565 X29.805 Y29.324 Z-33.373
N19570 X29.745 Y29.285 Z-33.434
N19575 X29.678 Y29.241 Z-33.483
N19580 X29.605 Y29.194 Z-33.519
N19585 X29.529 Y29.144 Z-33.541
N19590 X29.45 Y29.092 Z-33.548
N19595 G3 X26.896 Y27.002 I8.367 J-12.831
N19600 G1 X26.795 Y26.892
N19605 X26.722 Y26.76
N19610 X26.664 Y26.622
N19615 X26.618 Y26.48
N19620 X26.582 Y26.334
N19625 X26.555 Y26.186
N19630 X26.537 Y26.037
N19635 X26.525 Y25.888
N19640 X26.52 Y25.738
N19645 X26.522 Y25.588
N19650 X26.529 Y25.438
N19655 X26.541 Y25.289
N19660 X26.552 Y25.197
N19665 X26.593 Y24.983
N19670 X26.667 Y24.779
N19675 X26.772 Y24.588
N19680 X26.868 Y24.442
N19685 X27.01 Y24.241
N19690 X27.304 Y23.838
N19695 X27.897 Y23.034
N19700 X33.695 Y15.175
N19705 X33.827 Y14.987
N19710 X34.098 Y14.567
N19715 X34.207 Y14.383
N19720 X34.294 Y14.182
N19725 X34.368 Y13.981
N19730 X34.423 Y13.78
N19735 X34.508 Y13.378
N19740 X34.544 Y13.176
N19745 X36.153 Y2.515
N19750 X36.246 Y1.911
N19755 X36.363 Y1.308
N19760 X36.405 Y1.106
N19765 X36.512 Y0.62
N19770 X36.527 Y0.503
N19775 X36.562 Y0.101
N19780 Y-0.101
N19785 X36.527 Y-0.503
N19790 X36.512 Y-0.619
N19795 X36.404 Y-1.106
N19800 X36.362 Y-1.308
N19805 X36.247 Y-1.911
N19810 X36.153 Y-2.515
N19815 X34.544 Y-13.176
N19820 X34.508 Y-13.378
N19825 X34.423 Y-13.78
N19830 X34.368 Y-13.981
N19835 X34.294 Y-14.182
N19840 X34.207 Y-14.383
N19845 X34.098 Y-14.567
N19850 X33.827 Y-14.987
N19855 X33.685 Y-15.188
N19860 X27.303 Y-23.838
N19865 X27.009 Y-24.241
N19870 X26.867 Y-24.442
N19875 X26.453 Y-25.074
N19880 X26.344 Y-25.246
N19885 X26.252 Y-25.381
N19890 X26.046 Y-25.649
N19895 X25.862 Y-25.85
N19900 X25.85 Y-25.862
N19905 X25.649 Y-26.046
N19910 X25.381 Y-26.252
N19915 X25.246 Y-26.344
N19920 X25.045 Y-26.472
N19925 X24.442 Y-26.868
N19930 X24.241 Y-27.01
N19935 X23.838 Y-27.304
N19940 X23.034 Y-27.897
N19945 X15.175 Y-33.695
N19950 X14.987 Y-33.827
N19955 X14.567 Y-34.098
N19960 X14.383 Y-34.207
N19965 X14.182 Y-34.294
N19970 X13.981 Y-34.368
N19975 X13.78 Y-34.423
N19980 X13.378 Y-34.508
N19985 X13.176 Y-34.544
N19990 X2.515 Y-36.153
N19995 X1.911 Y-36.246
N20000 X1.308 Y-36.363
N20005 X1.106 Y-36.405
N20010 X0.62 Y-36.512
N20015 X0.503 Y-36.527
N20020 X0.101 Y-36.562
N20025 X-0.101
N20030 X-0.503 Y-36.527
N20035 X-0.619 Y-36.512
N20040 X-1.106 Y-36.404
N20045 X-1.308 Y-36.362
N20050 X-1.911 Y-36.247
N20055 X-2.515 Y-36.153
N20060 X-13.176 Y-34.544
N20065 X-13.378 Y-34.508
N20070 X-13.78 Y-34.423
N20075 X-13.981 Y-34.368
N20080 X-14.182 Y-34.294
N20085 X-14.383 Y-34.207
N20090 X-14.567 Y-34.098
N20095 X-14.987 Y-33.827
N20100 X-15.188 Y-33.685
N20105 X-23.838 Y-27.303
N20110 X-24.241 Y-27.009
N20115 X-24.442 Y-26.867
N20120 X-25.074 Y-26.453
N20125 X-25.246 Y-26.344
N20130 X-25.381 Y-26.252
N20135 X-25.649 Y-26.046
N20140 X-25.85 Y-25.862
N20145 X-25.862 Y-25.85
N20150 X-26.046 Y-25.649
N20155 X-26.252 Y-25.381
N20160 X-26.344 Y-25.246
N20165 X-26.472 Y-25.045
N20170 X-26.868 Y-24.442
N20175 X-27.01 Y-24.241
N20180 X-27.304 Y-23.838
N20185 X-27.897 Y-23.034
N20190 X-33.695 Y-15.175
N20195 X-33.827 Y-14.987
N20200 X-34.098 Y-14.567
N20205 X-34.207 Y-14.383
N20210 X-34.294 Y-14.182
N20215 X-34.368 Y-13.981
N20220 X-34.423 Y-13.78
N20225 X-34.508 Y-13.378
N20230 X-34.544 Y-13.176
N20235 X-36.153 Y-2.515
N20240 X-36.246 Y-1.911
N20245 X-36.363 Y-1.308
N20250 X-36.405 Y-1.106
N20255 X-36.512 Y-0.62
N20260 X-36.527 Y-0.503
N20265 X-36.562 Y-0.101
N20270 Y0.101
N20275 X-36.527 Y0.503
N20280 X-36.512 Y0.619
N20285 X-36.404 Y1.106
N20290 X-36.362 Y1.308
N20295 X-36.247 Y1.911
N20300 X-36.153 Y2.515
N20305 X-34.544 Y13.176
N20310 X-34.508 Y13.378
N20315 X-34.423 Y13.78
N20320 X-34.368 Y13.981
N20325 X-34.294 Y14.182
N20330 X-34.207 Y14.383
N20335 X-34.098 Y14.567
N20340 X-33.827 Y14.987
N20345 X-33.685 Y15.188
N20350 X-27.303 Y23.838
N20355 X-27.009 Y24.241
N20360 X-26.867 Y24.442
N20365 X-26.453 Y25.074
N20370 X-26.344 Y25.246
N20375 X-26.252 Y25.381
N20380 X-26.046 Y25.649
N20385 X-25.862 Y25.85
N20390 X-25.85 Y25.862
N20395 X-25.649 Y26.046
N20400 X-25.381 Y26.252
N20405 X-25.246 Y26.344
N20410 X-25.045 Y26.472
N20415 X-24.442 Y26.868
N20420 X-24.241 Y27.01
N20425 X-23.838 Y27.304
N20430 X-23.034 Y27.897
N20435 X-15.175 Y33.695
N20440 X-14.987 Y33.827
N20445 X-14.567 Y34.098
N20450 X-14.383 Y34.207
N20455 X-14.182 Y34.294
N20460 X-13.981 Y34.368
N20465 X-13.78 Y34.423
N20470 X-13.378 Y34.508
N20475 X-13.176 Y34.544
N20480 X-2.515 Y36.153
N20485 X-1.911 Y36.246
N20490 X-1.308 Y36.363
N20495 X-1.106 Y36.405
N20500 X-0.62 Y36.512
N20505 X-0.503 Y36.527
N20510 X-0.101 Y36.562
N20515 X0.101
N20520 X0.503 Y36.527
N20525 X0.619 Y36.512
N20530 X1.106 Y36.404
N20535 X1.308 Y36.362
N20540 X1.911 Y36.247
N20545 X2.515 Y36.153
N20550 X13.176 Y34.544
