%
O01015
(Using high feed G1 F5000. instead of G0.)
(T1 D=6. CR=3. - ZMIN=-54.302 - fresa con punta de bola)
N10 G90 G94 G17
N15 G21
(When using Fusion for Personal Use, the feedrate of rapid)
(moves is reduced to match the feedrate of cutting moves,)
(which can increase machining time. Unrestricted rapid moves)
(are available with a Fusion Subscription.)
N20 G53 G0 Z0.

(Festoneado1)
N25 T1 M6
N30 S5000 M3
N35 G17 G90 G94
N40 G54
N45 M8
N50 G1 X-0.761 Y-0.025 F5000.
N55 G0 G43 Z15. H1
N60 G1 Z-1.057 F1000.
N65 Z-2.412 F333.33
N70 X-0.754 Y-0.027 Z-2.507 F1000.
N75 X-0.733 Y-0.035 Z-2.6
N80 X-0.698 Y-0.047 Z-2.688
N85 X-0.65 Y-0.063 Z-2.769
N90 X-0.591 Y-0.083 Z-2.841
N95 X-0.522 Y-0.107 Z-2.902
N100 X-0.444 Y-0.134 Z-2.951
N105 X-0.36 Y-0.163 Z-2.986
N110 X-0.272 Y-0.193 Z-3.007
N115 X-0.182 Y-0.224 Z-3.012
N120 X-0.109 Y-0.249 Z-3.011
N125 X0. Y-0.275
N130 X0.109 Y-0.255
N135 X0.167 Y-0.232 Z-3.012
N140 X0.207 Y-0.213 Z-3.013
N145 X0.224 Y-0.182 Z-3.012
N150 X0.249 Y-0.109 Z-3.011
N155 X0.275 Y0.
N160 X0.255 Y0.109
N165 X0.232 Y0.167 Z-3.012
N170 X0.213 Y0.207 Z-3.013
N175 X0.182 Y0.224 Z-3.012
N180 X0.109 Y0.249 Z-3.011
N185 X0. Y0.275
N190 X-0.109 Y0.255
N195 X-0.167 Y0.232 Z-3.012
N200 X-0.207 Y0.213 Z-3.013
N205 X-0.224 Y0.182 Z-3.012
N210 X-0.249 Y0.109 Z-3.011
N215 X-0.275 Y0.
N220 X-0.255 Y-0.109
N225 X-0.232 Y-0.167 Z-3.012
N230 X-0.213 Y-0.207 Z-3.013
N235 X-0.182 Y-0.224 Z-3.012
N240 X-0.05 Y-0.257 Z-3.01
N245 X0.005 Y-0.264
N250 X0.069 Y-0.268 Z-3.011
N255 X0.133 Z-3.013
N260 X0.197 Y-0.264 Z-3.016
N265 X0.261 Y-0.256 Z-3.021
N270 X0.324 Y-0.244 Z-3.026
N275 X0.377 Y-0.23 Z-3.031
N280 X0.428 Y-0.211 Z-3.036
N285 X0.477 Y-0.186 Z-3.042
N290 X0.522 Y-0.155 Z-3.048
N295 X0.541 Y-0.139 Z-3.051
N300 X0.568 Y-0.112 Z-3.054
N305 X0.597 Y-0.071 Z-3.059
N310 X0.611 Y-0.037 Z-3.061
N315 X0.617 Y-0.007 Z-3.062
N320 Y0.011 Z-3.063
N325 X0.609 Y0.109
N330 X0.574 Y0.24 Z-3.064
N335 X0.534 Y0.328
N340 X0.497 Y0.406 Z-3.068
N345 X0.431 Y0.484 Z-3.069
N350 X0.298 Y0.547 Z-3.064
N355 X0.109 Y0.609 Z-3.063
N360 X0. Y0.618
N365 X-0.109 Y0.609
N370 X-0.24 Y0.574 Z-3.064
N375 X-0.328 Y0.534
N380 X-0.406 Y0.497 Z-3.068
N385 X-0.484 Y0.431 Z-3.069
N390 X-0.547 Y0.298 Z-3.064
N395 X-0.609 Y0.109 Z-3.063
N400 X-0.618 Y0.
N405 X-0.609 Y-0.109
N410 X-0.574 Y-0.24 Z-3.064
N415 X-0.534 Y-0.328
N420 X-0.497 Y-0.406 Z-3.068
N425 X-0.431 Y-0.484 Z-3.069
N430 X-0.298 Y-0.547 Z-3.064
N435 X-0.109 Y-0.609 Z-3.063
N440 X0. Y-0.618
N445 X0.109 Y-0.609
N450 X0.24 Y-0.574 Z-3.064
N455 X0.328 Y-0.534
N460 X0.406 Y-0.497 Z-3.068
N465 X0.484 Y-0.431 Z-3.069
N470 X0.547 Y-0.298 Z-3.064
N475 X0.609 Y-0.109 Z-3.063
N480 X0.618 Y0.
N485 X0.617 Y0.011
N490 X0.603 Y0.155 Z-3.064
N495 X0.581 Y0.297 Z-3.07
N500 X0.55 Y0.438 Z-3.082
N505 X0.53 Y0.506 Z-3.089
N510 X0.507 Y0.574 Z-3.098
N515 X0.481 Y0.635 Z-3.106
N520 X0.451 Y0.693 Z-3.114
N525 X0.416 Y0.748 Z-3.123
N530 X0.375 Y0.8 Z-3.131
N535 X0.319 Y0.856 Z-3.141
N540 X0.281 Y0.885 Z-3.146
N545 X0.254 Y0.902 Z-3.148
N550 X0.211 Y0.923 Z-3.152
N555 X0.166 Y0.938 Z-3.154
N560 Z-3.155
N565 X0.109 Y0.951
N570 X-0.109
N575 X-0.328 Y0.9 Z-3.156
N580 X-0.547 Y0.8 Z-3.159
N585 X-0.61 Y0.766 Z-3.163
N590 X-0.732 Y0.656 Z-3.164
N595 X-0.766 Y0.61 Z-3.163
N600 X-0.799 Y0.547 Z-3.159
N605 X-0.9 Y0.328 Z-3.155
N610 X-0.951 Y0.109
N615 Y-0.109
N620 X-0.9 Y-0.328 Z-3.156
N625 X-0.8 Y-0.547 Z-3.159
N630 X-0.766 Y-0.61 Z-3.163
N635 X-0.656 Y-0.732 Z-3.164
N640 X-0.61 Y-0.766 Z-3.163
N645 X-0.547 Y-0.799 Z-3.159
N650 X-0.328 Y-0.9 Z-3.155
N655 X-0.109 Y-0.951
N660 X0.109
N665 X0.328 Y-0.9 Z-3.156
N670 X0.547 Y-0.8 Z-3.159
N675 X0.61 Y-0.766 Z-3.163
N680 X0.732 Y-0.656 Z-3.164
N685 X0.766 Y-0.61 Z-3.163
N690 X0.799 Y-0.547 Z-3.159
N695 X0.9 Y-0.328 Z-3.155
N700 X0.951 Y-0.109
N705 Y0.109
N710 X0.9 Y0.328 Z-3.156
N715 X0.8 Y0.547 Z-3.159
N720 X0.766 Y0.61 Z-3.163
N725 X0.656 Y0.732 Z-3.164
N730 X0.61 Y0.766 Z-3.163
N735 X0.547 Y0.799 Z-3.159
N740 X0.328 Y0.9 Z-3.155
N745 X0.166 Y0.938
N750 X0.028 Y0.974 Z-3.161
N755 X-0.109 Y1.013 Z-3.177
N760 X-0.245 Y1.05 Z-3.199
N765 X-0.383 Y1.079 Z-3.226
N770 X-0.446 Y1.088 Z-3.238
N775 X-0.51 Y1.092 Z-3.25
N780 X-0.574 Y1.09 Z-3.262
N785 X-0.638 Y1.083 Z-3.273
N790 X-0.714 Y1.064 Z-3.284
N795 X-0.758 Y1.047 Z-3.29
N800 X-0.786 Y1.034 Z-3.293
N805 X-0.826 Y1.009 Z-3.296
N810 X-0.862 Y0.978 Z-3.297
N815 X-0.985 Y0.855
N820 X-1.048 Y0.766 Z-3.294
N825 X-1.157 Y0.547 Z-3.285
N830 X-1.204 Y0.432
N835 X-1.238 Y0.328 Z-3.286
N840 X-1.276 Y0.109
N845 Y-0.109
N850 X-1.238 Y-0.328
N855 X-1.204 Y-0.434 Z-3.285
N860 X-1.157 Y-0.547
N865 X-1.048 Y-0.766 Z-3.294
N870 X-0.985 Y-0.855 Z-3.297
N875 X-0.855 Y-0.985
N880 X-0.766 Y-1.048 Z-3.294
N885 X-0.547 Y-1.157 Z-3.285
N890 X-0.432 Y-1.204
N895 X-0.328 Y-1.238 Z-3.286
N900 X-0.109 Y-1.276
N905 X0.109
N910 X0.328 Y-1.238
N915 X0.434 Y-1.204 Z-3.285
N920 X0.547 Y-1.157
N925 X0.766 Y-1.048 Z-3.294
N930 X0.855 Y-0.985 Z-3.297
N935 X0.985 Y-0.855
N940 X1.048 Y-0.766 Z-3.294
N945 X1.157 Y-0.547 Z-3.285
N950 X1.204 Y-0.432
N955 X1.238 Y-0.328 Z-3.286
N960 X1.276 Y-0.109
N965 Y0.109
N970 X1.238 Y0.328
N975 X1.204 Y0.434 Z-3.285
N980 X1.157 Y0.547
N985 X1.048 Y0.766 Z-3.294
N990 X0.985 Y0.855 Z-3.297
N995 X0.855 Y0.985
N1000 X0.766 Y1.048 Z-3.294
N1005 X0.547 Y1.157 Z-3.285
N1010 X0.432 Y1.204
N1015 X0.328 Y1.238 Z-3.286
N1020 X0.109 Y1.276
N1025 X-0.109
N1030 X-0.328 Y1.238
N1035 X-0.434 Y1.204 Z-3.285
N1040 X-0.547 Y1.157
N1045 X-0.766 Y1.048 Z-3.294
N1050 X-0.855 Y0.985 Z-3.297
N1055 X-0.862 Y0.978
N1060 X-0.964 Y0.887 Z-3.299
N1065 X-1.018 Y0.845 Z-3.306
N1070 X-1.073 Y0.805 Z-3.315
N1075 X-1.183 Y0.725 Z-3.339
N1080 X-1.292 Y0.645 Z-3.368
N1085 X-1.387 Y0.561 Z-3.397
N1090 X-1.43 Y0.514 Z-3.412
N1095 X-1.47 Y0.465 Z-3.425
N1100 X-1.505 Y0.413 Z-3.436
N1105 X-1.54 Y0.343 Z-3.446
N1110 X-1.555 Y0.298 Z-3.45
N1115 X-1.562 Y0.268 Z-3.451
N1120 X-1.567 Y0.237 Z-3.454
N1125 X-1.582 Y0.109 Z-3.452
N1130 Y-0.109 Z-3.451
N1135 X-1.557 Y-0.328 Z-3.455
N1140 X-1.486 Y-0.547 Z-3.45
N1145 X-1.423 Y-0.7 Z-3.452
N1150 X-1.393 Y-0.766 Z-3.454
N1155 X-1.272 Y-0.985 Z-3.466
N1160 X-1.204 Y-1.064 Z-3.465
N1165 X-1.064 Y-1.204
N1170 X-0.985 Y-1.272 Z-3.466
N1175 X-0.766 Y-1.392 Z-3.454
N1180 X-0.698 Y-1.423 Z-3.451
N1185 X-0.547 Y-1.485 Z-3.45
N1190 X-0.328 Y-1.557 Z-3.455
N1195 X-0.109 Y-1.582 Z-3.452
N1200 X0.109 Z-3.451
N1205 X0.328 Y-1.557 Z-3.455
N1210 X0.547 Y-1.486 Z-3.45
N1215 X0.7 Y-1.423 Z-3.452
N1220 X0.766 Y-1.393 Z-3.454
N1225 X0.985 Y-1.272 Z-3.466
N1230 X1.064 Y-1.204 Z-3.465
N1235 X1.204 Y-1.064
N1240 X1.272 Y-0.985 Z-3.466
N1245 X1.392 Y-0.766 Z-3.454
N1250 X1.423 Y-0.698 Z-3.451
N1255 X1.485 Y-0.547 Z-3.45
N1260 X1.557 Y-0.328 Z-3.455
N1265 X1.582 Y-0.109 Z-3.452
N1270 Y0.109 Z-3.451
N1275 X1.557 Y0.328 Z-3.455
N1280 X1.486 Y0.547 Z-3.45
N1285 X1.423 Y0.7 Z-3.452
N1290 X1.393 Y0.766 Z-3.454
N1295 X1.272 Y0.985 Z-3.466
N1300 X1.204 Y1.064 Z-3.465
N1305 X1.064 Y1.204
N1310 X0.985 Y1.272 Z-3.466
N1315 X0.766 Y1.392 Z-3.454
N1320 X0.698 Y1.423 Z-3.451
N1325 X0.547 Y1.485 Z-3.45
N1330 X0.328 Y1.557 Z-3.455
N1335 X0.109 Y1.582 Z-3.452
N1340 X-0.109 Z-3.451
N1345 X-0.328 Y1.557 Z-3.455
N1350 X-0.547 Y1.486 Z-3.45
N1355 X-0.7 Y1.423 Z-3.452
N1360 X-0.766 Y1.393 Z-3.454
N1365 X-0.985 Y1.272 Z-3.466
N1370 X-1.075 Y1.192 Z-3.465
N1375 X-1.204 Y1.064
N1380 X-1.272 Y0.985 Z-3.466
N1385 X-1.392 Y0.766 Z-3.454
N1390 X-1.423 Y0.698 Z-3.451
N1395 X-1.485 Y0.547 Z-3.45
N1400 X-1.557 Y0.328 Z-3.455
N1405 X-1.567 Y0.237 Z-3.454
N1410 X-1.592 Y0.096 Z-3.458
N1415 X-1.607 Y0.039 Z-3.465
N1420 X-1.625 Y-0.026 Z-3.476
N1425 X-1.664 Y-0.153 Z-3.507
N1430 X-1.701 Y-0.279 Z-3.543
N1435 X-1.728 Y-0.402 Z-3.578
N1440 X-1.737 Y-0.465 Z-3.595
N1445 X-1.742 Y-0.528 Z-3.611
N1450 X-1.741 Y-0.59 Z-3.625
N1455 X-1.734 Y-0.653 Z-3.637
N1460 X-1.721 Y-0.714 Z-3.646
N1465 X-1.711 Y-0.745 Z-3.649
N1470 X-1.699 Y-0.774 Z-3.65
N1475 X-1.641 Y-0.902 Z-3.655
N1480 X-1.601 Y-0.985 Z-3.66
N1485 X-1.544 Y-1.091 Z-3.669
N1490 X-1.458 Y-1.204
N1495 X-1.423 Y-1.242 Z-3.667
N1500 X-1.242 Y-1.423
N1505 X-1.204 Y-1.458 Z-3.669
N1510 X-1.091 Y-1.544
N1515 X-0.985 Y-1.6 Z-3.66
N1520 X-0.901 Y-1.641 Z-3.654
N1525 X-0.766 Y-1.702 Z-3.649
N1530 X-0.547 Y-1.788 Z-3.652
N1535 X-0.328 Y-1.849 Z-3.659
N1540 X-0.202 Y-1.86 Z-3.653
N1545 X-0.109 Y-1.864 Z-3.651
N1550 X0.109
N1555 X0.197 Y-1.86 Z-3.653
N1560 X0.328 Y-1.848 Z-3.658
N1565 X0.547 Y-1.789 Z-3.653
N1570 X0.766 Y-1.702 Z-3.65
N1575 X0.902 Y-1.641 Z-3.655
N1580 X0.985 Y-1.601 Z-3.66
N1585 X1.091 Y-1.544 Z-3.669
N1590 X1.204 Y-1.458
N1595 X1.242 Y-1.423 Z-3.667
N1600 X1.423 Y-1.242
N1605 X1.458 Y-1.204 Z-3.669
N1610 X1.544 Y-1.091
N1615 X1.6 Y-0.985 Z-3.66
N1620 X1.641 Y-0.901 Z-3.654
N1625 X1.702 Y-0.766 Z-3.649
N1630 X1.788 Y-0.547 Z-3.652
N1635 X1.849 Y-0.328 Z-3.659
N1640 X1.86 Y-0.202 Z-3.653
N1645 X1.864 Y-0.109 Z-3.651
N1650 Y0.109
N1655 X1.86 Y0.194 Z-3.653
N1660 X1.848 Y0.328 Z-3.658
N1665 X1.789 Y0.547 Z-3.653
N1670 X1.702 Y0.766 Z-3.65
N1675 X1.641 Y0.902 Z-3.655
N1680 X1.601 Y0.985 Z-3.66
N1685 X1.544 Y1.091 Z-3.669
N1690 X1.458 Y1.204
N1695 X1.423 Y1.242 Z-3.667
N1700 X1.242 Y1.423
N1705 X1.204 Y1.458 Z-3.669
N1710 X1.091 Y1.544
N1715 X0.985 Y1.6 Z-3.66
N1720 X0.901 Y1.641 Z-3.654
N1725 X0.766 Y1.702 Z-3.649
N1730 X0.547 Y1.788 Z-3.652
N1735 X0.328 Y1.849 Z-3.659
N1740 X0.202 Y1.86 Z-3.653
N1745 X0.109 Y1.864 Z-3.651
N1750 X-0.109
N1755 X-0.194 Y1.86 Z-3.653
N1760 X-0.328 Y1.848 Z-3.658
N1765 X-0.547 Y1.789 Z-3.653
N1770 X-0.766 Y1.702 Z-3.65
N1775 X-0.902 Y1.641 Z-3.655
N1780 X-0.985 Y1.601 Z-3.66
N1785 X-1.091 Y1.544 Z-3.669
N1790 X-1.204 Y1.458
N1795 X-1.242 Y1.423 Z-3.667
N1800 X-1.423 Y1.242
N1805 X-1.458 Y1.204 Z-3.669
N1810 X-1.544 Y1.091
N1815 X-1.6 Y0.985 Z-3.66
N1820 X-1.641 Y0.901 Z-3.654
N1825 X-1.702 Y0.766 Z-3.649
N1830 X-1.788 Y0.547 Z-3.652
N1835 X-1.849 Y0.328 Z-3.659
N1840 X-1.86 Y0.202 Z-3.653
N1845 X-1.864 Y0.109 Z-3.651
N1850 Y-0.109
N1855 X-1.86 Y-0.197 Z-3.653
N1860 X-1.848 Y-0.328 Z-3.658
N1865 X-1.789 Y-0.547 Z-3.653
N1870 X-1.699 Y-0.774 Z-3.65
N1875 X-1.649 Y-0.909 Z-3.663
N1880 X-1.633 Y-0.965 Z-3.674
N1885 X-1.618 Y-1.029 Z-3.691
N1890 X-1.589 Y-1.158 Z-3.733
N1895 X-1.56 Y-1.285 Z-3.781
N1900 X-1.525 Y-1.402 Z-3.826
N1905 X-1.502 Y-1.46 Z-3.847
N1910 X-1.474 Y-1.516 Z-3.866
N1915 X-1.443 Y-1.569 Z-3.882
N1920 X-1.406 Y-1.619 Z-3.895
N1925 X-1.385 Y-1.642 Z-3.899
N1930 X-1.363 Y-1.664 Z-3.902
N1935 X-1.326 Y-1.695 Z-3.904
N1940 X-1.313 Y-1.704 Z-3.903
N1945 X-1.204 Y-1.778 Z-3.899
N1950 X-1.046 Y-1.86 Z-3.885
N1955 X-0.985 Y-1.889 Z-3.882
N1960 X-0.766 Y-1.983 Z-3.878
N1965 X-0.547 Y-2.063 Z-3.886
N1970 X-0.495 Y-2.079 Z-3.889
N1975 X-0.328 Y-2.111 Z-3.89
N1980 X-0.109 Y-2.124 Z-3.88
N1985 X0.109
N1990 X0.328 Y-2.11 Z-3.889
N1995 X0.495 Y-2.079
N2000 X0.547 Y-2.064 Z-3.886
N2005 X0.766 Y-1.984 Z-3.878
N2010 X0.985 Y-1.889 Z-3.882
N2015 X1.046 Y-1.86 Z-3.886
N2020 X1.204 Y-1.778 Z-3.899
N2025 X1.325 Y-1.696 Z-3.904
N2030 X1.423 Y-1.606 Z-3.898
N2035 X1.606 Y-1.423
N2040 X1.696 Y-1.325 Z-3.904
N2045 X1.778 Y-1.204 Z-3.899
N2050 X1.86 Y-1.046 Z-3.885
N2055 X1.889 Y-0.985 Z-3.882
N2060 X1.983 Y-0.766 Z-3.878
N2065 X2.063 Y-0.547 Z-3.886
N2070 X2.079 Y-0.495 Z-3.889
N2075 X2.111 Y-0.328 Z-3.89
N2080 X2.124 Y-0.109 Z-3.88
N2085 Y0.109
N2090 X2.11 Y0.328 Z-3.889
N2095 X2.079 Y0.495
N2100 X2.064 Y0.547 Z-3.886
N2105 X1.984 Y0.766 Z-3.878
N2110 X1.889 Y0.985 Z-3.882
N2115 X1.86 Y1.046 Z-3.886
N2120 X1.778 Y1.204 Z-3.899
N2125 X1.696 Y1.325 Z-3.904
N2130 X1.606 Y1.423 Z-3.898
N2135 X1.423 Y1.606
N2140 X1.325 Y1.696 Z-3.904
N2145 X1.204 Y1.778 Z-3.899
N2150 X1.046 Y1.86 Z-3.885
N2155 X0.985 Y1.889 Z-3.882
N2160 X0.766 Y1.983 Z-3.878
N2165 X0.547 Y2.063 Z-3.886
N2170 X0.495 Y2.079 Z-3.889
N2175 X0.328 Y2.111 Z-3.89
N2180 X0.109 Y2.124 Z-3.88
N2185 X-0.109
N2190 X-0.328 Y2.11 Z-3.889
N2195 X-0.495 Y2.079
N2200 X-0.547 Y2.064 Z-3.886
N2205 X-0.766 Y1.984 Z-3.878
N2210 X-0.985 Y1.889 Z-3.882
N2215 X-1.046 Y1.86 Z-3.886
N2220 X-1.204 Y1.778 Z-3.899
N2225 X-1.325 Y1.696 Z-3.904
N2230 X-1.423 Y1.606 Z-3.898
N2235 X-1.606 Y1.423
N2240 X-1.696 Y1.325 Z-3.904
N2245 X-1.778 Y1.204 Z-3.899
N2250 X-1.86 Y1.046 Z-3.885
N2255 X-1.889 Y0.985 Z-3.882
N2260 X-1.983 Y0.766 Z-3.878
N2265 X-2.063 Y0.547 Z-3.886
N2270 X-2.079 Y0.495 Z-3.889
N2275 X-2.111 Y0.328 Z-3.89
N2280 X-2.124 Y0.109 Z-3.88
N2285 Y-0.109
N2290 X-2.11 Y-0.328 Z-3.889
N2295 X-2.079 Y-0.495
N2300 X-2.064 Y-0.547 Z-3.886
N2305 X-1.984 Y-0.766 Z-3.878
N2310 X-1.889 Y-0.985 Z-3.882
N2315 X-1.86 Y-1.046 Z-3.886
N2320 X-1.778 Y-1.204 Z-3.899
N2325 X-1.696 Y-1.325 Z-3.904
N2330 X-1.606 Y-1.423 Z-3.898
N2335 X-1.423 Y-1.606
N2340 X-1.325 Y-1.696 Z-3.904
N2345 X-1.313 Y-1.704 Z-3.903
N2350 X-1.26 Y-1.743
N2355 X-1.208 Y-1.786 Z-3.907
N2360 X-1.16 Y-1.831 Z-3.917
N2365 X-1.114 Y-1.878 Z-3.931
N2370 X-1.025 Y-1.974 Z-3.967
N2375 X-0.937 Y-2.069 Z-4.009
N2380 X-0.848 Y-2.156 Z-4.05
N2385 X-0.8 Y-2.196 Z-4.069
N2390 X-0.749 Y-2.234 Z-4.087
N2395 X-0.696 Y-2.267 Z-4.102
N2400 X-0.64 Y-2.295 Z-4.114
N2405 X-0.611 Y-2.308 Z-4.119
N2410 X-0.581 Y-2.318 Z-4.123
N2415 X-0.551 Y-2.327 Z-4.125
N2420 X-0.52 Y-2.333 Z-4.126
N2425 X-0.328 Y-2.366 Z-4.128
N2430 X-0.109 Y-2.377 Z-4.116
N2435 X0.109
N2440 X0.328 Y-2.365 Z-4.126
N2445 X0.547 Y-2.328
N2450 X0.65 Y-2.298 Z-4.12
N2455 X0.766 Y-2.257 Z-4.114
N2460 X0.985 Y-2.169 Z-4.112
N2465 X1.204 Y-2.067 Z-4.124
N2470 X1.423 Y-1.944 Z-4.147
N2475 X1.52 Y-1.86 Z-4.139
N2480 X1.641 Y-1.747 Z-4.132
N2485 X1.747 Y-1.641
N2490 X1.86 Y-1.52 Z-4.139
N2495 X1.944 Y-1.423 Z-4.147
N2500 X2.066 Y-1.204 Z-4.124
N2505 X2.168 Y-0.985 Z-4.112
N2510 X2.257 Y-0.766 Z-4.114
N2515 X2.298 Y-0.649 Z-4.12
N2520 X2.328 Y-0.547 Z-4.126
N2525 X2.366 Y-0.328 Z-4.128
N2530 X2.377 Y-0.109 Z-4.116
N2535 Y0.109
N2540 X2.365 Y0.328 Z-4.126
N2545 X2.328 Y0.547
N2550 X2.298 Y0.65 Z-4.12
N2555 X2.257 Y0.766 Z-4.114
N2560 X2.169 Y0.985 Z-4.112
N2565 X2.067 Y1.204 Z-4.124
N2570 X1.944 Y1.423 Z-4.147
N2575 X1.86 Y1.52 Z-4.139
N2580 X1.747 Y1.641 Z-4.132
N2585 X1.641 Y1.747
N2590 X1.52 Y1.86 Z-4.139
N2595 X1.423 Y1.944 Z-4.147
N2600 X1.204 Y2.066 Z-4.124
N2605 X0.985 Y2.168 Z-4.112
N2610 X0.766 Y2.257 Z-4.114
N2615 X0.649 Y2.298 Z-4.12
N2620 X0.547 Y2.328 Z-4.126
N2625 X0.328 Y2.366 Z-4.128
N2630 X0.109 Y2.377 Z-4.116
N2635 X-0.109
N2640 X-0.328 Y2.365 Z-4.126
N2645 X-0.547 Y2.328
N2650 X-0.65 Y2.298 Z-4.12
N2655 X-0.766 Y2.257 Z-4.114
N2660 X-0.985 Y2.169 Z-4.112
N2665 X-1.204 Y2.067 Z-4.124
N2670 X-1.423 Y1.944 Z-4.147
N2675 X-1.52 Y1.86 Z-4.139
N2680 X-1.641 Y1.747 Z-4.132
N2685 X-1.747 Y1.641
N2690 X-1.86 Y1.52 Z-4.139
N2695 X-1.944 Y1.423 Z-4.147
N2700 X-2.066 Y1.204 Z-4.124
N2705 X-2.168 Y0.985 Z-4.112
N2710 X-2.257 Y0.766 Z-4.114
N2715 X-2.298 Y0.649 Z-4.12
N2720 X-2.328 Y0.547 Z-4.126
N2725 X-2.366 Y0.328 Z-4.128
N2730 X-2.377 Y0.109 Z-4.116
N2735 Y-0.109
N2740 X-2.365 Y-0.328 Z-4.126
N2745 X-2.328 Y-0.547
N2750 X-2.298 Y-0.65 Z-4.12
N2755 X-2.257 Y-0.766 Z-4.114
N2760 X-2.169 Y-0.985 Z-4.112
N2765 X-2.067 Y-1.204 Z-4.124
N2770 X-1.944 Y-1.423 Z-4.147
N2775 X-1.86 Y-1.52 Z-4.139
N2780 X-1.747 Y-1.641 Z-4.132
N2785 X-1.641 Y-1.747
N2790 X-1.52 Y-1.86 Z-4.139
N2795 X-1.423 Y-1.944 Z-4.147
N2800 X-1.204 Y-2.066 Z-4.124
N2805 X-0.985 Y-2.168 Z-4.112
N2810 X-0.766 Y-2.257 Z-4.114
N2815 X-0.649 Y-2.298 Z-4.12
N2820 X-0.547 Y-2.328 Z-4.126
N2825 X-0.52 Y-2.333
N2830 X-0.384 Y-2.367 Z-4.135
N2835 X-0.33 Y-2.385 Z-4.145
N2840 X-0.269 Y-2.407 Z-4.158
N2845 X-0.151 Y-2.457 Z-4.193
N2850 X-0.034 Y-2.507 Z-4.234
N2855 X0.082 Y-2.551 Z-4.277
N2860 X0.202 Y-2.586 Z-4.318
N2865 X0.263 Y-2.598 Z-4.335
N2870 X0.325 Y-2.606 Z-4.35
N2875 X0.389 Y-2.608 Z-4.361
N2880 X0.421 Y-2.606 Z-4.364
N2885 X0.453 Y-2.603 Z-4.366
N2890 X0.547 Y-2.591 Z-4.367
N2895 X0.766 Y-2.528 Z-4.353
N2900 X0.798 Y-2.517 Z-4.351
N2905 X0.985 Y-2.446 Z-4.345
N2910 X1.204 Y-2.35 Z-4.351
N2915 X1.31 Y-2.298 Z-4.359
N2920 X1.423 Y-2.237 Z-4.369
N2925 X1.564 Y-2.155 Z-4.386
N2930 X1.654 Y-2.079 Z-4.379
N2935 X1.86 Y-1.887 Z-4.367
N2940 X1.887 Y-1.86
N2945 X2.09 Y-1.641 Z-4.38
N2950 X2.155 Y-1.564 Z-4.386
N2955 X2.237 Y-1.423 Z-4.369
N2960 X2.298 Y-1.309 Z-4.358
N2965 X2.349 Y-1.204 Z-4.35
N2970 X2.445 Y-0.985 Z-4.344
N2975 X2.517 Y-0.797 Z-4.351
N2980 X2.528 Y-0.766 Z-4.353
N2985 X2.591 Y-0.547 Z-4.368
N2990 X2.62 Y-0.328 Z-4.364
N2995 X2.63 Y-0.109 Z-4.352
N3000 Y0.109
N3005 X2.619 Y0.328 Z-4.363
N3010 X2.591 Y0.547 Z-4.367
N3015 X2.528 Y0.766 Z-4.353
N3020 X2.517 Y0.798 Z-4.351
N3025 X2.446 Y0.985 Z-4.345
N3030 X2.35 Y1.204 Z-4.351
N3035 X2.298 Y1.31 Z-4.359
N3040 X2.237 Y1.423 Z-4.369
N3045 X2.155 Y1.564 Z-4.386
N3050 X2.079 Y1.654 Z-4.379
N3055 X1.887 Y1.86 Z-4.367
N3060 X1.86 Y1.887
N3065 X1.641 Y2.09 Z-4.38
N3070 X1.564 Y2.155 Z-4.386
N3075 X1.423 Y2.237 Z-4.369
N3080 X1.309 Y2.298 Z-4.358
N3085 X1.204 Y2.349 Z-4.35
N3090 X0.985 Y2.445 Z-4.344
N3095 X0.797 Y2.517 Z-4.351
N3100 X0.766 Y2.528 Z-4.353
N3105 X0.547 Y2.591 Z-4.368
N3110 X0.328 Y2.62 Z-4.364
N3115 X0.109 Y2.63 Z-4.352
N3120 X-0.109
N3125 X-0.328 Y2.619 Z-4.363
N3130 X-0.547 Y2.591 Z-4.367
N3135 X-0.766 Y2.528 Z-4.353
N3140 X-0.798 Y2.517 Z-4.351
N3145 X-0.985 Y2.446 Z-4.345
N3150 X-1.204 Y2.35 Z-4.351
N3155 X-1.31 Y2.298 Z-4.359
N3160 X-1.423 Y2.237 Z-4.369
N3165 X-1.564 Y2.155 Z-4.386
N3170 X-1.654 Y2.079 Z-4.379
N3175 X-1.86 Y1.887 Z-4.367
N3180 X-1.887 Y1.86
N3185 X-2.09 Y1.641 Z-4.38
N3190 X-2.155 Y1.564 Z-4.386
N3195 X-2.237 Y1.423 Z-4.369
N3200 X-2.298 Y1.309 Z-4.358
N3205 X-2.349 Y1.204 Z-4.35
N3210 X-2.445 Y0.985 Z-4.344
N3215 X-2.517 Y0.797 Z-4.351
N3220 X-2.528 Y0.766 Z-4.353
N3225 X-2.591 Y0.547 Z-4.368
N3230 X-2.62 Y0.328 Z-4.364
N3235 X-2.63 Y0.109 Z-4.352
N3240 Y-0.109
N3245 X-2.619 Y-0.328 Z-4.363
N3250 X-2.591 Y-0.547 Z-4.367
N3255 X-2.528 Y-0.766 Z-4.353
N3260 X-2.517 Y-0.798 Z-4.351
N3265 X-2.446 Y-0.985 Z-4.345
N3270 X-2.35 Y-1.204 Z-4.351
N3275 X-2.298 Y-1.31 Z-4.359
N3280 X-2.237 Y-1.423 Z-4.369
N3285 X-2.155 Y-1.564 Z-4.386
N3290 X-2.079 Y-1.654 Z-4.379
N3295 X-1.887 Y-1.86 Z-4.367
N3300 X-1.86 Y-1.887
N3305 X-1.641 Y-2.09 Z-4.38
N3310 X-1.564 Y-2.155 Z-4.386
N3315 X-1.423 Y-2.237 Z-4.369
N3320 X-1.309 Y-2.298 Z-4.358
N3325 X-1.204 Y-2.349 Z-4.35
N3330 X-0.985 Y-2.445 Z-4.344
N3335 X-0.797 Y-2.517 Z-4.351
N3340 X-0.766 Y-2.528 Z-4.353
N3345 X-0.547 Y-2.591 Z-4.368
N3350 X-0.328 Y-2.62 Z-4.364
N3355 X-0.109 Y-2.63 Z-4.352
N3360 X0.109
N3365 X0.328 Y-2.619 Z-4.363
N3370 X0.453 Y-2.603 Z-4.366
N3375 X0.584 Y-2.593 Z-4.375
N3380 X0.65 Y-2.592 Z-4.386
N3385 X0.715 Y-2.593 Z-4.399
N3390 X0.844 Y-2.598 Z-4.433
N3395 X0.972 Y-2.602 Z-4.472
N3400 X1.097 Y-2.6 Z-4.511
N3405 X1.159 Y-2.595 Z-4.529
N3410 X1.222 Y-2.587 Z-4.547
N3415 X1.283 Y-2.574 Z-4.564
N3420 X1.343 Y-2.557 Z-4.578
N3425 X1.402 Y-2.535 Z-4.589
N3430 X1.459 Y-2.507 Z-4.597
N3435 X1.641 Y-2.403 Z-4.617
N3440 X1.714 Y-2.359 Z-4.625
N3445 X1.787 Y-2.298 Z-4.619
N3450 X1.86 Y-2.234 Z-4.612
N3455 X2.025 Y-2.079 Z-4.603
N3460 X2.079 Y-2.025
N3465 X2.234 Y-1.86 Z-4.612
N3470 X2.298 Y-1.787 Z-4.619
N3475 X2.359 Y-1.714 Z-4.625
N3480 X2.403 Y-1.641 Z-4.617
N3485 X2.526 Y-1.423 Z-4.593
N3490 X2.63 Y-1.204 Z-4.579
N3495 X2.72 Y-0.985 Z-4.58
N3500 X2.736 Y-0.942 Z-4.582
N3505 X2.796 Y-0.766 Z-4.594
N3510 X2.851 Y-0.547 Z-4.61
N3515 X2.873 Y-0.328 Z-4.6
N3520 X2.883 Y-0.109 Z-4.587
N3525 Y0.109
N3530 X2.872 Y0.328 Z-4.599
N3535 X2.85 Y0.547 Z-4.609
N3540 X2.796 Y0.766 Z-4.594
N3545 X2.736 Y0.943 Z-4.582
N3550 X2.72 Y0.985 Z-4.58
N3555 X2.63 Y1.204
N3560 X2.517 Y1.441 Z-4.595
N3565 X2.403 Y1.641 Z-4.617
N3570 X2.359 Y1.714 Z-4.625
N3575 X2.298 Y1.787 Z-4.619
N3580 X2.234 Y1.86 Z-4.612
N3585 X2.079 Y2.025 Z-4.603
N3590 X2.025 Y2.079
N3595 X1.86 Y2.234 Z-4.612
N3600 X1.787 Y2.298 Z-4.619
N3605 X1.714 Y2.359 Z-4.625
N3610 X1.641 Y2.403 Z-4.617
N3615 X1.423 Y2.526 Z-4.593
N3620 X1.204 Y2.63 Z-4.579
N3625 X0.985 Y2.72 Z-4.58
N3630 X0.942 Y2.736 Z-4.582
N3635 X0.766 Y2.796 Z-4.594
N3640 X0.547 Y2.851 Z-4.61
N3645 X0.328 Y2.873 Z-4.6
N3650 X0.109 Y2.883 Z-4.587
N3655 X-0.109
N3660 X-0.328 Y2.872 Z-4.599
N3665 X-0.547 Y2.85 Z-4.609
N3670 X-0.766 Y2.796 Z-4.594
N3675 X-0.943 Y2.736 Z-4.582
N3680 X-0.985 Y2.72 Z-4.58
N3685 X-1.204 Y2.63
N3690 X-1.441 Y2.517 Z-4.595
N3695 X-1.641 Y2.403 Z-4.617
N3700 X-1.714 Y2.359 Z-4.625
N3705 X-1.787 Y2.298 Z-4.619
N3710 X-1.86 Y2.234 Z-4.612
N3715 X-2.025 Y2.079 Z-4.603
N3720 X-2.079 Y2.025
N3725 X-2.234 Y1.86 Z-4.612
N3730 X-2.298 Y1.787 Z-4.619
N3735 X-2.359 Y1.714 Z-4.625
N3740 X-2.403 Y1.641 Z-4.617
N3745 X-2.526 Y1.423 Z-4.593
N3750 X-2.63 Y1.204 Z-4.579
N3755 X-2.72 Y0.985 Z-4.58
N3760 X-2.736 Y0.942 Z-4.582
N3765 X-2.796 Y0.766 Z-4.594
N3770 X-2.851 Y0.547 Z-4.61
N3775 X-2.873 Y0.328 Z-4.6
N3780 X-2.883 Y0.109 Z-4.587
N3785 Y-0.109
N3790 X-2.872 Y-0.328 Z-4.599
N3795 X-2.85 Y-0.547 Z-4.609
N3800 X-2.796 Y-0.766 Z-4.594
N3805 X-2.736 Y-0.943 Z-4.582
N3810 X-2.72 Y-0.985 Z-4.58
N3815 X-2.63 Y-1.204
N3820 X-2.517 Y-1.441 Z-4.595
N3825 X-2.403 Y-1.641 Z-4.617
N3830 X-2.359 Y-1.714 Z-4.625
N3835 X-2.298 Y-1.787 Z-4.619
N3840 X-2.234 Y-1.86 Z-4.612
N3845 X-2.079 Y-2.025 Z-4.603
N3850 X-2.025 Y-2.079
N3855 X-1.86 Y-2.234 Z-4.612
N3860 X-1.787 Y-2.298 Z-4.619
N3865 X-1.714 Y-2.359 Z-4.625
N3870 X-1.641 Y-2.403 Z-4.617
N3875 X-1.423 Y-2.526 Z-4.593
N3880 X-1.204 Y-2.63 Z-4.579
N3885 X-0.985 Y-2.72 Z-4.58
N3890 X-0.942 Y-2.736 Z-4.582
N3895 X-0.766 Y-2.796 Z-4.594
N3900 X-0.547 Y-2.851 Z-4.61
N3905 X-0.328 Y-2.873 Z-4.6
N3910 X-0.109 Y-2.883 Z-4.587
N3915 X0.109
N3920 X0.328 Y-2.872 Z-4.599
N3925 X0.547 Y-2.85 Z-4.609
N3930 X0.766 Y-2.796 Z-4.594
N3935 X0.943 Y-2.736 Z-4.582
N3940 X0.985 Y-2.72 Z-4.58
N3945 X1.204 Y-2.63
N3950 X1.441 Y-2.517 Z-4.595
N3955 X1.459 Y-2.507 Z-4.597
N3960 X1.577 Y-2.449 Z-4.616
N3965 X1.637 Y-2.425 Z-4.631
N3970 X1.697 Y-2.403 Z-4.647
N3975 X1.819 Y-2.364 Z-4.685
N3980 X1.94 Y-2.325 Z-4.726
N3985 X2.057 Y-2.283 Z-4.764
N3990 X2.171 Y-2.231 Z-4.8
N3995 X2.226 Y-2.201 Z-4.815
N4000 X2.278 Y-2.166 Z-4.828
N4005 X2.328 Y-2.126 Z-4.838
N4010 X2.374 Y-2.082 Z-4.844
N4015 X2.517 Y-1.92 Z-4.86
N4020 X2.567 Y-1.86 Z-4.864
N4025 X2.697 Y-1.641 Z-4.841
N4030 X2.736 Y-1.571 Z-4.832
N4035 X2.81 Y-1.423 Z-4.819
N4040 X2.907 Y-1.204 Z-4.811
N4045 X2.955 Y-1.084 Z-4.814
N4050 X2.991 Y-0.985 Z-4.818
N4055 X3.061 Y-0.766 Z-4.838
N4060 X3.109 Y-0.547 Z-4.851
N4065 X3.126 Y-0.328 Z-4.836
N4070 X3.136 Y-0.109 Z-4.823
N4075 Y0.109
N4080 X3.125 Y0.328 Z-4.835
N4085 X3.107 Y0.547 Z-4.849
N4090 X3.062 Y0.766 Z-4.838
N4095 X2.992 Y0.985 Z-4.819
N4100 X2.955 Y1.086 Z-4.814
N4105 X2.908 Y1.204 Z-4.812
N4110 X2.81 Y1.423 Z-4.819
N4115 X2.736 Y1.572 Z-4.833
N4120 X2.697 Y1.641 Z-4.841
N4125 X2.567 Y1.86 Z-4.864
N4130 X2.517 Y1.92 Z-4.86
N4135 X2.377 Y2.079 Z-4.845
N4140 X2.298 Y2.163 Z-4.84
N4145 X2.163 Y2.298
N4150 X2.079 Y2.377 Z-4.845
N4155 X1.92 Y2.517 Z-4.86
N4160 X1.86 Y2.567 Z-4.864
N4165 X1.641 Y2.697 Z-4.841
N4170 X1.571 Y2.736 Z-4.832
N4175 X1.423 Y2.81 Z-4.819
N4180 X1.204 Y2.907 Z-4.811
N4185 X1.084 Y2.955 Z-4.814
N4190 X0.985 Y2.991 Z-4.818
N4195 X0.766 Y3.061 Z-4.838
N4200 X0.547 Y3.109 Z-4.851
N4205 X0.328 Y3.126 Z-4.836
N4210 X0.109 Y3.136 Z-4.823
N4215 X-0.109
N4220 X-0.328 Y3.125 Z-4.835
N4225 X-0.547 Y3.107 Z-4.849
N4230 X-0.766 Y3.062 Z-4.838
N4235 X-0.985 Y2.992 Z-4.819
N4240 X-1.086 Y2.955 Z-4.814
N4245 X-1.204 Y2.908 Z-4.812
N4250 X-1.423 Y2.81 Z-4.819
N4255 X-1.572 Y2.736 Z-4.833
N4260 X-1.641 Y2.697 Z-4.841
N4265 X-1.86 Y2.567 Z-4.864
N4270 X-1.92 Y2.517 Z-4.86
N4275 X-2.079 Y2.377 Z-4.845
N4280 X-2.163 Y2.298 Z-4.84
N4285 X-2.298 Y2.163
N4290 X-2.377 Y2.079 Z-4.845
N4295 X-2.517 Y1.92 Z-4.86
N4300 X-2.567 Y1.86 Z-4.864
N4305 X-2.697 Y1.641 Z-4.841
N4310 X-2.736 Y1.571 Z-4.832
N4315 X-2.81 Y1.423 Z-4.819
N4320 X-2.907 Y1.204 Z-4.811
N4325 X-2.955 Y1.084 Z-4.814
N4330 X-2.991 Y0.985 Z-4.818
N4335 X-3.061 Y0.766 Z-4.838
N4340 X-3.109 Y0.547 Z-4.851
N4345 X-3.126 Y0.328 Z-4.836
N4350 X-3.136 Y0.109 Z-4.823
N4355 Y-0.109
N4360 X-3.125 Y-0.328 Z-4.835
N4365 X-3.107 Y-0.547 Z-4.849
N4370 X-3.062 Y-0.766 Z-4.838
N4375 X-2.992 Y-0.985 Z-4.819
N4380 X-2.955 Y-1.086 Z-4.814
N4385 X-2.908 Y-1.204 Z-4.812
N4390 X-2.81 Y-1.423 Z-4.819
N4395 X-2.736 Y-1.572 Z-4.833
N4400 X-2.697 Y-1.641 Z-4.841
N4405 X-2.567 Y-1.86 Z-4.864
N4410 X-2.517 Y-1.92 Z-4.86
N4415 X-2.377 Y-2.079 Z-4.845
N4420 X-2.298 Y-2.163 Z-4.84
N4425 X-2.163 Y-2.298
N4430 X-2.079 Y-2.377 Z-4.845
N4435 X-1.92 Y-2.517 Z-4.86
N4440 X-1.86 Y-2.567 Z-4.864
N4445 X-1.641 Y-2.697 Z-4.841
N4450 X-1.571 Y-2.736 Z-4.832
N4455 X-1.423 Y-2.81 Z-4.819
N4460 X-1.204 Y-2.907 Z-4.811
N4465 X-1.084 Y-2.955 Z-4.814
N4470 X-0.985 Y-2.991 Z-4.818
N4475 X-0.766 Y-3.061 Z-4.838
N4480 X-0.547 Y-3.109 Z-4.851
N4485 X-0.328 Y-3.126 Z-4.836
N4490 X-0.109 Y-3.136 Z-4.823
N4495 X0.109
N4500 X0.328 Y-3.125 Z-4.835
N4505 X0.547 Y-3.107 Z-4.849
N4510 X0.766 Y-3.062 Z-4.838
N4515 X0.985 Y-2.992 Z-4.819
N4520 X1.086 Y-2.955 Z-4.814
N4525 X1.204 Y-2.908 Z-4.812
N4530 X1.423 Y-2.81 Z-4.819
N4535 X1.572 Y-2.736 Z-4.833
N4540 X1.641 Y-2.697 Z-4.841
N4545 X1.86 Y-2.567 Z-4.864
N4550 X1.92 Y-2.517 Z-4.86
N4555 X2.079 Y-2.377 Z-4.845
N4560 X2.163 Y-2.298 Z-4.84
N4565 X2.298 Y-2.163
N4570 X2.374 Y-2.082 Z-4.844
N4575 X2.508 Y-1.943 Z-4.858
N4580 X2.644 Y-1.807 Z-4.881
N4585 X2.778 Y-1.67 Z-4.911
N4590 X2.907 Y-1.53 Z-4.945
N4595 X3.025 Y-1.386 Z-4.979
N4600 X3.132 Y-1.232 Z-5.012
N4605 X3.179 Y-1.151 Z-5.028
N4610 X3.221 Y-1.068 Z-5.043
N4615 X3.257 Y-0.982 Z-5.056
N4620 X3.287 Y-0.893 Z-5.069
N4625 X3.325 Y-0.766 Z-5.083
N4630 X3.365 Y-0.547 Z-5.089
N4635 X3.379 Y-0.328 Z-5.072
N4640 X3.389 Y-0.109 Z-5.059
N4645 Y0.109
N4650 X3.378 Y0.328 Z-5.071
N4655 X3.362 Y0.547 Z-5.087
N4660 X3.325 Y0.766 Z-5.083
N4665 X3.261 Y0.985 Z-5.06
N4670 X3.173 Y1.227 Z-5.046
N4675 X3.091 Y1.423 Z-5.048
N4680 X2.986 Y1.641 Z-5.063
N4685 X2.955 Y1.701 Z-5.07
N4690 X2.864 Y1.86 Z-5.09
N4695 X2.795 Y1.976 Z-5.102
N4700 X2.736 Y2.054 Z-5.101
N4705 X2.517 Y2.3 Z-5.078
N4710 X2.298 Y2.519
N4715 X2.054 Y2.736 Z-5.101
N4720 X1.976 Y2.795 Z-5.102
N4725 X1.86 Y2.864 Z-5.09
N4730 X1.7 Y2.955 Z-5.07
N4735 X1.641 Y2.985 Z-5.063
N4740 X1.423 Y3.09 Z-5.047
N4745 X1.204 Y3.182
N4750 X0.985 Y3.26 Z-5.059
N4755 X0.766 Y3.325 Z-5.083
N4760 X0.547 Y3.365 Z-5.089
N4765 X0.328 Y3.379 Z-5.072
N4770 X0.109 Y3.389 Z-5.059
N4775 X-0.109
N4780 X-0.328 Y3.378 Z-5.071
N4785 X-0.547 Y3.362 Z-5.087
N4790 X-0.766 Y3.325 Z-5.083
N4795 X-0.985 Y3.261 Z-5.06
N4800 X-1.227 Y3.173 Z-5.046
N4805 X-1.423 Y3.091 Z-5.048
N4810 X-1.641 Y2.986 Z-5.063
N4815 X-1.701 Y2.955 Z-5.07
N4820 X-1.86 Y2.864 Z-5.09
N4825 X-1.976 Y2.795 Z-5.102
N4830 X-2.054 Y2.736 Z-5.101
N4835 X-2.3 Y2.517 Z-5.078
N4840 X-2.519 Y2.298
N4845 X-2.736 Y2.054 Z-5.101
N4850 X-2.795 Y1.976 Z-5.102
N4855 X-2.864 Y1.86 Z-5.09
N4860 X-2.955 Y1.7 Z-5.07
N4865 X-2.985 Y1.641 Z-5.063
N4870 X-3.09 Y1.423 Z-5.047
N4875 X-3.182 Y1.204
N4880 X-3.26 Y0.985 Z-5.059
N4885 X-3.325 Y0.766 Z-5.083
N4890 X-3.365 Y0.547 Z-5.089
N4895 X-3.379 Y0.328 Z-5.072
N4900 X-3.389 Y0.109 Z-5.059
N4905 Y-0.109
N4910 X-3.378 Y-0.328 Z-5.071
N4915 X-3.362 Y-0.547 Z-5.087
N4920 X-3.325 Y-0.766 Z-5.083
N4925 X-3.261 Y-0.985 Z-5.06
N4930 X-3.173 Y-1.227 Z-5.046
N4935 X-3.091 Y-1.423 Z-5.048
N4940 X-2.986 Y-1.641 Z-5.063
N4945 X-2.955 Y-1.701 Z-5.07
N4950 X-2.864 Y-1.86 Z-5.09
N4955 X-2.795 Y-1.976 Z-5.102
N4960 X-2.736 Y-2.054 Z-5.101
N4965 X-2.517 Y-2.3 Z-5.078
N4970 X-2.298 Y-2.519
N4975 X-2.054 Y-2.736 Z-5.101
N4980 X-1.976 Y-2.795 Z-5.102
N4985 X-1.86 Y-2.864 Z-5.09
N4990 X-1.7 Y-2.955 Z-5.07
N4995 X-1.641 Y-2.985 Z-5.063
N5000 X-1.423 Y-3.09 Z-5.047
N5005 X-1.204 Y-3.182
N5010 X-0.985 Y-3.26 Z-5.059
N5015 X-0.766 Y-3.325 Z-5.083
N5020 X-0.547 Y-3.365 Z-5.089
N5025 X-0.328 Y-3.379 Z-5.072
N5030 X-0.109 Y-3.389 Z-5.059
N5035 X0.109
N5040 X0.328 Y-3.378 Z-5.071
N5045 X0.547 Y-3.362 Z-5.087
N5050 X0.766 Y-3.325 Z-5.083
N5055 X0.985 Y-3.261 Z-5.06
N5060 X1.227 Y-3.173 Z-5.046
N5065 X1.423 Y-3.091 Z-5.048
N5070 X1.641 Y-2.986 Z-5.063
N5075 X1.701 Y-2.955 Z-5.07
N5080 X1.86 Y-2.864 Z-5.09
N5085 X1.976 Y-2.795 Z-5.102
N5090 X2.054 Y-2.736 Z-5.101
N5095 X2.3 Y-2.517 Z-5.078
N5100 X2.519 Y-2.298
N5105 X2.736 Y-2.054 Z-5.101
N5110 X2.795 Y-1.976 Z-5.102
N5115 X2.864 Y-1.86 Z-5.09
N5120 X2.955 Y-1.7 Z-5.07
N5125 X2.985 Y-1.641 Z-5.063
N5130 X3.09 Y-1.423 Z-5.047
N5135 X3.182 Y-1.204
N5140 X3.26 Y-0.985 Z-5.059
N5145 X3.287 Y-0.893 Z-5.069
N5150 X3.345 Y-0.71 Z-5.091
N5155 X3.407 Y-0.529 Z-5.119
N5160 X3.468 Y-0.348 Z-5.151
N5165 X3.524 Y-0.168 Z-5.189
N5170 X3.571 Y0.013 Z-5.226
N5175 X3.604 Y0.197 Z-5.266
N5180 X3.615 Y0.29 Z-5.285
N5185 X3.62 Y0.384 Z-5.303
N5190 Y0.478 Z-5.317
N5195 X3.617 Y0.525 Z-5.322
N5200 X3.613 Y0.573 Z-5.325
N5205 X3.587 Y0.766 Z-5.327
N5210 X3.528 Y0.985 Z-5.304
N5215 X3.455 Y1.204 Z-5.285
N5220 X3.392 Y1.366 Z-5.279
N5225 X3.369 Y1.423
N5230 X3.271 Y1.641 Z-5.288
N5235 X3.173 Y1.829 Z-5.307
N5240 X3.03 Y2.079 Z-5.338
N5245 X2.955 Y2.187 Z-5.342
N5250 X2.736 Y2.436 Z-5.317
N5255 X2.66 Y2.517 Z-5.312
N5260 X2.517 Y2.66
N5265 X2.436 Y2.736 Z-5.317
N5270 X2.187 Y2.955 Z-5.342
N5275 X2.079 Y3.03 Z-5.338
N5280 X1.829 Y3.173 Z-5.307
N5285 X1.641 Y3.27 Z-5.287
N5290 X1.423 Y3.369 Z-5.279
N5295 X1.366 Y3.392
N5300 X1.204 Y3.454 Z-5.284
N5305 X0.985 Y3.527 Z-5.303
N5310 X0.766 Y3.587 Z-5.328
N5315 X0.605 Y3.611 Z-5.327
N5320 X0.547 Y3.618 Z-5.326
N5325 X0.328 Y3.632 Z-5.308
N5330 X0.109 Y3.642 Z-5.295
N5335 X-0.109
N5340 X-0.328 Y3.631 Z-5.307
N5345 X-0.547 Y3.616 Z-5.323
N5350 X-0.59 Y3.611 Z-5.325
N5355 X-0.766 Y3.587 Z-5.327
N5360 X-0.985 Y3.528 Z-5.304
N5365 X-1.204 Y3.455 Z-5.285
N5370 X-1.366 Y3.392 Z-5.279
N5375 X-1.423 Y3.369
N5380 X-1.641 Y3.271 Z-5.288
N5385 X-1.829 Y3.173 Z-5.307
N5390 X-2.079 Y3.03 Z-5.338
N5395 X-2.187 Y2.955 Z-5.342
N5400 X-2.436 Y2.736 Z-5.317
N5405 X-2.517 Y2.66 Z-5.312
N5410 X-2.66 Y2.517
N5415 X-2.736 Y2.436 Z-5.317
N5420 X-2.955 Y2.187 Z-5.342
N5425 X-3.03 Y2.079 Z-5.338
N5430 X-3.173 Y1.829 Z-5.307
N5435 X-3.27 Y1.641 Z-5.287
N5440 X-3.369 Y1.423 Z-5.279
N5445 X-3.392 Y1.366
N5450 X-3.454 Y1.204 Z-5.284
N5455 X-3.527 Y0.985 Z-5.303
N5460 X-3.587 Y0.766 Z-5.327
N5465 X-3.611 Y0.605
N5470 X-3.618 Y0.547 Z-5.326
N5475 X-3.632 Y0.328 Z-5.308
N5480 X-3.642 Y0.109 Z-5.295
N5485 Y-0.109
N5490 X-3.631 Y-0.328 Z-5.307
N5495 X-3.616 Y-0.547 Z-5.323
N5500 X-3.611 Y-0.59 Z-5.325
N5505 X-3.587 Y-0.766 Z-5.327
N5510 X-3.528 Y-0.985 Z-5.304
N5515 X-3.455 Y-1.204 Z-5.285
N5520 X-3.392 Y-1.366 Z-5.279
N5525 X-3.369 Y-1.423
N5530 X-3.271 Y-1.641 Z-5.288
N5535 X-3.173 Y-1.829 Z-5.307
N5540 X-3.03 Y-2.079 Z-5.338
N5545 X-2.955 Y-2.187 Z-5.342
N5550 X-2.736 Y-2.436 Z-5.317
N5555 X-2.66 Y-2.517 Z-5.312
N5560 X-2.517 Y-2.66
N5565 X-2.436 Y-2.736 Z-5.317
N5570 X-2.187 Y-2.955 Z-5.342
N5575 X-2.079 Y-3.03 Z-5.338
N5580 X-1.829 Y-3.173 Z-5.307
N5585 X-1.641 Y-3.27 Z-5.287
N5590 X-1.423 Y-3.369 Z-5.279
N5595 X-1.366 Y-3.392
N5600 X-1.204 Y-3.454 Z-5.284
N5605 X-0.985 Y-3.527 Z-5.303
N5610 X-0.766 Y-3.587 Z-5.327
N5615 X-0.605 Y-3.611
N5620 X-0.547 Y-3.618 Z-5.326
N5625 X-0.328 Y-3.632 Z-5.308
N5630 X-0.109 Y-3.642 Z-5.295
N5635 X0.109
N5640 X0.328 Y-3.631 Z-5.307
N5645 X0.547 Y-3.616 Z-5.323
N5650 X0.59 Y-3.611 Z-5.325
N5655 X0.766 Y-3.587 Z-5.327
N5660 X0.985 Y-3.528 Z-5.304
N5665 X1.204 Y-3.455 Z-5.285
N5670 X1.366 Y-3.392 Z-5.279
N5675 X1.423 Y-3.369
N5680 X1.641 Y-3.27 Z-5.288
N5685 X1.829 Y-3.173 Z-5.307
N5690 X2.079 Y-3.03 Z-5.338
N5695 X2.187 Y-2.955 Z-5.342
N5700 X2.436 Y-2.736 Z-5.317
N5705 X2.517 Y-2.66 Z-5.312
N5710 X2.66 Y-2.517
N5715 X2.736 Y-2.436 Z-5.317
N5720 X2.955 Y-2.187 Z-5.342
N5725 X3.03 Y-2.079 Z-5.338
N5730 X3.173 Y-1.829 Z-5.307
N5735 X3.27 Y-1.641 Z-5.287
N5740 X3.369 Y-1.423 Z-5.279
N5745 X3.392 Y-1.366
N5750 X3.454 Y-1.204 Z-5.284
N5755 X3.527 Y-0.985 Z-5.303
N5760 X3.587 Y-0.766 Z-5.328
N5765 X3.611 Y-0.605 Z-5.327
N5770 X3.618 Y-0.547 Z-5.326
N5775 X3.632 Y-0.328 Z-5.308
N5780 X3.642 Y-0.109 Z-5.295
N5785 Y0.109
N5790 X3.631 Y0.328 Z-5.307
N5795 X3.616 Y0.547 Z-5.323
N5800 X3.613 Y0.573 Z-5.325
N5805 X3.596 Y0.765 Z-5.334
N5810 X3.582 Y0.956 Z-5.35
N5815 X3.568 Y1.147 Z-5.372
N5820 X3.549 Y1.337 Z-5.404
N5825 X3.52 Y1.523 Z-5.442
N5830 X3.479 Y1.705 Z-5.484
N5835 X3.452 Y1.794 Z-5.505
N5840 X3.42 Y1.882 Z-5.525
N5845 X3.383 Y1.968 Z-5.544
N5850 X3.339 Y2.052 Z-5.558
N5855 X3.324 Y2.079 Z-5.562
N5860 X3.193 Y2.298 Z-5.584
N5865 X2.955 Y2.57 Z-5.556
N5870 X2.8 Y2.736 Z-5.547
N5875 X2.736 Y2.8
N5880 X2.57 Y2.955 Z-5.556
N5885 X2.298 Y3.193 Z-5.584
N5890 X2.079 Y3.324 Z-5.562
N5895 X1.958 Y3.392 Z-5.545
N5900 X1.86 Y3.445 Z-5.532
N5905 X1.641 Y3.551 Z-5.515
N5910 X1.504 Y3.611 Z-5.512
N5915 X1.423 Y3.644 Z-5.513
N5920 X1.204 Y3.724 Z-5.525
N5925 X0.985 Y3.791 Z-5.549
N5930 X0.837 Y3.83 Z-5.564
N5935 X0.766 Y3.846 Z-5.569
N5940 X0.547 Y3.872 Z-5.562
N5945 X0.328 Y3.885 Z-5.544
N5950 X0.109 Y3.895 Z-5.531
N5955 X-0.109
N5960 X-0.328 Y3.884 Z-5.543
N5965 X-0.547 Y3.869 Z-5.56
N5970 X-0.766 Y3.845 Z-5.568
N5975 X-0.836 Y3.83 Z-5.564
N5980 X-0.985 Y3.792 Z-5.549
N5985 X-1.204 Y3.725 Z-5.526
N5990 X-1.423 Y3.645 Z-5.513
N5995 X-1.505 Y3.611 Z-5.512
N6000 X-1.641 Y3.552 Z-5.516
N6005 X-1.86 Y3.445 Z-5.533
N6010 X-1.958 Y3.392 Z-5.545
N6015 X-2.079 Y3.324 Z-5.562
N6020 X-2.298 Y3.193 Z-5.584
N6025 X-2.57 Y2.955 Z-5.556
N6030 X-2.736 Y2.8 Z-5.547
N6035 X-2.8 Y2.736
N6040 X-2.955 Y2.57 Z-5.556
N6045 X-3.193 Y2.298 Z-5.584
N6050 X-3.324 Y2.079 Z-5.562
N6055 X-3.392 Y1.958 Z-5.545
N6060 X-3.445 Y1.86 Z-5.532
N6065 X-3.551 Y1.641 Z-5.515
N6070 X-3.611 Y1.504 Z-5.512
N6075 X-3.644 Y1.423 Z-5.513
N6080 X-3.724 Y1.204 Z-5.525
N6085 X-3.792 Y0.985 Z-5.549
N6090 X-3.83 Y0.836 Z-5.564
N6095 X-3.846 Y0.766 Z-5.569
N6100 X-3.872 Y0.547 Z-5.562
N6105 X-3.885 Y0.328 Z-5.544
N6110 X-3.895 Y0.109 Z-5.531
N6115 Y-0.109
N6120 X-3.884 Y-0.328 Z-5.543
N6125 X-3.869 Y-0.547 Z-5.56
N6130 X-3.845 Y-0.766 Z-5.568
N6135 X-3.83 Y-0.836 Z-5.564
N6140 X-3.792 Y-0.985 Z-5.549
N6145 X-3.725 Y-1.204 Z-5.526
N6150 X-3.645 Y-1.423 Z-5.513
N6155 X-3.611 Y-1.505 Z-5.512
N6160 X-3.552 Y-1.641 Z-5.516
N6165 X-3.445 Y-1.86 Z-5.533
N6170 X-3.392 Y-1.958 Z-5.545
N6175 X-3.324 Y-2.079 Z-5.562
N6180 X-3.193 Y-2.298 Z-5.584
N6185 X-2.955 Y-2.57 Z-5.556
N6190 X-2.8 Y-2.736 Z-5.547
N6195 X-2.736 Y-2.8
N6200 X-2.57 Y-2.955 Z-5.556
N6205 X-2.298 Y-3.193 Z-5.584
N6210 X-2.079 Y-3.324 Z-5.562
N6215 X-1.958 Y-3.392 Z-5.545
N6220 X-1.86 Y-3.445 Z-5.532
N6225 X-1.641 Y-3.551 Z-5.515
N6230 X-1.504 Y-3.611 Z-5.512
N6235 X-1.423 Y-3.644 Z-5.513
N6240 X-1.204 Y-3.724 Z-5.525
N6245 X-0.985 Y-3.792 Z-5.549
N6250 X-0.836 Y-3.83 Z-5.564
N6255 X-0.766 Y-3.846 Z-5.569
N6260 X-0.547 Y-3.872 Z-5.562
N6265 X-0.328 Y-3.885 Z-5.544
N6270 X-0.109 Y-3.895 Z-5.531
N6275 X0.109
N6280 X0.328 Y-3.884 Z-5.543
N6285 X0.547 Y-3.869 Z-5.56
N6290 X0.766 Y-3.845 Z-5.568
N6295 X0.836 Y-3.83 Z-5.564
N6300 X0.985 Y-3.792 Z-5.549
N6305 X1.204 Y-3.725 Z-5.526
N6310 X1.423 Y-3.645 Z-5.513
N6315 X1.505 Y-3.611 Z-5.512
N6320 X1.641 Y-3.552 Z-5.516
N6325 X1.86 Y-3.445 Z-5.533
N6330 X1.958 Y-3.392 Z-5.545
N6335 X2.079 Y-3.324 Z-5.562
N6340 X2.298 Y-3.193 Z-5.584
N6345 X2.57 Y-2.955 Z-5.556
N6350 X2.736 Y-2.8 Z-5.547
N6355 X2.8 Y-2.736
N6360 X2.955 Y-2.57 Z-5.556
N6365 X3.193 Y-2.298 Z-5.584
N6370 X3.324 Y-2.079 Z-5.562
N6375 X3.392 Y-1.958 Z-5.545
N6380 X3.445 Y-1.86 Z-5.532
N6385 X3.551 Y-1.641 Z-5.515
N6390 X3.611 Y-1.504 Z-5.512
N6395 X3.644 Y-1.423 Z-5.513
N6400 X3.724 Y-1.204 Z-5.525
N6405 X3.791 Y-0.985 Z-5.549
N6410 X3.83 Y-0.837 Z-5.564
N6415 X3.846 Y-0.766 Z-5.569
N6420 X3.872 Y-0.547 Z-5.562
N6425 X3.885 Y-0.328 Z-5.544
N6430 X3.895 Y-0.109 Z-5.531
N6435 Y0.109
N6440 X3.884 Y0.328 Z-5.543
N6445 X3.869 Y0.547 Z-5.56
N6450 X3.845 Y0.766 Z-5.568
N6455 X3.83 Y0.836 Z-5.564
N6460 X3.792 Y0.985 Z-5.549
N6465 X3.725 Y1.204 Z-5.526
N6470 X3.645 Y1.423 Z-5.513
N6475 X3.611 Y1.505 Z-5.512
N6480 X3.552 Y1.641 Z-5.516
N6485 X3.445 Y1.86 Z-5.533
N6490 X3.339 Y2.052 Z-5.558
N6495 X3.249 Y2.221 Z-5.581
N6500 X3.162 Y2.391 Z-5.607
N6505 X3.076 Y2.56 Z-5.636
N6510 X2.987 Y2.727 Z-5.672
N6515 X2.892 Y2.888 Z-5.708
N6520 X2.787 Y3.043 Z-5.748
N6525 X2.669 Y3.188 Z-5.788
N6530 X2.604 Y3.257 Z-5.804
N6535 X2.535 Y3.321 Z-5.814
N6540 X2.454 Y3.392 Z-5.823
N6545 X2.298 Y3.492 Z-5.811
N6550 X2.079 Y3.615 Z-5.782
N6555 X1.86 Y3.73 Z-5.756
N6560 X1.641 Y3.83 Z-5.746
N6565 X1.423 Y3.917 Z-5.75
N6570 X1.204 Y3.992 Z-5.768
N6575 X0.985 Y4.055 Z-5.795
N6580 X0.766 Y4.104 Z-5.81
N6585 X0.547 Y4.125 Z-5.798
N6590 X0.328 Y4.138 Z-5.78
N6595 X0.109 Y4.148 Z-5.767
N6600 X-0.109
N6605 X-0.328 Y4.137 Z-5.779
N6610 X-0.547 Y4.122 Z-5.796
N6615 X-0.766 Y4.103 Z-5.809
N6620 X-0.985 Y4.056 Z-5.795
N6625 X-1.204 Y3.992 Z-5.768
N6630 X-1.423 Y3.918 Z-5.751
N6635 X-1.643 Y3.83 Z-5.746
N6640 X-1.86 Y3.73 Z-5.756
N6645 X-2.086 Y3.611 Z-5.783
N6650 X-2.298 Y3.492 Z-5.811
N6655 X-2.454 Y3.392 Z-5.823
N6660 X-2.736 Y3.145 Z-5.793
N6665 X-2.955 Y2.939 Z-5.783
N6670 X-3.145 Y2.736 Z-5.793
N6675 X-3.392 Y2.454 Z-5.823
N6680 X-3.492 Y2.298 Z-5.811
N6685 X-3.615 Y2.079 Z-5.782
N6690 X-3.73 Y1.86 Z-5.756
N6695 X-3.83 Y1.641 Z-5.746
N6700 X-3.917 Y1.423 Z-5.75
N6705 X-3.992 Y1.204 Z-5.768
N6710 X-4.055 Y0.985 Z-5.795
N6715 X-4.104 Y0.766 Z-5.81
N6720 X-4.125 Y0.547 Z-5.798
N6725 X-4.138 Y0.328 Z-5.78
N6730 X-4.148 Y0.109 Z-5.767
N6735 Y-0.109
N6740 X-4.137 Y-0.328 Z-5.779
N6745 X-4.122 Y-0.547 Z-5.796
N6750 X-4.103 Y-0.766 Z-5.809
N6755 X-4.056 Y-0.985 Z-5.795
N6760 X-3.992 Y-1.204 Z-5.768
N6765 X-3.918 Y-1.423 Z-5.751
N6770 X-3.83 Y-1.643 Z-5.746
N6775 X-3.73 Y-1.86 Z-5.756
N6780 X-3.611 Y-2.086 Z-5.783
N6785 X-3.492 Y-2.298 Z-5.811
N6790 X-3.392 Y-2.454 Z-5.823
N6795 X-3.145 Y-2.736 Z-5.793
N6800 X-2.939 Y-2.955 Z-5.783
N6805 X-2.736 Y-3.145 Z-5.793
N6810 X-2.454 Y-3.392 Z-5.823
N6815 X-2.298 Y-3.492 Z-5.811
N6820 X-2.079 Y-3.615 Z-5.782
N6825 X-1.86 Y-3.73 Z-5.756
N6830 X-1.641 Y-3.83 Z-5.746
N6835 X-1.423 Y-3.917 Z-5.75
N6840 X-1.204 Y-3.992 Z-5.768
N6845 X-0.985 Y-4.055 Z-5.795
N6850 X-0.766 Y-4.104 Z-5.81
N6855 X-0.547 Y-4.125 Z-5.798
N6860 X-0.328 Y-4.138 Z-5.78
N6865 X-0.109 Y-4.148 Z-5.767
N6870 X0.109
N6875 X0.328 Y-4.137 Z-5.779
N6880 X0.547 Y-4.122 Z-5.796
N6885 X0.766 Y-4.103 Z-5.809
N6890 X0.985 Y-4.056 Z-5.795
N6895 X1.204 Y-3.992 Z-5.768
N6900 X1.423 Y-3.918 Z-5.751
N6905 X1.643 Y-3.83 Z-5.746
N6910 X1.86 Y-3.73 Z-5.756
N6915 X2.086 Y-3.611 Z-5.783
N6920 X2.298 Y-3.492 Z-5.811
N6925 X2.454 Y-3.392 Z-5.823
N6930 X2.736 Y-3.145 Z-5.793
N6935 X2.955 Y-2.939 Z-5.783
N6940 X3.145 Y-2.736 Z-5.793
N6945 X3.392 Y-2.454 Z-5.823
N6950 X3.492 Y-2.298 Z-5.811
N6955 X3.615 Y-2.079 Z-5.782
N6960 X3.73 Y-1.86 Z-5.756
N6965 X3.83 Y-1.641 Z-5.746
N6970 X3.917 Y-1.423 Z-5.75
N6975 X3.992 Y-1.204 Z-5.768
N6980 X4.055 Y-0.985 Z-5.795
N6985 X4.104 Y-0.766 Z-5.81
N6990 X4.125 Y-0.547 Z-5.798
N6995 X4.138 Y-0.328 Z-5.78
N7000 X4.148 Y-0.109 Z-5.767
N7005 Y0.109
N7010 X4.137 Y0.328 Z-5.779
N7015 X4.122 Y0.547 Z-5.796
N7020 X4.103 Y0.766 Z-5.809
N7025 X4.056 Y0.985 Z-5.795
N7030 X3.992 Y1.204 Z-5.768
N7035 X3.918 Y1.423 Z-5.751
N7040 X3.83 Y1.643 Z-5.746
N7045 X3.73 Y1.86 Z-5.756
N7050 X3.611 Y2.086 Z-5.783
N7055 X3.492 Y2.298 Z-5.811
N7060 X3.392 Y2.454 Z-5.823
N7065 X3.145 Y2.736 Z-5.793
N7070 X2.939 Y2.955 Z-5.783
N7075 X2.736 Y3.145 Z-5.793
N7080 X2.535 Y3.321 Z-5.814
N7085 X2.392 Y3.451 Z-5.83
N7090 X2.251 Y3.582 Z-5.848
N7095 X2.109 Y3.713 Z-5.869
N7100 X1.964 Y3.839 Z-5.893
N7105 X1.816 Y3.956 Z-5.919
N7110 X1.659 Y4.062 Z-5.948
N7115 X1.578 Y4.109 Z-5.962
N7120 X1.494 Y4.151 Z-5.975
N7125 X1.407 Y4.189 Z-5.988
N7130 X1.318 Y4.221 Z-6.001
N7135 X1.166 Y4.268 Z-6.018
N7140 X0.985 Y4.318 Z-6.04
N7145 X0.766 Y4.361 Z-6.049
N7150 X0.547 Y4.378 Z-6.034
N7155 X0.328 Y4.392 Z-6.016
N7160 X0.109 Y4.401 Z-6.003
N7165 X-0.109
N7170 X-0.328 Y4.39 Z-6.015
N7175 X-0.766 Y4.359 Z-6.048
N7180 X-0.985 Y4.319 Z-6.04
N7185 X-1.204 Y4.257 Z-6.014
N7190 X-1.423 Y4.188 Z-5.99
N7195 X-1.641 Y4.107 Z-5.98
N7200 X-1.779 Y4.049 Z-5.981
N7205 X-1.86 Y4.012 Z-5.984
N7210 X-2.079 Y3.904 Z-6.002
N7215 X-2.298 Y3.784 Z-6.033
N7220 X-2.517 Y3.658 Z-6.06
N7225 X-2.587 Y3.611 Z-6.064
N7230 X-2.955 Y3.288 Z-6.025
N7235 X-3.077 Y3.173 Z-6.019
N7240 X-3.173 Y3.077
N7245 X-3.288 Y2.955 Z-6.025
N7250 X-3.611 Y2.587 Z-6.064
N7255 X-3.658 Y2.517 Z-6.06
N7260 X-3.784 Y2.298 Z-6.033
N7265 X-3.904 Y2.079 Z-6.002
N7270 X-4.012 Y1.86 Z-5.983
N7275 X-4.049 Y1.778 Z-5.98
N7280 X-4.106 Y1.641
N7285 X-4.188 Y1.423 Z-5.99
N7290 X-4.257 Y1.204 Z-6.013
N7295 X-4.318 Y0.985 Z-6.04
N7300 X-4.361 Y0.766 Z-6.049
N7305 X-4.378 Y0.547 Z-6.034
N7310 X-4.392 Y0.328 Z-6.016
N7315 X-4.401 Y0.109 Z-6.003
N7320 Y-0.109
N7325 X-4.39 Y-0.328 Z-6.015
N7330 X-4.359 Y-0.766 Z-6.048
N7335 X-4.319 Y-0.985 Z-6.04
N7340 X-4.257 Y-1.204 Z-6.014
N7345 X-4.188 Y-1.423 Z-5.99
N7350 X-4.107 Y-1.641 Z-5.98
N7355 X-4.049 Y-1.779 Z-5.981
N7360 X-4.012 Y-1.86 Z-5.984
N7365 X-3.904 Y-2.079 Z-6.002
N7370 X-3.784 Y-2.298 Z-6.033
N7375 X-3.658 Y-2.517 Z-6.06
N7380 X-3.611 Y-2.587 Z-6.064
N7385 X-3.288 Y-2.955 Z-6.025
N7390 X-3.173 Y-3.077 Z-6.019
N7395 X-3.077 Y-3.173
N7400 X-2.955 Y-3.288 Z-6.025
N7405 X-2.587 Y-3.611 Z-6.064
N7410 X-2.517 Y-3.658 Z-6.06
N7415 X-2.298 Y-3.784 Z-6.033
N7420 X-2.079 Y-3.904 Z-6.002
N7425 X-1.86 Y-4.012 Z-5.983
N7430 X-1.778 Y-4.049 Z-5.98
N7435 X-1.641 Y-4.106
N7440 X-1.423 Y-4.188 Z-5.99
N7445 X-1.204 Y-4.257 Z-6.013
N7450 X-0.985 Y-4.318 Z-6.04
N7455 X-0.766 Y-4.361 Z-6.049
N7460 X-0.547 Y-4.378 Z-6.034
N7465 X-0.328 Y-4.392 Z-6.016
N7470 X-0.109 Y-4.401 Z-6.003
N7475 X0.109
N7480 X0.328 Y-4.39 Z-6.015
N7485 X0.766 Y-4.359 Z-6.048
N7490 X0.985 Y-4.319 Z-6.04
N7495 X1.204 Y-4.257 Z-6.014
N7500 X1.423 Y-4.188 Z-5.99
N7505 X1.641 Y-4.107 Z-5.98
N7510 X1.779 Y-4.049 Z-5.981
N7515 X1.86 Y-4.012 Z-5.984
N7520 X2.079 Y-3.904 Z-6.002
N7525 X2.298 Y-3.784 Z-6.033
N7530 X2.517 Y-3.658 Z-6.06
N7535 X2.587 Y-3.611 Z-6.064
N7540 X2.955 Y-3.288 Z-6.025
N7545 X3.077 Y-3.173 Z-6.019
N7550 X3.173 Y-3.077
N7555 X3.288 Y-2.955 Z-6.025
N7560 X3.611 Y-2.587 Z-6.064
N7565 X3.658 Y-2.517 Z-6.06
N7570 X3.784 Y-2.298 Z-6.033
N7575 X3.904 Y-2.079 Z-6.002
N7580 X4.012 Y-1.86 Z-5.983
N7585 X4.049 Y-1.778 Z-5.98
N7590 X4.106 Y-1.641
N7595 X4.188 Y-1.423 Z-5.99
N7600 X4.257 Y-1.204 Z-6.013
N7605 X4.318 Y-0.985 Z-6.04
N7610 X4.361 Y-0.766 Z-6.049
N7615 X4.378 Y-0.547 Z-6.034
N7620 X4.392 Y-0.328 Z-6.016
N7625 X4.401 Y-0.109 Z-6.003
N7630 Y0.109
N7635 X4.39 Y0.328 Z-6.015
N7640 X4.359 Y0.766 Z-6.048
N7645 X4.319 Y0.985 Z-6.04
N7650 X4.257 Y1.204 Z-6.014
N7655 X4.188 Y1.423 Z-5.99
N7660 X4.107 Y1.641 Z-5.98
N7665 X4.049 Y1.779 Z-5.981
N7670 X4.012 Y1.86 Z-5.984
N7675 X3.904 Y2.079 Z-6.002
N7680 X3.784 Y2.298 Z-6.033
N7685 X3.658 Y2.517 Z-6.06
N7690 X3.611 Y2.587 Z-6.064
N7695 X3.288 Y2.955 Z-6.025
N7700 X3.173 Y3.077 Z-6.019
N7705 X3.077 Y3.173
N7710 X2.955 Y3.288 Z-6.025
N7715 X2.587 Y3.611 Z-6.064
N7720 X2.517 Y3.658 Z-6.06
N7725 X2.298 Y3.784 Z-6.033
N7730 X2.079 Y3.904 Z-6.002
N7735 X1.86 Y4.012 Z-5.983
N7740 X1.778 Y4.049 Z-5.98
N7745 X1.641 Y4.106
N7750 X1.423 Y4.188 Z-5.99
N7755 X1.318 Y4.221 Z-6.001
N7760 X1.248 Y4.246 Z-6.01
N7765 X1.196 Y4.268 Z-6.023
N7770 X1.083 Y4.328 Z-6.061
N7775 X0.974 Y4.394 Z-6.106
N7780 X0.868 Y4.461 Z-6.154
N7785 X0.762 Y4.523 Z-6.197
N7790 X0.706 Y4.551 Z-6.217
N7795 X0.649 Y4.578 Z-6.233
N7800 X0.591 Y4.6 Z-6.247
N7805 X0.53 Y4.619 Z-6.256
N7810 X0.469 Y4.632 Z-6.26
N7815 X0.437 Y4.637
N7820 X0.405 Y4.64 Z-6.258
N7825 X0.328 Y4.645 Z-6.252
N7830 X0.109 Y4.654 Z-6.239
N7835 X-0.109
N7840 X-0.328 Y4.643 Z-6.251
N7845 X-0.766 Y4.614 Z-6.285
N7850 X-0.985 Y4.581
N7855 X-1.204 Y4.521 Z-6.26
N7860 X-1.423 Y4.456 Z-6.233
N7865 X-1.641 Y4.38 Z-6.217
N7870 X-1.86 Y4.292 Z-6.214
N7875 X-1.915 Y4.268 Z-6.215
N7880 X-2.079 Y4.19 Z-6.226
N7885 X-2.343 Y4.049 Z-6.259
N7890 X-2.517 Y3.953 Z-6.284
N7895 X-2.72 Y3.83 Z-6.304
N7900 X-2.97 Y3.611 Z-6.278
N7905 X-3.173 Y3.43 Z-6.258
N7910 X-3.214 Y3.392 Z-6.256
N7915 X-3.392 Y3.214
N7920 X-3.43 Y3.173 Z-6.258
N7925 X-3.625 Y2.955 Z-6.28
N7930 X-3.83 Y2.72 Z-6.304
N7935 X-3.953 Y2.517 Z-6.284
N7940 X-4.074 Y2.298 Z-6.253
N7945 X-4.189 Y2.079 Z-6.225
N7950 X-4.268 Y1.914 Z-6.215
N7955 X-4.291 Y1.86 Z-6.213
N7960 X-4.38 Y1.641 Z-6.216
N7965 X-4.456 Y1.423 Z-6.232
N7970 X-4.521 Y1.204 Z-6.26
N7975 X-4.581 Y0.985 Z-6.285
N7980 X-4.616 Y0.766 Z-6.287
N7985 X-4.645 Y0.328 Z-6.252
N7990 X-4.654 Y0.109 Z-6.239
N7995 Y-0.109
N8000 X-4.643 Y-0.328 Z-6.251
N8005 X-4.614 Y-0.766 Z-6.285
N8010 X-4.581 Y-0.985
N8015 X-4.521 Y-1.204 Z-6.26
N8020 X-4.456 Y-1.423 Z-6.233
N8025 X-4.38 Y-1.641 Z-6.217
N8030 X-4.292 Y-1.86 Z-6.214
N8035 X-4.268 Y-1.915 Z-6.215
N8040 X-4.19 Y-2.079 Z-6.226
N8045 X-4.049 Y-2.343 Z-6.259
N8050 X-3.953 Y-2.517 Z-6.284
N8055 X-3.83 Y-2.72 Z-6.304
N8060 X-3.611 Y-2.97 Z-6.278
N8065 X-3.43 Y-3.173 Z-6.258
N8070 X-3.392 Y-3.214 Z-6.256
N8075 X-3.214 Y-3.392
N8080 X-3.173 Y-3.43 Z-6.258
N8085 X-2.955 Y-3.625 Z-6.28
N8090 X-2.72 Y-3.83 Z-6.304
N8095 X-2.517 Y-3.953 Z-6.284
N8100 X-2.298 Y-4.074 Z-6.253
N8105 X-2.079 Y-4.189 Z-6.225
N8110 X-1.914 Y-4.268 Z-6.215
N8115 X-1.86 Y-4.291 Z-6.213
N8120 X-1.641 Y-4.38 Z-6.216
N8125 X-1.423 Y-4.456 Z-6.232
N8130 X-1.204 Y-4.521 Z-6.26
N8135 X-0.985 Y-4.581 Z-6.285
N8140 X-0.766 Y-4.616 Z-6.287
N8145 X-0.328 Y-4.645 Z-6.252
N8150 X-0.109 Y-4.654 Z-6.239
N8155 X0.109
N8160 X0.328 Y-4.643 Z-6.251
N8165 X0.766 Y-4.614 Z-6.285
N8170 X0.985 Y-4.581
N8175 X1.204 Y-4.521 Z-6.26
N8180 X1.423 Y-4.456 Z-6.233
N8185 X1.641 Y-4.38 Z-6.217
N8190 X1.86 Y-4.292 Z-6.214
N8195 X1.915 Y-4.268 Z-6.215
N8200 X2.079 Y-4.19 Z-6.226
N8205 X2.343 Y-4.049 Z-6.259
N8210 X2.517 Y-3.953 Z-6.284
N8215 X2.72 Y-3.83 Z-6.304
N8220 X2.97 Y-3.611 Z-6.278
N8225 X3.173 Y-3.43 Z-6.258
N8230 X3.214 Y-3.392 Z-6.256
N8235 X3.392 Y-3.214
N8240 X3.43 Y-3.173 Z-6.258
N8245 X3.625 Y-2.955 Z-6.28
N8250 X3.83 Y-2.72 Z-6.304
N8255 X3.953 Y-2.517 Z-6.284
N8260 X4.074 Y-2.298 Z-6.253
N8265 X4.189 Y-2.079 Z-6.225
N8270 X4.268 Y-1.914 Z-6.215
N8275 X4.291 Y-1.86 Z-6.213
N8280 X4.38 Y-1.641 Z-6.216
N8285 X4.456 Y-1.423 Z-6.232
N8290 X4.521 Y-1.204 Z-6.26
N8295 X4.581 Y-0.985 Z-6.285
N8300 X4.616 Y-0.766 Z-6.287
N8305 X4.645 Y-0.328 Z-6.252
N8310 X4.654 Y-0.109 Z-6.239
N8315 Y0.109
N8320 X4.643 Y0.328 Z-6.251
N8325 X4.614 Y0.766 Z-6.285
N8330 X4.581 Y0.985
N8335 X4.521 Y1.204 Z-6.26
N8340 X4.456 Y1.423 Z-6.233
N8345 X4.38 Y1.641 Z-6.217
N8350 X4.292 Y1.86 Z-6.214
N8355 X4.268 Y1.915 Z-6.215
N8360 X4.19 Y2.079 Z-6.226
N8365 X4.049 Y2.343 Z-6.259
N8370 X3.953 Y2.517 Z-6.284
N8375 X3.83 Y2.72 Z-6.304
N8380 X3.611 Y2.97 Z-6.278
N8385 X3.43 Y3.173 Z-6.258
N8390 X3.392 Y3.214 Z-6.256
N8395 X3.214 Y3.392
N8400 X3.173 Y3.43 Z-6.258
N8405 X2.955 Y3.625 Z-6.28
N8410 X2.72 Y3.83 Z-6.304
N8415 X2.517 Y3.953 Z-6.284
N8420 X2.298 Y4.074 Z-6.253
N8425 X2.079 Y4.189 Z-6.225
N8430 X1.914 Y4.268 Z-6.215
N8435 X1.86 Y4.291 Z-6.213
N8440 X1.641 Y4.38 Z-6.216
N8445 X1.418 Y4.457 Z-6.233
N8450 X1.204 Y4.521 Z-6.26
N8455 X0.985 Y4.581 Z-6.285
N8460 X0.766 Y4.616 Z-6.287
N8465 X0.405 Y4.64 Z-6.258
N8470 X0.341 Y4.646 Z-6.255
N8475 X0.277 Y4.658 Z-6.257
N8480 X0.215 Y4.673 Z-6.264
N8485 X0.153 Y4.69 Z-6.276
N8490 X0.092 Y4.711 Z-6.291
N8495 X0.033 Y4.732 Z-6.309
N8500 X-0.084 Y4.776 Z-6.352
N8505 X-0.201 Y4.818 Z-6.399
N8510 X-0.321 Y4.854 Z-6.446
N8515 X-0.382 Y4.867 Z-6.466
N8520 X-0.445 Y4.876 Z-6.484
N8525 X-0.509 Y4.881 Z-6.497
N8530 X-0.541 Z-6.502
N8535 X-0.573 Y4.88 Z-6.506
N8540 X-0.766 Y4.868 Z-6.522
N8545 X-0.985 Y4.842 Z-6.528
N8550 X-1.204 Y4.786 Z-6.507
N8555 X-1.478 Y4.706 Z-6.471
N8560 X-1.641 Y4.652 Z-6.456
N8565 X-1.86 Y4.569 Z-6.447
N8570 X-2.05 Y4.487 Z-6.451
N8575 X-2.079 Y4.473 Z-6.452
N8580 X-2.298 Y4.363 Z-6.472
N8585 X-2.736 Y4.122 Z-6.534
N8590 X-2.853 Y4.049 Z-6.545
N8595 X-3.173 Y3.768 Z-6.511
N8600 X-3.35 Y3.611 Z-6.494
N8605 X-3.392 Y3.572 Z-6.492
N8610 X-3.572 Y3.392
N8615 X-3.611 Y3.35 Z-6.494
N8620 X-3.83 Y3.104 Z-6.519
N8625 X-4.049 Y2.853 Z-6.545
N8630 X-4.122 Y2.736 Z-6.535
N8635 X-4.363 Y2.298 Z-6.472
N8640 X-4.472 Y2.079 Z-6.452
N8645 X-4.487 Y2.048 Z-6.45
N8650 X-4.568 Y1.86 Z-6.446
N8655 X-4.651 Y1.641 Z-6.455
N8660 X-4.706 Y1.475 Z-6.471
N8665 X-4.785 Y1.204 Z-6.506
N8670 X-4.842 Y0.985 Z-6.529
N8675 X-4.87 Y0.766 Z-6.524
N8680 X-4.898 Y0.328 Z-6.488
N8685 X-4.907 Y0.109 Z-6.475
N8690 Y-0.109
N8695 X-4.896 Y-0.328 Z-6.487
N8700 X-4.868 Y-0.766 Z-6.522
N8705 X-4.842 Y-0.985 Z-6.528
N8710 X-4.786 Y-1.204 Z-6.507
N8715 X-4.706 Y-1.478 Z-6.471
N8720 X-4.652 Y-1.641 Z-6.456
N8725 X-4.569 Y-1.86 Z-6.447
N8730 X-4.487 Y-2.05 Z-6.451
N8735 X-4.473 Y-2.079 Z-6.452
N8740 X-4.363 Y-2.298 Z-6.472
N8745 X-4.122 Y-2.736 Z-6.534
N8750 X-4.049 Y-2.853 Z-6.545
N8755 X-3.768 Y-3.173 Z-6.511
N8760 X-3.611 Y-3.35 Z-6.494
N8765 X-3.572 Y-3.392 Z-6.492
N8770 X-3.392 Y-3.572
N8775 X-3.35 Y-3.611 Z-6.494
N8780 X-3.104 Y-3.83 Z-6.519
N8785 X-2.853 Y-4.049 Z-6.545
N8790 X-2.736 Y-4.122 Z-6.535
N8795 X-2.298 Y-4.363 Z-6.472
N8800 X-2.079 Y-4.472 Z-6.452
N8805 X-2.048 Y-4.487 Z-6.45
N8810 X-1.86 Y-4.568 Z-6.446
N8815 X-1.641 Y-4.651 Z-6.455
N8820 X-1.475 Y-4.706 Z-6.471
N8825 X-1.204 Y-4.785 Z-6.506
N8830 X-0.985 Y-4.842 Z-6.529
N8835 X-0.766 Y-4.87 Z-6.524
N8840 X-0.328 Y-4.898 Z-6.488
N8845 X-0.109 Y-4.907 Z-6.475
N8850 X0.109
N8855 X0.328 Y-4.896 Z-6.487
N8860 X0.766 Y-4.868 Z-6.522
N8865 X0.985 Y-4.842 Z-6.528
N8870 X1.204 Y-4.786 Z-6.507
N8875 X1.478 Y-4.706 Z-6.471
N8880 X1.641 Y-4.652 Z-6.456
N8885 X1.86 Y-4.569 Z-6.447
N8890 X2.05 Y-4.487 Z-6.451
N8895 X2.079 Y-4.473 Z-6.452
N8900 X2.298 Y-4.363 Z-6.472
N8905 X2.736 Y-4.122 Z-6.534
N8910 X2.853 Y-4.049 Z-6.545
N8915 X3.173 Y-3.768 Z-6.511
N8920 X3.35 Y-3.611 Z-6.494
N8925 X3.392 Y-3.572 Z-6.492
N8930 X3.572 Y-3.392
N8935 X3.611 Y-3.35 Z-6.494
N8940 X3.83 Y-3.104 Z-6.519
N8945 X4.049 Y-2.853 Z-6.545
N8950 X4.122 Y-2.736 Z-6.535
N8955 X4.363 Y-2.298 Z-6.472
N8960 X4.472 Y-2.079 Z-6.452
N8965 X4.487 Y-2.048 Z-6.45
N8970 X4.568 Y-1.86 Z-6.446
N8975 X4.651 Y-1.641 Z-6.455
N8980 X4.706 Y-1.475 Z-6.471
N8985 X4.785 Y-1.204 Z-6.506
N8990 X4.842 Y-0.985 Z-6.529
N8995 X4.87 Y-0.766 Z-6.524
N9000 X4.898 Y-0.328 Z-6.488
N9005 X4.907 Y-0.109 Z-6.475
N9010 Y0.109
N9015 X4.896 Y0.328 Z-6.487
N9020 X4.868 Y0.766 Z-6.522
N9025 X4.842 Y0.985 Z-6.528
N9030 X4.786 Y1.204 Z-6.507
N9035 X4.706 Y1.478 Z-6.471
N9040 X4.652 Y1.641 Z-6.456
N9045 X4.569 Y1.86 Z-6.447
N9050 X4.487 Y2.05 Z-6.451
N9055 X4.473 Y2.079 Z-6.452
N9060 X4.363 Y2.298 Z-6.472
N9065 X4.122 Y2.736 Z-6.534
N9070 X4.049 Y2.853 Z-6.545
N9075 X3.768 Y3.173 Z-6.511
N9080 X3.611 Y3.35 Z-6.494
N9085 X3.572 Y3.392 Z-6.492
N9090 X3.392 Y3.572
N9095 X3.35 Y3.611 Z-6.494
N9100 X3.104 Y3.83 Z-6.519
N9105 X2.853 Y4.049 Z-6.545
N9110 X2.736 Y4.122 Z-6.535
N9115 X2.298 Y4.363 Z-6.472
N9120 X2.079 Y4.472 Z-6.452
N9125 X2.048 Y4.487 Z-6.45
N9130 X1.86 Y4.568 Z-6.446
N9135 X1.641 Y4.651 Z-6.455
N9140 X1.475 Y4.706 Z-6.471
N9145 X1.204 Y4.785 Z-6.506
N9150 X0.985 Y4.842 Z-6.529
N9155 X0.766 Y4.87 Z-6.524
N9160 X0.328 Y4.898 Z-6.488
N9165 X0.109 Y4.907 Z-6.475
N9170 X-0.109
N9175 X-0.328 Y4.896 Z-6.487
N9180 X-0.573 Y4.88 Z-6.506
N9185 X-0.765 Y4.873 Z-6.525
N9190 X-0.956 Y4.874 Z-6.551
N9195 X-1.147 Y4.877 Z-6.58
N9200 X-1.337 Z-6.61
N9205 X-1.525 Y4.87 Z-6.631
N9210 X-1.712 Y4.851 Z-6.65
N9215 X-1.805 Y4.835 Z-6.659
N9220 X-1.896 Y4.814 Z-6.668
N9225 X-1.987 Y4.787 Z-6.676
N9230 X-2.075 Y4.755 Z-6.681
N9235 X-2.183 Y4.706 Z-6.686
N9240 X-2.298 Y4.649 Z-6.695
N9245 X-2.517 Y4.532 Z-6.723
N9250 X-2.736 Y4.412 Z-6.755
N9255 X-2.955 Y4.29 Z-6.784
N9260 X-2.986 Y4.268 Z-6.786
N9265 X-3.485 Y3.83 Z-6.734
N9270 X-3.611 Y3.712 Z-6.727
N9275 X-3.712 Y3.611
N9280 X-3.83 Y3.485 Z-6.734
N9285 X-4.268 Y2.986 Z-6.786
N9290 X-4.29 Y2.955 Z-6.784
N9295 X-4.413 Y2.736 Z-6.755
N9300 X-4.532 Y2.517 Z-6.723
N9305 X-4.649 Y2.298 Z-6.695
N9310 X-4.706 Y2.182 Z-6.686
N9315 X-4.753 Y2.079 Z-6.681
N9320 X-4.842 Y1.86 Z-6.682
N9325 X-4.924 Y1.627 Z-6.699
N9330 X-4.986 Y1.423 Z-6.724
N9335 X-5.049 Y1.204 Z-6.753
N9340 X-5.102 Y0.985 Z-6.771
N9345 X-5.123 Y0.766 Z-6.76
N9350 X-5.151 Y0.328 Z-6.724
N9355 X-5.16 Y0.109 Z-6.711
N9360 Y-0.109
N9365 X-5.149 Y-0.328 Z-6.723
N9370 X-5.121 Y-0.766 Z-6.758
N9375 X-5.101 Y-0.985 Z-6.77
N9380 X-5.05 Y-1.204 Z-6.753
N9385 X-4.986 Y-1.423 Z-6.725
N9390 X-4.92 Y-1.641 Z-6.698
N9395 X-4.843 Y-1.86 Z-6.683
N9400 X-4.753 Y-2.079 Z-6.681
N9405 X-4.706 Y-2.183 Z-6.686
N9410 X-4.649 Y-2.298 Z-6.695
N9415 X-4.532 Y-2.517 Z-6.723
N9420 X-4.412 Y-2.736 Z-6.755
N9425 X-4.29 Y-2.955 Z-6.784
N9430 X-4.268 Y-2.986 Z-6.786
N9435 X-3.83 Y-3.485 Z-6.734
N9440 X-3.712 Y-3.611 Z-6.727
N9445 X-3.611 Y-3.712
N9450 X-3.485 Y-3.83 Z-6.734
N9455 X-2.986 Y-4.268 Z-6.786
N9460 X-2.955 Y-4.29 Z-6.784
N9465 X-2.736 Y-4.413 Z-6.755
N9470 X-2.517 Y-4.532 Z-6.723
N9475 X-2.298 Y-4.649 Z-6.695
N9480 X-2.182 Y-4.706 Z-6.686
N9485 X-2.079 Y-4.753 Z-6.681
N9490 X-1.86 Y-4.842 Z-6.682
N9495 X-1.627 Y-4.924 Z-6.699
N9500 X-1.423 Y-4.986 Z-6.724
N9505 X-1.204 Y-5.049 Z-6.753
N9510 X-0.985 Y-5.102 Z-6.771
N9515 X-0.766 Y-5.123 Z-6.76
N9520 X-0.328 Y-5.151 Z-6.724
N9525 X-0.109 Y-5.16 Z-6.711
N9530 X0.109
N9535 X0.328 Y-5.149 Z-6.723
N9540 X0.766 Y-5.121 Z-6.758
N9545 X0.985 Y-5.101 Z-6.77
N9550 X1.204 Y-5.05 Z-6.753
N9555 X1.423 Y-4.986 Z-6.725
N9560 X1.641 Y-4.92 Z-6.698
N9565 X1.86 Y-4.843 Z-6.683
N9570 X2.079 Y-4.753 Z-6.681
N9575 X2.183 Y-4.706 Z-6.686
N9580 X2.298 Y-4.649 Z-6.695
N9585 X2.517 Y-4.532 Z-6.723
N9590 X2.736 Y-4.412 Z-6.755
N9595 X2.955 Y-4.29 Z-6.784
N9600 X2.986 Y-4.268 Z-6.786
N9605 X3.485 Y-3.83 Z-6.734
N9610 X3.611 Y-3.712 Z-6.727
N9615 X3.712 Y-3.611
N9620 X3.83 Y-3.485 Z-6.734
N9625 X4.268 Y-2.986 Z-6.786
N9630 X4.29 Y-2.955 Z-6.784
N9635 X4.413 Y-2.736 Z-6.755
N9640 X4.532 Y-2.517 Z-6.723
N9645 X4.649 Y-2.298 Z-6.695
N9650 X4.706 Y-2.182 Z-6.686
N9655 X4.753 Y-2.079 Z-6.681
N9660 X4.842 Y-1.86 Z-6.682
N9665 X4.924 Y-1.627 Z-6.699
N9670 X4.986 Y-1.423 Z-6.724
N9675 X5.049 Y-1.204 Z-6.753
N9680 X5.102 Y-0.985 Z-6.771
N9685 X5.123 Y-0.766 Z-6.76
N9690 X5.151 Y-0.328 Z-6.724
N9695 X5.16 Y-0.109 Z-6.711
N9700 Y0.109
N9705 X5.149 Y0.328 Z-6.723
N9710 X5.121 Y0.766 Z-6.758
N9715 X5.101 Y0.985 Z-6.77
N9720 X5.05 Y1.204 Z-6.753
N9725 X4.986 Y1.423 Z-6.725
N9730 X4.92 Y1.641 Z-6.698
N9735 X4.843 Y1.86 Z-6.683
N9740 X4.753 Y2.079 Z-6.681
N9745 X4.706 Y2.183 Z-6.686
N9750 X4.649 Y2.298 Z-6.695
N9755 X4.532 Y2.517 Z-6.723
N9760 X4.412 Y2.736 Z-6.755
N9765 X4.29 Y2.955 Z-6.784
N9770 X4.268 Y2.986 Z-6.786
N9775 X3.83 Y3.485 Z-6.734
N9780 X3.712 Y3.611 Z-6.727
N9785 X3.611 Y3.712
N9790 X3.485 Y3.83 Z-6.734
N9795 X2.986 Y4.268 Z-6.786
N9800 X2.955 Y4.29 Z-6.784
N9805 X2.736 Y4.413 Z-6.755
N9810 X2.517 Y4.532 Z-6.723
N9815 X2.298 Y4.649 Z-6.695
N9820 X2.182 Y4.706 Z-6.686
N9825 X2.079 Y4.753 Z-6.681
N9830 X1.86 Y4.842 Z-6.682
N9835 X1.627 Y4.924 Z-6.699
N9840 X1.423 Y4.986 Z-6.724
N9845 X1.204 Y5.049 Z-6.753
N9850 X0.985 Y5.102 Z-6.771
N9855 X0.766 Y5.123 Z-6.76
N9860 X0.328 Y5.151 Z-6.724
N9865 X0.109 Y5.16 Z-6.711
N9870 X-0.109
N9875 X-0.328 Y5.149 Z-6.723
N9880 X-0.766 Y5.121 Z-6.758
N9885 X-0.985 Y5.101 Z-6.77
N9890 X-1.204 Y5.05 Z-6.753
N9895 X-1.423 Y4.986 Z-6.725
N9900 X-1.641 Y4.92 Z-6.698
N9905 X-1.86 Y4.843 Z-6.683
N9910 X-2.075 Y4.755 Z-6.681
N9915 X-2.151 Y4.727 Z-6.687
N9920 X-2.198 Y4.714 Z-6.695
N9925 X-2.259 Y4.7 Z-6.71
N9930 X-2.321 Y4.689 Z-6.729
N9935 X-2.382 Y4.68 Z-6.752
N9940 X-2.443 Y4.673 Z-6.778
N9945 X-2.562 Y4.661 Z-6.834
N9950 X-2.681 Y4.647 Z-6.893
N9955 X-2.8 Y4.625 Z-6.947
N9960 X-2.859 Y4.61 Z-6.97
N9965 X-2.918 Y4.591 Z-6.99
N9970 X-2.976 Y4.566 Z-7.006
N9975 X-3.004 Y4.552 Z-7.011
N9980 X-3.033 Y4.537 Z-7.016
N9985 X-3.119 Y4.487 Z-7.026
N9990 X-3.619 Y4.049 Z-6.974
N9995 X-3.83 Y3.852 Z-6.962
N10000 X-3.852 Y3.83
N10005 X-4.056 Y3.611 Z-6.975
N10010 X-4.487 Y3.119 Z-7.026
N10015 X-4.582 Y2.955 Z-7.006
N10020 X-4.821 Y2.517 Z-6.943
N10025 X-4.933 Y2.298 Z-6.92
N10030 X-5.03 Y2.079 Z-6.913
N10035 X-5.114 Y1.86 Z-6.921
N10040 X-5.143 Y1.776 Z-6.927
N10045 X-5.186 Y1.641 Z-6.942
N10050 X-5.313 Y1.204 Z-6.999
N10055 X-5.362 Y0.968 Z-7.011
N10060 X-5.39 Y0.547 Z-6.978
N10065 X-5.404 Y0.328 Z-6.96
N10070 X-5.413 Y0.109 Z-6.947
N10075 Y-0.109
N10080 X-5.403 Y-0.328 Z-6.959
N10085 X-5.374 Y-0.766 Z-6.994
N10090 X-5.362 Y-0.952 Z-7.009
N10095 X-5.358 Y-0.985 Z-7.01
N10100 X-5.314 Y-1.204 Z-6.999
N10105 X-5.186 Y-1.641 Z-6.942
N10110 X-5.143 Y-1.778 Z-6.928
N10115 X-5.115 Y-1.86 Z-6.921
N10120 X-5.03 Y-2.079 Z-6.914
N10125 X-4.924 Y-2.316 Z-6.922
N10130 X-4.821 Y-2.517 Z-6.943
N10135 X-4.582 Y-2.955 Z-7.006
N10140 X-4.487 Y-3.119 Z-7.026
N10145 X-4.049 Y-3.619 Z-6.974
N10150 X-3.852 Y-3.83 Z-6.962
N10155 X-3.83 Y-3.852
N10160 X-3.611 Y-4.056 Z-6.975
N10165 X-3.119 Y-4.487 Z-7.026
N10170 X-2.955 Y-4.582 Z-7.006
N10175 X-2.517 Y-4.821 Z-6.943
N10180 X-2.298 Y-4.933 Z-6.92
N10185 X-2.079 Y-5.03 Z-6.913
N10190 X-1.86 Y-5.114 Z-6.921
N10195 X-1.776 Y-5.143 Z-6.927
N10200 X-1.641 Y-5.186 Z-6.942
N10205 X-1.204 Y-5.313 Z-6.999
N10210 X-0.968 Y-5.362 Z-7.011
N10215 X-0.547 Y-5.39 Z-6.978
N10220 X-0.328 Y-5.404 Z-6.96
N10225 X-0.109 Y-5.413 Z-6.947
N10230 X0.109
N10235 X0.328 Y-5.403 Z-6.959
N10240 X0.766 Y-5.374 Z-6.994
N10245 X0.952 Y-5.362 Z-7.009
N10250 X0.985 Y-5.358 Z-7.01
N10255 X1.204 Y-5.314 Z-6.999
N10260 X1.641 Y-5.186 Z-6.942
N10265 X1.778 Y-5.143 Z-6.928
N10270 X1.86 Y-5.115 Z-6.921
N10275 X2.079 Y-5.03 Z-6.914
N10280 X2.316 Y-4.924 Z-6.922
N10285 X2.517 Y-4.821 Z-6.943
N10290 X2.955 Y-4.582 Z-7.006
N10295 X3.119 Y-4.487 Z-7.026
N10300 X3.619 Y-4.049 Z-6.974
N10305 X3.83 Y-3.852 Z-6.962
N10310 X3.852 Y-3.83
N10315 X4.056 Y-3.611 Z-6.975
N10320 X4.487 Y-3.119 Z-7.026
N10325 X4.582 Y-2.955 Z-7.006
N10330 X4.821 Y-2.517 Z-6.943
N10335 X4.933 Y-2.298 Z-6.92
N10340 X5.03 Y-2.079 Z-6.913
N10345 X5.114 Y-1.86 Z-6.921
N10350 X5.143 Y-1.776 Z-6.927
N10355 X5.186 Y-1.641 Z-6.942
N10360 X5.313 Y-1.204 Z-6.999
N10365 X5.362 Y-0.968 Z-7.011
N10370 X5.39 Y-0.547 Z-6.978
N10375 X5.404 Y-0.328 Z-6.96
N10380 X5.413 Y-0.109 Z-6.947
N10385 Y0.109
N10390 X5.403 Y0.328 Z-6.959
N10395 X5.374 Y0.766 Z-6.994
N10400 X5.362 Y0.952 Z-7.009
N10405 X5.358 Y0.985 Z-7.01
N10410 X5.314 Y1.204 Z-6.999
N10415 X5.186 Y1.641 Z-6.942
N10420 X5.143 Y1.778 Z-6.928
N10425 X5.115 Y1.86 Z-6.921
N10430 X5.03 Y2.079 Z-6.914
N10435 X4.924 Y2.316 Z-6.922
N10440 X4.821 Y2.517 Z-6.943
N10445 X4.582 Y2.955 Z-7.006
N10450 X4.487 Y3.119 Z-7.026
N10455 X4.049 Y3.619 Z-6.974
N10460 X3.852 Y3.83 Z-6.962
N10465 X3.83 Y3.852
N10470 X3.611 Y4.056 Z-6.975
N10475 X3.119 Y4.487 Z-7.026
N10480 X2.955 Y4.582 Z-7.006
N10485 X2.517 Y4.821 Z-6.943
N10490 X2.298 Y4.933 Z-6.92
N10495 X2.079 Y5.03 Z-6.913
N10500 X1.86 Y5.114 Z-6.921
N10505 X1.776 Y5.143 Z-6.927
N10510 X1.641 Y5.186 Z-6.942
N10515 X1.204 Y5.313 Z-6.999
N10520 X0.968 Y5.362 Z-7.011
N10525 X0.547 Y5.39 Z-6.978
N10530 X0.328 Y5.404 Z-6.96
N10535 X0.109 Y5.413 Z-6.947
N10540 X-0.109
N10545 X-0.328 Y5.403 Z-6.959
N10550 X-0.766 Y5.374 Z-6.994
N10555 X-0.952 Y5.362 Z-7.009
N10560 X-0.985 Y5.358 Z-7.01
N10565 X-1.204 Y5.314 Z-6.999
N10570 X-1.641 Y5.186 Z-6.942
N10575 X-1.778 Y5.143 Z-6.928
N10580 X-1.86 Y5.115 Z-6.921
N10585 X-2.079 Y5.03 Z-6.914
N10590 X-2.316 Y4.924 Z-6.922
N10595 X-2.517 Y4.821 Z-6.943
N10600 X-2.955 Y4.582 Z-7.006
N10605 X-3.033 Y4.537 Z-7.016
N10610 X-3.201 Y4.443 Z-7.037
N10615 X-3.37 Y4.353 Z-7.061
N10620 X-3.54 Y4.264 Z-7.087
N10625 X-3.707 Y4.171 Z-7.116
N10630 X-3.869 Y4.073 Z-7.138
N10635 X-4.025 Y3.965 Z-7.166
N10640 X-4.171 Y3.845 Z-7.195
N10645 X-4.24 Y3.78 Z-7.209
N10650 X-4.305 Y3.711 Z-7.219
N10655 X-4.584 Y3.392 Z-7.253
N10660 X-4.706 Y3.252 Z-7.266
N10665 X-4.752 Y3.173 Z-7.258
N10670 X-4.991 Y2.736 Z-7.194
N10675 X-5.109 Y2.517 Z-7.164
N10680 X-5.143 Y2.448 Z-7.158
N10685 X-5.213 Y2.298 Z-7.149
N10690 X-5.305 Y2.079 Z-7.148
N10695 X-5.362 Y1.923 Z-7.157
N10700 X-5.383 Y1.86 Z-7.162
N10705 X-5.45 Y1.641 Z-7.188
N10710 X-5.514 Y1.423 Z-7.217
N10715 X-5.581 Y1.189 Z-7.246
N10720 X-5.614 Y0.985 Z-7.249
N10725 X-5.657 Y0.328 Z-7.196
N10730 X-5.666 Y0.109 Z-7.183
N10735 Y-0.109
N10740 X-5.656 Y-0.328 Z-7.195
N10745 X-5.627 Y-0.766 Z-7.23
N10750 X-5.613 Y-0.985 Z-7.247
N10755 X-5.581 Y-1.19 Z-7.246
N10760 X-5.515 Y-1.423 Z-7.218
N10765 X-5.451 Y-1.641 Z-7.189
N10770 X-5.384 Y-1.86 Z-7.162
N10775 X-5.362 Y-1.925 Z-7.157
N10780 X-5.305 Y-2.079 Z-7.149
N10785 X-5.214 Y-2.298
N10790 X-5.143 Y-2.448 Z-7.158
N10795 X-5.109 Y-2.517 Z-7.164
N10800 X-4.924 Y-2.857 Z-7.211
N10805 X-4.751 Y-3.173 Z-7.257
N10810 X-4.706 Y-3.252 Z-7.266
N10815 X-4.487 Y-3.504 Z-7.241
N10820 X-4.199 Y-3.83 Z-7.207
N10825 X-4.049 Y-3.991 Z-7.198
N10830 X-3.991 Y-4.049
N10835 X-3.83 Y-4.199 Z-7.207
N10840 X-3.392 Y-4.584 Z-7.253
N10845 X-3.252 Y-4.706 Z-7.266
N10850 X-3.173 Y-4.752 Z-7.258
N10855 X-2.736 Y-4.991 Z-7.194
N10860 X-2.517 Y-5.109 Z-7.164
N10865 X-2.448 Y-5.143 Z-7.158
N10870 X-2.298 Y-5.213 Z-7.149
N10875 X-2.079 Y-5.305 Z-7.148
N10880 X-1.923 Y-5.362 Z-7.157
N10885 X-1.86 Y-5.383 Z-7.162
N10890 X-1.641 Y-5.45 Z-7.188
N10895 X-1.423 Y-5.514 Z-7.217
N10900 X-1.189 Y-5.581 Z-7.246
N10905 X-0.985 Y-5.614 Z-7.249
N10910 X-0.328 Y-5.657 Z-7.196
N10915 X-0.109 Y-5.666 Z-7.183
N10920 X0.109
N10925 X0.328 Y-5.656 Z-7.195
N10930 X0.766 Y-5.627 Z-7.23
N10935 X0.985 Y-5.613 Z-7.247
N10940 X1.19 Y-5.581 Z-7.246
N10945 X1.423 Y-5.515 Z-7.218
N10950 X1.641 Y-5.451 Z-7.189
N10955 X1.86 Y-5.384 Z-7.162
N10960 X1.925 Y-5.362 Z-7.157
N10965 X2.079 Y-5.305 Z-7.149
N10970 X2.298 Y-5.214
N10975 X2.448 Y-5.143 Z-7.158
N10980 X2.517 Y-5.109 Z-7.164
N10985 X2.857 Y-4.924 Z-7.211
N10990 X3.173 Y-4.751 Z-7.257
N10995 X3.252 Y-4.706 Z-7.266
N11000 X3.504 Y-4.487 Z-7.241
N11005 X3.83 Y-4.199 Z-7.207
N11010 X3.991 Y-4.049 Z-7.198
N11015 X4.049 Y-3.991
N11020 X4.199 Y-3.83 Z-7.207
N11025 X4.584 Y-3.392 Z-7.253
N11030 X4.706 Y-3.252 Z-7.266
N11035 X4.752 Y-3.173 Z-7.258
N11040 X4.991 Y-2.736 Z-7.194
N11045 X5.109 Y-2.517 Z-7.164
N11050 X5.143 Y-2.448 Z-7.158
N11055 X5.213 Y-2.298 Z-7.149
N11060 X5.305 Y-2.079 Z-7.148
N11065 X5.362 Y-1.923 Z-7.157
N11070 X5.383 Y-1.86 Z-7.162
N11075 X5.45 Y-1.641 Z-7.188
N11080 X5.514 Y-1.423 Z-7.217
N11085 X5.581 Y-1.189 Z-7.246
N11090 X5.614 Y-0.985 Z-7.249
N11095 X5.657 Y-0.328 Z-7.196
N11100 X5.666 Y-0.109 Z-7.183
N11105 Y0.109
N11110 X5.656 Y0.328 Z-7.195
N11115 X5.627 Y0.766 Z-7.23
N11120 X5.613 Y0.985 Z-7.247
N11125 X5.581 Y1.19 Z-7.246
N11130 X5.515 Y1.423 Z-7.218
N11135 X5.451 Y1.641 Z-7.189
N11140 X5.384 Y1.86 Z-7.162
N11145 X5.362 Y1.925 Z-7.157
N11150 X5.305 Y2.079 Z-7.149
N11155 X5.214 Y2.298
N11160 X5.143 Y2.448 Z-7.158
N11165 X5.109 Y2.517 Z-7.164
N11170 X4.924 Y2.857 Z-7.211
N11175 X4.751 Y3.173 Z-7.257
N11180 X4.706 Y3.252 Z-7.266
N11185 X4.487 Y3.504 Z-7.241
N11190 X4.199 Y3.83 Z-7.207
N11195 X4.049 Y3.991 Z-7.198
N11200 X3.991 Y4.049
N11205 X3.83 Y4.199 Z-7.207
N11210 X3.392 Y4.584 Z-7.253
N11215 X3.252 Y4.706 Z-7.266
N11220 X3.173 Y4.752 Z-7.258
N11225 X2.736 Y4.991 Z-7.194
N11230 X2.517 Y5.109 Z-7.164
N11235 X2.448 Y5.143 Z-7.158
N11240 X2.298 Y5.214 Z-7.149
N11245 X2.079 Y5.305 Z-7.148
N11250 X1.923 Y5.362 Z-7.157
N11255 X1.86 Y5.383 Z-7.162
N11260 X1.641 Y5.45 Z-7.188
N11265 X1.423 Y5.514 Z-7.217
N11270 X1.189 Y5.581 Z-7.246
N11275 X0.985 Y5.614 Z-7.249
N11280 X0.328 Y5.657 Z-7.196
N11285 X0.109 Y5.666 Z-7.183
N11290 X-0.109
N11295 X-0.328 Y5.656 Z-7.195
N11300 X-0.766 Y5.627 Z-7.23
N11305 X-0.985 Y5.613 Z-7.247
N11310 X-1.19 Y5.581 Z-7.246
N11315 X-1.423 Y5.515 Z-7.218
N11320 X-1.641 Y5.451 Z-7.189
N11325 X-1.86 Y5.384 Z-7.162
N11330 X-1.925 Y5.362 Z-7.157
N11335 X-2.079 Y5.305 Z-7.149
N11340 X-2.298 Y5.214
N11345 X-2.448 Y5.143 Z-7.158
N11350 X-2.517 Y5.109 Z-7.164
N11355 X-2.857 Y4.924 Z-7.211
N11360 X-3.173 Y4.751 Z-7.257
N11365 X-3.252 Y4.706 Z-7.266
N11370 X-3.504 Y4.487 Z-7.241
N11375 X-3.83 Y4.199 Z-7.207
N11380 X-3.991 Y4.049 Z-7.198
N11385 X-4.049 Y3.991
N11390 X-4.199 Y3.83 Z-7.207
N11395 X-4.305 Y3.711 Z-7.219
N11400 X-4.351 Y3.663 Z-7.227
N11405 X-4.4 Y3.619 Z-7.24
N11410 X-4.451 Y3.58 Z-7.257
N11415 X-4.503 Y3.543 Z-7.276
N11420 X-4.612 Y3.476 Z-7.321
N11425 X-4.722 Y3.412 Z-7.369
N11430 X-4.827 Y3.347 Z-7.412
N11435 X-4.878 Y3.311 Z-7.43
N11440 X-4.928 Y3.272 Z-7.446
N11445 X-4.975 Y3.23 Z-7.459
N11450 X-5.019 Y3.185 Z-7.466
N11455 X-5.039 Y3.161 Z-7.468
N11460 X-5.058 Y3.135
N11465 X-5.076 Y3.109 Z-7.467
N11470 X-5.091 Y3.082 Z-7.464
N11475 X-5.28 Y2.736 Z-7.413
N11480 X-5.362 Y2.58 Z-7.394
N11485 X-5.393 Y2.517 Z-7.389
N11490 X-5.492 Y2.298 Z-7.381
N11495 X-5.581 Y2.068 Z-7.387
N11500 X-5.65 Y1.86 Z-7.406
N11505 X-5.8 Y1.352 Z-7.473
N11510 X-5.838 Y1.204 Z-7.488
N11515 X-5.869 Y0.985 Z-7.486
N11520 X-5.91 Y0.328 Z-7.432
N11525 X-5.919 Y0.109 Z-7.419
N11530 Y-0.109
N11535 X-5.909 Y-0.328 Z-7.431
N11540 X-5.88 Y-0.766 Z-7.465
N11545 X-5.867 Y-0.985 Z-7.484
N11550 X-5.838 Y-1.204 Z-7.488
N11555 X-5.8 Y-1.355 Z-7.474
N11560 X-5.65 Y-1.86 Z-7.406
N11565 X-5.578 Y-2.079 Z-7.387
N11570 X-5.492 Y-2.298 Z-7.381
N11575 X-5.393 Y-2.517 Z-7.389
N11580 X-5.362 Y-2.58 Z-7.394
N11585 X-5.28 Y-2.736 Z-7.413
N11590 X-5.041 Y-3.173 Z-7.477
N11595 X-4.924 Y-3.384 Z-7.506
N11600 X-4.706 Y-3.638 Z-7.482
N11605 X-4.487 Y-3.886 Z-7.455
N11610 X-4.342 Y-4.049 Z-7.439
N11615 X-4.268 Y-4.128 Z-7.435
N11620 X-4.128 Y-4.268
N11625 X-4.049 Y-4.342 Z-7.439
N11630 X-3.83 Y-4.536 Z-7.461
N11635 X-3.611 Y-4.729 Z-7.485
N11640 X-3.384 Y-4.924 Z-7.506
N11645 X-3.173 Y-5.042 Z-7.478
N11650 X-2.736 Y-5.28 Z-7.413
N11655 X-2.58 Y-5.362 Z-7.394
N11660 X-2.517 Y-5.393 Z-7.389
N11665 X-2.298 Y-5.492 Z-7.381
N11670 X-2.068 Y-5.581 Z-7.387
N11675 X-1.86 Y-5.65 Z-7.406
N11680 X-1.352 Y-5.8 Z-7.473
N11685 X-1.204 Y-5.838 Z-7.488
N11690 X-0.985 Y-5.869 Z-7.486
N11695 X-0.328 Y-5.91 Z-7.432
N11700 X-0.109 Y-5.919 Z-7.419
N11705 X0.109
N11710 X0.328 Y-5.909 Z-7.431
N11715 X0.766 Y-5.88 Z-7.465
N11720 X0.985 Y-5.867 Z-7.484
N11725 X1.204 Y-5.838 Z-7.488
N11730 X1.355 Y-5.8 Z-7.474
N11735 X1.86 Y-5.65 Z-7.406
N11740 X2.079 Y-5.578 Z-7.387
N11745 X2.298 Y-5.492 Z-7.381
N11750 X2.517 Y-5.393 Z-7.389
N11755 X2.58 Y-5.362 Z-7.394
N11760 X2.736 Y-5.28 Z-7.413
N11765 X3.173 Y-5.041 Z-7.477
N11770 X3.384 Y-4.924 Z-7.506
N11775 X3.638 Y-4.706 Z-7.482
N11780 X3.886 Y-4.487 Z-7.455
N11785 X4.049 Y-4.342 Z-7.439
N11790 X4.128 Y-4.268 Z-7.435
N11795 X4.268 Y-4.128
N11800 X4.342 Y-4.049 Z-7.439
N11805 X4.536 Y-3.83 Z-7.461
N11810 X4.729 Y-3.611 Z-7.485
N11815 X4.924 Y-3.384 Z-7.506
N11820 X5.042 Y-3.173 Z-7.478
N11825 X5.28 Y-2.736 Z-7.413
N11830 X5.362 Y-2.58 Z-7.394
N11835 X5.393 Y-2.517 Z-7.389
N11840 X5.492 Y-2.298 Z-7.381
N11845 X5.581 Y-2.068 Z-7.387
N11850 X5.65 Y-1.86 Z-7.406
N11855 X5.8 Y-1.352 Z-7.473
N11860 X5.838 Y-1.204 Z-7.488
N11865 X5.869 Y-0.985 Z-7.486
N11870 X5.91 Y-0.328 Z-7.432
N11875 X5.919 Y-0.109 Z-7.419
N11880 Y0.109
N11885 X5.909 Y0.328 Z-7.431
N11890 X5.88 Y0.766 Z-7.465
N11895 X5.867 Y0.985 Z-7.484
N11900 X5.838 Y1.204 Z-7.488
N11905 X5.8 Y1.355 Z-7.474
N11910 X5.65 Y1.86 Z-7.406
N11915 X5.578 Y2.079 Z-7.387
N11920 X5.492 Y2.298 Z-7.381
N11925 X5.393 Y2.517 Z-7.389
N11930 X5.362 Y2.58 Z-7.394
N11935 X5.28 Y2.736 Z-7.413
N11940 X5.041 Y3.173 Z-7.477
N11945 X4.924 Y3.384 Z-7.506
N11950 X4.706 Y3.638 Z-7.482
N11955 X4.487 Y3.886 Z-7.455
N11960 X4.342 Y4.049 Z-7.439
N11965 X4.268 Y4.128 Z-7.435
N11970 X4.128 Y4.268
N11975 X4.049 Y4.342 Z-7.439
N11980 X3.83 Y4.536 Z-7.461
N11985 X3.611 Y4.729 Z-7.485
N11990 X3.384 Y4.924 Z-7.506
N11995 X3.173 Y5.042 Z-7.478
N12000 X2.736 Y5.28 Z-7.413
N12005 X2.58 Y5.362 Z-7.394
N12010 X2.517 Y5.393 Z-7.389
N12015 X2.298 Y5.492 Z-7.381
N12020 X2.068 Y5.581 Z-7.387
N12025 X1.86 Y5.65 Z-7.406
N12030 X1.352 Y5.8 Z-7.473
N12035 X1.204 Y5.838 Z-7.488
N12040 X0.985 Y5.869 Z-7.486
N12045 X0.328 Y5.91 Z-7.432
N12050 X0.109 Y5.919 Z-7.419
N12055 X-0.109
N12060 X-0.328 Y5.909 Z-7.431
N12065 X-0.766 Y5.88 Z-7.465
N12070 X-0.985 Y5.867 Z-7.484
N12075 X-1.204 Y5.838 Z-7.488
N12080 X-1.355 Y5.8 Z-7.474
N12085 X-1.86 Y5.65 Z-7.406
N12090 X-2.079 Y5.578 Z-7.387
N12095 X-2.298 Y5.492 Z-7.381
N12100 X-2.517 Y5.393 Z-7.389
N12105 X-2.58 Y5.362 Z-7.394
N12110 X-2.736 Y5.28 Z-7.413
N12115 X-3.173 Y5.041 Z-7.477
N12120 X-3.384 Y4.924 Z-7.506
N12125 X-3.638 Y4.706 Z-7.482
N12130 X-3.886 Y4.487 Z-7.455
N12135 X-4.049 Y4.342 Z-7.439
N12140 X-4.128 Y4.268 Z-7.435
N12145 X-4.268 Y4.128
N12150 X-4.342 Y4.049 Z-7.439
N12155 X-4.536 Y3.83 Z-7.461
N12160 X-4.729 Y3.611 Z-7.485
N12165 X-4.924 Y3.384 Z-7.506
N12170 X-5.042 Y3.173 Z-7.478
N12175 X-5.091 Y3.082 Z-7.464
N12180 X-5.192 Y2.918 Z-7.447
N12185 X-5.247 Y2.84 Z-7.445
N12190 X-5.305 Y2.763 Z-7.447
N12195 X-5.425 Y2.612 Z-7.46
N12200 X-5.546 Y2.464 Z-7.49
N12205 X-5.663 Y2.314 Z-7.531
N12210 X-5.769 Y2.158 Z-7.577
N12215 X-5.817 Y2.077 Z-7.599
N12220 X-5.86 Y1.993 Z-7.621
N12225 X-5.897 Y1.906 Z-7.642
N12230 X-5.913 Y1.861 Z-7.651
N12235 X-5.928 Y1.816 Z-7.658
N12240 X-6.043 Y1.423 Z-7.71
N12245 X-6.099 Y1.204 Z-7.731
N12250 X-6.122 Y0.985 Z-7.722
N12255 X-6.163 Y0.328 Z-7.668
N12260 X-6.172 Y0.109 Z-7.655
N12265 Y-0.109
N12270 X-6.162 Y-0.328 Z-7.667
N12275 X-6.133 Y-0.766 Z-7.701
N12280 X-6.12 Y-0.985 Z-7.72
N12285 X-6.098 Y-1.204 Z-7.731
N12290 X-6.044 Y-1.423 Z-7.711
N12295 X-5.915 Y-1.86 Z-7.652
N12300 X-5.847 Y-2.079 Z-7.627
N12305 X-5.8 Y-2.214 Z-7.619
N12310 X-5.768 Y-2.298 Z-7.616
N12315 X-5.675 Y-2.517 Z-7.617
N12320 X-5.568 Y-2.736 Z-7.634
N12325 X-5.33 Y-3.173 Z-7.696
N12330 X-5.212 Y-3.392 Z-7.729
N12335 X-5.143 Y-3.516 Z-7.746
N12340 X-5.063 Y-3.611 Z-7.739
N12345 X-4.873 Y-3.83 Z-7.717
N12350 X-4.679 Y-4.049 Z-7.693
N12355 X-4.484 Y-4.268 Z-7.673
N12360 X-4.265 Y-4.487
N12365 X-4.019 Y-4.706 Z-7.696
N12370 X-3.771 Y-4.924 Z-7.723
N12375 X-3.611 Y-5.063 Z-7.739
N12380 X-3.516 Y-5.143 Z-7.746
N12385 X-3.392 Y-5.212 Z-7.729
N12390 X-2.955 Y-5.45 Z-7.665
N12395 X-2.71 Y-5.581 Z-7.631
N12400 X-2.517 Y-5.674 Z-7.617
N12405 X-2.298 Y-5.767 Z-7.615
N12410 X-2.212 Y-5.8 Z-7.618
N12415 X-2.079 Y-5.847 Z-7.627
N12420 X-1.86 Y-5.915 Z-7.652
N12425 X-1.423 Y-6.043 Z-7.71
N12430 X-1.204 Y-6.099 Z-7.731
N12435 X-0.985 Y-6.122 Z-7.722
N12440 X-0.328 Y-6.163 Z-7.668
N12445 X-0.109 Y-6.172 Z-7.655
N12450 X0.109
N12455 X0.328 Y-6.162 Z-7.667
N12460 X0.766 Y-6.133 Z-7.701
N12465 X0.985 Y-6.12 Z-7.72
N12470 X1.204 Y-6.098 Z-7.731
N12475 X1.423 Y-6.044 Z-7.711
N12480 X1.86 Y-5.915 Z-7.652
N12485 X2.079 Y-5.847 Z-7.627
N12490 X2.214 Y-5.8 Z-7.619
N12495 X2.298 Y-5.768 Z-7.616
N12500 X2.517 Y-5.675 Z-7.617
N12505 X2.736 Y-5.568 Z-7.634
N12510 X3.173 Y-5.33 Z-7.696
N12515 X3.392 Y-5.212 Z-7.729
N12520 X3.516 Y-5.143 Z-7.746
N12525 X3.611 Y-5.063 Z-7.739
N12530 X3.83 Y-4.873 Z-7.717
N12535 X4.049 Y-4.679 Z-7.693
N12540 X4.268 Y-4.484 Z-7.673
N12545 X4.487 Y-4.265
N12550 X4.706 Y-4.019 Z-7.696
N12555 X4.924 Y-3.771 Z-7.723
N12560 X5.063 Y-3.611 Z-7.739
N12565 X5.143 Y-3.516 Z-7.746
N12570 X5.212 Y-3.392 Z-7.729
N12575 X5.45 Y-2.955 Z-7.665
N12580 X5.581 Y-2.71 Z-7.631
N12585 X5.674 Y-2.517 Z-7.617
N12590 X5.767 Y-2.298 Z-7.615
N12595 X5.8 Y-2.212 Z-7.618
N12600 X5.847 Y-2.079 Z-7.627
N12605 X5.915 Y-1.86 Z-7.652
N12610 X6.043 Y-1.423 Z-7.71
N12615 X6.099 Y-1.204 Z-7.731
N12620 X6.122 Y-0.985 Z-7.722
N12625 X6.163 Y-0.328 Z-7.668
N12630 X6.172 Y-0.109 Z-7.655
N12635 Y0.109
N12640 X6.162 Y0.328 Z-7.667
N12645 X6.133 Y0.766 Z-7.701
N12650 X6.12 Y0.985 Z-7.72
N12655 X6.098 Y1.204 Z-7.731
N12660 X6.044 Y1.423 Z-7.711
N12665 X5.915 Y1.86 Z-7.652
N12670 X5.847 Y2.079 Z-7.627
N12675 X5.8 Y2.214 Z-7.619
N12680 X5.768 Y2.298 Z-7.616
N12685 X5.675 Y2.517 Z-7.617
N12690 X5.568 Y2.736 Z-7.634
N12695 X5.33 Y3.173 Z-7.696
N12700 X5.212 Y3.392 Z-7.729
N12705 X5.143 Y3.516 Z-7.746
N12710 X5.063 Y3.611 Z-7.739
N12715 X4.873 Y3.83 Z-7.717
N12720 X4.679 Y4.049 Z-7.693
N12725 X4.484 Y4.268 Z-7.673
N12730 X4.265 Y4.487
N12735 X4.019 Y4.706 Z-7.696
N12740 X3.771 Y4.924 Z-7.723
N12745 X3.611 Y5.063 Z-7.739
N12750 X3.516 Y5.143 Z-7.746
N12755 X3.392 Y5.212 Z-7.729
N12760 X2.955 Y5.45 Z-7.665
N12765 X2.71 Y5.581 Z-7.631
N12770 X2.517 Y5.674 Z-7.617
N12775 X2.298 Y5.767 Z-7.615
N12780 X2.212 Y5.8 Z-7.618
N12785 X2.079 Y5.847 Z-7.627
N12790 X1.86 Y5.915 Z-7.652
N12795 X1.423 Y6.043 Z-7.71
N12800 X1.204 Y6.099 Z-7.731
N12805 X0.985 Y6.122 Z-7.722
N12810 X0.328 Y6.163 Z-7.668
N12815 X0.109 Y6.172 Z-7.655
N12820 X-0.109
N12825 X-0.328 Y6.162 Z-7.667
N12830 X-0.766 Y6.133 Z-7.701
N12835 X-0.985 Y6.12 Z-7.72
N12840 X-1.204 Y6.098 Z-7.731
N12845 X-1.423 Y6.044 Z-7.711
N12850 X-1.86 Y5.915 Z-7.652
N12855 X-2.079 Y5.847 Z-7.627
N12860 X-2.214 Y5.8 Z-7.619
N12865 X-2.298 Y5.768 Z-7.616
N12870 X-2.517 Y5.675 Z-7.617
N12875 X-2.736 Y5.568 Z-7.634
N12880 X-3.173 Y5.33 Z-7.696
N12885 X-3.392 Y5.212 Z-7.729
N12890 X-3.516 Y5.143 Z-7.746
N12895 X-3.611 Y5.063 Z-7.739
N12900 X-3.83 Y4.873 Z-7.717
N12905 X-4.049 Y4.679 Z-7.693
N12910 X-4.268 Y4.484 Z-7.673
N12915 X-4.487 Y4.265
N12920 X-4.706 Y4.019 Z-7.696
N12925 X-4.924 Y3.771 Z-7.723
N12930 X-5.063 Y3.611 Z-7.739
N12935 X-5.143 Y3.516 Z-7.746
N12940 X-5.212 Y3.392 Z-7.729
N12945 X-5.45 Y2.955 Z-7.665
N12950 X-5.581 Y2.71 Z-7.631
N12955 X-5.674 Y2.517 Z-7.617
N12960 X-5.767 Y2.298 Z-7.615
N12965 X-5.8 Y2.212 Z-7.618
N12970 X-5.847 Y2.079 Z-7.627
N12975 X-5.928 Y1.816 Z-7.658
N12980 X-5.949 Y1.754 Z-7.669
N12985 X-5.975 Y1.694 Z-7.685
N12990 X-6.005 Y1.638 Z-7.705
N12995 X-6.038 Y1.584 Z-7.728
N13000 X-6.108 Y1.48 Z-7.779
N13005 X-6.181 Y1.378 Z-7.833
N13010 X-6.249 Y1.278 Z-7.882
N13015 X-6.281 Y1.225 Z-7.904
N13020 X-6.31 Y1.17 Z-7.923
N13025 X-6.335 Y1.113 Z-7.938
N13030 X-6.355 Y1.054 Z-7.949
N13035 X-6.364 Y1.023 Z-7.953
N13040 X-6.37 Y0.993 Z-7.955
N13045 X-6.375 Y0.961
N13050 X-6.378 Y0.93 Z-7.953
N13055 X-6.416 Y0.328 Z-7.904
N13060 X-6.425 Y0.109 Z-7.891
N13065 Y-0.109
N13070 X-6.415 Y-0.328 Z-7.903
N13075 X-6.386 Y-0.766 Z-7.937
N13080 X-6.373 Y-0.985 Z-7.956
N13085 X-6.357 Y-1.204 Z-7.972
N13090 X-6.309 Y-1.423 Z-7.958
N13095 X-6.115 Y-2.079 Z-7.87
N13100 X-6.04 Y-2.298 Z-7.853
N13105 X-6.019 Y-2.357 Z-7.85
N13110 X-5.953 Y-2.517 Z-7.848
N13115 X-5.853 Y-2.736 Z-7.858
N13120 X-5.8 Y-2.84 Z-7.868
N13125 X-5.619 Y-3.173 Z-7.916
N13130 X-5.362 Y-3.648 Z-7.986
N13135 X-5.143 Y-3.905 Z-7.964
N13140 X-4.823 Y-4.268 Z-7.924
N13145 X-4.706 Y-4.401 Z-7.911
N13150 X-4.625 Y-4.487 Z-7.907
N13155 X-4.487 Y-4.625
N13160 X-4.401 Y-4.706 Z-7.911
N13165 X-4.049 Y-5.016 Z-7.948
N13170 X-3.905 Y-5.143 Z-7.964
N13175 X-3.648 Y-5.362 Z-7.986
N13180 X-2.955 Y-5.739 Z-7.884
N13185 X-2.836 Y-5.802 Z-7.868
N13190 X-2.736 Y-5.853 Z-7.858
N13195 X-2.517 Y-5.953 Z-7.848
N13200 X-2.355 Y-6.019 Z-7.85
N13205 X-2.298 Y-6.04 Z-7.852
N13210 X-2.079 Y-6.114 Z-7.87
N13215 X-1.423 Y-6.308 Z-7.957
N13220 X-1.204 Y-6.358 Z-7.973
N13225 X-0.985 Y-6.375 Z-7.958
N13230 X-0.328 Y-6.416 Z-7.904
N13235 X-0.109 Y-6.425 Z-7.891
N13240 X0.109
N13245 X0.328 Y-6.415 Z-7.903
N13250 X0.766 Y-6.386 Z-7.937
N13255 X0.985 Y-6.373 Z-7.956
N13260 X1.204 Y-6.357 Z-7.972
N13265 X1.423 Y-6.309 Z-7.958
N13270 X2.079 Y-6.115 Z-7.87
N13275 X2.298 Y-6.04 Z-7.853
N13280 X2.357 Y-6.019 Z-7.85
N13285 X2.517 Y-5.953 Z-7.848
N13290 X2.736 Y-5.853 Z-7.858
N13295 X2.84 Y-5.8 Z-7.868
N13300 X3.173 Y-5.619 Z-7.916
N13305 X3.648 Y-5.362 Z-7.986
N13310 X3.905 Y-5.143 Z-7.964
N13315 X4.268 Y-4.823 Z-7.924
N13320 X4.401 Y-4.706 Z-7.911
N13325 X4.487 Y-4.625 Z-7.907
N13330 X4.625 Y-4.487
N13335 X4.706 Y-4.401 Z-7.911
N13340 X5.016 Y-4.049 Z-7.948
N13345 X5.143 Y-3.905 Z-7.964
N13350 X5.362 Y-3.648 Z-7.986
N13355 X5.739 Y-2.955 Z-7.884
N13360 X5.8 Y-2.841 Z-7.868
N13365 X5.853 Y-2.736 Z-7.858
N13370 X5.953 Y-2.517 Z-7.848
N13375 X6.019 Y-2.355 Z-7.85
N13380 X6.04 Y-2.298 Z-7.852
N13385 X6.114 Y-2.079 Z-7.87
N13390 X6.308 Y-1.423 Z-7.957
N13395 X6.358 Y-1.204 Z-7.973
N13400 X6.375 Y-0.985 Z-7.958
N13405 X6.416 Y-0.328 Z-7.904
N13410 X6.425 Y-0.109 Z-7.891
N13415 Y0.109
N13420 X6.415 Y0.328 Z-7.903
N13425 X6.386 Y0.766 Z-7.937
N13430 X6.373 Y0.985 Z-7.956
N13435 X6.357 Y1.204 Z-7.972
N13440 X6.309 Y1.423 Z-7.958
N13445 X6.115 Y2.079 Z-7.871
N13450 X6.04 Y2.298 Z-7.853
N13455 X6.019 Y2.357 Z-7.85
N13460 X5.953 Y2.517 Z-7.848
N13465 X5.853 Y2.736 Z-7.858
N13470 X5.8 Y2.84 Z-7.868
N13475 X5.619 Y3.173 Z-7.916
N13480 X5.362 Y3.648 Z-7.986
N13485 X5.143 Y3.905 Z-7.964
N13490 X4.823 Y4.268 Z-7.924
N13495 X4.706 Y4.401 Z-7.911
N13500 X4.625 Y4.487 Z-7.907
N13505 X4.487 Y4.625
N13510 X4.401 Y4.706 Z-7.911
N13515 X4.049 Y5.016 Z-7.948
N13520 X3.905 Y5.143 Z-7.964
N13525 X3.648 Y5.362 Z-7.986
N13530 X2.955 Y5.739 Z-7.884
N13535 X2.841 Y5.8 Z-7.868
N13540 X2.736 Y5.853 Z-7.858
N13545 X2.517 Y5.953 Z-7.848
N13550 X2.355 Y6.019 Z-7.85
N13555 X2.298 Y6.04 Z-7.852
N13560 X2.079 Y6.114 Z-7.87
N13565 X1.423 Y6.308 Z-7.957
N13570 X1.204 Y6.358 Z-7.973
N13575 X0.985 Y6.375 Z-7.958
N13580 X0.328 Y6.416 Z-7.904
N13585 X0.109 Y6.425 Z-7.891
N13590 X-0.109
N13595 X-0.328 Y6.415 Z-7.903
N13600 X-0.766 Y6.386 Z-7.937
N13605 X-0.985 Y6.373 Z-7.956
N13610 X-1.204 Y6.357 Z-7.972
N13615 X-1.423 Y6.309 Z-7.958
N13620 X-2.079 Y6.115 Z-7.87
N13625 X-2.298 Y6.04 Z-7.853
N13630 X-2.357 Y6.019 Z-7.85
N13635 X-2.517 Y5.953 Z-7.848
N13640 X-2.736 Y5.853 Z-7.858
N13645 X-2.84 Y5.8 Z-7.868
N13650 X-3.173 Y5.619 Z-7.916
N13655 X-3.648 Y5.362 Z-7.986
N13660 X-3.905 Y5.143 Z-7.964
N13665 X-4.268 Y4.823 Z-7.924
N13670 X-4.401 Y4.706 Z-7.911
N13675 X-4.487 Y4.625 Z-7.907
N13680 X-4.625 Y4.487
N13685 X-4.706 Y4.401 Z-7.911
N13690 X-5.016 Y4.049 Z-7.948
N13695 X-5.143 Y3.905 Z-7.964
N13700 X-5.362 Y3.648 Z-7.986
N13705 X-5.739 Y2.955 Z-7.884
N13710 X-5.8 Y2.841 Z-7.868
N13715 X-5.853 Y2.736 Z-7.858
N13720 X-5.953 Y2.517 Z-7.848
N13725 X-6.019 Y2.355 Z-7.85
N13730 X-6.04 Y2.298 Z-7.852
N13735 X-6.114 Y2.079 Z-7.87
N13740 X-6.308 Y1.423 Z-7.957
N13745 X-6.358 Y1.204 Z-7.973
N13750 X-6.378 Y0.93 Z-7.953
N13755 X-6.401 Y0.739 Z-7.945
N13760 X-6.418 Y0.645 Z-7.946
N13765 X-6.439 Y0.551 Z-7.951
N13770 X-6.487 Y0.366 Z-7.97
N13775 X-6.539 Y0.182 Z-8.001
N13780 X-6.587 Y-0.002 Z-8.039
N13785 X-6.626 Y-0.187 Z-8.084
N13790 X-6.65 Y-0.374 Z-8.127
N13795 X-6.654 Y-0.469 Z-8.145
N13800 X-6.652 Y-0.565 Z-8.157
N13805 X-6.613 Y-1.204 Z-8.211
N13810 X-6.572 Y-1.423 Z-8.204
N13815 X-6.444 Y-1.86 Z-8.146
N13820 X-6.38 Y-2.079 Z-8.116
N13825 X-6.311 Y-2.298 Z-8.092
N13830 X-6.23 Y-2.517 Z-8.082
N13835 X-6.135 Y-2.736 Z-8.085
N13840 X-6.019 Y-2.97 Z-8.106
N13845 X-5.789 Y-3.392 Z-8.167
N13850 X-5.581 Y-3.777 Z-8.225
N13855 X-5.539 Y-3.83 Z-8.222
N13860 X-5.353 Y-4.049 Z-8.204
N13865 X-4.924 Y-4.535 Z-8.151
N13870 X-4.765 Y-4.706 Z-8.142
N13875 X-4.706 Y-4.765
N13880 X-4.535 Y-4.924 Z-8.151
N13885 X-4.038 Y-5.362 Z-8.205
N13890 X-3.83 Y-5.539 Z-8.222
N13895 X-3.777 Y-5.581 Z-8.225
N13900 X-3.173 Y-5.908 Z-8.135
N13905 X-2.948 Y-6.03 Z-8.103
N13910 X-2.736 Y-6.135 Z-8.085
N13915 X-2.496 Y-6.238 Z-8.082
N13920 X-2.298 Y-6.31 Z-8.092
N13925 X-2.079 Y-6.379 Z-8.116
N13930 X-1.423 Y-6.572 Z-8.203
N13935 X-1.204 Y-6.615 Z-8.212
N13940 X-0.328 Y-6.669 Z-8.14
N13945 X-0.214 Y-6.675 Z-8.132
N13950 X-0.109 Y-6.678 Z-8.127
N13955 X0.109
N13960 X0.197 Y-6.675 Z-8.13
N13965 X0.328 Y-6.667 Z-8.138
N13970 X0.766 Y-6.639 Z-8.173
N13975 X1.204 Y-6.613 Z-8.211
N13980 X1.423 Y-6.572 Z-8.204
N13985 X1.86 Y-6.444 Z-8.146
N13990 X2.079 Y-6.38 Z-8.116
N13995 X2.298 Y-6.311 Z-8.092
N14000 X2.517 Y-6.23 Z-8.082
N14005 X2.736 Y-6.135 Z-8.085
N14010 X2.97 Y-6.019 Z-8.106
N14015 X3.392 Y-5.789 Z-8.167
N14020 X3.777 Y-5.581 Z-8.225
N14025 X3.83 Y-5.539 Z-8.222
N14030 X4.049 Y-5.353 Z-8.204
N14035 X4.535 Y-4.924 Z-8.151
N14040 X4.706 Y-4.765 Z-8.142
N14045 X4.765 Y-4.706
N14050 X4.924 Y-4.535 Z-8.151
N14055 X5.362 Y-4.038 Z-8.205
N14060 X5.539 Y-3.83 Z-8.222
N14065 X5.581 Y-3.777 Z-8.225
N14070 X5.908 Y-3.173 Z-8.135
N14075 X6.027 Y-2.955 Z-8.104
N14080 X6.135 Y-2.736 Z-8.085
N14085 X6.238 Y-2.496 Z-8.082
N14090 X6.31 Y-2.298 Z-8.092
N14095 X6.379 Y-2.079 Z-8.116
N14100 X6.572 Y-1.423 Z-8.203
N14105 X6.615 Y-1.204 Z-8.212
N14110 X6.669 Y-0.328 Z-8.14
N14115 X6.675 Y-0.214 Z-8.132
N14120 X6.678 Y-0.109 Z-8.127
N14125 Y0.109
N14130 X6.675 Y0.2 Z-8.13
N14135 X6.667 Y0.328 Z-8.138
N14140 X6.639 Y0.766 Z-8.173
N14145 X6.613 Y1.204 Z-8.211
N14150 X6.572 Y1.423 Z-8.204
N14155 X6.444 Y1.86 Z-8.146
N14160 X6.38 Y2.079 Z-8.116
N14165 X6.311 Y2.298 Z-8.092
N14170 X6.23 Y2.517 Z-8.082
N14175 X6.135 Y2.736 Z-8.085
N14180 X6.019 Y2.97 Z-8.106
N14185 X5.789 Y3.392 Z-8.167
N14190 X5.581 Y3.777 Z-8.225
N14195 X5.539 Y3.83 Z-8.222
N14200 X5.353 Y4.049 Z-8.204
N14205 X4.924 Y4.535 Z-8.151
N14210 X4.765 Y4.706 Z-8.142
N14215 X4.706 Y4.765
N14220 X4.535 Y4.924 Z-8.151
N14225 X4.038 Y5.362 Z-8.205
N14230 X3.83 Y5.539 Z-8.222
N14235 X3.777 Y5.581 Z-8.225
N14240 X3.173 Y5.908 Z-8.135
N14245 X2.955 Y6.027 Z-8.104
N14250 X2.736 Y6.135 Z-8.085
N14255 X2.496 Y6.238 Z-8.082
N14260 X2.298 Y6.31 Z-8.092
N14265 X2.079 Y6.379 Z-8.116
N14270 X1.423 Y6.572 Z-8.203
N14275 X1.204 Y6.615 Z-8.212
N14280 X0.328 Y6.669 Z-8.14
N14285 X0.214 Y6.675 Z-8.132
N14290 X0.109 Y6.678 Z-8.127
N14295 X-0.109
N14300 X-0.2 Y6.675 Z-8.13
N14305 X-0.328 Y6.667 Z-8.138
N14310 X-0.766 Y6.639 Z-8.173
N14315 X-1.204 Y6.613 Z-8.211
N14320 X-1.423 Y6.572 Z-8.204
N14325 X-1.86 Y6.444 Z-8.146
N14330 X-2.079 Y6.38 Z-8.116
N14335 X-2.298 Y6.311 Z-8.092
N14340 X-2.517 Y6.23 Z-8.082
N14345 X-2.736 Y6.135 Z-8.085
N14350 X-2.97 Y6.019 Z-8.106
N14355 X-3.392 Y5.789 Z-8.167
N14360 X-3.777 Y5.581 Z-8.225
N14365 X-3.83 Y5.539 Z-8.222
N14370 X-4.049 Y5.353 Z-8.204
N14375 X-4.535 Y4.924 Z-8.151
N14380 X-4.706 Y4.765 Z-8.142
N14385 X-4.765 Y4.706
N14390 X-4.924 Y4.535 Z-8.151
N14395 X-5.362 Y4.038 Z-8.205
N14400 X-5.539 Y3.83 Z-8.222
N14405 X-5.581 Y3.777 Z-8.225
N14410 X-5.908 Y3.173 Z-8.135
N14415 X-6.027 Y2.955 Z-8.104
N14420 X-6.135 Y2.736 Z-8.085
N14425 X-6.238 Y2.496 Z-8.082
N14430 X-6.31 Y2.298 Z-8.092
N14435 X-6.379 Y2.079 Z-8.116
N14440 X-6.572 Y1.423 Z-8.203
N14445 X-6.615 Y1.204 Z-8.212
N14450 X-6.669 Y0.328 Z-8.14
N14455 X-6.675 Y0.214 Z-8.132
N14460 X-6.678 Y0.109 Z-8.127
N14465 Y-0.109
N14470 X-6.675 Y-0.197 Z-8.13
N14475 X-6.667 Y-0.328 Z-8.138
N14480 X-6.652 Y-0.565 Z-8.157
N14485 Y-0.648 Z-8.168
N14490 X-6.656 Y-0.696 Z-8.179
N14495 X-6.666 Y-0.76 Z-8.197
N14500 X-6.679 Y-0.822 Z-8.219
N14505 X-6.714 Y-0.944 Z-8.268
N14510 X-6.752 Y-1.064 Z-8.321
N14515 X-6.786 Y-1.181 Z-8.369
N14520 X-6.799 Y-1.242 Z-8.39
N14525 X-6.81 Y-1.304 Z-8.408
N14530 X-6.816 Y-1.366 Z-8.423
N14535 Y-1.444 Z-8.434
N14540 X-6.812 Y-1.491 Z-8.436
N14545 X-6.803 Y-1.538 Z-8.435
N14550 X-6.799 Y-1.553 Z-8.433
N14555 X-6.774 Y-1.641 Z-8.422
N14560 X-6.644 Y-2.079 Z-8.363
N14565 X-6.579 Y-2.298 Z-8.335
N14570 X-6.503 Y-2.517 Z-8.319
N14575 X-6.456 Y-2.637 Z-8.315
N14580 X-6.415 Y-2.736 Z-8.316
N14585 X-6.313 Y-2.955 Z-8.327
N14590 X-6.238 Y-3.099 Z-8.343
N14595 X-5.959 Y-3.611 Z-8.419
N14600 X-5.8 Y-3.907 Z-8.464
N14605 X-5.686 Y-4.049 Z-8.457
N14610 X-5.581 Y-4.171 Z-8.446
N14615 X-5.111 Y-4.706 Z-8.388
N14620 X-4.924 Y-4.904 Z-8.377
N14625 X-4.904 Y-4.924
N14630 X-4.706 Y-5.111 Z-8.388
N14635 X-4.171 Y-5.581 Z-8.446
N14640 X-4.049 Y-5.686 Z-8.457
N14645 X-3.907 Y-5.8 Z-8.464
N14650 X-3.173 Y-6.197 Z-8.354
N14655 X-3.065 Y-6.255 Z-8.34
N14660 X-2.955 Y-6.313 Z-8.327
N14665 X-2.736 Y-6.414 Z-8.315
N14670 X-2.635 Y-6.456
N14675 X-2.517 Y-6.503 Z-8.318
N14680 X-2.298 Y-6.578 Z-8.335
N14685 X-1.86 Y-6.708 Z-8.392
N14690 X-1.641 Y-6.773 Z-8.422
N14695 X-1.423 Y-6.835 Z-8.449
N14700 X-1.204 Y-6.869 Z-8.45
N14705 X-0.985 Y-6.881 Z-8.43
N14710 X-0.328 Y-6.922 Z-8.376
N14715 X-0.109 Y-6.931 Z-8.363
N14720 X0.109
N14725 X0.328 Y-6.92 Z-8.374
N14730 X0.766 Y-6.892 Z-8.409
N14735 X1.204 Y-6.867 Z-8.448
N14740 X1.423 Y-6.835 Z-8.449
N14745 X1.641 Y-6.774 Z-8.422
N14750 X2.079 Y-6.644 Z-8.363
N14755 X2.298 Y-6.579 Z-8.335
N14760 X2.517 Y-6.503 Z-8.319
N14765 X2.637 Y-6.456 Z-8.315
N14770 X2.736 Y-6.415 Z-8.316
N14775 X2.955 Y-6.313 Z-8.327
N14780 X3.099 Y-6.238 Z-8.343
N14785 X3.611 Y-5.959 Z-8.419
N14790 X3.907 Y-5.8 Z-8.464
N14795 X4.049 Y-5.686 Z-8.457
N14800 X4.171 Y-5.581 Z-8.446
N14805 X4.706 Y-5.111 Z-8.388
N14810 X4.904 Y-4.924 Z-8.377
N14815 X4.924 Y-4.904
N14820 X5.111 Y-4.706 Z-8.388
N14825 X5.581 Y-4.171 Z-8.446
N14830 X5.686 Y-4.049 Z-8.457
N14835 X5.8 Y-3.907 Z-8.464
N14840 X6.197 Y-3.173 Z-8.354
N14845 X6.238 Y-3.099 Z-8.344
N14850 X6.313 Y-2.955 Z-8.327
N14855 X6.414 Y-2.736 Z-8.315
N14860 X6.456 Y-2.635
N14865 X6.503 Y-2.517 Z-8.318
N14870 X6.578 Y-2.298 Z-8.335
N14875 X6.708 Y-1.86 Z-8.392
N14880 X6.773 Y-1.641 Z-8.422
N14885 X6.835 Y-1.423 Z-8.449
N14890 X6.869 Y-1.204 Z-8.45
N14895 X6.881 Y-0.985 Z-8.43
N14900 X6.922 Y-0.328 Z-8.376
N14905 X6.931 Y-0.109 Z-8.363
N14910 Y0.109
N14915 X6.92 Y0.328 Z-8.374
N14920 X6.892 Y0.766 Z-8.409
N14925 X6.867 Y1.204 Z-8.448
N14930 X6.835 Y1.423 Z-8.449
N14935 X6.774 Y1.641 Z-8.422
N14940 X6.644 Y2.079 Z-8.363
N14945 X6.579 Y2.298 Z-8.335
N14950 X6.503 Y2.517 Z-8.319
N14955 X6.456 Y2.637 Z-8.315
N14960 X6.415 Y2.736 Z-8.316
N14965 X6.313 Y2.955 Z-8.327
N14970 X6.238 Y3.099 Z-8.343
N14975 X5.959 Y3.611 Z-8.419
N14980 X5.8 Y3.907 Z-8.464
N14985 X5.686 Y4.049 Z-8.457
N14990 X5.581 Y4.171 Z-8.446
N14995 X5.111 Y4.706 Z-8.388
N15000 X4.924 Y4.904 Z-8.377
N15005 X4.904 Y4.924
N15010 X4.706 Y5.111 Z-8.388
N15015 X4.171 Y5.581 Z-8.446
N15020 X4.049 Y5.686 Z-8.457
N15025 X3.907 Y5.8 Z-8.464
N15030 X3.173 Y6.197 Z-8.354
N15035 X3.099 Y6.238 Z-8.344
N15040 X2.955 Y6.313 Z-8.327
N15045 X2.736 Y6.414 Z-8.315
N15050 X2.635 Y6.456
N15055 X2.517 Y6.503 Z-8.318
N15060 X2.298 Y6.578 Z-8.335
N15065 X1.86 Y6.708 Z-8.392
N15070 X1.641 Y6.773 Z-8.422
N15075 X1.423 Y6.835 Z-8.449
N15080 X1.204 Y6.869 Z-8.45
N15085 X0.985 Y6.881 Z-8.43
N15090 X0.328 Y6.922 Z-8.376
N15095 X0.109 Y6.931 Z-8.363
N15100 X-0.109
N15105 X-0.328 Y6.92 Z-8.374
N15110 X-0.766 Y6.892 Z-8.409
N15115 X-1.204 Y6.867 Z-8.448
N15120 X-1.423 Y6.835 Z-8.449
N15125 X-1.641 Y6.774 Z-8.422
N15130 X-2.079 Y6.644 Z-8.363
N15135 X-2.298 Y6.579 Z-8.335
N15140 X-2.517 Y6.503 Z-8.319
N15145 X-2.637 Y6.456 Z-8.315
N15150 X-2.736 Y6.415 Z-8.316
N15155 X-2.955 Y6.313 Z-8.327
N15160 X-3.099 Y6.238 Z-8.343
N15165 X-3.611 Y5.959 Z-8.419
N15170 X-3.907 Y5.8 Z-8.464
N15175 X-4.049 Y5.686 Z-8.457
N15180 X-4.171 Y5.581 Z-8.446
N15185 X-4.706 Y5.111 Z-8.388
N15190 X-4.904 Y4.924 Z-8.377
N15195 X-4.924 Y4.904
N15200 X-5.111 Y4.706 Z-8.388
N15205 X-5.581 Y4.171 Z-8.446
N15210 X-5.686 Y4.049 Z-8.457
N15215 X-5.8 Y3.907 Z-8.464
N15220 X-6.197 Y3.173 Z-8.354
N15225 X-6.238 Y3.099 Z-8.344
N15230 X-6.313 Y2.955 Z-8.327
N15235 X-6.414 Y2.736 Z-8.315
N15240 X-6.456 Y2.635
N15245 X-6.503 Y2.517 Z-8.318
N15250 X-6.578 Y2.298 Z-8.335
N15255 X-6.708 Y1.86 Z-8.392
N15260 X-6.773 Y1.641 Z-8.422
N15265 X-6.835 Y1.423 Z-8.449
N15270 X-6.869 Y1.204 Z-8.45
N15275 X-6.881 Y0.985 Z-8.43
N15280 X-6.922 Y0.328 Z-8.376
N15285 X-6.931 Y0.109 Z-8.363
N15290 Y-0.109
N15295 X-6.92 Y-0.328 Z-8.374
N15300 X-6.892 Y-0.766 Z-8.409
N15305 X-6.867 Y-1.204 Z-8.448
N15310 X-6.835 Y-1.423 Z-8.449
N15315 X-6.799 Y-1.553 Z-8.433
N15320 X-6.757 Y-1.741 Z-8.419
N15325 X-6.743 Y-1.836 Z-8.418
N15330 X-6.733 Y-1.932 Z-8.42
N15335 X-6.718 Y-2.125 Z-8.433
N15340 X-6.705 Y-2.318 Z-8.455
N15345 X-6.689 Y-2.508 Z-8.48
N15350 X-6.661 Y-2.697 Z-8.51
N15355 X-6.641 Y-2.79 Z-8.524
N15360 X-6.615 Y-2.881 Z-8.538
N15365 X-6.583 Y-2.97 Z-8.55
N15370 X-6.544 Y-3.057 Z-8.563
N15375 X-6.486 Y-3.173 Z-8.574
N15380 X-6.238 Y-3.629 Z-8.64
N15385 X-6.019 Y-4.036 Z-8.702
N15390 X-6.01 Y-4.049 Z-8.703
N15395 X-5.833 Y-4.268 Z-8.691
N15400 X-5.362 Y-4.802 Z-8.632
N15405 X-5.254 Y-4.924 Z-8.62
N15410 X-5.143 Y-5.042 Z-8.614
N15415 X-5.042 Y-5.143
N15420 X-4.924 Y-5.254 Z-8.62
N15425 X-4.305 Y-5.8 Z-8.686
N15430 X-4.268 Y-5.833 Z-8.691
N15435 X-4.049 Y-6.011 Z-8.703
N15440 X-4.036 Y-6.019 Z-8.702
N15445 X-3.392 Y-6.367 Z-8.606
N15450 X-3.173 Y-6.486 Z-8.574
N15455 X-2.955 Y-6.595 Z-8.553
N15460 X-2.774 Y-6.675 Z-8.548
N15465 X-2.736 Y-6.691
N15470 X-2.517 Y-6.774 Z-8.557
N15475 X-2.298 Y-6.844 Z-8.58
N15480 X-1.641 Y-7.038 Z-8.669
N15485 X-1.423 Y-7.098 Z-8.694
N15490 X-1.305 Y-7.113 Z-8.691
N15495 X-1.204 Y-7.122 Z-8.686
N15500 X-0.985 Y-7.134 Z-8.666
N15505 X-0.328 Y-7.175 Z-8.612
N15510 X-0.109 Y-7.184 Z-8.599
N15515 X0.109
N15520 X0.328 Y-7.173 Z-8.61
N15525 X0.766 Y-7.145 Z-8.645
N15530 X1.204 Y-7.12 Z-8.684
N15535 X1.291 Y-7.113 Z-8.689
N15540 X1.423 Y-7.098 Z-8.693
N15545 X1.641 Y-7.039 Z-8.669
N15550 X2.298 Y-6.844 Z-8.58
N15555 X2.517 Y-6.774 Z-8.558
N15560 X2.736 Y-6.692 Z-8.549
N15565 X2.775 Y-6.675
N15570 X2.955 Y-6.596 Z-8.554
N15575 X3.173 Y-6.486 Z-8.574
N15580 X3.629 Y-6.238 Z-8.64
N15585 X4.036 Y-6.019 Z-8.702
N15590 X4.049 Y-6.01 Z-8.703
N15595 X4.268 Y-5.833 Z-8.691
N15600 X4.802 Y-5.362 Z-8.632
N15605 X4.924 Y-5.254 Z-8.62
N15610 X5.042 Y-5.143 Z-8.614
N15615 X5.143 Y-5.042
N15620 X5.254 Y-4.924 Z-8.62
N15625 X5.8 Y-4.305 Z-8.686
N15630 X5.833 Y-4.268 Z-8.691
N15635 X6.011 Y-4.049 Z-8.703
N15640 X6.019 Y-4.036 Z-8.702
N15645 X6.367 Y-3.392 Z-8.606
N15650 X6.486 Y-3.173 Z-8.574
N15655 X6.595 Y-2.955 Z-8.553
N15660 X6.675 Y-2.774 Z-8.548
N15665 X6.691 Y-2.736
N15670 X6.774 Y-2.517 Z-8.557
N15675 X6.844 Y-2.298 Z-8.58
N15680 X7.038 Y-1.641 Z-8.669
N15685 X7.098 Y-1.423 Z-8.694
N15690 X7.113 Y-1.305 Z-8.691
N15695 X7.122 Y-1.204 Z-8.686
N15700 X7.134 Y-0.985 Z-8.666
N15705 X7.175 Y-0.328 Z-8.612
N15710 X7.184 Y-0.109 Z-8.599
N15715 Y0.109
N15720 X7.173 Y0.328 Z-8.61
N15725 X7.145 Y0.766 Z-8.645
N15730 X7.12 Y1.204 Z-8.684
N15735 X7.113 Y1.291 Z-8.689
N15740 X7.098 Y1.423 Z-8.693
N15745 X7.039 Y1.641 Z-8.669
N15750 X6.844 Y2.298 Z-8.58
N15755 X6.774 Y2.517 Z-8.558
N15760 X6.692 Y2.736 Z-8.549
N15765 X6.675 Y2.775
N15770 X6.596 Y2.955 Z-8.554
N15775 X6.486 Y3.173 Z-8.574
N15780 X6.238 Y3.629 Z-8.64
N15785 X6.019 Y4.036 Z-8.702
N15790 X6.01 Y4.049 Z-8.703
N15795 X5.833 Y4.268 Z-8.691
N15800 X5.362 Y4.802 Z-8.632
N15805 X5.254 Y4.924 Z-8.62
N15810 X5.143 Y5.042 Z-8.614
N15815 X5.042 Y5.143
N15820 X4.924 Y5.254 Z-8.62
N15825 X4.305 Y5.8 Z-8.686
N15830 X4.268 Y5.833 Z-8.691
N15835 X4.049 Y6.011 Z-8.703
N15840 X4.036 Y6.019 Z-8.702
N15845 X3.392 Y6.367 Z-8.606
N15850 X3.173 Y6.486 Z-8.574
N15855 X2.955 Y6.595 Z-8.553
N15860 X2.774 Y6.675 Z-8.548
N15865 X2.736 Y6.691
N15870 X2.517 Y6.774 Z-8.557
N15875 X2.298 Y6.844 Z-8.58
N15880 X1.641 Y7.038 Z-8.669
N15885 X1.423 Y7.098 Z-8.694
N15890 X1.305 Y7.113 Z-8.691
N15895 X1.204 Y7.122 Z-8.686
N15900 X0.985 Y7.134 Z-8.666
N15905 X0.328 Y7.175 Z-8.612
N15910 X0.109 Y7.184 Z-8.599
N15915 X-0.109
N15920 X-0.328 Y7.173 Z-8.61
N15925 X-0.766 Y7.145 Z-8.645
N15930 X-1.204 Y7.12 Z-8.684
N15935 X-1.291 Y7.113 Z-8.689
N15940 X-1.423 Y7.098 Z-8.693
N15945 X-1.641 Y7.039 Z-8.669
N15950 X-2.298 Y6.844 Z-8.58
N15955 X-2.517 Y6.774 Z-8.558
N15960 X-2.736 Y6.692 Z-8.549
N15965 X-2.775 Y6.675
N15970 X-2.955 Y6.596 Z-8.554
N15975 X-3.173 Y6.486 Z-8.574
N15980 X-3.629 Y6.238 Z-8.64
N15985 X-4.036 Y6.019 Z-8.702
N15990 X-4.049 Y6.01 Z-8.703
N15995 X-4.268 Y5.833 Z-8.691
N16000 X-4.802 Y5.362 Z-8.632
N16005 X-4.924 Y5.254 Z-8.62
N16010 X-5.042 Y5.143 Z-8.614
N16015 X-5.143 Y5.042
N16020 X-5.254 Y4.924 Z-8.62
N16025 X-5.8 Y4.305 Z-8.686
N16030 X-5.833 Y4.268 Z-8.691
N16035 X-6.011 Y4.049 Z-8.703
N16040 X-6.019 Y4.036 Z-8.702
N16045 X-6.367 Y3.392 Z-8.606
N16050 X-6.486 Y3.173 Z-8.574
N16055 X-6.595 Y2.955 Z-8.553
N16060 X-6.675 Y2.774 Z-8.548
N16065 X-6.691 Y2.736
N16070 X-6.774 Y2.517 Z-8.557
N16075 X-6.844 Y2.298 Z-8.58
N16080 X-7.038 Y1.641 Z-8.669
N16085 X-7.098 Y1.423 Z-8.694
N16090 X-7.113 Y1.305 Z-8.691
N16095 X-7.122 Y1.204 Z-8.686
N16100 X-7.134 Y0.985 Z-8.666
N16105 X-7.175 Y0.328 Z-8.612
N16110 X-7.184 Y0.109 Z-8.599
N16115 Y-0.109
N16120 X-7.173 Y-0.328 Z-8.61
N16125 X-7.145 Y-0.766 Z-8.645
N16130 X-7.12 Y-1.204 Z-8.684
N16135 X-7.113 Y-1.291 Z-8.689
N16140 X-7.098 Y-1.423 Z-8.693
N16145 X-7.035 Y-1.655 Z-8.667
N16150 X-6.844 Y-2.298 Z-8.58
N16155 X-6.774 Y-2.517 Z-8.558
N16160 X-6.692 Y-2.736 Z-8.549
N16165 X-6.675 Y-2.775
N16170 X-6.596 Y-2.955 Z-8.554
N16175 X-6.544 Y-3.057 Z-8.563
N16180 X-6.515 Y-3.124 Z-8.57
N16185 X-6.497 Y-3.176 Z-8.583
N16190 X-6.48 Y-3.236 Z-8.602
N16195 X-6.467 Y-3.296 Z-8.625
N16200 X-6.448 Y-3.416 Z-8.676
N16205 X-6.423 Y-3.653 Z-8.791
N16210 X-6.404 Y-3.772 Z-8.845
N16215 X-6.39 Y-3.832 Z-8.868
N16220 X-6.372 Y-3.891 Z-8.888
N16225 X-6.35 Y-3.95 Z-8.905
N16230 X-6.322 Y-4.007 Z-8.916
N16235 X-6.238 Y-4.165 Z-8.94
N16240 X-6.161 Y-4.268
N16245 X-6.019 Y-4.439 Z-8.928
N16250 X-5.581 Y-4.935 Z-8.873
N16255 X-5.396 Y-5.143 Z-8.853
N16260 X-5.362 Y-5.179 Z-8.851
N16265 X-5.179 Y-5.362
N16270 X-5.143 Y-5.396 Z-8.853
N16275 X-4.924 Y-5.59 Z-8.874
N16280 X-4.439 Y-6.019 Z-8.928
N16285 X-4.268 Y-6.161 Z-8.94
N16290 X-4.166 Y-6.238 Z-8.941
N16295 X-3.611 Y-6.537 Z-8.857
N16300 X-3.305 Y-6.703 Z-8.813
N16305 X-3.173 Y-6.772 Z-8.796
N16310 X-2.955 Y-6.875 Z-8.783
N16315 X-2.911 Y-6.894 Z-8.782
N16320 X-2.736 Y-6.965 Z-8.784
N16325 X-2.517 Y-7.042 Z-8.799
N16330 X-2.282 Y-7.113 Z-8.829
N16335 X-1.641 Y-7.303 Z-8.916
N16340 X-1.535 Y-7.332 Z-8.928
N16345 X-1.423 Y-7.355 Z-8.934
N16350 X-1.204 Y-7.375 Z-8.922
N16355 X-0.985 Y-7.387 Z-8.902
N16360 X-0.328 Y-7.428 Z-8.848
N16365 X-0.109 Y-7.437 Z-8.835
N16370 X0.109
N16375 X0.328 Y-7.426 Z-8.846
N16380 X0.766 Y-7.398 Z-8.881
N16385 X1.204 Y-7.373 Z-8.92
N16390 X1.423 Y-7.355 Z-8.933
N16395 X1.535 Y-7.332 Z-8.928
N16400 X1.641 Y-7.303 Z-8.916
N16405 X2.298 Y-7.109 Z-8.827
N16410 X2.517 Y-7.043 Z-8.8
N16415 X2.736 Y-6.966 Z-8.785
N16420 X2.913 Y-6.894 Z-8.782
N16425 X2.955 Y-6.876 Z-8.783
N16430 X3.173 Y-6.772 Z-8.796
N16435 X3.392 Y-6.655 Z-8.824
N16440 X3.83 Y-6.418 Z-8.889
N16445 X4.165 Y-6.238 Z-8.94
N16450 X4.268 Y-6.161
N16455 X4.439 Y-6.019 Z-8.928
N16460 X4.935 Y-5.581 Z-8.873
N16465 X5.143 Y-5.396 Z-8.853
N16470 X5.179 Y-5.362 Z-8.851
N16475 X5.362 Y-5.179
N16480 X5.396 Y-5.143 Z-8.853
N16485 X5.59 Y-4.924 Z-8.874
N16490 X6.019 Y-4.439 Z-8.928
N16495 X6.161 Y-4.268 Z-8.94
N16500 X6.238 Y-4.166 Z-8.941
N16505 X6.537 Y-3.611 Z-8.857
N16510 X6.675 Y-3.357 Z-8.82
N16515 X6.772 Y-3.173 Z-8.796
N16520 X6.875 Y-2.955 Z-8.783
N16525 X6.894 Y-2.911 Z-8.782
N16530 X6.965 Y-2.736 Z-8.784
N16535 X7.042 Y-2.517 Z-8.799
N16540 X7.113 Y-2.281 Z-8.829
N16545 X7.303 Y-1.641 Z-8.916
N16550 X7.332 Y-1.535 Z-8.928
N16555 X7.355 Y-1.423 Z-8.934
N16560 X7.375 Y-1.204 Z-8.922
N16565 X7.387 Y-0.985 Z-8.902
N16570 X7.428 Y-0.328 Z-8.848
N16575 X7.437 Y-0.109 Z-8.835
N16580 Y0.109
N16585 X7.426 Y0.328 Z-8.846
N16590 X7.398 Y0.766 Z-8.881
N16595 X7.373 Y1.204 Z-8.92
N16600 X7.355 Y1.423 Z-8.933
N16605 X7.332 Y1.535 Z-8.928
N16610 X7.303 Y1.641 Z-8.916
N16615 X7.109 Y2.298 Z-8.827
N16620 X7.043 Y2.517 Z-8.8
N16625 X6.966 Y2.736 Z-8.785
N16630 X6.894 Y2.913 Z-8.782
N16635 X6.876 Y2.955 Z-8.783
N16640 X6.772 Y3.173 Z-8.796
N16645 X6.655 Y3.392 Z-8.824
N16650 X6.418 Y3.83 Z-8.889
N16655 X6.238 Y4.165 Z-8.94
N16660 X6.161 Y4.268
N16665 X6.019 Y4.439 Z-8.928
N16670 X5.581 Y4.935 Z-8.873
N16675 X5.396 Y5.143 Z-8.853
N16680 X5.362 Y5.179 Z-8.851
N16685 X5.179 Y5.362
N16690 X5.143 Y5.396 Z-8.853
N16695 X4.924 Y5.59 Z-8.874
N16700 X4.439 Y6.019 Z-8.928
N16705 X4.268 Y6.161 Z-8.94
N16710 X4.166 Y6.238 Z-8.941
N16715 X3.611 Y6.537 Z-8.857
N16720 X3.357 Y6.675 Z-8.82
N16725 X3.173 Y6.772 Z-8.796
N16730 X2.955 Y6.875 Z-8.783
N16735 X2.911 Y6.894 Z-8.782
N16740 X2.736 Y6.965 Z-8.784
N16745 X2.517 Y7.042 Z-8.799
N16750 X2.282 Y7.113 Z-8.829
N16755 X1.641 Y7.303 Z-8.916
N16760 X1.535 Y7.332 Z-8.928
N16765 X1.423 Y7.355 Z-8.934
N16770 X1.204 Y7.375 Z-8.922
N16775 X0.985 Y7.387 Z-8.902
N16780 X0.328 Y7.428 Z-8.848
N16785 X0.109 Y7.437 Z-8.835
N16790 X-0.109
N16795 X-0.328 Y7.426 Z-8.846
N16800 X-0.766 Y7.398 Z-8.881
N16805 X-1.204 Y7.373 Z-8.92
N16810 X-1.423 Y7.355 Z-8.933
N16815 X-1.535 Y7.332 Z-8.928
N16820 X-1.641 Y7.303 Z-8.916
N16825 X-2.298 Y7.109 Z-8.827
N16830 X-2.517 Y7.043 Z-8.8
N16835 X-2.736 Y6.966 Z-8.785
N16840 X-2.913 Y6.894 Z-8.782
N16845 X-2.955 Y6.876 Z-8.783
N16850 X-3.173 Y6.772 Z-8.796
N16855 X-3.392 Y6.655 Z-8.824
N16860 X-3.83 Y6.418 Z-8.889
N16865 X-4.165 Y6.238 Z-8.94
N16870 X-4.268 Y6.161
N16875 X-4.439 Y6.019 Z-8.928
N16880 X-4.935 Y5.581 Z-8.873
N16885 X-5.143 Y5.396 Z-8.853
N16890 X-5.179 Y5.362 Z-8.851
N16895 X-5.362 Y5.179
N16900 X-5.396 Y5.143 Z-8.853
N16905 X-5.59 Y4.924 Z-8.874
N16910 X-6.019 Y4.439 Z-8.928
N16915 X-6.161 Y4.268 Z-8.94
N16920 X-6.238 Y4.166 Z-8.941
N16925 X-6.537 Y3.611 Z-8.857
N16930 X-6.675 Y3.357 Z-8.82
N16935 X-6.772 Y3.173 Z-8.796
N16940 X-6.875 Y2.955 Z-8.783
N16945 X-6.894 Y2.911 Z-8.782
N16950 X-6.965 Y2.736 Z-8.784
N16955 X-7.042 Y2.517 Z-8.799
N16960 X-7.113 Y2.282 Z-8.829
N16965 X-7.303 Y1.641 Z-8.916
N16970 X-7.332 Y1.535 Z-8.928
N16975 X-7.355 Y1.423 Z-8.934
N16980 X-7.375 Y1.204 Z-8.922
N16985 X-7.387 Y0.985 Z-8.902
N16990 X-7.428 Y0.328 Z-8.848
N16995 X-7.437 Y0.109 Z-8.835
N17000 Y-0.109
N17005 X-7.426 Y-0.328 Z-8.846
N17010 X-7.398 Y-0.766 Z-8.881
N17015 X-7.373 Y-1.204 Z-8.92
N17020 X-7.355 Y-1.423 Z-8.933
N17025 X-7.332 Y-1.535 Z-8.928
N17030 X-7.303 Y-1.641 Z-8.916
N17035 X-7.109 Y-2.298 Z-8.827
N17040 X-7.043 Y-2.517 Z-8.8
N17045 X-6.966 Y-2.736 Z-8.785
N17050 X-6.894 Y-2.913 Z-8.782
N17055 X-6.876 Y-2.955 Z-8.783
N17060 X-6.772 Y-3.173 Z-8.796
N17065 X-6.655 Y-3.392 Z-8.824
N17070 X-6.418 Y-3.83 Z-8.889
N17075 X-6.322 Y-4.007 Z-8.916
N17080 X-6.235 Y-4.178 Z-8.944
N17085 X-6.072 Y-4.522 Z-9.006
N17090 X-5.988 Y-4.694 Z-9.036
N17095 X-5.9 Y-4.861 Z-9.061
N17100 X-5.802 Y-5.024 Z-9.08
N17105 X-5.694 Y-5.18 Z-9.09
N17110 X-5.635 Y-5.254 Z-9.091
N17115 X-5.572 Y-5.325 Z-9.089
N17120 X-5.538 Y-5.362 Z-9.087
N17125 X-5.362 Y-5.538
N17130 X-5.316 Y-5.581 Z-9.089
N17135 X-5.068 Y-5.8 Z-9.114
N17140 X-4.573 Y-6.238 Z-9.169
N17145 X-4.487 Y-6.311 Z-9.176
N17150 X-4.295 Y-6.456 Z-9.179
N17155 X-3.83 Y-6.707 Z-9.109
