(--------------------------------- OP 1 ---------------------------------)
%
O01100
(Using high feed G1 F5000. instead of G0.)
(T3 D=16. CR=0. - ZMIN=-0.003 - fresa con punta plana)
G90 G94 G17
G21
G53 G0 Z0.

(despejar_adaptativo)
T3 M6
S5000 M3
G17 G90 G94
G54
M8
G1 X-68.299 Y-69.724 F5000.
G0 G43 Z30.45 H3
G1 Z20.45 F1000.
Z5.65
Z4.05
X-68.293 Y-69.719 Z3.893
X-68.274 Y-69.706 Z3.738
X-68.243 Y-69.684 Z3.585
X-68.2 Y-69.654 Z3.438
X-68.144 Y-69.616 Z3.296
X-68.078 Y-69.569 Z3.161
X-68.002 Y-69.516 Z3.035
X-67.915 Y-69.456 Z2.919
X-67.82 Y-69.389 Z2.813
X-67.716 Y-69.317 Z2.72
X-67.606 Y-69.24 Z2.639
X-67.489 Y-69.159 Z2.572
X-67.368 Y-69.074 Z2.519
X-67.243 Y-68.987 Z2.481
X-67.116 Y-68.898 Z2.458
X-66.987 Y-68.808 Z2.45
G3 X-60.354 Y-63.025 I-23.37 J33.502
G1 X-60.295 Y-62.957
X-59.811 Y-61.589
X-59.423 Y-60.191
X-59.111 Y-58.774
X-58.859 Y-57.345
X-58.655 Y-55.909
X-58.49 Y-54.467
X-58.357 Y-53.023
X-58.248 Y-51.576
X-58.16 Y-50.128
X-58.089 Y-48.679
X-58.03 Y-47.229
X-57.983 Y-45.779
X-57.945 Y-44.329
X-57.913 Y-42.878
X-57.888 Y-41.428
X-57.867 Y-39.977
X-57.85 Y-38.526
X-57.837 Y-37.075
X-57.826 Y-35.625
X-57.817 Y-34.174
X-57.809 Y-32.723
X-57.803 Y-31.272
X-57.795 Y-28.371
X-57.793 Y-27.665
X-57.828 Y-27.198
X-57.936 Y-26.742
X-58.112 Y-26.309
X-58.353 Y-25.908
X-58.63 Y-25.428
X-58.903 Y-24.948
X-59.114 Y-24.469
X-59.295 Y-23.989
X-59.492 Y-23.306
X-59.559 Y-23.029
X-59.643 Y-22.55
X-59.723 Y-22.07
X-59.858 Y-21.11
X-60.586 Y-14.873
X-60.651 Y-14.393
X-60.835 Y-13.434
X-62.063 Y-7.197
X-62.16 Y-6.717
X-62.304 Y-6.237
X-62.371 Y-6.018
X-62.453 Y-5.757
X-63.42 Y-2.879
X-63.577 Y-2.399
X-63.692 Y-1.919
X-63.81 Y-1.4
X-63.863 Y-0.96
X-63.916 Y-0.48
X-63.919 Y0.
X-63.916 Y0.48
X-63.863 Y0.96
X-63.81 Y1.4
X-63.692 Y1.919
X-63.577 Y2.399
X-63.423 Y2.879
X-62.48 Y5.757
X-62.325 Y6.237
X-62.174 Y6.717
X-62.075 Y7.197
X-60.63 Y14.393
X-60.564 Y14.873
X-60.451 Y15.833
X-59.858 Y21.11
X-59.723 Y22.07
X-59.643 Y22.55
X-59.559 Y23.029
X-59.492 Y23.306
X-59.16 Y24.718
X-58.901 Y26.146
X-58.691 Y27.581
X-58.521 Y29.022
X-58.383 Y30.466
X-58.271 Y31.913
X-58.181 Y33.361
X-58.107 Y34.81
X-58.047 Y36.259
X-57.998 Y37.709
X-57.959 Y39.16
X-57.927 Y40.61
X-57.9 Y42.061
X-57.879 Y43.511
X-57.862 Y44.962
X-57.848 Y46.413
X-57.836 Y47.864
X-57.827 Y49.314
X-57.344 Y50.683
X-56.51 Y51.869
X-55.468 Y52.879
X-54.292 Y53.729
X-53.027 Y54.44
X-51.703 Y55.031
X-50.337 Y55.522
X-48.944 Y55.927
X-47.532 Y56.261
X-46.108 Y56.536
X-44.675 Y56.762
X-43.236 Y56.947
X-41.793 Y57.099
X-40.347 Y57.223
X-38.9 Y57.325
X-37.452 Y57.408
X-36.002 Y57.476
X-34.553 Y57.531
X-33.102 Y57.577
X-31.652 Y57.614
X-30.202 Y57.644
X-28.751 Y57.669
X-27.862 Y57.681
X-27.364 Y57.726
X-26.879 Y57.845
X-26.418 Y58.036
X-25.991 Y58.294
X-25.908 Y58.353
X-25.428 Y58.63
X-24.948 Y58.903
X-24.469 Y59.114
X-23.989 Y59.295
X-23.306 Y59.492
X-23.029 Y59.559
X-22.55 Y59.643
X-22.07 Y59.723
X-21.11 Y59.858
X-14.873 Y60.586
X-14.393 Y60.651
X-13.434 Y60.835
X-7.197 Y62.063
X-6.717 Y62.16
X-6.237 Y62.304
X-6.018 Y62.371
X-5.757 Y62.453
X-2.879 Y63.42
X-2.399 Y63.577
X-1.919 Y63.692
X-1.4 Y63.81
X-0.96 Y63.863
X-0.48 Y63.916
X0. Y63.919
X0.48 Y63.916
X0.96 Y63.863
X1.4 Y63.81
X1.919 Y63.692
X2.399 Y63.577
X2.879 Y63.423
X5.757 Y62.48
X6.237 Y62.325
X6.717 Y62.174
X7.197 Y62.075
X14.393 Y60.63
X14.873 Y60.564
X15.833 Y60.451
X21.11 Y59.858
X22.07 Y59.723
X22.55 Y59.643
X23.029 Y59.559
X23.306 Y59.492
X24.718 Y59.16
X26.146 Y58.901
X27.581 Y58.691
X29.022 Y58.521
X30.466 Y58.383
X31.913 Y58.271
X33.361 Y58.181
X34.81 Y58.107
X36.259 Y58.047
X37.709 Y57.998
X39.16 Y57.959
X40.61 Y57.927
X42.061 Y57.9
X43.511 Y57.879
X44.962 Y57.862
X46.413 Y57.848
X47.864 Y57.836
X49.314 Y57.827
X50.683 Y57.344
X51.869 Y56.51
X52.879 Y55.468
X53.729 Y54.292
X54.44 Y53.027
X55.031 Y51.703
X55.522 Y50.337
X55.927 Y48.944
X56.261 Y47.532
X56.536 Y46.108
X56.762 Y44.675
X56.947 Y43.236
X57.099 Y41.793
X57.223 Y40.347
X57.325 Y38.9
X57.408 Y37.452
X57.476 Y36.002
X57.531 Y34.553
X57.577 Y33.102
X57.614 Y31.652
X57.644 Y30.202
X57.669 Y28.751
X57.681 Y27.862
X57.726 Y27.364
X57.845 Y26.879
X58.036 Y26.418
X58.294 Y25.991
X58.353 Y25.908
X58.63 Y25.428
X58.903 Y24.948
X59.114 Y24.469
X59.295 Y23.989
X59.492 Y23.306
X59.559 Y23.029
X59.643 Y22.55
X59.723 Y22.07
X59.858 Y21.11
X60.586 Y14.873
X60.651 Y14.393
X60.835 Y13.434
X62.063 Y7.197
X62.16 Y6.717
X62.304 Y6.237
X62.371 Y6.018
X62.453 Y5.757
X63.42 Y2.879
X63.577 Y2.399
X63.692 Y1.919
X63.81 Y1.4
X63.863 Y0.96
X63.916 Y0.48
X63.919 Y0.
X63.916 Y-0.48
X63.863 Y-0.96
X63.81 Y-1.4
X63.692 Y-1.919
X63.577 Y-2.399
X63.423 Y-2.879
X62.48 Y-5.757
X62.325 Y-6.237
X62.174 Y-6.717
X62.075 Y-7.197
X60.63 Y-14.393
X60.564 Y-14.873
X60.451 Y-15.833
X59.858 Y-21.11
X59.723 Y-22.07
X59.643 Y-22.55
X59.559 Y-23.029
X59.492 Y-23.306
X59.16 Y-24.718
X58.901 Y-26.146
X58.691 Y-27.581
X58.521 Y-29.022
X58.383 Y-30.466
X58.271 Y-31.913
X58.181 Y-33.361
X58.107 Y-34.81
X58.047 Y-36.259
X57.998 Y-37.709
X57.959 Y-39.16
X57.927 Y-40.61
X57.9 Y-42.061
X57.879 Y-43.511
X57.862 Y-44.962
X57.848 Y-46.413
X57.836 Y-47.864
X57.827 Y-49.314
X57.344 Y-50.683
X56.51 Y-51.869
X55.468 Y-52.879
X54.292 Y-53.729
X53.027 Y-54.44
X51.703 Y-55.031
X50.337 Y-55.522
X48.944 Y-55.927
X47.532 Y-56.261
X46.108 Y-56.536
X44.675 Y-56.762
X43.236 Y-56.947
X41.793 Y-57.099
X40.347 Y-57.223
X38.9 Y-57.325
X37.452 Y-57.408
X36.002 Y-57.476
X34.553 Y-57.531
X33.102 Y-57.577
X31.652 Y-57.614
X30.202 Y-57.644
X28.751 Y-57.669
X27.862 Y-57.681
X27.364 Y-57.726
X26.879 Y-57.845
X26.418 Y-58.036
X25.991 Y-58.294
X25.908 Y-58.353
X25.428 Y-58.63
X24.948 Y-58.903
X24.469 Y-59.114
X23.989 Y-59.295
X23.306 Y-59.492
X23.029 Y-59.559
X22.55 Y-59.643
X22.07 Y-59.723
X21.11 Y-59.858
X14.873 Y-60.586
X14.393 Y-60.651
X13.434 Y-60.835
X7.197 Y-62.063
X6.717 Y-62.16
X6.237 Y-62.304
X6.018 Y-62.371
X5.757 Y-62.453
X2.879 Y-63.42
X2.399 Y-63.577
X1.919 Y-63.692
X1.4 Y-63.81
X0.96 Y-63.863
X0.48 Y-63.916
X0. Y-63.919
X-0.48 Y-63.916
X-0.96 Y-63.863
X-1.4 Y-63.81
X-1.919 Y-63.692
X-2.399 Y-63.577
X-2.879 Y-63.423
X-5.757 Y-62.48
X-6.237 Y-62.325
X-6.717 Y-62.174
X-7.197 Y-62.075
X-14.393 Y-60.63
X-14.873 Y-60.564
X-15.833 Y-60.451
X-21.11 Y-59.858
X-22.07 Y-59.723
X-22.55 Y-59.643
X-23.029 Y-59.559
X-23.306 Y-59.492
X-24.718 Y-59.16
X-26.146 Y-58.901
X-27.581 Y-58.691
X-29.022 Y-58.521
X-30.466 Y-58.383
X-31.913 Y-58.271
X-33.361 Y-58.181
X-34.81 Y-58.107
X-36.259 Y-58.047
X-37.709 Y-57.998
X-39.16 Y-57.959
X-40.61 Y-57.927
X-42.061 Y-57.9
X-43.511 Y-57.879
X-44.882 Y-57.404
X-46.048 Y-56.54
X-47.022 Y-55.465
X-47.83 Y-54.26
X-48.496 Y-52.971
X-49.041 Y-51.627
X-49.487 Y-50.246
X-49.851 Y-48.842
X-50.146 Y-47.421
X-50.385 Y-45.99
X-50.579 Y-44.552
X-50.735 Y-43.11
X-50.861 Y-41.665
X-50.963 Y-40.217
X-51.045 Y-38.769
X-51.11 Y-37.32
X-51.143 Y-36.441
X-51.19 Y-35.989
X-51.299 Y-35.549
X-51.468 Y-35.127
X-51.693 Y-34.733
X-52.777 Y-33.105
X-53.255 Y-32.413
X-53.466 Y-32.145
X-57.094 Y-27.599
X-57.292 Y-27.347
X-57.573 Y-26.979
X-57.657 Y-26.868
X-58.053 Y-26.329
X-58.353 Y-25.908
G3 X-58.962 Y-25.425 I-1.269 J-0.974
G1 X-59.105 Y-25.36 Z2.458
X-59.247 Y-25.296 Z2.481
X-59.385 Y-25.233 Z2.519
X-59.52 Y-25.172 Z2.572
X-59.649 Y-25.113 Z2.639
X-59.772 Y-25.058 Z2.72
X-59.887 Y-25.006 Z2.813
X-59.993 Y-24.958 Z2.919
X-60.089 Y-24.914 Z3.035
X-60.174 Y-24.876 Z3.161
X-60.248 Y-24.842 Z3.296
X-60.309 Y-24.815 Z3.438
X-60.357 Y-24.793 Z3.585
X-60.392 Y-24.777 Z3.738
X-60.413 Y-24.768 Z3.893
X-60.42 Y-24.764 Z4.05
Z20.45
X-21.549 Y-61.081
Z5.65
Z4.05
X-21.554 Y-61.075 Z3.893
X-21.57 Y-61.059 Z3.738
X-21.596 Y-61.031 Z3.585
X-21.632 Y-60.992 Z3.438
X-21.678 Y-60.943 Z3.296
X-21.733 Y-60.884 Z3.161
X-21.797 Y-60.816 Z3.035
X-21.869 Y-60.739 Z2.919
X-21.949 Y-60.654 Z2.813
X-22.035 Y-60.562 Z2.72
X-22.127 Y-60.464 Z2.639
X-22.224 Y-60.361 Z2.572
X-22.325 Y-60.253 Z2.519
X-22.43 Y-60.142 Z2.481
X-22.536 Y-60.028 Z2.458
X-22.643 Y-59.914 Z2.45
G3 X-23.306 Y-59.492 I-1.154 J-1.083
G1 X-23.989 Y-59.295
X-24.469 Y-59.114
X-24.948 Y-58.903
X-25.428 Y-58.63
X-25.908 Y-58.353
X-26.329 Y-58.053
X-26.868 Y-57.657
X-26.979 Y-57.573
X-27.347 Y-57.292
X-27.601 Y-57.094
X-28.787 Y-56.156
X-29.762 Y-55.46
X-30.662 Y-54.923
X-31.812 Y-54.355
X-33.16 Y-53.819
X-34.544 Y-53.383
X-35.909 Y-52.893
X-37.167 Y-52.17
X-38.297 Y-51.26
X-39.294 Y-50.205
X-40.162 Y-49.043
X-40.397 Y-48.655
X-40.666 Y-48.273
X-40.986 Y-47.933
X-41.351 Y-47.642
X-41.754 Y-47.405
X-42.22 Y-47.173
X-42.53 Y-47.018
X-43.461 Y-46.538
X-43.66 Y-46.418
X-44.14 Y-46.103
X-44.202 Y-46.059
X-44.619 Y-45.725
X-45.099 Y-45.312
X-45.312 Y-45.099
X-45.725 Y-44.619
X-46.059 Y-44.202
X-46.103 Y-44.14
X-46.418 Y-43.66
X-46.538 Y-43.462
X-47.018 Y-42.541
X-47.182 Y-42.22
X-48.153 Y-40.301
X-48.401 Y-39.822
X-48.659 Y-39.342
X-48.937 Y-38.873
X-51.693 Y-34.733
G3 X-52.286 Y-34.23 I-1.3 J-0.932
G1 X-52.427 Y-34.161 Z2.458
X-52.566 Y-34.092 Z2.481
X-52.703 Y-34.025 Z2.519
X-52.835 Y-33.959 Z2.572
X-52.963 Y-33.897 Z2.639
X-53.084 Y-33.837 Z2.72
X-53.197 Y-33.781 Z2.813
X-53.301 Y-33.73 Z2.919
X-53.396 Y-33.683 Z3.035
X-53.48 Y-33.642 Z3.161
X-53.552 Y-33.606 Z3.296
X-53.612 Y-33.577 Z3.438
X-53.66 Y-33.553 Z3.585
X-53.694 Y-33.536 Z3.738
X-53.715 Y-33.526 Z3.893
X-53.721 Y-33.523 Z4.05
Z20.45
X-27.762 Y-58.292
Z5.65
Z4.05
X-27.764 Y-58.284 Z3.893
X-27.773 Y-58.263 Z3.738
X-27.786 Y-58.227 Z3.585
X-27.805 Y-58.178 Z3.438
X-27.829 Y-58.115 Z3.296
X-27.858 Y-58.04 Z3.161
X-27.891 Y-57.952 Z3.035
X-27.929 Y-57.854 Z2.919
X-27.971 Y-57.745 Z2.813
X-28.016 Y-57.627 Z2.72
X-28.064 Y-57.501 Z2.639
X-28.114 Y-57.369 Z2.572
X-28.167 Y-57.231 Z2.519
X-28.222 Y-57.089 Z2.481
X-28.277 Y-56.943 Z2.458
X-28.333 Y-56.797 Z2.45
G3 X-28.787 Y-56.156 I-1.478 J-0.565
G1 X-32.145 Y-53.499
X-32.46 Y-53.255
X-33.105 Y-52.792
X-38.862 Y-48.93
X-39.342 Y-48.638
X-39.822 Y-48.369
X-40.301 Y-48.126
X-41.754 Y-47.405
G3 X-41.99 Y-47.32 Z2.47 I-0.661 J-1.457
G2 X-44.152 Y-46.66 Z2.65 I11.058 J40.109
X-57.904 Y-38.888 I13.22 J39.449
X-58.417 Y-38.067 I1.037 J1.218
G1 X-69.862 Y6.647
G2 X-69.807 Y7.614 I1.55 J0.397
X-61.12 Y21.42 I38.875 J-14.824
X-59.899 Y22.654 Z2.512 I30.188 J-28.63
G3 X-59.492 Y23.306 Z2.45 I-1.114 J1.148
G1 X-59.295 Y23.989
X-59.114 Y24.469
X-58.903 Y24.948
X-58.63 Y25.428
X-58.353 Y25.908
X-58.053 Y26.329
X-57.657 Y26.868
X-57.573 Y26.979
X-57.292 Y27.347
X-57.094 Y27.601
X-56.156 Y28.787
X-55.46 Y29.762
X-54.923 Y30.662
X-54.355 Y31.812
X-53.819 Y33.16
X-53.383 Y34.544
X-53.026 Y35.95
X-52.734 Y37.371
X-52.495 Y38.802
X-52.298 Y40.24
X-51.965 Y41.652
X-51.357 Y42.969
X-50.529 Y44.16
X-49.534 Y45.217
X-48.416 Y46.141
X-47.207 Y46.943
X-45.93 Y47.632
X-44.605 Y48.222
X-43.244 Y48.724
X-41.857 Y49.15
X-40.452 Y49.511
X-39.033 Y49.815
X-37.683 Y50.058
X-37.246 Y50.167
X-36.829 Y50.335
X-36.438 Y50.559
X-33.105 Y52.777
X-32.413 Y53.255
X-32.145 Y53.466
X-27.599 Y57.094
X-27.347 Y57.292
X-26.979 Y57.573
X-26.868 Y57.657
X-26.329 Y58.053
X-25.991 Y58.294
G3 X-25.508 Y58.903 I-0.974 J1.269
G1 X-25.443 Y59.046 Z2.458
X-25.379 Y59.188 Z2.481
X-25.316 Y59.326 Z2.519
X-25.255 Y59.461 Z2.572
X-25.196 Y59.59 Z2.639
X-25.141 Y59.713 Z2.72
X-25.089 Y59.828 Z2.813
X-25.041 Y59.934 Z2.919
X-24.997 Y60.03 Z3.035
X-24.959 Y60.115 Z3.161
X-24.925 Y60.189 Z3.296
X-24.898 Y60.25 Z3.438
X-24.876 Y60.298 Z3.585
X-24.86 Y60.333 Z3.738
X-24.851 Y60.354 Z3.893
X-24.847 Y60.361 Z4.05
Z20.45
X-58.292 Y27.762
Z5.65
Z4.05
X-58.284 Y27.764 Z3.893
X-58.263 Y27.773 Z3.738
X-58.227 Y27.786 Z3.585
X-58.178 Y27.805 Z3.438
X-58.115 Y27.829 Z3.296
X-58.04 Y27.858 Z3.161
X-57.952 Y27.891 Z3.035
X-57.854 Y27.929 Z2.919
X-57.745 Y27.971 Z2.813
X-57.627 Y28.016 Z2.72
X-57.501 Y28.064 Z2.639
X-57.369 Y28.114 Z2.572
X-57.231 Y28.167 Z2.519
X-57.089 Y28.222 Z2.481
X-56.943 Y28.277 Z2.458
X-56.797 Y28.333 Z2.45
G3 X-56.156 Y28.787 I-0.565 J1.478
G1 X-53.499 Y32.145
X-53.255 Y32.46
X-52.792 Y33.105
X-48.93 Y38.862
X-48.638 Y39.342
X-48.369 Y39.822
X-48.126 Y40.301
X-47.173 Y42.22
X-47.018 Y42.53
X-46.538 Y43.461
X-46.418 Y43.66
X-46.103 Y44.14
X-46.059 Y44.202
X-45.725 Y44.619
X-45.312 Y45.099
X-45.099 Y45.312
X-44.619 Y45.725
X-44.202 Y46.059
X-44.14 Y46.103
X-43.66 Y46.418
X-43.462 Y46.538
X-42.541 Y47.018
X-42.22 Y47.182
X-40.301 Y48.153
X-39.822 Y48.401
X-39.342 Y48.659
X-38.873 Y48.937
X-36.438 Y50.559
G3 X-35.949 Y51.124 Z2.51 I-0.932 J1.3
G2 X-35.104 Y52.665 Z2.65 I32.475 J-16.801
X-25.806 Y63.274 I31.63 J-18.342
X-25.066 Y63.589 I0.977 J-1.267
G1 X8.603 Y68.628
G2 X9.404 Y68.543 I0.237 J-1.582
X21.411 Y61.111 I-12.878 J-34.22
X22.659 Y59.894 Z2.511 I-24.885 J-26.788
G3 X23.306 Y59.492 Z2.45 I1.144 J1.119
G1 X23.989 Y59.295
X24.469 Y59.114
X24.948 Y58.903
X25.428 Y58.63
X25.908 Y58.353
X26.329 Y58.053
X26.868 Y57.657
X26.979 Y57.573
X27.347 Y57.292
X27.601 Y57.094
X28.787 Y56.156
X29.762 Y55.46
X30.662 Y54.923
X31.812 Y54.355
X33.16 Y53.819
X34.544 Y53.383
X35.95 Y53.026
X37.371 Y52.734
X38.802 Y52.495
X40.24 Y52.298
X41.652 Y51.965
X42.969 Y51.357
X44.16 Y50.529
X45.217 Y49.534
X46.141 Y48.416
X46.943 Y47.207
X47.632 Y45.93
X48.222 Y44.605
X48.724 Y43.244
X49.15 Y41.857
X49.511 Y40.452
X49.815 Y39.033
X50.058 Y37.683
X50.167 Y37.246
X50.335 Y36.829
X50.559 Y36.438
X52.777 Y33.105
X53.255 Y32.413
X53.466 Y32.145
X57.094 Y27.599
X57.292 Y27.347
X57.573 Y26.979
X57.657 Y26.868
X58.053 Y26.329
X58.294 Y25.991
G3 X58.903 Y25.508 I1.269 J0.974
G1 X59.046 Y25.443 Z2.458
X59.188 Y25.379 Z2.481
X59.326 Y25.316 Z2.519
X59.461 Y25.255 Z2.572
X59.59 Y25.196 Z2.639
X59.713 Y25.141 Z2.72
X59.828 Y25.089 Z2.813
X59.934 Y25.041 Z2.919
X60.03 Y24.997 Z3.035
X60.115 Y24.959 Z3.161
X60.189 Y24.925 Z3.296
X60.25 Y24.898 Z3.438
X60.298 Y24.876 Z3.585
X60.333 Y24.86 Z3.738
X60.354 Y24.851 Z3.893
X60.361 Y24.847 Z4.05
Z20.45
X27.762 Y58.292
Z5.65
Z4.05
X27.764 Y58.284 Z3.893
X27.773 Y58.263 Z3.738
X27.786 Y58.227 Z3.585
X27.805 Y58.178 Z3.438
X27.829 Y58.115 Z3.296
X27.858 Y58.04 Z3.161
X27.891 Y57.952 Z3.035
X27.929 Y57.854 Z2.919
X27.971 Y57.745 Z2.813
X28.016 Y57.627 Z2.72
X28.064 Y57.501 Z2.639
X28.114 Y57.369 Z2.572
X28.167 Y57.231 Z2.519
X28.222 Y57.089 Z2.481
X28.277 Y56.943 Z2.458
X28.333 Y56.797 Z2.45
G3 X28.787 Y56.156 I1.478 J0.565
G1 X32.145 Y53.499
X32.46 Y53.255
X33.105 Y52.792
X38.862 Y48.93
X39.342 Y48.638
X39.822 Y48.369
X40.301 Y48.126
X42.22 Y47.173
X42.53 Y47.018
X43.461 Y46.538
X43.66 Y46.418
X44.14 Y46.103
X44.202 Y46.059
X44.619 Y45.725
X45.099 Y45.312
X45.312 Y45.099
X45.725 Y44.619
X46.059 Y44.202
X46.103 Y44.14
X46.418 Y43.66
X46.538 Y43.462
X47.018 Y42.541
X47.182 Y42.22
X48.153 Y40.301
X48.401 Y39.822
X48.659 Y39.342
X48.937 Y38.873
X50.559 Y36.438
G3 X51.124 Y35.949 Z2.51 I1.3 J0.932
G1 X51.149 Y35.936 Z2.512
G2 X52.665 Y35.104 Z2.65 I-16.826 J-32.461
X63.274 Y25.806 I-18.342 J-31.63
X63.589 Y25.066 I-1.267 J-0.977
G1 X68.628 Y-8.603
G2 X68.543 Y-9.404 I-1.582 J-0.237
X61.111 Y-21.411 I-34.22 J12.878
X59.894 Y-22.659 Z2.511 I-26.788 J24.885
G3 X59.492 Y-23.306 Z2.45 I1.119 J-1.144
G1 X59.295 Y-23.989
X59.114 Y-24.469
X58.903 Y-24.948
X58.63 Y-25.428
X58.353 Y-25.908
X58.053 Y-26.329
X57.657 Y-26.868
X57.573 Y-26.979
X57.292 Y-27.347
X57.094 Y-27.601
X56.156 Y-28.787
X55.46 Y-29.762
X54.923 Y-30.662
X54.355 Y-31.812
X53.819 Y-33.16
X53.383 Y-34.544
X53.026 Y-35.95
X52.734 Y-37.371
X52.495 Y-38.802
X52.298 Y-40.24
X51.965 Y-41.652
X51.357 Y-42.969
X50.529 Y-44.16
X49.534 Y-45.217
X48.416 Y-46.141
X47.207 Y-46.943
X45.93 Y-47.632
X44.605 Y-48.222
X43.244 Y-48.724
X41.857 Y-49.15
X40.452 Y-49.511
X39.033 Y-49.815
X37.683 Y-50.058
X37.246 Y-50.167
X36.829 Y-50.335
X36.438 Y-50.559
X33.105 Y-52.777
X32.413 Y-53.255
X32.145 Y-53.466
X27.599 Y-57.094
X27.347 Y-57.292
X26.979 Y-57.573
X26.868 Y-57.657
X26.329 Y-58.053
X25.991 Y-58.294
G3 X25.508 Y-58.903 I0.974 J-1.269
G1 X25.443 Y-59.046 Z2.458
X25.379 Y-59.188 Z2.481
X25.316 Y-59.326 Z2.519
X25.255 Y-59.461 Z2.572
X25.196 Y-59.59 Z2.639
X25.141 Y-59.713 Z2.72
X25.089 Y-59.828 Z2.813
X25.041 Y-59.934 Z2.919
X24.997 Y-60.03 Z3.035
X24.959 Y-60.115 Z3.161
X24.925 Y-60.189 Z3.296
X24.898 Y-60.25 Z3.438
X24.876 Y-60.298 Z3.585
X24.86 Y-60.333 Z3.738
X24.851 Y-60.354 Z3.893
X24.847 Y-60.361 Z4.05
Z20.45
X58.292 Y-27.762
Z5.65
Z4.05
X58.284 Y-27.764 Z3.893
X58.263 Y-27.773 Z3.738
X58.227 Y-27.786 Z3.585
X58.178 Y-27.805 Z3.438
X58.115 Y-27.829 Z3.296
X58.04 Y-27.858 Z3.161
X57.952 Y-27.891 Z3.035
X57.854 Y-27.929 Z2.919
X57.745 Y-27.971 Z2.813
X57.627 Y-28.016 Z2.72
X57.501 Y-28.064 Z2.639
X57.369 Y-28.114 Z2.572
X57.231 Y-28.167 Z2.519
X57.089 Y-28.222 Z2.481
X56.943 Y-28.277 Z2.458
X56.797 Y-28.333 Z2.45
G3 X56.156 Y-28.787 I0.565 J-1.478
G1 X53.499 Y-32.145
X53.255 Y-32.46
X52.792 Y-33.105
X48.93 Y-38.862
X48.638 Y-39.342
X48.369 Y-39.822
X48.126 Y-40.301
X47.173 Y-42.22
X47.018 Y-42.53
X46.538 Y-43.461
X46.418 Y-43.66
X46.103 Y-44.14
X46.059 Y-44.202
X45.725 Y-44.619
X45.312 Y-45.099
X45.099 Y-45.312
X44.619 Y-45.725
X44.202 Y-46.059
X44.14 Y-46.103
X43.66 Y-46.418
X43.462 Y-46.538
X42.541 Y-47.018
X42.22 Y-47.182
X40.301 Y-48.153
X39.822 Y-48.401
X39.342 Y-48.659
X38.873 Y-48.937
X36.438 Y-50.559
X36.369 Y-50.62 Z2.455
X36.301 Y-50.681 Z2.472
X36.236 Y-50.741 Z2.499
X36.173 Y-50.797 Z2.536
X36.121 Y-50.871 Z2.59
X36.074 Y-50.938 Z2.656
X36.032 Y-50.997 Z2.732
X35.996 Y-51.048 Z2.817
X35.968 Y-51.089 Z2.909
X35.953 Y-51.116 Z2.987
X35.943 Y-51.136 Z3.068
X35.937 Y-51.148 Z3.151
X35.935 Y-51.152 Z3.235
Z20.45
X-53.577 Y-51.437
Z7.
Z5.4
X-53.57 Y-51.433 Z5.243
X-53.551 Y-51.421 Z5.088
X-53.518 Y-51.402 Z4.935
X-53.472 Y-51.375 Z4.788
X-53.415 Y-51.34 Z4.646
X-53.345 Y-51.299 Z4.511
X-53.265 Y-51.251 Z4.385
X-53.174 Y-51.197 Z4.269
X-53.075 Y-51.137 Z4.163
X-52.966 Y-51.073 Z4.07
X-52.851 Y-51.004 Z3.989
X-52.729 Y-50.931 Z3.922
X-52.602 Y-50.856 Z3.869
X-52.471 Y-50.778 Z3.831
X-52.337 Y-50.698 Z3.808
X-52.203 Y-50.618 Z3.8
G3 X-45.173 Y-45.324 I-20.913 J35.088
G1 X-45.093 Y-45.244
X-45.006 Y-45.122
X-44.796 Y-44.743
X-44.64 Y-44.339
X-44.543 Y-43.916
X-44.504 Y-43.485
X-44.526 Y-43.052
X-44.607 Y-42.626
X-44.746 Y-42.216
X-44.941 Y-41.829
X-44.993 Y-41.741
X-45.099 Y-41.554
X-45.249 Y-41.261
X-46.221 Y-39.342
X-46.491 Y-38.862
X-47.018 Y-37.999
X-47.08 Y-37.902
X-49.417 Y-34.391
X-49.646 Y-34.064
X-49.998 Y-33.584
X-50.377 Y-33.101
X-52.776 Y-30.094
X-53.04 Y-29.746
X-53.398 Y-29.266
X-55.894 Y-25.908
X-56.134 Y-25.581
X-56.614 Y-24.882
X-56.841 Y-24.469
X-57.096 Y-23.989
X-57.463 Y-23.029
X-57.586 Y-22.55
X-57.706 Y-22.07
X-57.856 Y-21.11
X-58.494 Y-16.792
X-58.557 Y-16.312
X-58.62 Y-15.833
X-58.678 Y-15.353
X-59.126 Y-11.515
X-59.197 Y-11.035
X-59.379 Y-10.075
X-60.229 Y-5.757
X-60.363 Y-5.278
X-60.513 Y-4.798
X-60.666 Y-4.318
X-60.989 Y-3.358
X-61.304 Y-2.399
X-61.412 Y-1.963
X-61.531 Y-1.439
X-61.592 Y-0.96
X-61.646 Y-0.48
X-61.648 Y0.
X-61.646 Y0.48
X-61.592 Y0.96
X-61.531 Y1.439
X-61.412 Y1.963
X-61.305 Y2.399
X-60.995 Y3.358
X-60.681 Y4.318
X-60.374 Y5.278
X-60.239 Y5.757
X-59.179 Y11.035
X-59.107 Y11.515
X-58.675 Y15.353
X-58.618 Y15.833
X-58.533 Y16.496
X-58.494 Y16.792
X-57.856 Y21.11
X-57.706 Y22.07
X-57.573 Y22.599
X-57.463 Y23.029
X-57.096 Y23.989
X-56.841 Y24.469
X-56.614 Y24.882
X-56.134 Y25.581
X-55.894 Y25.908
X-53.398 Y29.266
X-53.04 Y29.746
X-52.776 Y30.095
X-50.377 Y33.127
X-50.02 Y33.584
X-49.66 Y34.064
X-49.417 Y34.407
X-47.072 Y37.902
X-47.018 Y37.986
X-46.472 Y38.862
X-46.2 Y39.342
X-45.247 Y41.261
X-45.099 Y41.553
X-44.993 Y41.741
X-44.709 Y42.22
X-44.619 Y42.357
X-44.14 Y43.007
X-43.996 Y43.18
X-43.518 Y43.66
X-43.18 Y43.996
X-43.007 Y44.14
X-42.357 Y44.619
X-42.22 Y44.708
X-41.741 Y44.993
X-41.554 Y45.099
X-41.261 Y45.249
X-39.342 Y46.221
X-38.862 Y46.491
X-37.999 Y47.018
X-37.902 Y47.08
X-34.391 Y49.417
X-34.064 Y49.646
X-33.584 Y49.998
X-33.101 Y50.377
X-30.094 Y52.776
X-29.746 Y53.04
X-29.266 Y53.398
X-25.908 Y55.894
X-25.581 Y56.134
X-24.882 Y56.614
X-24.469 Y56.841
X-23.989 Y57.096
X-23.029 Y57.463
X-22.55 Y57.586
X-22.07 Y57.706
X-21.11 Y57.856
X-16.792 Y58.494
X-16.312 Y58.557
X-15.833 Y58.62
X-15.353 Y58.678
X-11.515 Y59.126
X-11.035 Y59.197
X-10.075 Y59.379
X-5.757 Y60.229
X-5.278 Y60.363
X-4.798 Y60.513
X-4.318 Y60.666
X-3.358 Y60.989
X-2.399 Y61.304
X-1.963 Y61.412
X-1.439 Y61.531
X-0.96 Y61.592
X-0.48 Y61.646
X0. Y61.648
X0.48 Y61.646
X0.96 Y61.592
X1.439 Y61.531
X1.963 Y61.412
X2.399 Y61.305
X3.358 Y60.995
X4.318 Y60.681
X5.278 Y60.374
X5.757 Y60.239
X11.035 Y59.179
X11.515 Y59.107
X15.353 Y58.675
X15.833 Y58.618
X16.496 Y58.533
X16.792 Y58.494
X21.11 Y57.856
X22.07 Y57.706
X22.599 Y57.573
X23.029 Y57.463
X23.989 Y57.096
X24.469 Y56.841
X24.882 Y56.614
X25.581 Y56.134
X25.908 Y55.894
X29.266 Y53.398
X29.746 Y53.04
X30.095 Y52.776
X33.127 Y50.377
X33.584 Y50.02
X34.064 Y49.66
X34.407 Y49.417
X37.902 Y47.072
X37.986 Y47.018
X38.862 Y46.472
X39.342 Y46.2
X41.261 Y45.247
X41.553 Y45.099
X41.741 Y44.993
X42.22 Y44.709
X42.357 Y44.619
X43.007 Y44.14
X43.18 Y43.996
X43.66 Y43.518
X43.996 Y43.18
X44.14 Y43.007
X44.619 Y42.357
X44.708 Y42.22
X44.993 Y41.741
X45.099 Y41.554
X45.249 Y41.261
X46.221 Y39.342
X46.491 Y38.862
X47.018 Y37.999
X47.08 Y37.902
X49.417 Y34.391
X49.646 Y34.064
X49.998 Y33.584
X50.377 Y33.101
X52.776 Y30.094
X53.04 Y29.746
X53.398 Y29.266
X55.894 Y25.908
X56.134 Y25.581
X56.614 Y24.882
X56.841 Y24.469
X57.096 Y23.989
X57.463 Y23.029
X57.586 Y22.55
X57.706 Y22.07
X57.856 Y21.11
X58.494 Y16.792
X58.557 Y16.312
X58.62 Y15.833
X58.678 Y15.353
X59.126 Y11.515
X59.197 Y11.035
X59.379 Y10.075
X60.229 Y5.757
X60.363 Y5.278
X60.513 Y4.798
X60.666 Y4.318
X60.989 Y3.358
X61.304 Y2.399
X61.412 Y1.963
X61.531 Y1.439
X61.592 Y0.96
X61.646 Y0.48
X61.648 Y0.
X61.646 Y-0.48
X61.592 Y-0.96
X61.531 Y-1.439
X61.412 Y-1.963
X61.305 Y-2.399
X60.995 Y-3.358
X60.681 Y-4.318
X60.374 Y-5.278
X60.239 Y-5.757
X59.179 Y-11.035
X59.107 Y-11.515
X58.675 Y-15.353
X58.618 Y-15.833
X58.533 Y-16.496
X58.494 Y-16.792
X57.856 Y-21.11
X57.706 Y-22.07
X57.573 Y-22.599
X57.463 Y-23.029
X57.096 Y-23.989
X56.841 Y-24.469
X56.614 Y-24.882
X56.134 Y-25.581
X55.894 Y-25.908
X53.398 Y-29.266
X53.04 Y-29.746
X52.776 Y-30.095
X50.377 Y-33.127
X50.02 Y-33.584
X49.66 Y-34.064
X49.417 Y-34.407
X47.072 Y-37.902
X47.018 Y-37.986
X46.472 Y-38.862
X46.2 Y-39.342
X45.247 Y-41.261
X45.099 Y-41.553
X44.993 Y-41.741
X44.709 Y-42.22
X44.619 Y-42.357
X44.14 Y-43.007
X43.996 Y-43.18
X43.518 Y-43.66
X43.18 Y-43.996
X43.007 Y-44.14
X42.357 Y-44.619
X42.22 Y-44.708
X41.741 Y-44.993
X41.554 Y-45.099
X41.261 Y-45.249
X39.342 Y-46.221
X38.862 Y-46.491
X37.999 Y-47.018
X37.902 Y-47.08
X34.391 Y-49.417
X34.064 Y-49.646
X33.584 Y-49.998
X33.101 Y-50.377
X30.094 Y-52.776
X29.746 Y-53.04
X29.266 Y-53.398
X25.908 Y-55.894
X25.581 Y-56.134
X24.882 Y-56.614
X24.469 Y-56.841
X23.989 Y-57.096
X23.029 Y-57.463
X22.55 Y-57.586
X22.07 Y-57.706
X21.11 Y-57.856
X16.792 Y-58.494
X16.312 Y-58.557
X15.833 Y-58.62
X15.353 Y-58.678
X11.515 Y-59.126
X11.035 Y-59.197
X10.075 Y-59.379
X5.757 Y-60.229
X5.278 Y-60.363
X4.798 Y-60.513
X4.318 Y-60.666
X3.358 Y-60.989
X2.399 Y-61.304
X1.963 Y-61.412
X1.439 Y-61.531
X0.96 Y-61.592
X0.48 Y-61.646
X0. Y-61.648
X-0.48 Y-61.646
X-0.96 Y-61.592
X-1.439 Y-61.531
X-1.963 Y-61.412
X-2.399 Y-61.305
X-3.358 Y-60.995
X-4.318 Y-60.681
X-5.278 Y-60.374
X-5.757 Y-60.239
X-11.035 Y-59.179
X-11.515 Y-59.107
X-15.353 Y-58.675
X-15.833 Y-58.618
X-16.496 Y-58.533
X-16.792 Y-58.494
X-21.11 Y-57.856
X-22.07 Y-57.706
X-22.599 Y-57.573
X-23.029 Y-57.463
X-23.989 Y-57.096
X-24.469 Y-56.841
X-24.882 Y-56.614
X-25.581 Y-56.134
X-25.908 Y-55.894
X-29.266 Y-53.398
X-29.746 Y-53.04
X-30.095 Y-52.776
X-33.127 Y-50.377
X-33.584 Y-50.02
X-34.064 Y-49.66
X-34.407 Y-49.417
X-37.902 Y-47.072
X-37.986 Y-47.018
X-38.862 Y-46.472
X-39.342 Y-46.2
X-41.261 Y-45.247
X-41.349 Y-45.218 Z3.805
X-41.435 Y-45.19 Z3.822
X-41.519 Y-45.163 Z3.849
X-41.6 Y-45.137 Z3.886
X-41.678 Y-45.129 Z3.932
X-41.75 Y-45.121 Z3.987
X-41.815 Y-45.115 Z4.049
X-41.873 Y-45.109 Z4.119
X-41.922 Y-45.104 Z4.195
X-41.967 Y-45.105 Z4.287
X-41.999 Y-45.106 Z4.384
X-42.019 Y-45.107 Z4.484
X-42.026 Z4.585
Z20.45
X-51.223 Y-50.691
Z8.35
Z6.75
X-51.217 Y-50.687 Z6.593
X-51.198 Y-50.673 Z6.438
X-51.167 Y-50.652 Z6.285
X-51.123 Y-50.621 Z6.138
X-51.068 Y-50.583 Z5.996
X-51.002 Y-50.537 Z5.861
X-50.925 Y-50.483 Z5.735
X-50.839 Y-50.423 Z5.619
X-50.743 Y-50.357 Z5.513
X-50.64 Y-50.285 Z5.42
X-50.529 Y-50.208 Z5.339
X-50.413 Y-50.126 Z5.272
X-50.291 Y-50.042 Z5.219
X-50.166 Y-49.955 Z5.181
X-50.039 Y-49.866 Z5.158
X-49.91 Y-49.776 Z5.15
G3 X-43.274 Y-43.998 I-23.349 J33.517
G1 X-43.219 Y-43.935
X-43.136 Y-43.81
X-43.059 Y-43.681
X-42.863 Y-43.255
X-42.735 Y-42.804
X-42.676 Y-42.338
X-42.688 Y-41.869
X-42.771 Y-41.407
X-42.923 Y-40.963
X-43.141 Y-40.548
X-43.295 Y-40.301
X-43.553 Y-39.822
X-43.801 Y-39.342
X-44.051 Y-38.862
X-44.308 Y-38.382
X-44.577 Y-37.902
X-46.173 Y-35.504
X-46.538 Y-35.012
X-46.898 Y-34.544
X-47.664 Y-33.584
X-48.458 Y-32.583
X-48.937 Y-31.94
X-54.215 Y-24.835
X-54.459 Y-24.469
X-54.773 Y-23.989
X-55.038 Y-23.509
X-55.27 Y-23.029
X-55.453 Y-22.55
X-55.618 Y-22.07
X-55.654 Y-21.962
X-55.74 Y-21.59
X-55.845 Y-21.11
X-55.988 Y-20.151
X-57.263 Y-11.515
X-57.327 Y-11.035
X-57.442 Y-10.075
X-57.666 Y-8.156
X-57.742 Y-7.676
X-57.923 Y-6.717
X-58.301 Y-4.798
X-58.419 Y-4.318
X-58.719 Y-3.358
X-59.032 Y-2.399
X-59.16 Y-1.919
X-59.262 Y-1.439
X-59.322 Y-0.96
X-59.375 Y-0.48
X-59.378 Y0.
X-59.375 Y0.48
X-59.322 Y0.96
X-59.262 Y1.439
X-59.16 Y1.919
X-59.033 Y2.399
X-58.725 Y3.358
X-58.425 Y4.318
X-58.306 Y4.798
X-57.92 Y6.717
X-57.731 Y7.676
X-57.653 Y8.156
X-57.438 Y10.075
X-57.326 Y11.035
X-57.263 Y11.515
X-55.917 Y20.63
X-55.845 Y21.11
X-55.74 Y21.59
X-55.654 Y21.962
X-55.618 Y22.07
X-55.453 Y22.55
X-55.27 Y23.029
X-55.038 Y23.509
X-54.773 Y23.989
X-54.459 Y24.469
X-54.215 Y24.835
X-48.785 Y32.145
X-48.458 Y32.584
X-47.67 Y33.584
X-46.91 Y34.544
X-46.538 Y35.024
X-46.18 Y35.504
X-44.571 Y37.902
X-44.301 Y38.382
X-44.043 Y38.862
X-43.795 Y39.342
X-43.55 Y39.822
X-43.295 Y40.301
X-42.995 Y40.781
X-42.7 Y41.184
X-42.22 Y41.741
X-41.74 Y42.22
X-41.184 Y42.7
X-40.781 Y42.995
X-40.301 Y43.295
X-39.822 Y43.553
X-39.342 Y43.801
X-38.862 Y44.051
X-38.382 Y44.308
X-37.902 Y44.577
X-35.504 Y46.173
X-35.012 Y46.538
X-34.544 Y46.898
X-33.584 Y47.664
X-32.583 Y48.458
X-31.94 Y48.937
X-24.835 Y54.215
X-24.469 Y54.459
X-23.989 Y54.773
X-23.509 Y55.038
X-23.029 Y55.27
X-22.55 Y55.453
X-22.07 Y55.618
X-21.962 Y55.654
X-21.59 Y55.74
X-21.11 Y55.845
X-20.151 Y55.989
X-11.515 Y57.263
X-11.035 Y57.327
X-10.075 Y57.442
X-8.156 Y57.666
X-7.676 Y57.742
X-6.717 Y57.923
X-4.798 Y58.301
X-4.318 Y58.419
X-3.358 Y58.719
X-2.399 Y59.032
X-1.919 Y59.16
X-1.439 Y59.262
X-0.96 Y59.322
X-0.48 Y59.375
X0. Y59.378
X0.48 Y59.375
X0.96 Y59.322
X1.439 Y59.262
X1.919 Y59.16
X2.399 Y59.033
X3.358 Y58.725
X4.318 Y58.425
X4.798 Y58.306
X6.717 Y57.92
X7.676 Y57.731
X8.156 Y57.653
X10.075 Y57.438
X11.035 Y57.326
X11.515 Y57.263
X20.63 Y55.917
X21.11 Y55.845
X21.59 Y55.74
X21.962 Y55.654
X22.07 Y55.618
X22.55 Y55.453
X23.029 Y55.27
X23.509 Y55.038
X23.989 Y54.773
X24.469 Y54.459
X24.835 Y54.215
X32.145 Y48.785
X32.584 Y48.458
X33.584 Y47.67
X34.544 Y46.91
X35.024 Y46.538
X35.504 Y46.18
X37.902 Y44.571
X38.382 Y44.301
X38.862 Y44.043
X39.342 Y43.795
X39.822 Y43.55
X40.301 Y43.295
X40.781 Y42.995
X41.184 Y42.7
X41.741 Y42.22
X42.22 Y41.74
X42.7 Y41.184
X42.995 Y40.781
X43.295 Y40.301
X43.553 Y39.822
X43.801 Y39.342
X44.051 Y38.862
X44.308 Y38.382
X44.577 Y37.902
X46.173 Y35.504
X46.538 Y35.012
X46.898 Y34.544
X47.664 Y33.584
X48.458 Y32.583
X48.937 Y31.94
X54.215 Y24.835
X54.459 Y24.469
X54.773 Y23.989
X55.038 Y23.509
X55.27 Y23.029
X55.453 Y22.55
X55.618 Y22.07
X55.654 Y21.962
X55.74 Y21.59
X55.845 Y21.11
X55.989 Y20.151
X57.263 Y11.515
X57.327 Y11.035
X57.442 Y10.075
X57.666 Y8.156
X57.742 Y7.676
X57.923 Y6.717
X58.301 Y4.798
X58.419 Y4.318
X58.719 Y3.358
X59.032 Y2.399
X59.16 Y1.919
X59.262 Y1.439
X59.322 Y0.96
X59.375 Y0.48
X59.378 Y0.
X59.375 Y-0.48
X59.322 Y-0.96
X59.262 Y-1.439
X59.16 Y-1.919
X59.033 Y-2.399
X58.725 Y-3.358
X58.425 Y-4.318
X58.306 Y-4.798
X57.92 Y-6.717
X57.731 Y-7.676
X57.653 Y-8.156
X57.438 Y-10.075
X57.326 Y-11.035
X57.263 Y-11.515
X55.917 Y-20.63
X55.845 Y-21.11
X55.74 Y-21.59
X55.654 Y-21.962
X55.618 Y-22.07
X55.453 Y-22.55
X55.27 Y-23.029
X55.038 Y-23.509
X54.773 Y-23.989
X54.459 Y-24.469
X54.215 Y-24.835
X48.785 Y-32.145
X48.458 Y-32.584
X47.67 Y-33.584
X46.91 Y-34.544
X46.538 Y-35.024
X46.18 Y-35.504
X44.571 Y-37.902
X44.301 Y-38.382
X44.043 Y-38.862
X43.795 Y-39.342
X43.55 Y-39.822
X43.295 Y-40.301
X42.995 Y-40.781
X42.7 Y-41.184
X42.22 Y-41.741
X41.74 Y-42.22
X41.184 Y-42.7
X40.781 Y-42.995
X40.301 Y-43.295
X39.822 Y-43.553
X39.342 Y-43.801
X38.862 Y-44.051
X38.382 Y-44.308
X37.902 Y-44.577
X35.504 Y-46.173
X35.012 Y-46.538
X34.544 Y-46.898
X33.584 Y-47.664
X32.583 Y-48.458
X31.94 Y-48.937
X24.835 Y-54.215
X24.469 Y-54.459
X23.989 Y-54.773
X23.509 Y-55.038
X23.029 Y-55.27
X22.55 Y-55.453
X22.07 Y-55.618
X21.962 Y-55.654
X21.59 Y-55.74
X21.11 Y-55.845
X20.151 Y-55.989
X11.515 Y-57.263
X11.035 Y-57.327
X10.075 Y-57.442
X8.156 Y-57.666
X7.676 Y-57.742
X6.717 Y-57.923
X4.798 Y-58.301
X4.318 Y-58.419
X3.358 Y-58.719
X2.399 Y-59.032
X1.919 Y-59.16
X1.439 Y-59.262
X0.96 Y-59.322
X0.48 Y-59.375
X0. Y-59.378
X-0.48 Y-59.375
X-0.96 Y-59.322
X-1.439 Y-59.262
X-1.919 Y-59.16
X-2.399 Y-59.033
X-3.358 Y-58.725
X-4.318 Y-58.425
X-4.798 Y-58.306
X-6.717 Y-57.92
X-7.676 Y-57.731
X-8.156 Y-57.653
X-10.075 Y-57.438
X-11.035 Y-57.326
X-11.515 Y-57.263
X-20.63 Y-55.917
X-21.11 Y-55.845
X-21.59 Y-55.74
X-21.962 Y-55.654
X-22.07 Y-55.618
X-22.55 Y-55.453
X-23.029 Y-55.27
X-23.509 Y-55.038
X-23.989 Y-54.773
X-24.469 Y-54.459
X-24.835 Y-54.215
X-32.145 Y-48.785
X-32.584 Y-48.458
X-33.584 Y-47.67
X-34.544 Y-46.91
X-35.024 Y-46.538
X-35.504 Y-46.18
X-37.902 Y-44.571
X-38.382 Y-44.301
X-38.862 Y-44.043
X-39.342 Y-43.795
X-39.822 Y-43.55
X-39.909 Y-43.52 Z5.155
X-39.995 Y-43.491 Z5.172
X-40.079 Y-43.463 Z5.199
X-40.159 Y-43.436 Z5.236
X-40.243 Y-43.427 Z5.286
X-40.32 Y-43.419 Z5.346
X-40.389 Y-43.411 Z5.416
X-40.449 Y-43.405 Z5.494
X-40.499 Y-43.4 Z5.578
X-40.536 Y-43.401 Z5.663
X-40.563 Z5.752
X-40.579 Y-43.402 Z5.843
X-40.585 Z5.935
Z20.45
X-50.513 Y-48.106
Z9.7
Z8.1
X-50.507 Y-48.102 Z7.943
X-50.487 Y-48.09 Z7.788
X-50.454 Y-48.07 Z7.635
X-50.409 Y-48.043 Z7.488
X-50.351 Y-48.009 Z7.346
X-50.282 Y-47.967 Z7.211
X-50.202 Y-47.919 Z7.085
X-50.112 Y-47.865 Z6.969
X-50.012 Y-47.805 Z6.863
X-49.904 Y-47.74 Z6.77
X-49.788 Y-47.671 Z6.689
X-49.666 Y-47.598 Z6.622
X-49.54 Y-47.522 Z6.569
X-49.409 Y-47.443 Z6.531
X-49.276 Y-47.364 Z6.508
X-49.141 Y-47.283 Z6.5
G3 X-42.126 Y-41.97 I-21.008 J35.031
G1 X-42.058 Y-41.902
X-41.966 Y-41.784
X-41.881 Y-41.661
X-41.801 Y-41.534
X-41.608 Y-41.134
X-41.476 Y-40.711
X-41.406 Y-40.272
X-41.401 Y-39.829
X-41.461 Y-39.389
X-41.585 Y-38.963
X-41.769 Y-38.559
X-42.126 Y-37.902
X-42.716 Y-36.943
X-43.04 Y-36.463
X-43.66 Y-35.686
X-43.802 Y-35.504
X-44.14 Y-35.065
X-51.816 Y-24.731
X-52.363 Y-23.989
X-52.704 Y-23.509
X-52.776 Y-23.397
X-52.987 Y-23.029
X-53.233 Y-22.55
X-53.445 Y-22.07
X-53.634 Y-21.59
X-53.735 Y-21.261
X-53.777 Y-21.11
X-53.881 Y-20.63
X-53.972 Y-20.151
X-54.05 Y-19.671
X-55.891 Y-7.197
X-55.961 Y-6.717
X-56.028 Y-6.237
X-56.093 Y-5.757
X-56.205 Y-4.798
X-56.287 Y-4.318
X-56.376 Y-3.838
X-56.476 Y-3.358
X-56.766 Y-2.399
X-56.892 Y-1.919
X-56.994 Y-1.439
X-57.051 Y-0.96
X-57.105 Y-0.48
X-57.107 Y0.
X-57.105 Y0.48
X-57.051 Y0.96
X-56.994 Y1.439
X-56.892 Y1.919
X-56.766 Y2.399
X-56.477 Y3.358
X-56.376 Y3.838
X-56.283 Y4.318
X-56.201 Y4.798
X-56.093 Y5.757
X-56.027 Y6.237
X-55.96 Y6.717
X-55.891 Y7.197
X-54.05 Y19.671
X-53.972 Y20.151
X-53.881 Y20.63
X-53.777 Y21.11
X-53.735 Y21.261
X-53.634 Y21.59
X-53.445 Y22.07
X-53.233 Y22.55
X-52.987 Y23.029
X-52.776 Y23.397
X-52.704 Y23.509
X-52.363 Y23.989
X-51.816 Y24.731
X-44.14 Y35.065
X-43.803 Y35.504
X-43.66 Y35.688
X-43.047 Y36.463
X-42.718 Y36.943
X-42.125 Y37.902
X-41.741 Y38.61
X-41.59 Y38.862
X-41.257 Y39.342
X-40.902 Y39.822
X-40.781 Y39.971
X-40.473 Y40.301
X-40.301 Y40.475
X-39.971 Y40.781
X-39.822 Y40.902
X-39.337 Y41.261
X-38.862 Y41.59
X-38.61 Y41.741
X-37.902 Y42.126
X-36.943 Y42.716
X-36.463 Y43.04
X-35.686 Y43.66
X-35.504 Y43.802
X-35.065 Y44.14
X-24.731 Y51.816
X-23.989 Y52.363
X-23.509 Y52.704
X-23.397 Y52.776
X-23.029 Y52.987
X-22.55 Y53.233
X-22.07 Y53.445
X-21.59 Y53.634
X-21.261 Y53.735
X-21.11 Y53.777
X-20.63 Y53.881
X-20.151 Y53.972
X-19.671 Y54.05
X-7.197 Y55.891
X-6.717 Y55.961
X-6.237 Y56.028
X-5.757 Y56.093
X-4.798 Y56.205
X-4.318 Y56.287
X-3.838 Y56.376
X-3.358 Y56.476
X-2.399 Y56.766
X-1.919 Y56.892
X-1.439 Y56.994
X-0.96 Y57.051
X-0.48 Y57.105
X0. Y57.107
X0.48 Y57.105
X0.96 Y57.051
X1.439 Y56.994
X1.919 Y56.892
X2.399 Y56.766
X3.358 Y56.477
X3.838 Y56.376
X4.318 Y56.283
X4.798 Y56.201
X5.757 Y56.093
X6.237 Y56.027
X6.717 Y55.96
X7.197 Y55.891
X19.671 Y54.05
X20.151 Y53.972
X20.63 Y53.881
X21.11 Y53.777
X21.261 Y53.735
X21.59 Y53.634
X22.07 Y53.445
X22.55 Y53.233
X23.029 Y52.987
X23.397 Y52.776
X23.509 Y52.704
X23.989 Y52.363
X24.731 Y51.816
X35.065 Y44.14
X35.504 Y43.803
X35.688 Y43.66
X36.463 Y43.047
X36.943 Y42.718
X37.902 Y42.125
X38.61 Y41.741
X38.862 Y41.59
X39.342 Y41.257
X39.822 Y40.902
X39.971 Y40.781
X40.301 Y40.473
X40.475 Y40.301
X40.781 Y39.971
X40.902 Y39.822
X41.261 Y39.337
X41.59 Y38.862
X41.741 Y38.61
X42.126 Y37.902
X42.716 Y36.943
X43.04 Y36.463
X43.66 Y35.686
X43.802 Y35.504
X44.14 Y35.065
X51.816 Y24.731
X52.363 Y23.989
X52.704 Y23.509
X52.776 Y23.397
X52.987 Y23.029
X53.233 Y22.55
X53.445 Y22.07
X53.634 Y21.59
X53.735 Y21.261
X53.777 Y21.11
X53.881 Y20.63
X53.972 Y20.151
X54.05 Y19.671
X55.891 Y7.197
X55.961 Y6.717
X56.028 Y6.237
X56.093 Y5.757
X56.205 Y4.798
X56.287 Y4.318
X56.376 Y3.838
X56.476 Y3.358
X56.766 Y2.399
X56.892 Y1.919
X56.994 Y1.439
X57.051 Y0.96
X57.105 Y0.48
X57.107 Y0.
X57.105 Y-0.48
X57.051 Y-0.96
X56.994 Y-1.439
X56.892 Y-1.919
X56.766 Y-2.399
X56.477 Y-3.358
X56.376 Y-3.838
X56.283 Y-4.318
X56.201 Y-4.798
X56.093 Y-5.757
X56.027 Y-6.237
X55.96 Y-6.717
X55.891 Y-7.197
X54.05 Y-19.671
X53.972 Y-20.151
X53.881 Y-20.63
X53.777 Y-21.11
X53.735 Y-21.261
X53.634 Y-21.59
X53.445 Y-22.07
X53.233 Y-22.55
X52.987 Y-23.029
X52.776 Y-23.397
X52.704 Y-23.509
X52.363 Y-23.989
X51.816 Y-24.731
X44.14 Y-35.065
X43.803 Y-35.504
X43.66 Y-35.688
X43.047 Y-36.463
X42.718 Y-36.943
X42.125 Y-37.902
X41.741 Y-38.61
X41.59 Y-38.862
X41.257 Y-39.342
X40.902 Y-39.822
X40.781 Y-39.971
X40.473 Y-40.301
X40.301 Y-40.475
X39.971 Y-40.781
X39.822 Y-40.902
X39.337 Y-41.261
X38.862 Y-41.59
X38.61 Y-41.741
X37.902 Y-42.126
X36.943 Y-42.716
X36.463 Y-43.04
X35.686 Y-43.66
X35.504 Y-43.802
X35.065 Y-44.14
X24.731 Y-51.816
X23.989 Y-52.363
X23.509 Y-52.704
X23.397 Y-52.776
X23.029 Y-52.987
X22.55 Y-53.233
X22.07 Y-53.445
X21.59 Y-53.634
X21.261 Y-53.735
X21.11 Y-53.777
X20.63 Y-53.881
X20.151 Y-53.972
X19.671 Y-54.05
X7.197 Y-55.891
X6.717 Y-55.961
X6.237 Y-56.028
X5.757 Y-56.093
X4.798 Y-56.205
X4.318 Y-56.287
X3.838 Y-56.376
X3.358 Y-56.476
X2.399 Y-56.766
X1.919 Y-56.892
X1.439 Y-56.994
X0.96 Y-57.051
X0.48 Y-57.105
X0. Y-57.107
X-0.48 Y-57.105
X-0.96 Y-57.051
X-1.439 Y-56.994
X-1.919 Y-56.892
X-2.399 Y-56.766
X-3.358 Y-56.477
X-3.838 Y-56.376
X-4.318 Y-56.283
X-4.798 Y-56.201
X-5.757 Y-56.093
X-6.237 Y-56.027
X-6.717 Y-55.96
X-7.197 Y-55.891
X-19.671 Y-54.05
X-20.151 Y-53.972
X-20.63 Y-53.881
X-21.11 Y-53.777
X-21.261 Y-53.735
X-21.59 Y-53.634
X-22.07 Y-53.445
X-22.55 Y-53.233
X-23.029 Y-52.987
X-23.397 Y-52.776
X-23.509 Y-52.704
X-23.989 Y-52.363
X-24.731 Y-51.816
X-35.065 Y-44.14
X-35.504 Y-43.803
X-35.688 Y-43.66
X-36.463 Y-43.047
X-36.943 Y-42.718
X-37.902 Y-42.125
X-38.382 Y-41.865
X-38.469 Y-41.833 Z6.505
X-38.554 Y-41.802 Z6.522
X-38.637 Y-41.771 Z6.549
X-38.717 Y-41.742 Z6.586
X-38.806 Y-41.731 Z6.64
X-38.888 Y-41.721 Z6.706
X-38.96 Y-41.711 Z6.782
X-39.021 Y-41.704 Z6.867
X-39.071 Y-41.697 Z6.959
X-39.096 Z7.02
X-39.121 Z7.107
X-39.136 Y-41.698 Z7.195
X-39.142 Z7.285
Z20.45
X-57.836 Y-15.253
Z11.05
Z9.45
X-57.834 Y-15.246 Z9.293
X-57.828 Y-15.223 Z9.138
X-57.819 Y-15.186 Z8.985
X-57.806 Y-15.135 Z8.838
X-57.789 Y-15.07 Z8.696
X-57.769 Y-14.992 Z8.561
X-57.746 Y-14.901 Z8.435
X-57.72 Y-14.799 Z8.319
X-57.691 Y-14.686 Z8.213
X-57.659 Y-14.564 Z8.12
X-57.626 Y-14.434 Z8.039
X-57.591 Y-14.296 Z7.972
X-57.554 Y-14.153 Z7.919
X-57.516 Y-14.006 Z7.881
X-57.478 Y-13.855 Z7.858
X-57.439 Y-13.703 Z7.85
G3 X-56.186 Y-4.993 I-39.57 J10.136
G1 Y-4.63
X-56.151 Y-4.269
X-56.081 Y-3.913
X-55.977 Y-3.566
X-55.839 Y-3.23
X-55.67 Y-2.909
X-55.281 Y-2.32
X-55.091 Y-1.984
X-54.949 Y-1.625
X-54.858 Y-1.25
X-54.82 Y-0.866
X-54.835 Y-0.48
X-54.837 Y0.
X-54.835 Y0.48
X-54.731 Y1.439
X-52.182 Y18.711
X-52.106 Y19.191
X-52.027 Y19.671
X-51.919 Y20.151
X-51.789 Y20.63
X-51.63 Y21.11
X-51.433 Y21.59
X-51.336 Y21.787
X-50.856 Y22.653
X-50.602 Y23.029
X-49.891 Y23.989
X-39.822 Y37.545
X-39.552 Y37.902
X-39.342 Y38.165
X-39.159 Y38.382
X-38.862 Y38.703
X-38.703 Y38.862
X-38.382 Y39.159
X-38.165 Y39.342
X-37.902 Y39.552
X-37.545 Y39.822
X-23.509 Y50.247
X-23.029 Y50.602
X-22.653 Y50.856
X-21.787 Y51.336
X-21.59 Y51.433
X-21.11 Y51.63
X-20.63 Y51.789
X-20.151 Y51.919
X-19.671 Y52.027
X-19.191 Y52.106
X-18.711 Y52.182
X-1.439 Y54.731
X-0.48 Y54.835
X0. Y54.837
X0.48 Y54.835
X1.439 Y54.731
X18.711 Y52.182
X19.191 Y52.106
X19.671 Y52.027
X20.151 Y51.919
X20.63 Y51.789
X21.11 Y51.63
X21.59 Y51.433
X21.787 Y51.336
X22.653 Y50.856
X23.029 Y50.602
X23.989 Y49.891
X37.545 Y39.822
X37.902 Y39.552
X38.165 Y39.342
X38.382 Y39.159
X38.703 Y38.862
X38.862 Y38.703
X39.159 Y38.382
X39.342 Y38.165
X39.552 Y37.902
X39.822 Y37.545
X50.247 Y23.509
X50.602 Y23.029
X50.856 Y22.653
X51.336 Y21.787
X51.433 Y21.59
X51.63 Y21.11
X51.789 Y20.63
X51.919 Y20.151
X52.027 Y19.671
X52.106 Y19.191
X52.182 Y18.711
X54.731 Y1.439
X54.835 Y0.48
X54.837 Y0.
X54.835 Y-0.48
X54.731 Y-1.439
X52.182 Y-18.711
X52.106 Y-19.191
X52.027 Y-19.671
X51.919 Y-20.151
X51.789 Y-20.63
X51.63 Y-21.11
X51.433 Y-21.59
X51.336 Y-21.787
X50.856 Y-22.653
X50.602 Y-23.029
X49.891 Y-23.989
X39.822 Y-37.545
X39.552 Y-37.902
X39.342 Y-38.165
X39.159 Y-38.382
X38.862 Y-38.703
X38.703 Y-38.862
X38.382 Y-39.159
X38.165 Y-39.342
X37.902 Y-39.552
X37.545 Y-39.822
X23.509 Y-50.247
X23.029 Y-50.602
X22.653 Y-50.856
X21.787 Y-51.336
X21.59 Y-51.433
X21.11 Y-51.63
X20.63 Y-51.789
X20.151 Y-51.919
X19.671 Y-52.027
X19.191 Y-52.106
X18.711 Y-52.182
X1.439 Y-54.731
X0.48 Y-54.835
X0. Y-54.837
X-0.48 Y-54.835
X-1.439 Y-54.731
X-18.711 Y-52.182
X-19.191 Y-52.106
X-19.671 Y-52.027
X-20.151 Y-51.919
X-20.63 Y-51.789
X-21.11 Y-51.63
X-21.59 Y-51.433
X-21.787 Y-51.336
X-22.653 Y-50.856
X-23.029 Y-50.602
X-23.989 Y-49.891
X-37.545 Y-39.822
X-37.902 Y-39.552
X-38.165 Y-39.342
X-38.382 Y-39.159
X-38.703 Y-38.862
X-38.862 Y-38.703
X-39.159 Y-38.382
X-39.342 Y-38.165
X-39.552 Y-37.902
X-39.822 Y-37.545
X-50.247 Y-23.509
X-50.602 Y-23.029
X-50.856 Y-22.653
X-51.336 Y-21.787
X-51.433 Y-21.59
X-51.63 Y-21.11
X-51.789 Y-20.63
X-51.919 Y-20.151
X-52.027 Y-19.671
X-52.106 Y-19.191
X-52.182 Y-18.711
X-54.731 Y-1.439
X-54.835 Y-0.48
X-54.858 Y-0.39 Z7.855
X-54.881 Y-0.302 Z7.872
X-54.903 Y-0.217 Z7.899
X-54.924 Y-0.135 Z7.936
X-54.966 Y-0.055 Z7.99
X-55.003 Y0.018 Z8.056
X-55.037 Y0.083 Z8.132
X-55.065 Y0.138 Z8.217
X-55.088 Y0.182 Z8.309
X-55.106 Y0.207 Z8.387
X-55.119 Y0.225 Z8.468
X-55.126 Y0.236 Z8.551
X-55.129 Y0.24 Z8.635
Z20.45
X47.395 Y44.691
Z12.4
Z10.8
X47.388 Y44.687 Z10.643
X47.368 Y44.676 Z10.488
X47.336 Y44.656 Z10.335
X47.29 Y44.629 Z10.188
X47.232 Y44.595 Z10.046
X47.163 Y44.554 Z9.911
X47.082 Y44.506 Z9.785
X46.992 Y44.453 Z9.669
X46.891 Y44.393 Z9.563
X46.783 Y44.329 Z9.47
X46.667 Y44.26 Z9.389
X46.545 Y44.188 Z9.322
X46.418 Y44.113 Z9.269
X46.287 Y44.035 Z9.231
X46.153 Y43.956 Z9.208
X46.018 Y43.876 Z9.2
G3 X38.973 Y38.603 I20.813 J-35.148
G1 X38.917 Y38.546
X38.829 Y38.424
X38.752 Y38.296
X38.581 Y37.901
X38.471 Y37.485
X38.424 Y37.057
X38.441 Y36.627
X38.522 Y36.205
X38.664 Y35.799
X38.865 Y35.418
X39.12 Y35.072
X39.573 Y34.544
X39.931 Y34.064
X48.458 Y22.585
X49.134 Y21.59
X49.396 Y21.11
X49.417 Y21.069
X49.613 Y20.63
X49.897 Y19.852
X49.951 Y19.671
X50.065 Y19.191
X50.169 Y18.711
X50.315 Y17.752
X52.368 Y3.838
X52.426 Y3.358
X52.474 Y2.879
X52.5 Y2.399
X52.504 Y1.919
X52.507 Y1.439
Y-1.439
X52.504 Y-1.919
X52.5 Y-2.399
X52.474 Y-2.879
X52.426 Y-3.358
X52.368 Y-3.838
X50.315 Y-17.752
X50.169 Y-18.711
X50.065 Y-19.191
X49.951 Y-19.671
X49.897 Y-19.852
X49.613 Y-20.63
X49.417 Y-21.069
X49.396 Y-21.11
X49.134 Y-21.59
X48.458 Y-22.585
X39.822 Y-34.211
X39.573 Y-34.544
X38.749 Y-35.504
X38.382 Y-35.874
X35.874 Y-38.382
X35.504 Y-38.749
X34.544 Y-39.573
X34.064 Y-39.931
X22.585 Y-48.458
X21.59 Y-49.134
X21.11 Y-49.396
X21.069 Y-49.417
X20.63 Y-49.613
X19.852 Y-49.897
X19.671 Y-49.951
X19.191 Y-50.065
X18.711 Y-50.169
X17.752 Y-50.315
X3.838 Y-52.368
X3.358 Y-52.426
X2.879 Y-52.474
X2.399 Y-52.5
X1.919 Y-52.504
X1.439 Y-52.507
X-1.439
X-1.919 Y-52.504
X-2.399 Y-52.5
X-2.879 Y-52.474
X-3.358 Y-52.426
X-3.838 Y-52.368
X-17.752 Y-50.315
X-18.711 Y-50.169
X-19.191 Y-50.065
X-19.671 Y-49.951
X-19.852 Y-49.897
X-20.63 Y-49.613
X-21.069 Y-49.417
X-21.11 Y-49.396
X-21.59 Y-49.134
X-22.585 Y-48.458
X-34.211 Y-39.822
X-34.544 Y-39.573
X-35.504 Y-38.749
X-35.874 Y-38.382
X-38.382 Y-35.874
X-38.749 Y-35.504
X-39.573 Y-34.544
X-39.931 Y-34.064
X-48.458 Y-22.585
X-49.134 Y-21.59
X-49.396 Y-21.11
X-49.417 Y-21.069
X-49.613 Y-20.63
X-49.897 Y-19.852
X-49.951 Y-19.671
X-50.065 Y-19.191
X-50.169 Y-18.711
X-50.315 Y-17.752
X-52.368 Y-3.838
X-52.426 Y-3.358
X-52.474 Y-2.879
X-52.5 Y-2.399
X-52.504 Y-1.919
X-52.507 Y-1.439
Y1.439
X-52.504 Y1.919
X-52.5 Y2.399
X-52.474 Y2.879
X-52.426 Y3.358
X-52.368 Y3.838
X-50.315 Y17.752
X-50.169 Y18.711
X-50.065 Y19.191
X-49.951 Y19.671
X-49.897 Y19.852
X-49.613 Y20.63
X-49.417 Y21.069
X-49.396 Y21.11
X-49.134 Y21.59
X-48.458 Y22.585
X-39.822 Y34.211
X-39.573 Y34.544
X-38.749 Y35.504
X-38.382 Y35.874
X-35.874 Y38.382
X-35.504 Y38.749
X-34.544 Y39.573
X-34.064 Y39.931
X-22.585 Y48.458
X-21.59 Y49.134
X-21.11 Y49.396
X-21.069 Y49.417
X-20.63 Y49.613
X-19.852 Y49.897
X-19.671 Y49.951
X-19.191 Y50.065
X-18.711 Y50.169
X-17.752 Y50.315
X-3.838 Y52.368
X-3.358 Y52.426
X-2.879 Y52.474
X-2.399 Y52.5
X-1.919 Y52.504
X-1.439 Y52.507
X1.439
X1.919 Y52.504
X2.399 Y52.5
X2.879 Y52.474
X3.358 Y52.426
X3.838 Y52.368
X17.752 Y50.315
X18.711 Y50.169
X19.191 Y50.065
X19.671 Y49.951
X19.852 Y49.897
X20.63 Y49.613
X21.069 Y49.417
X21.11 Y49.396
X21.59 Y49.134
X22.585 Y48.458
X34.211 Y39.822
X34.544 Y39.573
X35.504 Y38.749
X35.874 Y38.382
X38.273 Y35.983
X38.347 Y35.928 Z9.205
X38.42 Y35.874 Z9.222
X38.491 Y35.821 Z9.249
X38.559 Y35.771 Z9.286
X38.641 Y35.734 Z9.34
X38.717 Y35.701 Z9.406
X38.783 Y35.672 Z9.482
X38.839 Y35.647 Z9.567
X38.885 Y35.627 Z9.659
X38.915 Y35.618 Z9.737
X38.936 Y35.612 Z9.818
X38.949 Y35.608 Z9.901
X38.953 Y35.607 Z9.985
Z20.45
X45.585 Y43.185
Z13.75
Z12.15
X45.578 Y43.181 Z11.993
X45.559 Y43.17 Z11.838
X45.526 Y43.15 Z11.685
X45.48 Y43.123 Z11.538
X45.423 Y43.089 Z11.396
X45.353 Y43.048 Z11.261
X45.273 Y43. Z11.135
X45.182 Y42.947 Z11.019
X45.082 Y42.887 Z10.913
X44.973 Y42.823 Z10.82
X44.857 Y42.754 Z10.739
X44.735 Y42.682 Z10.672
X44.608 Y42.607 Z10.619
X44.477 Y42.529 Z10.581
X44.343 Y42.45 Z10.558
X44.208 Y42.37 Z10.55
G3 X37.163 Y37.097 I20.813 J-35.148
G1 X37.057 Y36.991
X36.99 Y36.856
X36.932 Y36.718
X36.881 Y36.577
X36.835 Y36.434
X36.737 Y35.959
X36.712 Y35.474
X36.761 Y34.991
X36.882 Y34.521
X37.073 Y34.075
X37.33 Y33.663
X37.646 Y33.294
X38.382 Y32.558
X38.784 Y32.145
X39.342 Y31.49
X39.593 Y31.186
X46.72 Y21.59
X47.04 Y21.11
X47.342 Y20.63
X47.498 Y20.304
X47.793 Y19.671
X47.954 Y19.191
X48.111 Y18.711
X48.218 Y18.232
X48.305 Y17.752
X50.005 Y6.237
X50.072 Y5.757
X50.116 Y5.278
X50.156 Y4.798
X50.162 Y3.838
Y-3.838
X50.156 Y-4.798
X50.116 Y-5.278
X50.072 Y-5.757
X50.005 Y-6.237
X48.305 Y-17.752
X48.218 Y-18.232
X48.111 Y-18.711
X47.954 Y-19.191
X47.793 Y-19.671
X47.498 Y-20.304
X47.342 Y-20.63
X47.04 Y-21.11
X46.72 Y-21.59
X39.593 Y-31.186
X39.342 Y-31.49
X38.784 Y-32.145
X38.382 Y-32.558
X32.558 Y-38.382
X32.145 Y-38.784
X31.49 Y-39.342
X31.186 Y-39.593
X21.59 Y-46.72
X21.11 Y-47.04
X20.63 Y-47.342
X20.304 Y-47.498
X19.671 Y-47.793
X19.191 Y-47.954
X18.711 Y-48.111
X18.232 Y-48.218
X17.752 Y-48.305
X6.237 Y-50.005
X5.757 Y-50.072
X5.278 Y-50.116
X4.798 Y-50.156
X3.838 Y-50.162
X-3.838
X-4.798 Y-50.156
X-5.278 Y-50.116
X-5.757 Y-50.072
X-6.237 Y-50.005
X-17.752 Y-48.305
X-18.232 Y-48.218
X-18.711 Y-48.111
X-19.191 Y-47.954
X-19.671 Y-47.793
X-20.304 Y-47.498
X-20.63 Y-47.342
X-21.11 Y-47.04
X-21.59 Y-46.72
X-31.186 Y-39.593
X-31.49 Y-39.342
X-32.145 Y-38.784
X-32.558 Y-38.382
X-38.382 Y-32.558
X-38.784 Y-32.145
X-39.342 Y-31.49
X-39.593 Y-31.186
X-46.72 Y-21.59
X-47.04 Y-21.11
X-47.342 Y-20.63
X-47.498 Y-20.304
X-47.793 Y-19.671
X-47.954 Y-19.191
X-48.111 Y-18.711
X-48.218 Y-18.232
X-48.305 Y-17.752
X-50.005 Y-6.237
X-50.072 Y-5.757
X-50.116 Y-5.278
X-50.156 Y-4.798
X-50.162 Y-3.838
Y3.838
X-50.156 Y4.798
X-50.116 Y5.278
X-50.072 Y5.757
X-50.005 Y6.237
X-48.305 Y17.752
X-48.218 Y18.232
X-48.111 Y18.711
X-47.954 Y19.191
X-47.793 Y19.671
X-47.498 Y20.304
X-47.342 Y20.63
X-47.04 Y21.11
X-46.72 Y21.59
X-39.593 Y31.186
X-39.342 Y31.49
X-38.784 Y32.145
X-38.382 Y32.558
X-32.558 Y38.382
X-32.145 Y38.784
X-31.49 Y39.342
X-31.186 Y39.593
X-21.59 Y46.72
X-21.11 Y47.04
X-20.63 Y47.342
X-20.304 Y47.498
X-19.671 Y47.793
X-19.191 Y47.954
X-18.711 Y48.111
X-18.232 Y48.218
X-17.752 Y48.305
X-6.237 Y50.005
X-5.757 Y50.072
X-5.278 Y50.116
X-4.798 Y50.156
X-3.838 Y50.162
X3.838
X4.798 Y50.156
X5.278 Y50.116
X5.757 Y50.072
X6.237 Y50.005
X17.752 Y48.305
X18.232 Y48.218
X18.711 Y48.111
X19.191 Y47.954
X19.671 Y47.793
X20.304 Y47.498
X20.63 Y47.342
X21.11 Y47.04
X21.59 Y46.72
X31.186 Y39.593
X31.49 Y39.342
X32.145 Y38.784
X32.558 Y38.382
X37.646 Y33.294
X37.72 Y33.239 Z10.555
X37.793 Y33.185 Z10.572
X37.864 Y33.132 Z10.599
X37.932 Y33.082 Z10.636
X38.015 Y33.045 Z10.69
X38.09 Y33.012 Z10.756
X38.156 Y32.983 Z10.832
X38.213 Y32.958 Z10.917
X38.258 Y32.938 Z11.009
X38.288 Y32.929 Z11.087
X38.309 Y32.923 Z11.168
X38.322 Y32.919 Z11.251
X38.327 Y32.918 Z11.335
Z20.45
X44.122 Y41.333
Z15.1
Z13.5
X44.115 Y41.329 Z13.343
X44.095 Y41.317 Z13.188
X44.062 Y41.298 Z13.035
X44.017 Y41.271 Z12.888
X43.959 Y41.237 Z12.746
X43.89 Y41.196 Z12.611
X43.809 Y41.148 Z12.485
X43.718 Y41.094 Z12.369
X43.618 Y41.035 Z12.263
X43.51 Y40.971 Z12.17
X43.394 Y40.902 Z12.089
X43.272 Y40.83 Z12.022
X43.144 Y40.754 Z11.969
X43.013 Y40.677 Z11.931
X42.88 Y40.598 Z11.908
X42.745 Y40.518 Z11.9
G3 X35.7 Y35.244 I20.813 J-35.148
G1 X35.594 Y35.138
X35.527 Y35.004
X35.47 Y34.865
X35.422 Y34.723
X35.38 Y34.579
X35.345 Y34.433
X35.314 Y34.282
X35.269 Y33.835
X35.284 Y33.385
X35.361 Y32.942
X35.497 Y32.513
X35.691 Y32.106
X35.938 Y31.73
X36.233 Y31.391
X38.382 Y29.242
X38.818 Y28.787
X39.342 Y28.165
X39.611 Y27.827
X44.244 Y21.59
X44.619 Y21.078
X45.099 Y20.42
X45.255 Y20.151
X45.579 Y19.587
X45.758 Y19.191
X45.962 Y18.711
X46.059 Y18.451
X46.258 Y17.752
X46.35 Y17.272
X46.435 Y16.792
X46.509 Y16.312
X47.712 Y8.156
X47.761 Y7.676
X47.801 Y7.197
X47.815 Y6.717
X47.818 Y5.757
Y-5.757
X47.815 Y-6.717
X47.801 Y-7.197
X47.761 Y-7.676
X47.712 Y-8.156
X46.509 Y-16.312
X46.435 Y-16.792
X46.35 Y-17.272
X46.258 Y-17.752
X46.059 Y-18.451
X45.962 Y-18.711
X45.758 Y-19.191
X45.579 Y-19.587
X45.255 Y-20.151
X45.099 Y-20.42
X44.596 Y-21.11
X44.244 Y-21.59
X39.611 Y-27.827
X39.342 Y-28.165
X38.818 Y-28.787
X38.382 Y-29.242
X29.242 Y-38.382
X28.787 Y-38.818
X28.165 Y-39.342
X27.827 Y-39.611
X21.59 Y-44.244
X21.078 Y-44.619
X20.42 Y-45.099
X20.151 Y-45.255
X19.587 Y-45.579
X19.191 Y-45.758
X18.711 Y-45.962
X18.451 Y-46.059
X17.752 Y-46.258
X17.272 Y-46.35
X16.792 Y-46.435
X16.312 Y-46.509
X8.156 Y-47.712
X7.676 Y-47.761
X7.197 Y-47.801
X6.717 Y-47.815
X5.757 Y-47.818
X-5.757
X-6.717 Y-47.815
X-7.197 Y-47.801
X-7.676 Y-47.761
X-8.156 Y-47.712
X-16.312 Y-46.509
X-16.792 Y-46.435
X-17.272 Y-46.35
X-17.752 Y-46.258
X-18.451 Y-46.059
X-18.711 Y-45.962
X-19.191 Y-45.758
X-19.587 Y-45.579
X-20.151 Y-45.255
X-20.42 Y-45.099
X-21.11 Y-44.596
X-21.59 Y-44.244
X-27.827 Y-39.611
X-28.165 Y-39.342
X-28.787 Y-38.818
X-29.242 Y-38.382
X-38.382 Y-29.242
X-38.818 Y-28.787
X-39.342 Y-28.165
X-39.611 Y-27.827
X-44.244 Y-21.59
X-44.619 Y-21.078
X-45.099 Y-20.42
X-45.255 Y-20.151
X-45.579 Y-19.587
X-45.758 Y-19.191
X-45.962 Y-18.711
X-46.059 Y-18.451
X-46.258 Y-17.752
X-46.35 Y-17.272
X-46.435 Y-16.792
X-46.509 Y-16.312
X-47.712 Y-8.156
X-47.761 Y-7.676
X-47.801 Y-7.197
X-47.815 Y-6.717
X-47.818 Y-5.757
Y5.757
X-47.815 Y6.717
X-47.801 Y7.197
X-47.761 Y7.676
X-47.712 Y8.156
X-46.509 Y16.312
X-46.435 Y16.792
X-46.35 Y17.272
X-46.258 Y17.752
X-46.059 Y18.451
X-45.962 Y18.711
X-45.758 Y19.191
X-45.579 Y19.587
X-45.255 Y20.151
X-45.099 Y20.42
X-44.596 Y21.11
X-44.244 Y21.59
X-39.611 Y27.827
X-39.342 Y28.165
X-38.818 Y28.787
X-38.382 Y29.242
X-29.242 Y38.382
X-28.787 Y38.818
X-28.165 Y39.342
X-27.827 Y39.611
X-21.59 Y44.244
X-21.078 Y44.619
X-20.42 Y45.099
X-20.151 Y45.255
X-19.587 Y45.579
X-19.191 Y45.758
X-18.711 Y45.962
X-18.451 Y46.059
X-17.752 Y46.258
X-17.272 Y46.35
X-16.792 Y46.435
X-16.312 Y46.509
X-8.156 Y47.712
X-7.676 Y47.761
X-7.197 Y47.801
X-6.717 Y47.815
X-5.757 Y47.818
X5.757
X6.717 Y47.815
X7.197 Y47.801
X7.676 Y47.761
X8.156 Y47.712
X16.312 Y46.509
X16.792 Y46.435
X17.272 Y46.35
X17.752 Y46.258
X18.451 Y46.059
X18.711 Y45.962
X19.191 Y45.758
X19.587 Y45.579
X20.151 Y45.255
X20.42 Y45.099
X21.11 Y44.596
X21.59 Y44.244
X27.827 Y39.611
X28.165 Y39.342
X28.787 Y38.818
X29.242 Y38.382
X36.233 Y31.391
X36.307 Y31.336 Z11.905
X36.381 Y31.282 Z11.922
X36.452 Y31.229 Z11.949
X36.52 Y31.179 Z11.986
X36.602 Y31.142 Z12.04
X36.677 Y31.109 Z12.106
X36.743 Y31.08 Z12.182
X36.8 Y31.055 Z12.267
X36.846 Y31.035 Z12.359
X36.875 Y31.026 Z12.437
X36.897 Y31.02 Z12.518
X36.91 Y31.016 Z12.601
X36.914 Y31.015 Z12.685
Z20.45
X42.245 Y39.894
Z16.45
Z14.85
X42.238 Y39.89 Z14.693
X42.219 Y39.878 Z14.538
X42.186 Y39.859 Z14.385
X42.14 Y39.832 Z14.238
X42.082 Y39.797 Z14.096
X42.013 Y39.756 Z13.961
X41.933 Y39.709 Z13.835
X41.842 Y39.655 Z13.719
X41.742 Y39.596 Z13.613
X41.633 Y39.531 Z13.52
X41.517 Y39.463 Z13.439
X41.395 Y39.39 Z13.372
X41.268 Y39.315 Z13.319
X41.137 Y39.237 Z13.281
X41.003 Y39.158 Z13.258
X40.868 Y39.078 Z13.25
G3 X33.823 Y33.805 I20.813 J-35.148
G1 X33.717 Y33.699
X33.65 Y33.565
X33.593 Y33.426
X33.545 Y33.284
X33.504 Y33.14
X33.468 Y32.994
X33.439 Y32.847
X33.436 Y32.829
X33.392 Y32.383
X33.409 Y31.936
X33.487 Y31.494
X33.623 Y31.068
X33.816 Y30.664
X34.062 Y30.289
X34.357 Y29.952
X38.4 Y25.908
X38.85 Y25.428
X39.342 Y24.839
X39.63 Y24.469
X42.837 Y20.151
X43.18 Y19.66
X43.467 Y19.191
X43.722 Y18.711
X43.95 Y18.232
X44.14 Y17.727
X44.277 Y17.272
X44.4 Y16.792
X44.492 Y16.312
X44.568 Y15.833
X44.619 Y15.498
X45.278 Y11.035
X45.348 Y10.555
X45.408 Y10.075
X45.444 Y9.596
X45.471 Y9.116
X45.473 Y8.156
Y-8.156
X45.471 Y-9.116
X45.444 Y-9.596
X45.408 Y-10.075
X45.348 Y-10.555
X45.099 Y-12.247
X44.619 Y-15.498
X44.568 Y-15.833
X44.492 Y-16.312
X44.4 Y-16.792
X44.277 Y-17.272
X44.14 Y-17.727
X43.95 Y-18.232
X43.722 Y-18.711
X43.467 Y-19.191
X43.18 Y-19.66
X42.837 Y-20.151
X39.63 Y-24.469
X39.342 Y-24.839
X38.85 Y-25.428
X38.4 Y-25.908
X25.908 Y-38.4
X25.428 Y-38.85
X24.839 Y-39.342
X24.469 Y-39.63
X20.151 Y-42.837
X19.66 Y-43.18
X19.191 Y-43.467
X18.711 Y-43.722
X18.232 Y-43.95
X17.727 Y-44.14
X17.272 Y-44.277
X16.792 Y-44.4
X16.312 Y-44.492
X15.833 Y-44.568
X15.498 Y-44.619
X11.035 Y-45.278
X10.555 Y-45.348
X10.075 Y-45.408
X9.596 Y-45.444
X9.116 Y-45.471
X8.156 Y-45.473
X-8.156
X-9.116 Y-45.471
X-9.596 Y-45.444
X-10.075 Y-45.408
X-10.555 Y-45.348
X-12.247 Y-45.099
X-15.498 Y-44.619
X-15.833 Y-44.568
X-16.312 Y-44.492
X-16.792 Y-44.4
X-17.272 Y-44.277
X-17.727 Y-44.14
X-18.232 Y-43.95
X-18.711 Y-43.722
X-19.191 Y-43.467
X-19.66 Y-43.18
X-20.151 Y-42.837
X-24.469 Y-39.63
X-24.839 Y-39.342
X-25.428 Y-38.85
X-25.908 Y-38.4
X-38.4 Y-25.908
X-38.85 Y-25.428
X-39.342 Y-24.839
X-39.63 Y-24.469
X-42.837 Y-20.151
X-43.18 Y-19.66
X-43.467 Y-19.191
X-43.722 Y-18.711
X-43.95 Y-18.232
X-44.14 Y-17.727
X-44.277 Y-17.272
X-44.4 Y-16.792
X-44.492 Y-16.312
X-44.568 Y-15.833
X-44.619 Y-15.498
X-45.278 Y-11.035
X-45.348 Y-10.555
X-45.408 Y-10.075
X-45.444 Y-9.596
X-45.471 Y-9.116
X-45.473 Y-8.156
Y8.156
X-45.471 Y9.116
X-45.444 Y9.596
X-45.408 Y10.075
X-45.348 Y10.555
X-45.099 Y12.247
X-44.619 Y15.498
X-44.568 Y15.833
X-44.492 Y16.312
X-44.4 Y16.792
X-44.277 Y17.272
X-44.14 Y17.727
X-43.95 Y18.232
X-43.722 Y18.711
X-43.467 Y19.191
X-43.18 Y19.66
X-42.837 Y20.151
X-39.63 Y24.469
X-39.342 Y24.839
X-38.85 Y25.428
X-38.4 Y25.908
X-25.908 Y38.4
X-25.428 Y38.85
X-24.839 Y39.342
X-24.469 Y39.63
X-20.151 Y42.837
X-19.66 Y43.18
X-19.191 Y43.467
X-18.711 Y43.722
X-18.232 Y43.95
X-17.727 Y44.14
X-17.272 Y44.277
X-16.792 Y44.4
X-16.312 Y44.492
X-15.833 Y44.568
X-15.498 Y44.619
X-11.035 Y45.278
X-10.555 Y45.348
X-10.075 Y45.408
X-9.596 Y45.444
X-9.116 Y45.471
X-8.156 Y45.473
X8.156
X9.116 Y45.471
X9.596 Y45.444
X10.075 Y45.408
X10.555 Y45.348
X12.247 Y45.099
X15.498 Y44.619
X15.833 Y44.568
X16.312 Y44.492
X16.792 Y44.4
X17.272 Y44.277
X17.727 Y44.14
X18.232 Y43.95
X18.711 Y43.722
X19.191 Y43.467
X19.66 Y43.18
X20.151 Y42.837
X24.469 Y39.63
X24.839 Y39.342
X25.428 Y38.85
X25.908 Y38.4
X34.357 Y29.952
X34.431 Y29.897 Z13.255
X34.504 Y29.842 Z13.272
X34.575 Y29.79 Z13.299
X34.643 Y29.739 Z13.336
X34.726 Y29.703 Z13.39
X34.801 Y29.67 Z13.456
X34.867 Y29.64 Z13.532
X34.924 Y29.615 Z13.617
X34.969 Y29.595 Z13.709
X34.999 Y29.587 Z13.787
X35.02 Y29.58 Z13.868
X35.033 Y29.577 Z13.951
X35.037 Y29.575 Z14.035
Z20.45
X40.787 Y38.036
Z17.8
Z16.2
X40.781 Y38.032 Z16.043
X40.761 Y38.02 Z15.888
X40.728 Y38. Z15.735
X40.682 Y37.973 Z15.588
X40.625 Y37.939 Z15.446
X40.555 Y37.898 Z15.311
X40.475 Y37.85 Z15.185
X40.384 Y37.797 Z15.069
X40.284 Y37.737 Z14.963
X40.175 Y37.673 Z14.87
X40.06 Y37.605 Z14.789
X39.937 Y37.532 Z14.722
X39.81 Y37.457 Z14.669
X39.679 Y37.379 Z14.631
X39.546 Y37.3 Z14.608
X39.411 Y37.22 Z14.6
G3 X32.366 Y31.947 I20.813 J-35.148
G1 X32.26 Y31.841
X32.192 Y31.707
X32.136 Y31.568
X32.087 Y31.426
X32.046 Y31.282
X32.011 Y31.136
X31.981 Y30.989
X31.978 Y30.971
X31.934 Y30.525
X31.951 Y30.077
X32.029 Y29.636
X32.165 Y29.21
X32.359 Y28.805
X32.605 Y28.431
X32.899 Y28.094
X38.442 Y22.55
X38.862 Y22.093
X39.342 Y21.513
X39.648 Y21.11
X40.781 Y19.585
X41.064 Y19.191
X41.379 Y18.711
X41.686 Y18.232
X41.741 Y18.131
X41.92 Y17.752
X42.124 Y17.272
X42.291 Y16.792
X42.433 Y16.312
X42.539 Y15.833
X42.631 Y15.353
X42.773 Y14.393
X42.915 Y13.434
X43.053 Y12.474
X43.09 Y11.994
X43.122 Y11.515
X43.128 Y11.035
Y-11.035
X43.122 Y-11.515
X43.09 Y-11.994
X43.053 Y-12.474
X42.915 Y-13.434
X42.7 Y-14.887
X42.631 Y-15.353
X42.539 Y-15.833
X42.433 Y-16.312
X42.291 Y-16.792
X42.124 Y-17.272
X41.92 Y-17.752
X41.741 Y-18.131
X41.686 Y-18.232
X41.379 Y-18.711
X41.064 Y-19.191
X40.781 Y-19.585
X39.648 Y-21.11
X39.342 Y-21.513
X38.862 Y-22.093
X38.442 Y-22.55
X32.625 Y-28.368
X23.029 Y-37.963
X22.55 Y-38.442
X22.093 Y-38.862
X21.513 Y-39.342
X21.11 Y-39.648
X19.585 Y-40.781
X19.191 Y-41.064
X18.711 Y-41.379
X18.232 Y-41.686
X18.131 Y-41.741
X17.752 Y-41.92
X17.272 Y-42.124
X16.792 Y-42.291
X16.312 Y-42.433
X15.833 Y-42.539
X15.353 Y-42.631
X14.393 Y-42.773
X13.434 Y-42.915
X12.474 Y-43.053
X11.994 Y-43.09
X11.515 Y-43.122
X11.035 Y-43.128
X-11.035
X-11.515 Y-43.122
X-11.994 Y-43.09
X-12.474 Y-43.053
X-13.434 Y-42.915
X-14.887 Y-42.7
X-15.353 Y-42.631
X-15.833 Y-42.539
X-16.312 Y-42.433
X-16.792 Y-42.291
X-17.272 Y-42.124
X-17.752 Y-41.92
X-18.131 Y-41.741
X-18.232 Y-41.686
X-18.711 Y-41.379
X-19.191 Y-41.064
X-19.585 Y-40.781
X-21.11 Y-39.648
X-21.513 Y-39.342
X-22.093 Y-38.862
X-22.55 Y-38.442
X-28.368 Y-32.625
X-37.963 Y-23.029
X-38.442 Y-22.55
X-38.862 Y-22.093
X-39.342 Y-21.513
X-39.648 Y-21.11
X-40.781 Y-19.585
X-41.064 Y-19.191
X-41.379 Y-18.711
X-41.686 Y-18.232
X-41.741 Y-18.131
X-41.92 Y-17.752
X-42.124 Y-17.272
X-42.291 Y-16.792
X-42.433 Y-16.312
X-42.539 Y-15.833
X-42.631 Y-15.353
X-42.773 Y-14.393
X-42.915 Y-13.434
X-43.053 Y-12.474
X-43.09 Y-11.994
X-43.122 Y-11.515
X-43.128 Y-11.035
Y11.035
X-43.122 Y11.515
X-43.09 Y11.994
X-43.053 Y12.474
X-42.915 Y13.434
X-42.7 Y14.887
X-42.631 Y15.353
X-42.539 Y15.833
X-42.433 Y16.312
X-42.291 Y16.792
X-42.124 Y17.272
X-41.92 Y17.752
X-41.741 Y18.131
X-41.686 Y18.232
X-41.379 Y18.711
X-41.064 Y19.191
X-40.781 Y19.585
X-39.648 Y21.11
X-39.342 Y21.513
X-38.862 Y22.093
X-38.442 Y22.55
X-32.625 Y28.368
X-23.029 Y37.963
X-22.55 Y38.442
X-22.093 Y38.862
X-21.513 Y39.342
X-21.11 Y39.648
X-19.585 Y40.781
X-19.191 Y41.064
X-18.711 Y41.379
X-18.232 Y41.686
X-18.131 Y41.741
X-17.752 Y41.92
X-17.272 Y42.124
X-16.792 Y42.291
X-16.312 Y42.433
X-15.833 Y42.539
X-15.353 Y42.631
X-14.393 Y42.773
X-13.434 Y42.915
X-12.474 Y43.053
X-11.994 Y43.09
X-11.515 Y43.122
X-11.035 Y43.128
X11.035
X11.515 Y43.122
X11.994 Y43.09
X12.474 Y43.053
X13.434 Y42.915
X14.887 Y42.7
X15.353 Y42.631
X15.833 Y42.539
X16.312 Y42.433
X16.792 Y42.291
X17.272 Y42.124
X17.752 Y41.92
X18.131 Y41.741
X18.232 Y41.686
X18.711 Y41.379
X19.191 Y41.064
X19.585 Y40.781
X21.11 Y39.648
X21.513 Y39.342
X22.093 Y38.862
X22.55 Y38.442
X28.368 Y32.625
X32.899 Y28.094
X32.973 Y28.039 Z14.605
X33.046 Y27.984 Z14.622
X33.117 Y27.931 Z14.649
X33.185 Y27.881 Z14.686
X33.268 Y27.845 Z14.74
X33.343 Y27.811 Z14.806
X33.409 Y27.782 Z14.882
X33.466 Y27.757 Z14.967
X33.512 Y27.737 Z15.059
X33.541 Y27.729 Z15.137
X33.562 Y27.722 Z15.218
X33.575 Y27.719 Z15.301
X33.58 Y27.717 Z15.385
Z20.45
X-67.729 Y-2.249
Z3.197
Z1.597
X-67.726 Y-2.242 Z1.44
X-67.716 Y-2.221 Z1.285
X-67.7 Y-2.186 Z1.132
X-67.677 Y-2.138 Z0.984
X-67.649 Y-2.078 Z0.842
X-67.615 Y-2.005 Z0.708
X-67.575 Y-1.92 Z0.582
X-67.53 Y-1.824 Z0.465
X-67.481 Y-1.719 Z0.36
X-67.428 Y-1.605 Z0.266
X-67.37 Y-1.483 Z0.186
X-67.31 Y-1.354 Z0.119
X-67.248 Y-1.22 Z0.066
X-67.183 Y-1.082 Z0.027
X-67.117 Y-0.942 Z0.004
X-67.051 Y-0.8 Z-0.003
G3 X-64.2 Y7.526 I-36.995 J17.318
G1 X-64.172 Y7.676
X-64.078 Y8.156
X-62.247 Y17.272
X-62.15 Y17.752
X-62.041 Y18.232
X-61.931 Y18.711
X-61.611 Y19.671
X-61.267 Y20.63
X-60.234 Y23.509
X-59.813 Y24.897
X-59.429 Y26.296
X-59.119 Y27.714
X-58.869 Y29.143
X-58.667 Y30.58
X-58.503 Y32.021
X-58.37 Y33.466
X-58.262 Y34.913
X-58.174 Y36.361
X-58.102 Y37.81
X-58.044 Y39.26
X-57.997 Y40.71
X-57.958 Y42.16
X-57.926 Y43.61
X-57.901 Y45.061
X-57.88 Y46.512
X-57.862 Y47.962
X-57.855 Y48.688
X-57.798 Y49.046
X-57.431 Y50.449
X-56.646 Y51.67
X-55.635 Y52.71
X-54.479 Y53.588
X-53.228 Y54.323
X-51.913 Y54.935
X-50.554 Y55.443
X-49.165 Y55.863
X-47.757 Y56.209
X-46.334 Y56.495
X-44.902 Y56.729
X-43.464 Y56.922
X-42.022 Y57.08
X-40.577 Y57.209
X-39.13 Y57.315
X-37.682 Y57.402
X-36.233 Y57.473
X-34.783 Y57.531
X-33.333 Y57.579
X-31.883 Y57.618
X-30.432 Y57.65
X-29.95 Y57.658
X-29.487 Y57.699
X-29.034 Y57.805
X-28.601 Y57.973
X-25.38 Y59.492
X-24.948 Y59.687
X-24.221 Y59.972
X-23.989 Y60.061
X-19.671 Y61.602
X-18.711 Y61.932
X-18.232 Y62.052
X-17.752 Y62.168
X-17.272 Y62.265
X-8.372 Y64.018
G3 X-7.704 Y64.353 Z0.057 I-0.364 J1.558
G1 X-7.682 Y64.372 Z0.059
G2 X-6.279 Y65.38 Z0.197 I7.365 J-8.777
X-5.186 Y65.967 I5.962 J-9.785
X-4.524 Y66.119 I0.68 J-1.448
G1 X3.655 Y66.209
G2 X4.32 Y66.072 I0.018 J-1.6
X5.406 Y65.521 I-4.637 J-10.477
X6.874 Y64.515 Z0.055 I-5.723 J-9.926
G3 X7.526 Y64.2 Z-0.003 I1.004 J1.246
G1 X7.676 Y64.172
X8.156 Y64.078
X17.272 Y62.247
X17.752 Y62.15
X18.232 Y62.041
X18.711 Y61.931
X19.671 Y61.611
X20.63 Y61.267
X23.509 Y60.234
X24.897 Y59.813
X26.296 Y59.429
X27.714 Y59.119
X29.143 Y58.869
X30.58 Y58.667
X32.021 Y58.503
X33.466 Y58.37
X34.913 Y58.262
X36.361 Y58.174
X37.81 Y58.102
X39.26 Y58.044
X40.71 Y57.997
X42.16 Y57.958
X43.61 Y57.926
X45.061 Y57.901
X46.512 Y57.88
X47.962 Y57.862
X48.688 Y57.855
X49.046 Y57.798
X50.449 Y57.431
X51.67 Y56.646
X52.71 Y55.635
X53.588 Y54.479
X54.323 Y53.228
X54.935 Y51.913
X55.443 Y50.554
X55.863 Y49.165
X56.209 Y47.757
X56.495 Y46.334
X56.729 Y44.902
X56.922 Y43.464
X57.08 Y42.022
X57.209 Y40.577
X57.315 Y39.13
X57.402 Y37.682
X57.473 Y36.233
X57.531 Y34.783
X57.579 Y33.333
X57.618 Y31.883
X57.65 Y30.432
X57.658 Y29.95
X57.699 Y29.487
X57.805 Y29.034
X57.973 Y28.601
X59.492 Y25.38
X59.687 Y24.948
X59.972 Y24.221
X60.061 Y23.989
X61.602 Y19.671
X61.932 Y18.711
X62.052 Y18.232
X62.168 Y17.752
X62.265 Y17.272
X64.018 Y8.372
G3 X64.353 Y7.704 Z0.057 I1.558 J0.364
G2 X65.38 Y6.279 Z0.197 I-8.758 J-7.387
X65.967 Y5.186 I-9.785 J-5.962
X66.119 Y4.524 I-1.448 J-0.68
G1 X66.209 Y-3.655
G2 X66.072 Y-4.32 I-1.6 J-0.018
X65.521 Y-5.406 I-10.477 J4.637
X64.515 Y-6.874 Z0.055 I-9.926 J5.723
G3 X64.2 Y-7.526 Z-0.003 I1.246 J-1.004
G1 X64.172 Y-7.676
X64.078 Y-8.156
X62.247 Y-17.272
X62.15 Y-17.752
X62.041 Y-18.232
X61.931 Y-18.711
X61.611 Y-19.671
X61.267 Y-20.63
X60.234 Y-23.509
X59.813 Y-24.897
X59.429 Y-26.296
X59.119 Y-27.714
X58.869 Y-29.143
X58.667 Y-30.58
X58.503 Y-32.021
X58.37 Y-33.466
X58.262 Y-34.913
X58.174 Y-36.361
X58.102 Y-37.81
X58.044 Y-39.26
X57.997 Y-40.71
X57.958 Y-42.16
X57.926 Y-43.61
X57.901 Y-45.061
X57.88 Y-46.512
X57.862 Y-47.962
X57.848 Y-49.413
X57.342 Y-50.773
X56.494 Y-51.95
X55.444 Y-52.951
X54.263 Y-53.794
X52.995 Y-54.498
X51.667 Y-55.084
X50.3 Y-55.57
X48.906 Y-55.971
X47.493 Y-56.302
X46.068 Y-56.574
X44.635 Y-56.797
X43.196 Y-56.98
X41.752 Y-57.131
X40.307 Y-57.253
X38.86 Y-57.354
X37.411 Y-57.436
X35.962 Y-57.503
X34.512 Y-57.558
X33.062 Y-57.602
X31.611 Y-57.639
X30.161 Y-57.669
X29.924 Y-57.673
X29.459 Y-57.713
X29.005 Y-57.819
X28.571 Y-57.988
X25.38 Y-59.492
X24.948 Y-59.687
X24.221 Y-59.972
X23.989 Y-60.061
X19.671 Y-61.602
X18.711 Y-61.932
X18.232 Y-62.052
X17.752 Y-62.168
X17.272 Y-62.265
X8.372 Y-64.018
G3 X7.704 Y-64.353 Z0.057 I0.364 J-1.558
G2 X6.279 Y-65.38 Z0.197 I-7.387 J8.758
X5.186 Y-65.967 I-5.962 J9.785
X4.524 Y-66.119 I-0.68 J1.448
G1 X-3.655 Y-66.209
G2 X-4.32 Y-66.072 I-0.018 J1.6
X-5.406 Y-65.521 I4.637 J10.477
X-6.874 Y-64.515 Z0.055 I5.723 J9.926
G3 X-7.526 Y-64.2 Z-0.003 I-1.004 J-1.246
G1 X-7.676 Y-64.172
X-8.156 Y-64.078
X-17.272 Y-62.247
X-17.752 Y-62.15
X-18.232 Y-62.041
X-18.711 Y-61.931
X-19.671 Y-61.611
X-20.63 Y-61.267
X-23.509 Y-60.234
X-24.897 Y-59.813
X-26.296 Y-59.429
X-27.714 Y-59.119
X-29.143 Y-58.869
X-30.58 Y-58.667
X-32.021 Y-58.503
X-33.466 Y-58.37
X-34.913 Y-58.262
X-36.361 Y-58.174
X-37.81 Y-58.102
X-39.26 Y-58.044
X-40.71 Y-57.997
X-42.16 Y-57.958
X-43.61 Y-57.926
X-45.061 Y-57.901
X-46.512 Y-57.88
X-47.962 Y-57.862
X-48.688 Y-57.855
X-49.046 Y-57.798
X-50.449 Y-57.431
X-51.67 Y-56.646
X-52.71 Y-55.635
X-53.588 Y-54.479
X-54.323 Y-53.228
X-54.935 Y-51.913
X-55.443 Y-50.554
X-55.863 Y-49.165
X-56.209 Y-47.757
X-56.495 Y-46.334
X-56.729 Y-44.902
X-56.922 Y-43.464
X-57.08 Y-42.022
X-57.209 Y-40.577
X-57.315 Y-39.13
X-57.402 Y-37.682
X-57.473 Y-36.233
X-57.531 Y-34.783
X-57.579 Y-33.333
X-57.618 Y-31.883
X-57.65 Y-30.432
X-57.658 Y-29.95
X-57.699 Y-29.487
X-57.805 Y-29.034
X-57.973 Y-28.601
X-59.492 Y-25.38
X-59.687 Y-24.948
X-59.972 Y-24.221
X-60.061 Y-23.989
X-61.602 Y-19.671
X-61.932 Y-18.711
X-62.052 Y-18.232
X-62.168 Y-17.752
X-62.265 Y-17.272
X-64.018 Y-8.372
G3 X-64.53 Y-7.526 Z0.077 I-1.558 J-0.364
G2 X-65.628 Y-6.495 Z0.197 I12.022 J13.9
X-67.718 Y-3.941 I13.12 J12.869
X-67.983 Y-2.856 I1.324 J0.898
G1 X-65.423 Y18.939
G2 X-64.915 Y19.933 I1.589 J-0.187
X-62.176 Y22.004 I12.406 J-13.558
X-60.983 Y22.682 Z0.087 I9.668 J-15.629
G3 X-60.234 Y23.509 Z-0.003 I-0.738 J1.42
G1 X-60.062 Y23.989
X-59.972 Y24.222
X-59.687 Y24.948
X-59.492 Y25.379
X-58.533 Y27.404
X-57.573 Y29.428
X-57.094 Y30.432
X-56.932 Y30.706
X-56.614 Y31.242
X-56.342 Y31.665
X-55.698 Y32.625
X-54.951 Y33.869
X-54.626 Y34.517
X-54.047 Y35.822
X-53.568 Y37.191
X-53.176 Y38.588
X-52.856 Y40.003
X-52.517 Y41.413
X-51.922 Y42.737
X-51.112 Y43.941
X-50.136 Y45.014
X-49.034 Y45.957
X-47.837 Y46.778
X-46.571 Y47.486
X-45.254 Y48.094
X-43.899 Y48.614
X-42.564 Y49.041
X-42.134 Y49.213
X-41.732 Y49.443
X-41.366 Y49.727
X-41.176 Y49.897
X-40.781 Y50.206
X-40.301 Y50.565
X-39.874 Y50.856
X-31.665 Y56.32
X-31.211 Y56.614
X-30.434 Y57.094
X-30.226 Y57.196
X-29.447 Y57.573
X-29.266 Y57.659
X-28.601 Y57.973
G3 X-28.017 Y58.487 I-0.733 J1.422
G1 X-27.928 Y58.616 Z0.004
X-27.84 Y58.744 Z0.027
X-27.753 Y58.869 Z0.066
X-27.669 Y58.991 Z0.119
X-27.589 Y59.107 Z0.186
X-27.512 Y59.218 Z0.266
X-27.441 Y59.322 Z0.36
X-27.375 Y59.418 Z0.465
X-27.315 Y59.505 Z0.582
X-27.261 Y59.582 Z0.708
X-27.216 Y59.648 Z0.842
X-27.178 Y59.703 Z0.984
X-27.147 Y59.747 Z1.132
X-27.126 Y59.778 Z1.285
X-27.113 Y59.797 Z1.44
X-27.108 Y59.803 Z1.597
Z20.45
X-57.747 Y31.436
Z3.197
Z1.597
X-57.74 Y31.439 Z1.44
X-57.719 Y31.449 Z1.285
X-57.684 Y31.465 Z1.132
X-57.637 Y31.488 Z0.984
X-57.576 Y31.517 Z0.842
X-57.503 Y31.552 Z0.708
X-57.419 Y31.592 Z0.582
X-57.323 Y31.637 Z0.465
X-57.218 Y31.687 Z0.36
X-57.104 Y31.741 Z0.266
X-56.983 Y31.799 Z0.186
X-56.854 Y31.86 Z0.119
X-56.721 Y31.923 Z0.066
X-56.583 Y31.988 Z0.027
X-56.443 Y32.055 Z0.004
X-56.301 Y32.122 Z-0.003
G3 X-55.698 Y32.625 I-0.679 J1.429
G1 X-50.856 Y39.842
X-50.543 Y40.301
X-50.197 Y40.781
X-49.897 Y41.182
X-49.829 Y41.261
X-49.403 Y41.741
X-46.354 Y45.099
X-46.059 Y45.419
X-45.418 Y46.059
X-45.099 Y46.353
X-41.712 Y49.417
X-41.366 Y49.727
G3 X-40.9 Y50.599 Z0.077 I-1.109 J1.153
G2 X-40.603 Y52.076 Z0.197 I33.618 J-5.996
X-36.822 Y61.736 I33.321 J-7.473
X-35.695 Y62.512 I1.384 J-0.803
G1 X13.982 Y70.601
G2 X15.297 Y70.222 I0.257 J-1.579
X21.999 Y62.173 I-22.579 J-25.618
X22.697 Y60.954 Z0.085 I-29.282 J-17.57
G3 X23.509 Y60.234 Z-0.003 I1.405 J0.766
G1 X23.989 Y60.062
X24.222 Y59.972
X24.948 Y59.687
X25.379 Y59.492
X27.404 Y58.533
X29.428 Y57.573
X30.432 Y57.094
X30.706 Y56.932
X31.242 Y56.614
X31.665 Y56.342
X32.625 Y55.698
X33.869 Y54.951
X34.517 Y54.626
X35.822 Y54.047
X37.191 Y53.568
X38.588 Y53.176
X40.003 Y52.856
X41.413 Y52.517
X42.737 Y51.922
X43.941 Y51.112
X45.014 Y50.136
X45.957 Y49.034
X46.778 Y47.837
X47.486 Y46.571
X48.094 Y45.254
X48.614 Y43.899
X49.041 Y42.564
X49.213 Y42.134
X49.443 Y41.732
X49.727 Y41.366
X49.897 Y41.176
X50.206 Y40.781
X50.565 Y40.301
X50.856 Y39.874
X56.32 Y31.665
X56.614 Y31.211
X57.094 Y30.434
X57.196 Y30.226
X57.573 Y29.447
X57.659 Y29.266
X57.973 Y28.601
G3 X58.487 Y28.017 I1.422 J0.733
G1 X58.616 Y27.928 Z0.004
X58.744 Y27.84 Z0.027
X58.869 Y27.753 Z0.066
X58.991 Y27.669 Z0.119
X59.107 Y27.589 Z0.186
X59.218 Y27.512 Z0.266
X59.322 Y27.441 Z0.36
X59.418 Y27.375 Z0.465
X59.505 Y27.315 Z0.582
X59.582 Y27.262 Z0.708
X59.648 Y27.216 Z0.842
X59.703 Y27.178 Z0.984
X59.747 Y27.147 Z1.132
X59.778 Y27.126 Z1.285
X59.797 Y27.113 Z1.44
X59.803 Y27.108 Z1.597
Z20.45
X31.436 Y57.747
Z3.197
Z1.597
X31.439 Y57.74 Z1.44
X31.449 Y57.719 Z1.285
X31.465 Y57.684 Z1.132
X31.488 Y57.637 Z0.984
X31.517 Y57.576 Z0.842
X31.552 Y57.503 Z0.708
X31.592 Y57.419 Z0.582
X31.637 Y57.323 Z0.465
X31.687 Y57.218 Z0.36
X31.741 Y57.104 Z0.266
X31.799 Y56.983 Z0.186
X31.86 Y56.854 Z0.119
X31.923 Y56.721 Z0.066
X31.988 Y56.583 Z0.027
X32.055 Y56.443 Z0.004
X32.122 Y56.301 Z-0.003
G3 X32.625 Y55.698 I1.429 J0.679
G1 X39.842 Y50.856
X40.301 Y50.543
X40.781 Y50.197
X41.182 Y49.897
X41.261 Y49.829
X41.741 Y49.403
X45.099 Y46.354
X45.419 Y46.059
X46.059 Y45.418
X46.353 Y45.099
X49.417 Y41.712
X49.727 Y41.366
G3 X50.599 Y40.9 Z0.077 I1.153 J1.109
G2 X52.076 Y40.603 Z0.197 I-5.996 J-33.618
X61.736 Y36.822 I-7.473 J-33.321
X62.512 Y35.695 I-0.803 J-1.384
G1 X70.601 Y-13.982
G2 X70.222 Y-15.297 I-1.579 J-0.257
X62.173 Y-21.999 I-25.618 J22.579
X60.954 Y-22.697 Z0.085 I-17.57 J29.282
G3 X60.234 Y-23.509 Z-0.003 I0.766 J-1.405
G1 X60.062 Y-23.989
X59.972 Y-24.222
X59.687 Y-24.948
X59.492 Y-25.379
X58.533 Y-27.404
X57.573 Y-29.428
X57.094 Y-30.432
X56.932 Y-30.706
X56.614 Y-31.242
X56.342 Y-31.665
X55.698 Y-32.625
X54.951 Y-33.869
X54.626 Y-34.517
X54.047 Y-35.822
X53.568 Y-37.191
X53.176 Y-38.588
X52.856 Y-40.003
X52.528 Y-41.416
X51.94 Y-42.743
X51.135 Y-43.949
X50.162 Y-45.026
X49.062 Y-45.971
X47.866 Y-46.793
X46.601 Y-47.502
X45.284 Y-48.111
X43.929 Y-48.63
X42.547 Y-49.072
X42.099 Y-49.251
X41.68 Y-49.491
X41.299 Y-49.787
X41.176 Y-49.897
X40.781 Y-50.206
X40.301 Y-50.565
X39.874 Y-50.856
X31.665 Y-56.32
X31.211 Y-56.614
X30.434 Y-57.094
X30.226 Y-57.196
X29.447 Y-57.573
X29.266 Y-57.659
X28.571 Y-57.988
G3 X27.987 Y-58.501 I0.733 J-1.422
G1 X27.897 Y-58.63 Z0.004
X27.809 Y-58.758 Z0.027
X27.723 Y-58.883 Z0.066
X27.639 Y-59.005 Z0.119
X27.558 Y-59.122 Z0.186
X27.482 Y-59.233 Z0.266
X27.41 Y-59.337 Z0.36
X27.344 Y-59.432 Z0.465
X27.284 Y-59.519 Z0.582
X27.231 Y-59.596 Z0.708
X27.185 Y-59.662 Z0.842
X27.147 Y-59.718 Z0.984
X27.117 Y-59.761 Z1.132
X27.095 Y-59.793 Z1.285
X27.082 Y-59.812 Z1.44
X27.078 Y-59.818 Z1.597
Z20.45
X57.747 Y-31.436
Z3.197
Z1.597
X57.74 Y-31.439 Z1.44
X57.719 Y-31.449 Z1.285
X57.684 Y-31.465 Z1.132
X57.637 Y-31.488 Z0.984
X57.576 Y-31.517 Z0.842
X57.503 Y-31.552 Z0.708
X57.419 Y-31.592 Z0.582
X57.323 Y-31.637 Z0.465
X57.218 Y-31.687 Z0.36
X57.104 Y-31.741 Z0.266
X56.983 Y-31.799 Z0.186
X56.854 Y-31.86 Z0.119
X56.721 Y-31.923 Z0.066
X56.583 Y-31.988 Z0.027
X56.443 Y-32.055 Z0.004
X56.301 Y-32.122 Z-0.003
G3 X55.698 Y-32.625 I0.679 J-1.429
G1 X50.856 Y-39.842
X50.543 Y-40.301
X50.197 Y-40.781
X49.897 Y-41.182
X49.829 Y-41.261
X49.403 Y-41.741
X46.354 Y-45.099
X46.059 Y-45.419
X45.418 Y-46.059
X45.099 Y-46.353
X41.712 Y-49.417
X41.299 Y-49.787
G3 X40.833 Y-50.659 Z0.077 I1.109 J-1.153
G2 X40.536 Y-52.136 Z0.197 I-33.57 J5.987
X36.761 Y-61.78 I-33.272 J7.464
X35.633 Y-62.556 I-1.384 J0.803
G1 X-14.004 Y-70.602
G2 X-15.32 Y-70.221 I-0.256 J1.579
X-22.001 Y-62.174 I22.583 J25.549
X-22.696 Y-60.956 Z0.085 I29.265 J17.503
G3 X-23.509 Y-60.234 Z-0.003 I-1.406 J-0.764
G1 X-23.989 Y-60.062
X-24.222 Y-59.972
X-24.948 Y-59.687
X-25.379 Y-59.492
X-27.404 Y-58.533
X-29.428 Y-57.573
X-30.432 Y-57.094
X-30.706 Y-56.932
X-31.242 Y-56.614
X-31.665 Y-56.341
X-32.625 Y-55.698
X-33.869 Y-54.951
X-34.517 Y-54.626
X-35.822 Y-54.047
X-37.191 Y-53.568
X-38.588 Y-53.176
X-40.003 Y-52.856
X-41.413 Y-52.517
X-42.737 Y-51.922
X-43.941 Y-51.112
X-45.014 Y-50.136
X-45.957 Y-49.034
X-46.778 Y-47.837
X-47.486 Y-46.571
X-48.094 Y-45.254
X-48.614 Y-43.899
X-49.041 Y-42.564
X-49.213 Y-42.134
X-49.443 Y-41.732
X-49.727 Y-41.366
X-49.897 Y-41.176
X-50.206 Y-40.781
X-50.565 Y-40.301
X-50.856 Y-39.874
X-56.32 Y-31.665
X-56.614 Y-31.211
X-57.094 Y-30.434
X-57.196 Y-30.226
X-57.573 Y-29.447
X-57.659 Y-29.266
X-57.973 Y-28.601
G3 X-58.487 Y-28.017 I-1.422 J-0.733
G1 X-58.616 Y-27.928 Z0.004
X-58.744 Y-27.84 Z0.027
X-58.869 Y-27.753 Z0.066
X-58.991 Y-27.669 Z0.119
X-59.107 Y-27.589 Z0.186
X-59.218 Y-27.512 Z0.266
X-59.322 Y-27.441 Z0.36
X-59.418 Y-27.375 Z0.465
X-59.505 Y-27.315 Z0.582
X-59.582 Y-27.262 Z0.708
X-59.648 Y-27.216 Z0.842
X-59.703 Y-27.178 Z0.984
X-59.747 Y-27.147 Z1.132
X-59.778 Y-27.126 Z1.285
X-59.797 Y-27.113 Z1.44
X-59.803 Y-27.108 Z1.597
Z20.45
X-31.436 Y-57.747
Z3.197
Z1.597
X-31.439 Y-57.74 Z1.44
X-31.449 Y-57.719 Z1.285
X-31.465 Y-57.684 Z1.132
X-31.488 Y-57.637 Z0.984
X-31.517 Y-57.576 Z0.842
X-31.552 Y-57.503 Z0.708
X-31.592 Y-57.419 Z0.582
X-31.637 Y-57.323 Z0.465
X-31.687 Y-57.218 Z0.36
X-31.741 Y-57.104 Z0.266
X-31.799 Y-56.983 Z0.186
X-31.86 Y-56.854 Z0.119
X-31.923 Y-56.721 Z0.066
X-31.988 Y-56.583 Z0.027
X-32.055 Y-56.443 Z0.004
X-32.122 Y-56.301 Z-0.003
G3 X-32.625 Y-55.698 I-1.429 J-0.679
G1 X-39.842 Y-50.856
X-40.301 Y-50.543
X-40.781 Y-50.197
X-41.182 Y-49.897
X-41.261 Y-49.829
X-41.741 Y-49.403
X-45.099 Y-46.354
X-45.419 Y-46.059
X-46.059 Y-45.418
X-46.353 Y-45.099
X-49.417 Y-41.712
X-49.727 Y-41.366
X-49.798 Y-41.307 Z0.002
X-49.868 Y-41.249 Z0.019
X-49.936 Y-41.193 Z0.046
X-50.001 Y-41.138 Z0.083
X-50.082 Y-41.098 Z0.137
X-50.155 Y-41.06 Z0.202
X-50.22 Y-41.028 Z0.278
X-50.275 Y-41. Z0.363
X-50.319 Y-40.977 Z0.456
X-50.348 Y-40.967 Z0.534
X-50.369 Y-40.96 Z0.615
X-50.382 Y-40.955 Z0.698
X-50.386 Y-40.954 Z0.782
Z20.45
X-67.676 Y-2.876
Z4.3
Z2.7
X-67.673 Y-2.869 Z2.543
X-67.663 Y-2.848 Z2.388
X-67.647 Y-2.814 Z2.235
X-67.625 Y-2.766 Z2.088
X-67.597 Y-2.705 Z1.946
X-67.563 Y-2.631 Z1.811
X-67.524 Y-2.547 Z1.685
X-67.48 Y-2.451 Z1.569
X-67.431 Y-2.345 Z1.463
X-67.378 Y-2.231 Z1.37
X-67.322 Y-2.108 Z1.289
X-67.262 Y-1.979 Z1.222
X-67.2 Y-1.845 Z1.169
X-67.137 Y-1.707 Z1.131
X-67.071 Y-1.566 Z1.108
X-67.006 Y-1.424 Z1.1
G3 X-64.201 Y6.918 I-37.091 J17.112
G1 X-64.15 Y7.197
X-64.058 Y7.676
X-63.963 Y8.156
X-62.133 Y17.272
X-62.036 Y17.752
X-61.827 Y18.711
X-61.704 Y19.191
X-61.568 Y19.671
X-61.419 Y20.151
G3 X-61.575 Y21.365 Z1.2 I-1.544 J0.419
G2 X-62.043 Y22.526 Z1.3 I3.949 J2.264
X-62.16 Y24.04 I4.416 J1.103
X-62.046 Y24.503 I1.593 J-0.144
G1 X-61.387 Y26.11
G2 X-61.143 Y26.519 I1.48 J-0.607
X-59.979 Y27.525 I3.517 J-2.89
X-58.849 Y28.014 Z1.202 I2.353 J-3.897
G3 X-57.875 Y28.787 Z1.1 I-0.43 J1.541
G1 X-57.634 Y29.266
X-57.573 Y29.384
X-57.381 Y29.746
X-57.094 Y30.261
X-56.828 Y30.706
X-56.614 Y31.047
X-56.524 Y31.186
X-56.206 Y31.665
X-50.735 Y39.822
X-50.377 Y40.353
X-50.079 Y40.781
X-49.897 Y41.032
X-49.726 Y41.261
X-49.417 Y41.655
X-49.349 Y41.741
X-48.95 Y42.22
G3 X-48.678 Y43.648 Z1.22 I-1.265 J0.98
G2 X-48.825 Y44.638 Z1.3 I3.534 J1.029
X-48.817 Y44.918 I3.68 J0.039
X-48.357 Y45.939 I1.597 J-0.105
G1 X-46.437 Y47.878
G2 X-45.42 Y48.347 I1.137 J-1.126
X-45.11 Y48.357 I0.276 J-3.67
X-44.148 Y48.22 Z1.222 I-0.035 J-3.681
G3 X-42.7 Y48.523 Z1.1 I0.433 J1.54
G1 X-42.22 Y48.945
X-41.741 Y49.35
X-41.658 Y49.417
X-41.261 Y49.733
X-41.047 Y49.897
X-40.781 Y50.094
X-40.382 Y50.377
X-40.301 Y50.432
X-39.822 Y50.756
X-31.665 Y56.185
X-31.017 Y56.614
X-30.706 Y56.813
X-30.226 Y57.106
X-29.746 Y57.379
X-29.386 Y57.573
G3 X-28.646 Y58.549 Z1.2 I-0.808 J1.381
G2 X-28.169 Y59.706 Z1.3 I4.48 J-1.172
X-27.164 Y60.907 I4.002 J-2.329
X-26.749 Y61.162 I1.036 J-1.22
G1 X-25.07 Y61.869
G2 X-24.597 Y61.988 I0.621 J-1.475
X-23.007 Y61.86 I0.431 J-4.61
X-21.875 Y61.401 Z1.202 I-1.16 J-4.483
G3 X-20.63 Y61.257 Z1.1 I0.792 J1.39
G1 X-20.151 Y61.417
X-19.671 Y61.569
X-19.191 Y61.709
X-18.711 Y61.838
X-18.232 Y61.954
X-17.752 Y62.056
X-7.676 Y64.041
G3 X-7.008 Y64.375 Z1.16 I-0.363 J1.558
G2 X-5.575 Y65.389 Z1.3 I6.72 J-7.981
X-4.714 Y65.842 I5.286 J-8.995
X-4.052 Y65.993 I0.679 J-1.449
G1 X3.267 Y66.072
G2 X3.932 Y65.936 I0.017 J-1.6
X4.789 Y65.508 I-4.22 J-9.542
X6.257 Y64.518 Z1.159 I-5.078 J-9.114
G3 X6.918 Y64.201 Z1.1 I1.004 J1.246
G1 X7.197 Y64.15
X7.676 Y64.058
X8.156 Y63.963
X17.272 Y62.133
X17.752 Y62.036
X18.711 Y61.827
X19.191 Y61.704
X19.671 Y61.568
X20.151 Y61.419
G3 X21.365 Y61.575 Z1.2 I0.419 J1.544
G2 X22.526 Y62.043 Z1.3 I2.264 J-3.949
X24.04 Y62.16 I1.103 J-4.416
X24.503 Y62.046 I-0.144 J-1.593
G1 X26.11 Y61.387
G2 X26.519 Y61.143 I-0.607 J-1.48
X27.525 Y59.979 I-2.89 J-3.517
X28.014 Y58.849 Z1.202 I-3.897 J-2.353
G3 X28.787 Y57.875 Z1.1 I1.541 J0.43
G1 X29.266 Y57.634
X29.384 Y57.573
X29.746 Y57.381
X30.261 Y57.094
X30.706 Y56.828
X31.047 Y56.614
X31.186 Y56.524
X31.665 Y56.206
X39.822 Y50.735
X40.353 Y50.377
X40.781 Y50.079
X41.032 Y49.897
X41.261 Y49.726
X41.655 Y49.417
X41.741 Y49.349
X42.22 Y48.95
G3 X43.648 Y48.678 Z1.22 I0.98 J1.265
G2 X44.638 Y48.825 Z1.3 I1.029 J-3.534
X44.918 Y48.817 I0.039 J-3.68
X45.939 Y48.357 I-0.105 J-1.597
G1 X47.878 Y46.437
G2 X48.347 Y45.42 I-1.126 J-1.137
X48.357 Y45.11 I-3.67 J-0.276
X48.22 Y44.148 Z1.222 I-3.681 J0.035
G3 X48.523 Y42.7 Z1.1 I1.54 J-0.433
G1 X48.945 Y42.22
X49.35 Y41.741
X49.417 Y41.658
X49.733 Y41.261
X49.897 Y41.047
X50.094 Y40.781
X50.377 Y40.382
X50.432 Y40.301
X50.756 Y39.822
X56.185 Y31.665
X56.614 Y31.017
X56.813 Y30.706
X57.107 Y30.226
X57.379 Y29.746
X57.573 Y29.386
G3 X58.549 Y28.646 Z1.2 I1.381 J0.808
G2 X59.706 Y28.169 Z1.3 I-1.172 J-4.48
X60.907 Y27.164 I-2.329 J-4.002
X61.162 Y26.749 I-1.22 J-1.036
G1 X61.869 Y25.07
G2 X61.988 Y24.597 I-1.475 J-0.621
X61.86 Y23.007 I-4.61 J-0.431
X61.401 Y21.875 Z1.202 I-4.483 J1.16
G3 X61.257 Y20.63 Z1.1 I1.39 J-0.792
G1 X61.417 Y20.151
X61.569 Y19.671
X61.709 Y19.191
X61.838 Y18.711
X61.954 Y18.232
X62.056 Y17.752
X64.041 Y7.676
G3 X64.375 Y7.008 Z1.16 I1.558 J0.363
G2 X65.389 Y5.575 Z1.3 I-7.981 J-6.72
X65.842 Y4.714 I-8.995 J-5.286
X65.993 Y4.052 I-1.449 J-0.679
G1 X66.072 Y-3.267
G2 X65.936 Y-3.932 I-1.6 J-0.017
X65.508 Y-4.789 I-9.542 J4.22
X64.518 Y-6.257 Z1.159 I-9.114 J5.078
G3 X64.201 Y-6.918 Z1.1 I1.246 J-1.004
G1 X64.15 Y-7.197
X64.058 Y-7.676
X63.963 Y-8.156
X62.133 Y-17.272
X62.036 Y-17.752
X61.827 Y-18.711
X61.704 Y-19.191
X61.568 Y-19.671
X61.419 Y-20.151
G3 X61.575 Y-21.365 Z1.2 I1.544 J-0.419
G2 X62.043 Y-22.526 Z1.3 I-3.949 J-2.264
X62.16 Y-24.04 I-4.416 J-1.103
X62.046 Y-24.503 I-1.593 J0.144
G1 X61.387 Y-26.11
G2 X61.143 Y-26.519 I-1.48 J0.607
X59.979 Y-27.525 I-3.517 J2.89
X58.849 Y-28.014 Z1.202 I-2.353 J3.897
G3 X57.875 Y-28.787 Z1.1 I0.43 J-1.541
G1 X57.634 Y-29.266
X57.573 Y-29.384
X57.381 Y-29.746
X57.094 Y-30.261
X56.828 Y-30.706
X56.614 Y-31.047
X56.524 Y-31.186
X56.206 Y-31.665
X50.735 Y-39.822
X50.377 Y-40.353
X50.079 Y-40.781
X49.897 Y-41.032
X49.726 Y-41.261
X49.417 Y-41.655
X49.349 Y-41.741
X48.95 Y-42.22
G3 X48.678 Y-43.648 Z1.22 I1.265 J-0.98
G2 X48.825 Y-44.638 Z1.3 I-3.534 J-1.029
X48.817 Y-44.918 I-3.68 J-0.039
X48.357 Y-45.939 I-1.597 J0.105
G1 X46.437 Y-47.878
G2 X45.42 Y-48.347 I-1.137 J1.126
X45.11 Y-48.357 I-0.276 J3.67
X44.148 Y-48.22 Z1.222 I0.035 J3.681
G3 X42.7 Y-48.523 Z1.1 I-0.433 J-1.54
G1 X42.22 Y-48.945
X41.741 Y-49.35
X41.658 Y-49.417
X41.261 Y-49.733
X41.047 Y-49.897
X40.781 Y-50.094
X40.382 Y-50.377
X40.301 Y-50.432
X39.822 Y-50.756
X31.665 Y-56.185
X31.017 Y-56.614
X30.706 Y-56.813
X30.226 Y-57.106
X29.746 Y-57.379
X29.386 Y-57.573
G3 X28.646 Y-58.549 Z1.2 I0.808 J-1.381
G2 X28.169 Y-59.706 Z1.3 I-4.48 J1.172
X27.164 Y-60.907 I-4.002 J2.329
X26.749 Y-61.162 I-1.036 J1.22
G1 X25.07 Y-61.869
G2 X24.597 Y-61.988 I-0.621 J1.475
X23.007 Y-61.86 I-0.431 J4.61
X21.875 Y-61.401 Z1.202 I1.16 J4.483
G3 X20.63 Y-61.257 Z1.1 I-0.792 J-1.39
G1 X20.151 Y-61.417
X19.671 Y-61.569
X19.191 Y-61.709
X18.711 Y-61.838
X18.232 Y-61.954
X17.752 Y-62.056
X7.676 Y-64.041
G3 X7.008 Y-64.375 Z1.16 I0.363 J-1.558
G2 X5.575 Y-65.389 Z1.3 I-6.72 J7.981
X4.714 Y-65.842 I-5.286 J8.995
X4.052 Y-65.993 I-0.679 J1.449
G1 X-3.267 Y-66.072
G2 X-3.932 Y-65.936 I-0.017 J1.6
X-4.789 Y-65.508 I4.22 J9.542
X-6.257 Y-64.518 Z1.159 I5.078 J9.114
G3 X-6.918 Y-64.201 Z1.1 I-1.004 J-1.246
G1 X-7.197 Y-64.15
X-7.676 Y-64.058
X-8.156 Y-63.963
X-17.272 Y-62.133
X-17.752 Y-62.036
X-18.711 Y-61.827
X-19.191 Y-61.704
X-19.671 Y-61.568
X-20.151 Y-61.419
G3 X-21.365 Y-61.575 Z1.2 I-0.419 J-1.544
G2 X-22.526 Y-62.043 Z1.3 I-2.264 J3.949
X-24.04 Y-62.16 I-1.103 J4.416
X-24.503 Y-62.046 I0.144 J1.593
G1 X-26.11 Y-61.387
G2 X-26.519 Y-61.143 I0.607 J1.48
X-27.525 Y-59.979 I2.89 J3.517
X-28.014 Y-58.849 Z1.202 I3.897 J2.353
G3 X-28.787 Y-57.875 Z1.1 I-1.541 J-0.43
G1 X-29.266 Y-57.634
X-29.384 Y-57.573
X-29.746 Y-57.381
X-30.261 Y-57.094
X-30.706 Y-56.828
X-31.047 Y-56.614
X-31.186 Y-56.524
X-31.665 Y-56.206
X-39.822 Y-50.735
X-40.353 Y-50.377
X-40.781 Y-50.079
X-41.032 Y-49.897
X-41.261 Y-49.726
X-41.655 Y-49.417
X-41.741 Y-49.349
X-42.22 Y-48.95
G3 X-43.648 Y-48.678 Z1.22 I-0.98 J-1.265
G2 X-44.638 Y-48.825 Z1.3 I-1.029 J3.534
X-44.918 Y-48.817 I-0.039 J3.68
X-45.939 Y-48.357 I0.105 J1.597
G1 X-47.878 Y-46.437
G2 X-48.347 Y-45.42 I1.126 J1.137
X-48.357 Y-45.11 I3.67 J0.276
X-48.22 Y-44.148 Z1.222 I3.681 J-0.035
G3 X-48.523 Y-42.7 Z1.1 I-1.54 J0.433
G1 X-48.945 Y-42.22
X-49.35 Y-41.741
X-49.417 Y-41.658
X-49.733 Y-41.261
X-49.897 Y-41.047
X-50.094 Y-40.781
X-50.377 Y-40.382
X-50.433 Y-40.301
X-50.756 Y-39.822
X-56.185 Y-31.665
X-56.614 Y-31.017
X-56.813 Y-30.706
X-57.107 Y-30.226
X-57.379 Y-29.746
X-57.573 Y-29.386
G3 X-58.549 Y-28.646 Z1.2 I-1.381 J-0.808
G2 X-59.706 Y-28.169 Z1.3 I1.172 J4.48
X-60.907 Y-27.164 I2.329 J4.002
X-61.162 Y-26.749 I1.22 J1.036
G1 X-61.869 Y-25.07
G2 X-61.988 Y-24.597 I1.475 J0.621
X-61.86 Y-23.007 I4.61 J0.431
X-61.401 Y-21.875 Z1.202 I4.483 J-1.16
G3 X-61.257 Y-20.63 Z1.1 I-1.39 J0.792
G1 X-61.417 Y-20.151
X-61.569 Y-19.671
X-61.709 Y-19.191
X-61.838 Y-18.711
X-61.954 Y-18.232
X-62.056 Y-17.752
X-64.041 Y-7.676
G3 X-64.395 Y-6.985 I-1.558 J-0.363
G1 X-64.499 Y-6.867 Z1.108
X-64.601 Y-6.75 Z1.131
X-64.702 Y-6.635 Z1.169
X-64.799 Y-6.524 Z1.222
X-64.892 Y-6.417 Z1.289
X-64.981 Y-6.316 Z1.37
X-65.064 Y-6.221 Z1.463
X-65.141 Y-6.134 Z1.569
X-65.21 Y-6.054 Z1.685
X-65.272 Y-5.984 Z1.811
X-65.325 Y-5.923 Z1.946
X-65.37 Y-5.873 Z2.088
X-65.404 Y-5.833 Z2.235
X-65.43 Y-5.804 Z2.388
X-65.445 Y-5.787 Z2.543
X-65.45 Y-5.781 Z2.7
Z30.45

(--------------------------------- OP 2 ---------------------------------)

(Using high feed G1 F5000. instead of G0.)
(T4 D=6. CR=0. - ZMIN=-0.003 - fresa con punta plana)
G21
G53 G0 Z0.

(Paralelo10)
T4 M6
G17 G90 G94
G54
M8
G1 X12.576 Y-57.703 F5000.
G0 G43 Z30.45 H4
G1 Z3.094 F1000.
Z0.597 F333.33
G18 G3 X11.976 Z-0.003 I-0.6 K0. F1000.
G1 X11.975 Z0.784
X5.461 Z1.607
X0.826 Z2.531
X0.473 Z2.578
X0.138 Z2.598
X-0.265 Z2.593
X-0.633 Z2.56
X-1.002 Z2.498
X-5.753 Z1.576
X-11.967 Z0.784
Z-0.003
G3 X-12.567 Z0.597 I0. K0.6
G1 Z20.45
X-19.059 Y-56.203
Z3.473
Z0.597 F333.33
G2 X-18.459 Z-0.003 I0.6 K0. F1000.
G1 Z0.973
X-18.453 Z0.991
X-18.41 Z1.018
X-18.293 Z1.044
X-15.807 Z1.252
X-4.87 Z2.642
X-0.972 Z3.396
X-0.612 Z3.455
X-0.238 Z3.486
X0.136 Z3.49
X0.474 Z3.47
X0.827 Z3.423
X4.584 Z2.674
X15.265 Z1.327
X18.268 Z1.066
X18.395 Z1.037
X18.432 Z1.01
X18.436 Z-0.003
X22.37 Y-54.799
X22.632 Y-54.703
Z1.71
X22.235 Z1.793
X21.855 Z1.844
X20.921 Z1.934
X11.912 Z2.705
X3.716 Z3.739
X0.82 Z4.316
X0.463 Z4.362
X0.108 Z4.383
X-0.298 Z4.375
X-0.665 Z4.339
X-1.049 Z4.273
X-3.964 Z3.71
X-12.331 Z2.646
X-21.222 Z1.907
X-22.029 Z1.825
X-22.419 Z1.758
X-22.632 Z1.71
Z-0.003
X-22.832 Y-54.614
X-25.807 Y-53.203
X-25.806 Z1.168
X-25.781 Z1.207
X-25.691 Z1.267
X-24.038 Z2.022
X-22.967 Z2.458
X-22.57 Z2.612
X-22.168 Z2.738
X-21.769 Z2.834
X-21.382 Z2.897
X-15.172 Z3.515
X-8.921 Z4.035
X-3.051 Z4.779
X-1.006 Z5.173
X-0.628 Z5.236
X-0.254 Z5.269
X0.129 Z5.274
X0.455 Z5.255
X0.816 Z5.208
X2.85 Z4.804
X8.522 Z4.087
X14.929 Z3.537
X21.112 Z2.926
X21.502 Z2.881
X21.89 Z2.808
X22.279 Z2.706
X22.672 Z2.575
X23.961 Z2.055
X25.654 Z1.273
X25.778 Z1.2
X25.818 Z1.154
X25.822 Z-0.003
X27.645 Y-52.343
X27.826 Y-52.253
X28. Y-52.151
X28.169 Y-52.04
X28.506 Y-51.816
X28.675 Y-51.703
X28.674 Z0.784
X28.247 Z0.944
X24.87 Z2.505
X22.058 Z3.641
X21.667 Z3.773
X21.274 Z3.876
X20.888 Z3.949
X20.532 Z3.991
X8.866 Z5.146
X5.142 Z5.468
X1.985 Z5.869
X0.813 Z6.101
X0.449 Z6.147
X0.107 Z6.166
X-0.261 Z6.161
X-0.631 Z6.127
X-1.007 Z6.064
X-2.145 Z5.847
X-5.447 Z5.429
X-9.104 Z5.124
X-20.766 Z3.966
X-21.157 Z3.901
X-21.554 Z3.805
X-21.954 Z3.679
X-22.348 Z3.526
X-24.946 Z2.472
X-28.496 Z0.86
X-28.707 Z0.784
Z-0.003
X-30.942 Y-50.204
Z0.784
X-29.074 Z1.46
X-25.851 Z2.923
X-21.733 Z4.593
X-21.332 Z4.749
X-20.932 Z4.875
X-20.535 Z4.97
X-20.143 Z5.035
X-3.058 Z6.731
X-2.037 Z6.818
X-1.35 Z6.901
X-1.049 Z6.948
X-0.665 Z7.015
X-0.296 Z7.05
X0.067 Z7.059
X0.383 Z7.044
X0.74 Z7.004
X1.101 Z6.937
X1.749 Z6.85
X2.791 Z6.756
X19.911 Z5.06
X20.267 Z5.018
X20.653 Z4.945
X21.046 Z4.842
X21.437 Z4.711
X25.776 Z2.955
X28.845 Z1.537
X30.925 Z0.785
X30.928 Z-0.003
X31.21 Y-50.016
X32.9 Y-48.891
X33.182 Y-48.704
X33.18 Z0.785
X29.434 Z2.134
X26.681 Z3.407
X20.818 Z5.779
X20.427 Z5.911
X20.035 Z6.014
X19.651 Z6.086
X19.283 Z6.13
X1.167 Z7.925
X0.781 Z7.934
X-1.063 Z7.93
X-1.405 Z7.903
X-19.521 Z6.105
X-19.906 Z6.041
X-20.305 Z5.946
X-20.707 Z5.819
X-21.1 Z5.667
X-26.753 Z3.375
X-29.65 Z2.061
X-33.178 Z0.784
Z-0.003
X-35.414 Y-47.204
Z0.784
X-30.23 Z2.661
X-27.659 Z3.826
X-20.479 Z6.736
X-20.085 Z6.889
X-19.684 Z7.015
X-19.285 Z7.111
X-18.899 Z7.174
X-2.87 Z8.765
X-2.505 Z8.794
X2.324 Z8.797
X2.616 Z8.788
X18.662 Z7.199
X19.03 Z7.156
X19.414 Z7.083
X19.806 Z6.98
X20.196 Z6.848
X27.579 Z3.861
X30.025 Z2.731
X35.435 Z0.784
Z-0.003
X37.089 Y-46.103
X37.362 Y-45.917
X37.618 Y-45.704
X37.615 Z0.809
X37.584 Z0.848
X37.493 Z0.892
X36.913 Z1.062
X30.614 Z3.328
X28.491 Z4.309
X19.577 Z7.917
X19.187 Z8.048
X18.796 Z8.151
X18.413 Z8.224
X18.033 Z8.27
X4.074 Z9.652
X3.726 Z9.661
X-3.953 Z9.658
X-4.275 Z9.634
X-18.279 Z8.243
X-18.664 Z8.18
X-19.063 Z8.084
X-19.464 Z7.958
X-19.858 Z7.805
X-28.565 Z4.277
X-30.81 Z3.26
X-37.23 Z0.941
X-37.522 Z0.857
X-37.6 Z0.815
X-37.627 Z0.784
Z-0.003
X-37.836 Y-45.52
X-39.285 Y-44.204
Z1.14
X-39.281 Z1.16
X-39.25 Z1.198
X-39.167 Z1.241
X-36.826 Z1.897
X-31.382 Z3.863
X-29.464 Z4.731
X-19.236 Z8.875
X-18.843 Z9.027
X-18.441 Z9.154
X-18.042 Z9.249
X-17.656 Z9.313
X-5.768 Z10.493
X-5.431 Z10.521
X5.221 Z10.525
X5.527 Z10.515
X17.415 Z9.338
X17.785 Z9.295
X18.17 Z9.222
X18.562 Z9.119
X18.953 Z8.987
X29.39 Z4.763
X31.206 Z3.924
X36.548 Z2.002
X39.145 Z1.262
X39.239 Z1.218
X39.272 Z1.18
X39.276 Z-0.003
X40.934 Y-42.705
X40.93 Z1.548
X40.897 Z1.587
X40.805 Z1.63
X36.183 Z2.942
X31.791 Z4.523
X30.297 Z5.213
X18.333 Z10.056
X17.942 Z10.188
X17.55 Z10.291
X17.166 Z10.364
X16.798 Z10.407
X6.981 Z11.379
X6.634 Z11.388
X-6.879 Z11.384
X-7.228 Z11.356
X-17.031 Z10.382
X-17.418 Z10.319
X-17.818 Z10.223
X-18.22 Z10.097
X-18.614 Z9.945
X-30.376 Z5.179
X-31.96 Z4.463
X-36.428 Z2.85
X-40.819 Z1.623
X-40.9 Z1.581
X-40.933 Z1.541
X-40.937 Z-0.003
X-41.728 Y-41.986
X-41.92 Y-41.8
X-42.1 Y-41.602
X-42.459 Y-41.205
Z1.589
X-42.447 Z1.629
X-42.392 Z1.686
X-42.273 Z1.755
X-41.715 Z2.034
X-41.147 Z2.286
X-40.587 Z2.502
X-40.047 Z2.681
X-36.029 Z3.804
X-32.537 Z5.063
X-31.279 Z5.631
X-17.997 Z11.012
X-17.6 Z11.166
X-17.199 Z11.292
X-16.8 Z11.388
X-16.415 Z11.451
X-8.685 Z12.219
X-8.323 Z12.248
X8.041 Z12.252
X8.435 Z12.242
X16.181 Z11.476
X16.548 Z11.432
X16.931 Z11.36
X17.322 Z11.257
X17.713 Z11.125
X31.204 Z5.663
X32.383 Z5.119
X35.809 Z3.885
X39.597 Z2.809
X40.156 Z2.647
X40.688 Z2.466
X41.238 Z2.248
X41.792 Z1.998
X42.337 Z1.721
X42.419 Z1.662
X42.457 Z1.605
X42.461 Z-0.003
X43.823 Y-39.705
X43.82 Z1.257
X43.783 Z1.313
X43.686 Z1.384
X40.847 Z2.977
X40.303 Z3.254
X39.746 Z3.505
X39.197 Z3.723
X38.667 Z3.905
X38.12 Z4.064
X35.433 Z4.829
X32.973 Z5.717
X32.108 Z6.115
X17.089 Z12.195
X16.698 Z12.327
X16.306 Z12.43
X15.922 Z12.502
X15.552 Z12.546
X9.893 Z13.106
X9.527 Z13.115
X-9.788 Z13.111
X-10.142 Z13.083
X-15.79 Z12.521
X-16.177 Z12.457
X-16.576 Z12.362
X-16.978 Z12.236
X-17.375 Z12.081
X-32.184 Z6.082
X-33.116 Z5.663
X-35.632 Z4.757
X-38.55 Z3.941
X-39.089 Z3.763
X-39.649 Z3.546
X-40.217 Z3.294
X-40.778 Z3.014
X-41.557 Z2.583
X-43.72 Z1.373
X-43.793 Z1.311
X-43.814 Z1.269
X-43.816 Z-0.003
X-45.173 Y-38.205
X-45.172 Z0.934
X-45.15 Z0.976
X-45.078 Z1.039
X-40.128 Z3.804
X-39.283 Z4.272
X-38.722 Z4.553
X-38.155 Z4.805
X-37.596 Z5.021
X-37.058 Z5.2
X-35.235 Z5.711
X-33.693 Z6.264
X-33.088 Z6.534
X-16.751 Z13.152
X-16.357 Z13.305
X-15.956 Z13.431
X-15.557 Z13.526
X-15.171 Z13.59
X-11.596 Z13.946
X-11.243 Z13.975
X11.022 Z13.979
X11.353 Z13.969
X14.925 Z13.616
X15.306 Z13.571
X15.689 Z13.498
X16.08 Z13.395
X16.47 Z13.263
X33.005 Z6.569
X33.562 Z6.314
X35.057 Z5.772
X36.628 Z5.323
X37.169 Z5.165
X37.704 Z4.982
X38.252 Z4.764
X38.808 Z4.512
X39.352 Z4.235
X45.04 Z1.042
X45.141 Z0.97
X45.181 Z0.913
X45.185 Z-0.003
X45.504 Y-37.854
X45.662 Y-37.677
X45.808 Y-37.491
X45.942 Y-37.296
X46.206 Y-36.902
X46.338 Y-36.705
Z0.784
X43.684 Z2.223
X37.852 Z5.496
X37.308 Z5.773
X36.752 Z6.025
X36.204 Z6.243
X35.669 Z6.427
X35.134 Z6.583
X34.676 Z6.718
X34.149 Z6.913
X33.898 Z7.025
X15.848 Z14.333
X15.458 Z14.465
X15.066 Z14.568
X14.682 Z14.641
X14.315 Z14.684
X12.796 Z14.833
X12.402 Z14.842
X-12.68 Z14.839
X-12.999 Z14.815
X-14.558 Z14.658
X-14.948 Z14.593
X-15.349 Z14.496
X-15.747 Z14.37
X-16.145 Z14.215
X-33.993 Z6.985
X-34.291 Z6.857
X-34.84 Z6.664
X-35.585 Z6.453
X-36.127 Z6.271
X-36.686 Z6.053
X-37.253 Z5.8
X-37.811 Z5.519
X-39.931 Z4.338
X-44.885 Z1.579
X-46.359 Z0.784
Z-0.003
X-46.483 Y-36.518
X-47.232 Y-35.393
X-47.357 Y-35.206
Z0.784
X-38.873 Z5.359
X-36.473 Z6.692
X-35.919 Z6.981
X-35.353 Z7.243
X-32.434 Z8.432
X-15.494 Z15.296
X-15.096 Z15.45
X-15.072 Z15.46
X-15.008 Z15.483
X-14.94 Z15.491
G17 G3 Y-33.706 I0. J0.75
G1 X-16.556
X-16.624 Z15.483
X-16.688 Z15.46
X-16.692 Z15.458
X-16.711 Z15.45
X-35.157 Z7.938
X-35.418 Z7.805
X-37.187 Z6.838
X-38.133 Z6.296
X-48.355 Z0.784
Z-0.003
X-48.48 Y-33.518
X-49.353 Y-32.206
Z0.784
X-41.929 Z4.788
X-39.671 Z6.091
X-35.391 Z8.427
X-35.136 Z8.557
X-18.211 Z15.45
X-18.21
X-18.191 Z15.459
X-18.127 Z15.482
X-18.059 Z15.489
G3 Y-30.706 I0. J0.75
G1 X-19.559
X-19.627 Z15.482
X-19.691 Z15.459
X-19.693 Z15.458
X-19.712 Z15.449
X-35.112 Z9.177
X-35.369 Z9.046
X-42.156 Z5.344
X-45.738 Z3.272
X-50.351 Z0.784
Z-0.003
X-51.35 Y-29.206
Z0.784
X-49.553 Z1.753
X-44.641 Z4.596
X-35.343 Z9.668
X-35.088 Z9.798
X-21.211 Z15.45
X-21.192 Z15.458
X-21.128 Z15.481
X-21.06 Z15.489
G3 Y-27.706 I0. J0.75
G1 X-22.56
X-22.627 Z15.481
X-22.692 Z15.458
X-22.71 Z15.45
X-22.711
X-35.066 Z10.417
X-35.321 Z10.288
X-47.126 Z3.849
X-52.255 Z0.871
X-52.302 Z0.821
X-52.314 Z0.784
Z-0.003
X-52.402 Y-27.519
X-53.022 Y-26.207
Z1.064
X-53.01 Z1.106
X-52.962 Z1.155
X-49.611 Z3.102
X-35.3 Z10.907
X-35.042 Z11.038
X-24.21 Z15.45
X-24.191 Z15.458
X-24.127 Z15.481
X-24.059 Z15.489
G3 Y-24.707 I0. J0.75
G1 X-25.559
X-25.627 Z15.481
X-25.691 Z15.458
X-25.71 Z15.45
X-35.017 Z11.658
X-35.273 Z11.529
X-52.096 Z2.355
X-53.672 Z1.438
X-53.717 Z1.39
X-53.729 Z1.348
Z-0.003
X-54.348 Y-23.395
X-54.437 Y-23.207
Z1.631
X-54.431 Z1.66
X-54.396 Z1.708
X-35.251 Z12.148
X-34.997 Z12.277
X-27.21 Z15.45
X-27.209
X-27.19 Z15.459
X-27.126 Z15.481
X-27.058 Z15.489
G3 Y-21.707 I0. J0.75
G1 X-28.558
X-28.626 Z15.481
X-28.69 Z15.459
X-28.691 Z15.458
X-28.71 Z15.45
X-34.972 Z12.898
X-35.23 Z12.767
X-50.865 Z4.24
X-51.877 Z3.659
X-52.911 Z3.03
X-53.938 Z2.371
X-54.889 Z1.732
X-54.992 Z1.653
X-55.03 Z1.598
X-55.036 Z1.569
Z-0.003
X-55.571 Y-20.207
Z1.307
X-55.563 Z1.342
X-55.52 Z1.397
X-54.517 Z2.131
X-50.32 Z4.95
X-49.293 Z5.609
X-48.259 Z6.238
X-47.247 Z6.82
X-35.203 Z13.389
X-34.948 Z13.519
X-30.21 Z15.45
X-30.191 Z15.458
X-30.127 Z15.481
X-30.059 Z15.489
G3 Y-18.708 I0. J0.75
G1 X-31.559
X-31.627 Z15.481
X-31.691 Z15.458
X-31.71 Z15.45
X-34.927 Z14.138
X-35.181 Z14.008
X-43.627 Z9.401
X-44.639 Z8.819
X-45.673 Z8.19
X-46.702 Z7.53
X-54.149 Z2.527
X-56.055 Z1.135
X-56.098 Z1.079
X-56.106 Z1.044
Z-0.003
X-56.173 Y-18.52
X-56.574 Y-17.395
X-56.641 Y-17.208
Z0.784
X-56.633 Z0.817
X-56.59 Z0.872
X-53.775 Z2.926
X-43.091 Z10.105
X-42.062 Z10.765
X-41.029 Z11.394
X-40.015 Z11.978
X-35.16 Z14.627
X-34.906 Z14.757
X-33.209 Z15.45
X-33.191 Z15.458
X-33.126 Z15.481
X-33.059 Z15.489
G3 Y-15.708 I0. J0.75
G1 X-34.56
X-34.627 Z15.481
X-34.692 Z15.458
X-34.698 Z15.455
X-34.709 Z15.45
X-34.997 Z15.322
X-36.409 Z14.551
X-37.422 Z13.967
X-38.455 Z13.338
X-39.484 Z12.677
X-53.404 Z3.325
X-56.409 Z1.14
X-56.967 Z0.784
Z-0.003
X-57.226 Y-14.396
X-57.263 Y-14.208
Z0.784
X-55.746 Z1.751
X-53.035 Z3.721
X-36.562 Z14.791
X-35.571 Z15.45
X-35.527 Y-14.206 Z15.479
X-35.483 Y-14.201 Z15.509
X-35.439 Y-14.191 Z15.538
X-35.396 Y-14.178 Z15.567
X-35.354 Y-14.161 Z15.596
X-35.313 Y-14.14 Z15.624
X-35.273 Y-14.116 Z15.651
X-35.235 Y-14.089 Z15.677
X-35.199 Y-14.059 Z15.702
X-35.165 Y-14.025 Z15.726
X-35.133 Y-13.989 Z15.749
X-35.103 Y-13.949 Z15.77
X-35.076 Y-13.908 Z15.789
X-35.051 Y-13.864 Z15.807
X-35.029 Y-13.818 Z15.824
X-35.01 Y-13.77 Z15.838
X-34.994 Y-13.72 Z15.851
X-34.981 Y-13.67 Z15.861
X-34.97 Y-13.618 Z15.87
X-34.963 Y-13.565 Z15.876
X-34.959 Y-13.512 Z15.881
Y-13.458 Z15.883
X-34.961 Y-13.405
X-34.967 Y-13.352 Z15.882
X-34.975 Y-13.299 Z15.878
X-34.987 Y-13.247 Z15.872
X-35.002 Y-13.196 Z15.863
X-35.02 Y-13.147 Z15.853
X-35.041 Y-13.099 Z15.841
X-35.064 Y-13.053 Z15.827
X-35.091 Y-13.009 Z15.811
X-35.119 Y-12.967 Z15.794
X-35.15 Y-12.928 Z15.774
X-35.183 Y-12.892 Z15.754
X-35.219 Y-12.858 Z15.731
X-35.256 Y-12.827 Z15.708
X-35.295 Y-12.8 Z15.683
X-35.335 Y-12.776 Z15.657
X-35.376 Y-12.756 Z15.63
X-35.419 Y-12.739 Z15.602
X-35.462 Y-12.726 Z15.574
X-35.507 Y-12.716 Z15.545
X-35.551 Y-12.71 Z15.516
X-35.596 Y-12.708 Z15.486
X-35.65 Z15.45
X-36.663 Z14.864
X-37.021 Z14.631
X-52.667 Z4.117
X-55.078 Z2.366
X-57.558 Z0.784
Z-0.003
X-57.854 Y-11.209
Z0.784
X-54.413 Z2.978
X-52.291 Z4.518
X-38.565 Z13.743
X-38.2 Z13.979
X-35.65 Z15.45
X-35.604 Y-11.207 Z15.477
X-35.558 Y-11.201 Z15.503
X-35.512 Y-11.191 Z15.53
X-35.467 Y-11.178 Z15.555
X-35.423 Y-11.161 Z15.581
X-35.38 Y-11.141 Z15.606
X-35.339 Y-11.117 Z15.629
X-35.299 Y-11.09 Z15.652
X-35.261 Y-11.059 Z15.674
X-35.225 Y-11.025 Z15.695
X-35.191 Y-10.989 Z15.715
X-35.159 Y-10.95 Z15.733
X-35.13 Y-10.908 Z15.75
X-35.104 Y-10.864 Z15.765
X-35.08 Y-10.818 Z15.779
X-35.059 Y-10.77 Z15.791
X-35.041 Y-10.721 Z15.801
X-35.027 Y-10.67 Z15.809
X-35.015 Y-10.618 Z15.816
X-35.007 Y-10.565 Z15.821
X-35.002 Y-10.512 Z15.824
X-35.001 Y-10.459 Z15.825
X-35.002 Y-10.405 Z15.824
X-35.007 Y-10.352 Z15.821
X-35.015 Y-10.299 Z15.816
X-35.027 Y-10.247 Z15.809
X-35.041 Y-10.197 Z15.801
X-35.059 Y-10.147 Z15.791
X-35.08 Y-10.099 Z15.779
X-35.104 Y-10.053 Z15.765
X-35.13 Y-10.009 Z15.75
X-35.159 Y-9.968 Z15.733
X-35.191 Y-9.928 Z15.715
X-35.225 Y-9.892 Z15.695
X-35.261 Y-9.858 Z15.674
X-35.299 Y-9.828 Z15.652
X-35.339 Y-9.8 Z15.629
X-35.38 Y-9.777 Z15.606
X-35.423 Y-9.756 Z15.581
X-35.467 Y-9.739 Z15.555
X-35.512 Y-9.726 Z15.53
X-35.558 Y-9.716 Z15.503
X-35.604 Y-9.711 Z15.477
X-35.65 Y-9.709 Z15.45
X-39.746 Z13.089
X-40.114 Z12.851
X-51.921 Z4.916
X-53.744 Z3.593
X-58.149 Z0.784
Z-0.003
X-58.186 Y-9.521
X-58.445 Y-8.209
Z0.784
X-53.081 Z4.204
X-51.553 Z5.311
X-41.659 Z11.961
X-41.294 Z12.198
X-35.651 Z15.449
X-35.604 Y-8.207 Z15.476
X-35.558 Y-8.201 Z15.503
X-35.513 Y-8.192 Z15.529
X-35.468 Y-8.179 Z15.555
X-35.424 Y-8.162 Z15.58
X-35.381 Y-8.141 Z15.605
X-35.339 Y-8.117 Z15.629
X-35.3 Y-8.09 Z15.652
X-35.261 Y-8.059 Z15.674
X-35.225 Y-8.026 Z15.695
X-35.191 Y-7.989 Z15.714
X-35.16 Y-7.95 Z15.732
X-35.131 Y-7.908 Z15.749
X-35.104 Y-7.864 Z15.764
X-35.081 Y-7.818 Z15.778
X-35.06 Y-7.771 Z15.79
X-35.042 Y-7.721 Z15.8
X-35.027 Y-7.67 Z15.809
X-35.016 Y-7.618 Z15.815
X-35.008 Y-7.566 Z15.82
X-35.003 Y-7.513 Z15.823
X-35.001 Y-7.459 Z15.824
X-35.003 Y-7.406 Z15.823
X-35.008 Y-7.352 Z15.82
X-35.016 Y-7.3 Z15.815
X-35.027 Y-7.248 Z15.809
X-35.042 Y-7.197 Z15.8
X-35.06 Y-7.148 Z15.79
X-35.081 Y-7.1 Z15.778
X-35.104 Y-7.054 Z15.764
X-35.131 Y-7.01 Z15.749
X-35.16 Y-6.968 Z15.732
X-35.191 Y-6.929 Z15.714
X-35.225 Y-6.892 Z15.695
X-35.261 Y-6.859 Z15.674
X-35.3 Y-6.828 Z15.652
X-35.339 Y-6.801 Z15.629
X-35.381 Y-6.777 Z15.605
X-35.424 Y-6.756 Z15.58
X-35.468 Y-6.74 Z15.555
X-35.513 Y-6.726 Z15.529
X-35.558 Y-6.717 Z15.503
X-35.604 Y-6.711 Z15.476
X-35.651 Y-6.709 Z15.449
X-42.841 Z11.307
X-43.206 Z11.071
X-51.181 Z5.71
X-52.415 Z4.817
X-58.74 Z0.784
Z-0.003
X-58.777 Y-6.523
X-58.85 Y-6.151
X-58.887 Y-5.965
X-58.916 Y-5.778
X-58.934 Y-5.589
X-58.943 Y-5.399
X-58.952 Y-5.209
Z0.849
X-58.933 Z0.901
X-58.875 Z0.958
X-57.313 Z1.888
X-51.75 Z5.429
X-50.811 Z6.108
X-44.755 Z10.179
X-44.387 Z10.417
X-35.651 Z15.449
X-35.605 Y-5.207 Z15.476
X-35.558 Y-5.202 Z15.503
X-35.513 Y-5.192 Z15.529
X-35.468 Y-5.179 Z15.555
X-35.424 Y-5.162 Z15.58
X-35.381 Y-5.142 Z15.605
X-35.339 Y-5.118 Z15.629
X-35.3 Y-5.09 Z15.652
X-35.261 Y-5.06 Z15.674
X-35.225 Y-5.026 Z15.695
X-35.191 Y-4.99 Z15.714
