%
O05005
(Using high feed G1 F650. instead of G0.)
(Mquina)
(  proveedor: Autodesk)
(  model: Generic 4-axis A Table)
(  description: This machine has YXA axis on the Table and Z axis on the Head)
(T1 D=0.6299 CR=0. - ZMIN=0. - fresa con punta plana)
G90 G94 G17
G20
(When using Fusion for Personal Use, the feedrate of rapid)
(moves is reduced to match the feedrate of cutting moves,)
(which can increase machining time. Unrestricted rapid moves)
(are available with a Fusion Subscription.)
G53 G0 Z0.

(Adaptativo5)
T1 M6
S5000 M3
G17 G90 G94
G54
G53 G0 X0. Y0.
M11
G0 A0.
M10
M8
G1 X-2.7106 Y2.8114 F650.
G0 G43 Z1.2086 H1
G1 Z0.8086 F39.37
Z0.2031
Z0.1401
X-2.7105 Y2.8112 Z0.1339
X-2.71 Y2.8104 Z0.1278
X-2.7092 Y2.8091 Z0.1218
X-2.7082 Y2.8073 Z0.116
X-2.7068 Y2.805 Z0.1104
X-2.7052 Y2.8023 Z0.1051
X-2.7033 Y2.7991 Z0.1001
X-2.7012 Y2.7956 Z0.0955
X-2.6989 Y2.7916 Z0.0914
X-2.6964 Y2.7873 Z0.0877
X-2.6937 Y2.7828 Z0.0845
X-2.6908 Y2.778 Z0.0819
X-2.6878 Y2.773 Z0.0798
X-2.6848 Y2.7678 Z0.0783
X-2.6817 Y2.7625 Z0.0774
X-2.6785 Y2.7572 Z0.0771
G3 X-2.4709 Y2.4799 I1.3838 J0.8194
G1 X-2.4678 Y2.4767
X-2.4631 Y2.473
X-2.4583 Y2.4693
X-2.4535 Y2.4658
X-2.4486 Y2.4623
X-2.4437 Y2.4588
X-2.4387 Y2.4555
X-2.4337 Y2.4522
X-2.4286 Y2.449
X-2.4235 Y2.4458
X-2.4183 Y2.4428
X-2.4132 Y2.4398
X-2.4079 Y2.4368
X-2.4027 Y2.4339
X-2.3974 Y2.4311
X-2.3921 Y2.4283
X-2.3867 Y2.4256
X-2.3813 Y2.4229
X-2.3759 Y2.4203
X-2.3705 Y2.4178
X-2.3651 Y2.4153
X-2.3596 Y2.4128
X-2.3541 Y2.4104
X-2.3486 Y2.4081
X-2.343 Y2.4058
X-2.3375 Y2.4035
X-2.3319 Y2.4013
X-2.3263 Y2.3991
X-2.3207 Y2.397
X-2.315 Y2.3949
X-2.3093 Y2.3929
X-2.3035 Y2.3908
X-2.2975 Y2.3887
X-2.2913 Y2.3866
X-2.2849 Y2.3846
X-2.2784 Y2.3825
X-2.2716 Y2.3804
X-2.2647 Y2.3782
X-2.2576 Y2.3761
X-2.2502 Y2.374
X-2.2426 Y2.3719
X-2.2347 Y2.3697
X-2.2266 Y2.3676
X-2.2183 Y2.3655
X-2.2096 Y2.3633
X-2.2006 Y2.3611
X-2.1913 Y2.359
X-2.1817 Y2.3568
X-2.1717 Y2.3546
X-2.1613 Y2.3524
X-2.1505 Y2.3502
X-2.1393 Y2.3481
X-2.1275 Y2.3459
X-2.1152 Y2.3436
X-2.1024 Y2.3414
X-2.0889 Y2.3392
X-2.0748 Y2.337
X-2.0599 Y2.3348
X-2.0443 Y2.3326
X-2.0277 Y2.3303
X-2.0101 Y2.3281
X-1.9913 Y2.3258
X-1.9713 Y2.3236
X-1.9499 Y2.3214
X-1.9268 Y2.3191
X-1.9017 Y2.3169
X-1.8743 Y2.3146
X-1.8443 Y2.3123
X-1.8109 Y2.3101
X-1.7734 Y2.3078
X-1.7306 Y2.3055
X-1.681 Y2.3033
X-1.6234 Y2.3011
X-1.5659 Y2.2993
X-1.5083 Y2.2978
X-1.4508 Y2.2966
X-1.3932 Y2.2956
X-1.3356 Y2.2948
X-1.2781 Y2.2942
X-1.2205 Y2.2937
X-1.1629 Y2.2932
X-1.114 Y2.293
X-1.095 Y2.2943
X-1.0763 Y2.2983
X-1.0584 Y2.3051
X-1.0417 Y2.3145
X-1.0393 Y2.316
X-1.026 Y2.3242
X-1.0015 Y2.3382
X-0.9917 Y2.3431
X-0.9637 Y2.3551
X-0.9448 Y2.3616
X-0.9259 Y2.367
X-0.907 Y2.3717
X-0.8881 Y2.3757
X-0.8692 Y2.3791
X-0.8574 Y2.3809
X-0.8503 Y2.3818
X-0.8314 Y2.3841
X-0.6236 Y2.4084
X-0.6047 Y2.4118
X-0.5858 Y2.4154
X-0.5669 Y2.419
X-0.3212 Y2.4674
X-0.3023 Y2.4714
X-0.2834 Y2.4754
X-0.2645 Y2.4798
X-0.189 Y2.5052
X-0.165 Y2.5132
X-0.1512 Y2.5177
X-0.1323 Y2.5238
X-0.1008 Y2.5321
X-0.0945 Y2.5335
X-0.0756 Y2.5372
X-0.0567 Y2.5404
X-0.0189 Y2.5445
X0. Y2.5446
X0.0189 Y2.5445
X0.0567 Y2.5404
X0.0756 Y2.5373
X0.0945 Y2.5336
X0.1015 Y2.5321
X0.1323 Y2.5241
X0.1512 Y2.5182
X0.1701 Y2.5121
X0.2079 Y2.4997
X0.2645 Y2.4812
X0.2834 Y2.4765
X0.3023 Y2.4721
X0.3212 Y2.4679
X0.6047 Y2.411
X0.6236 Y2.4073
X0.6614 Y2.4029
X0.8314 Y2.3838
X0.8503 Y2.3816
X0.8557 Y2.3809
X0.8692 Y2.3789
X0.8881 Y2.3756
X0.907 Y2.3717
X0.9635 Y2.3608
X1.0204 Y2.352
X1.0776 Y2.3448
X1.1348 Y2.3391
X1.1922 Y2.3344
X1.2497 Y2.3307
X1.3072 Y2.3276
X1.3647 Y2.3251
X1.4222 Y2.3231
X1.4798 Y2.3215
X1.5373 Y2.3201
X1.5949 Y2.3191
X1.6525 Y2.3182
X1.71 Y2.3175
X1.7676 Y2.3169
X1.8252 Y2.3164
X1.8827 Y2.3161
X1.9547 Y2.3157
X1.969 Y2.3142
X1.9831 Y2.3114
X2.0382 Y2.2945
X2.0848 Y2.2606
X2.1243 Y2.2188
X2.1575 Y2.1718
X2.1853 Y2.1213
X2.2083 Y2.0685
X2.2273 Y2.0142
X2.243 Y1.9588
X2.256 Y1.9027
X2.2666 Y1.8461
X2.2753 Y1.7892
X2.2824 Y1.7321
X2.2882 Y1.6748
X2.293 Y1.6174
X2.2969 Y1.56
X2.3001 Y1.5025
X2.3027 Y1.445
X2.3048 Y1.3875
X2.3065 Y1.3299
X2.3079 Y1.2724
X2.309 Y1.2148
X2.31 Y1.1572
X2.3107 Y1.0997
X2.3109 Y1.0824
X2.3121 Y1.066
X2.3154 Y1.0499
X2.3207 Y1.0343
X2.3279 Y1.0195
X2.3382 Y1.0015
X2.3431 Y0.9917
X2.3551 Y0.9637
X2.3616 Y0.9448
X2.367 Y0.9259
X2.3717 Y0.907
X2.3757 Y0.8881
X2.3791 Y0.8692
X2.3809 Y0.8574
X2.3818 Y0.8503
X2.3841 Y0.8314
X2.4084 Y0.6236
X2.4118 Y0.6047
X2.4154 Y0.5858
X2.419 Y0.5669
X2.4674 Y0.3212
X2.4714 Y0.3023
X2.4754 Y0.2834
X2.4798 Y0.2645
X2.5052 Y0.189
X2.5132 Y0.165
X2.5177 Y0.1512
X2.5238 Y0.1323
X2.5321 Y0.1008
X2.5335 Y0.0945
X2.5372 Y0.0756
X2.5404 Y0.0567
X2.5445 Y0.0189
X2.5446 Y0.
X2.5445 Y-0.0189
X2.5404 Y-0.0567
X2.5373 Y-0.0756
X2.5336 Y-0.0945
X2.5321 Y-0.1015
X2.5241 Y-0.1323
X2.5182 Y-0.1512
X2.5121 Y-0.1701
X2.4997 Y-0.2079
X2.4812 Y-0.2645
X2.4765 Y-0.2834
X2.4721 Y-0.3023
X2.4679 Y-0.3212
X2.411 Y-0.6047
X2.4073 Y-0.6236
X2.4029 Y-0.6614
X2.3838 Y-0.8314
X2.3816 Y-0.8503
X2.3809 Y-0.8557
X2.3789 Y-0.8692
X2.3756 Y-0.8881
X2.3717 Y-0.907
X2.3608 Y-0.9635
X2.352 Y-1.0204
X2.3448 Y-1.0776
X2.3391 Y-1.1348
X2.3344 Y-1.1922
X2.3307 Y-1.2497
X2.3276 Y-1.3072
X2.3251 Y-1.3647
X2.3231 Y-1.4222
X2.3215 Y-1.4798
X2.3201 Y-1.5373
X2.3191 Y-1.5949
X2.3182 Y-1.6525
X2.3175 Y-1.71
X2.3169 Y-1.7676
X2.3164 Y-1.8252
X2.3161 Y-1.8827
X2.3157 Y-1.9547
X2.3142 Y-1.969
X2.3114 Y-1.9831
X2.2945 Y-2.0382
X2.2606 Y-2.0848
X2.2188 Y-2.1243
X2.1718 Y-2.1575
X2.1213 Y-2.1853
X2.0685 Y-2.2083
X2.0142 Y-2.2273
X1.9588 Y-2.243
X1.9027 Y-2.256
X1.8461 Y-2.2666
X1.7892 Y-2.2753
X1.7321 Y-2.2824
X1.6748 Y-2.2882
X1.6174 Y-2.293
X1.56 Y-2.2969
X1.5025 Y-2.3001
X1.445 Y-2.3027
X1.3875 Y-2.3048
X1.3299 Y-2.3065
X1.2724 Y-2.3079
X1.2148 Y-2.309
X1.1572 Y-2.31
X1.0997 Y-2.3107
X1.0824 Y-2.3109
X1.066 Y-2.3121
X1.0499 Y-2.3154
X1.0343 Y-2.3207
X1.0195 Y-2.3279
X1.0015 Y-2.3382
X0.9917 Y-2.3431
X0.9637 Y-2.3551
X0.9448 Y-2.3616
X0.9259 Y-2.367
X0.907 Y-2.3717
X0.8881 Y-2.3757
X0.8692 Y-2.3791
X0.8574 Y-2.3809
X0.8503 Y-2.3818
X0.8314 Y-2.3841
X0.6236 Y-2.4084
X0.6047 Y-2.4118
X0.5858 Y-2.4154
X0.5669 Y-2.419
X0.3212 Y-2.4674
X0.3023 Y-2.4714
X0.2834 Y-2.4754
X0.2645 Y-2.4798
X0.189 Y-2.5052
X0.165 Y-2.5132
X0.1512 Y-2.5177
X0.1323 Y-2.5238
X0.1008 Y-2.5321
X0.0945 Y-2.5335
X0.0756 Y-2.5372
X0.0567 Y-2.5404
X0.0189 Y-2.5445
X0. Y-2.5446
X-0.0189 Y-2.5445
X-0.0567 Y-2.5404
X-0.0756 Y-2.5373
X-0.0945 Y-2.5336
X-0.1015 Y-2.5321
X-0.1323 Y-2.5241
X-0.1512 Y-2.5182
X-0.1701 Y-2.5121
X-0.2079 Y-2.4997
X-0.2645 Y-2.4812
X-0.2834 Y-2.4765
X-0.3023 Y-2.4721
X-0.3212 Y-2.4679
X-0.6047 Y-2.411
X-0.6236 Y-2.4073
X-0.6614 Y-2.4029
X-0.8314 Y-2.3838
X-0.8503 Y-2.3816
X-0.8557 Y-2.3809
X-0.8692 Y-2.3789
X-0.8881 Y-2.3756
X-0.907 Y-2.3717
X-0.9635 Y-2.3608
X-1.0204 Y-2.352
X-1.0776 Y-2.3448
X-1.1348 Y-2.3391
X-1.1922 Y-2.3344
X-1.2497 Y-2.3307
X-1.3072 Y-2.3276
X-1.3647 Y-2.3251
X-1.4222 Y-2.3231
X-1.4798 Y-2.3215
X-1.5373 Y-2.3201
X-1.5949 Y-2.3191
X-1.6525 Y-2.3182
X-1.71 Y-2.3175
X-1.7676 Y-2.3169
X-1.8252 Y-2.3164
X-1.8827 Y-2.3161
X-1.9547 Y-2.3157
X-1.969 Y-2.3142
X-1.9831 Y-2.3114
X-2.0382 Y-2.2945
X-2.0848 Y-2.2606
X-2.1243 Y-2.2188
X-2.1575 Y-2.1718
X-2.1853 Y-2.1213
X-2.2083 Y-2.0685
X-2.2273 Y-2.0142
X-2.243 Y-1.9588
X-2.256 Y-1.9027
X-2.2666 Y-1.8461
X-2.2753 Y-1.7892
X-2.2824 Y-1.7321
X-2.2882 Y-1.6748
X-2.293 Y-1.6174
X-2.2969 Y-1.56
X-2.3001 Y-1.5025
X-2.3027 Y-1.445
X-2.3048 Y-1.3875
X-2.3065 Y-1.3299
X-2.3079 Y-1.2724
X-2.309 Y-1.2148
X-2.31 Y-1.1572
X-2.3107 Y-1.0997
X-2.3109 Y-1.0824
X-2.3121 Y-1.066
X-2.3154 Y-1.0499
X-2.3207 Y-1.0343
X-2.3279 Y-1.0195
X-2.3382 Y-1.0015
X-2.3431 Y-0.9917
X-2.3551 Y-0.9637
X-2.3616 Y-0.9448
X-2.367 Y-0.9259
X-2.3717 Y-0.907
X-2.3757 Y-0.8881
X-2.3791 Y-0.8692
X-2.3809 Y-0.8574
X-2.3818 Y-0.8503
X-2.3841 Y-0.8314
X-2.4084 Y-0.6236
X-2.4118 Y-0.6047
X-2.4154 Y-0.5858
X-2.419 Y-0.5669
X-2.4674 Y-0.3212
X-2.4714 Y-0.3023
X-2.4754 Y-0.2834
X-2.4798 Y-0.2645
X-2.5052 Y-0.189
X-2.5132 Y-0.165
X-2.5177 Y-0.1512
X-2.5238 Y-0.1323
X-2.5321 Y-0.1008
X-2.5335 Y-0.0945
X-2.5372 Y-0.0756
X-2.5404 Y-0.0567
X-2.5445 Y-0.0189
X-2.5446 Y0.
X-2.5445 Y0.0189
X-2.5404 Y0.0567
X-2.5373 Y0.0756
X-2.5336 Y0.0945
X-2.5321 Y0.1015
X-2.5241 Y0.1323
X-2.5182 Y0.1512
X-2.5121 Y0.1701
X-2.4997 Y0.2079
X-2.4812 Y0.2645
X-2.4765 Y0.2834
X-2.4721 Y0.3023
X-2.4679 Y0.3212
X-2.411 Y0.6047
X-2.4073 Y0.6236
X-2.4029 Y0.6614
X-2.3838 Y0.8314
X-2.3816 Y0.8503
X-2.3809 Y0.8557
X-2.3789 Y0.8692
X-2.3756 Y0.8881
X-2.3717 Y0.907
X-2.3608 Y0.9635
X-2.352 Y1.0204
X-2.3448 Y1.0776
X-2.3391 Y1.1348
X-2.3344 Y1.1922
X-2.3307 Y1.2497
X-2.3276 Y1.3072
X-2.3251 Y1.3647
X-2.3231 Y1.4222
X-2.3215 Y1.4798
X-2.3201 Y1.5373
X-2.3191 Y1.5949
X-2.3182 Y1.6525
X-2.3175 Y1.71
X-2.3171 Y1.7532
X-2.3155 Y1.7675
X-2.3126 Y1.7816
X-2.3083 Y1.7954
X-2.3027 Y1.8086
X-2.2958 Y1.8212
X-2.2635 Y1.8689
X-2.2606 Y1.8711
X-2.2148 Y1.9059
X-2.1645 Y1.934
X-2.1116 Y1.9567
X-2.0569 Y1.9748
X-2.0012 Y1.9891
X-1.9447 Y2.0005
X-1.8879 Y2.0094
X-1.8307 Y2.0164
X-1.7734 Y2.0219
X-1.716 Y2.0261
X-1.6585 Y2.0294
X-1.601 Y2.0319
X-1.5435 Y2.0339
X-1.4859 Y2.0353
X-1.459 Y2.0359
X-1.4407 Y2.0375
X-1.4228 Y2.0418
X-1.4056 Y2.0485
X-1.3896 Y2.0576
X-1.3013 Y2.1163
X-1.2849 Y2.1275
X-1.266 Y2.1407
X-1.2471 Y2.1543
X-1.096 Y2.2749
X-1.0814 Y2.2864
G3 X-1.0635 Y2.3113 I-0.0407 J0.0481
G1 X-1.0613 Y2.317 Z0.0774
X-1.059 Y2.3227 Z0.0783
X-1.0568 Y2.3283 Z0.0798
X-1.0547 Y2.3337 Z0.0819
X-1.0526 Y2.3389 Z0.0845
X-1.0507 Y2.3438 Z0.0877
X-1.0488 Y2.3484 Z0.0914
X-1.0471 Y2.3527 Z0.0955
X-1.0456 Y2.3566 Z0.1001
X-1.0443 Y2.36 Z0.1051
X-1.0431 Y2.3629 Z0.1104
X-1.0421 Y2.3654 Z0.116
X-1.0414 Y2.3673 Z0.1218
X-1.0408 Y2.3687 Z0.1278
X-1.0405 Y2.3696 Z0.1339
X-1.0404 Y2.3699 Z0.1401
Z0.8086
X-2.4314 Y0.8353
Z0.2031
Z0.1401
X-2.4311 Y0.8356 Z0.1339
X-2.4305 Y0.8362 Z0.1278
X-2.4295 Y0.8373 Z0.1218
X-2.428 Y0.8388 Z0.116
X-2.4261 Y0.8407 Z0.1104
X-2.4239 Y0.8429 Z0.1051
X-2.4213 Y0.8455 Z0.1001
X-2.4184 Y0.8485 Z0.0955
X-2.4152 Y0.8518 Z0.0914
X-2.4117 Y0.8553 Z0.0877
X-2.408 Y0.8591 Z0.0845
X-2.4041 Y0.8631 Z0.0819
X-2.4 Y0.8672 Z0.0798
X-2.3958 Y0.8715 Z0.0783
X-2.3915 Y0.8759 Z0.0774
X-2.3872 Y0.8803 Z0.0771
G3 X-2.3717 Y0.907 I-0.0444 J0.0437
G1 X-2.367 Y0.9259
X-2.3616 Y0.9448
X-2.3551 Y0.9637
X-2.3431 Y0.9917
X-2.3382 Y1.0015
X-2.3242 Y1.0261
X-2.3161 Y1.0393
X-2.3053 Y1.0557
X-2.29 Y1.0771
X-2.2864 Y1.0818
X-2.2753 Y1.096
X-2.2486 Y1.1297
X-2.2211 Y1.1682
X-2.2003 Y1.2032
X-2.1782 Y1.2479
X-2.1569 Y1.3014
X-2.1397 Y1.3563
X-2.1257 Y1.4121
X-2.1045 Y1.4657
X-2.0734 Y1.5141
X-2.0347 Y1.5568
X-1.9906 Y1.5938
X-1.9426 Y1.6256
X-1.9373 Y1.6284
X-1.921 Y1.6387
X-1.9063 Y1.6511
X-1.8936 Y1.6656
X-1.8832 Y1.6817
X-1.8727 Y1.7006
X-1.8707 Y1.7042
X-1.8614 Y1.7195
X-1.8518 Y1.7343
X-1.849 Y1.7384
X-1.8354 Y1.7573
X-1.8329 Y1.7607
X-1.8207 Y1.7762
X-1.814 Y1.7839
X-1.8041 Y1.7951
X-1.7951 Y1.8041
X-1.7839 Y1.814
X-1.7762 Y1.8207
X-1.7607 Y1.8329
X-1.7573 Y1.8354
X-1.7384 Y1.8491
X-1.7344 Y1.8518
X-1.7195 Y1.8615
X-1.7046 Y1.8707
X-1.7006 Y1.873
X-1.6817 Y1.8835
X-1.5873 Y1.9314
X-1.5684 Y1.941
X-1.5583 Y1.9463
X-1.5289 Y1.9652
X-1.5117 Y1.9764
X-1.3896 Y2.0576
G3 X-1.3698 Y2.081 I-0.0367 J0.0512
G1 X-1.3671 Y2.0865 Z0.0774
X-1.3644 Y2.092 Z0.0783
X-1.3617 Y2.0974 Z0.0798
X-1.3591 Y2.1026 Z0.0819
X-1.3567 Y2.1076 Z0.0845
X-1.3543 Y2.1123 Z0.0877
X-1.3521 Y2.1168 Z0.0914
X-1.3501 Y2.1209 Z0.0955
X-1.3483 Y2.1246 Z0.1001
X-1.3467 Y2.1279 Z0.1051
X-1.3452 Y2.1308 Z0.1104
X-1.3441 Y2.1332 Z0.116
X-1.3432 Y2.135 Z0.1218
X-1.3425 Y2.1364 Z0.1278
X-1.3421 Y2.1372 Z0.1339
X-1.342 Y2.1375 Z0.1401
Z0.8086
X-2.3327 Y1.0893
Z0.2031
Z0.1401
X-2.3324 Y1.0894 Z0.1339
X-2.3316 Y1.0898 Z0.1278
X-2.3302 Y1.0903 Z0.1218
X-2.3282 Y1.0911 Z0.116
X-2.3257 Y1.092 Z0.1104
X-2.3228 Y1.0931 Z0.1051
X-2.3193 Y1.0944 Z0.1001
X-2.3155 Y1.0959 Z0.0955
X-2.3112 Y1.0976 Z0.0914
X-2.3065 Y1.0993 Z0.0877
X-2.3016 Y1.1012 Z0.0845
X-2.2964 Y1.1032 Z0.0819
X-2.2909 Y1.1053 Z0.0798
X-2.2853 Y1.1074 Z0.0783
X-2.2796 Y1.1096 Z0.0774
X-2.2739 Y1.1118 Z0.0771
G3 X-2.2486 Y1.1297 I-0.0222 J0.0582
G1 X-2.1541 Y1.2491
X-2.1418 Y1.266
X-2.1283 Y1.2849
X-2.1163 Y1.3022
X-1.9758 Y1.5117
X-1.9463 Y1.5559
X-1.9395 Y1.5684
X-1.8896 Y1.6689
X-1.8832 Y1.6817
G3 X-1.8798 Y1.691 Z0.0779 I-0.0573 J0.0262
G2 X-1.8536 Y1.7761 Z0.0851 I1.5785 J-0.4392
X-1.5463 Y2.317 I1.5524 J-0.5243
X-1.5138 Y2.3371 I0.0479 J-0.041
G1 X0.2497 Y2.7831
G2 X0.2878 Y2.7808 I0.0154 J-0.0611
X0.8323 Y2.4349 I-0.589 J-1.529
X0.8788 Y2.3886 Z0.0798 I-1.1336 J-1.1831
G3 X0.907 Y2.3717 Z0.0771 I0.0454 J0.0437
G1 X0.9259 Y2.367
X0.9448 Y2.3616
X0.9637 Y2.3551
X0.9917 Y2.3431
X1.0015 Y2.3382
X1.0261 Y2.3242
X1.0393 Y2.3161
X1.0557 Y2.3053
X1.0771 Y2.29
X1.0818 Y2.2864
X1.096 Y2.2753
X1.1297 Y2.2486
X1.1682 Y2.2211
X1.2032 Y2.2003
X1.2479 Y2.1782
X1.3014 Y2.1569
X1.3563 Y2.1397
X1.4121 Y2.1257
X1.4686 Y2.1142
X1.5254 Y2.1049
X1.5824 Y2.0972
X1.6397 Y2.091
X1.6949 Y2.0748
X1.7459 Y2.0481
X1.7917 Y2.0131
X1.832 Y1.972
X1.8671 Y1.9264
X1.8974 Y1.8774
X1.9233 Y1.8261
X1.9455 Y1.7729
X1.9643 Y1.7185
X1.9802 Y1.6632
X1.9936 Y1.6072
X2.0049 Y1.5507
X2.0144 Y1.4939
X2.0172 Y1.4735
X2.0213 Y1.4545
X2.0282 Y1.4364
X2.0377 Y1.4194
X2.1163 Y1.3013
X2.1275 Y1.2849
X2.1407 Y1.266
X2.1543 Y1.2471
X2.2749 Y1.096
X2.2864 Y1.0814
X2.2897 Y1.0771
X2.3034 Y1.0582
G3 X2.3275 Y1.0393 I0.0497 J0.0387
G1 X2.3332 Y1.0368 Z0.0774
X2.3388 Y1.0343 Z0.0783
X2.3442 Y1.0319 Z0.0798
X2.3496 Y1.0295 Z0.0819
X2.3547 Y1.0273 Z0.0845
X2.3595 Y1.0251 Z0.0877
X2.3641 Y1.0231 Z0.0914
X2.3682 Y1.0212 Z0.0955
X2.372 Y1.0195 Z0.1001
X2.3754 Y1.018 Z0.1051
X2.3783 Y1.0168 Z0.1104
X2.3807 Y1.0157 Z0.116
X2.3826 Y1.0148 Z0.1218
X2.384 Y1.0142 Z0.1278
X2.3848 Y1.0139 Z0.1339
X2.3851 Y1.0137 Z0.1401
Z0.8086
X1.0893 Y2.3327
Z0.2031
Z0.1401
X1.0894 Y2.3324 Z0.1339
X1.0898 Y2.3316 Z0.1278
X1.0903 Y2.3302 Z0.1218
X1.0911 Y2.3282 Z0.116
X1.092 Y2.3257 Z0.1104
X1.0931 Y2.3228 Z0.1051
X1.0944 Y2.3193 Z0.1001
X1.0959 Y2.3155 Z0.0955
X1.0976 Y2.3112 Z0.0914
X1.0993 Y2.3065 Z0.0877
X1.1012 Y2.3016 Z0.0845
X1.1032 Y2.2964 Z0.0819
X1.1053 Y2.2909 Z0.0798
X1.1074 Y2.2853 Z0.0783
X1.1096 Y2.2796 Z0.0774
X1.1118 Y2.2739 Z0.0771
G3 X1.1297 Y2.2486 I0.0582 J0.0222
G1 X1.2491 Y2.1541
X1.266 Y2.1418
X1.2849 Y2.1283
X1.3022 Y2.1163
X1.5117 Y1.9758
X1.5559 Y1.9463
X1.5684 Y1.9395
X1.6689 Y1.8896
X1.6817 Y1.8832
X1.7006 Y1.8727
X1.7042 Y1.8707
X1.7195 Y1.8614
X1.7343 Y1.8518
X1.7384 Y1.849
X1.7573 Y1.8354
X1.7607 Y1.8329
X1.7762 Y1.8207
X1.7839 Y1.814
X1.7951 Y1.8041
X1.8041 Y1.7951
X1.814 Y1.7839
X1.8207 Y1.7762
X1.8329 Y1.7607
X1.8354 Y1.7573
X1.8491 Y1.7384
X1.8518 Y1.7344
X1.8615 Y1.7195
X1.8707 Y1.7046
X1.873 Y1.7006
X1.8835 Y1.6817
X1.9314 Y1.5873
X1.941 Y1.5684
X1.9463 Y1.5583
X1.9652 Y1.5289
X1.9764 Y1.5117
X2.0377 Y1.4194
G3 X2.06 Y1.4002 Z0.0795 I0.0512 J0.0367
G2 X2.1207 Y1.3669 Z0.0851 I-0.6503 J-1.2569
X2.5303 Y1.0076 I-0.7109 J-1.2236
X2.5427 Y0.9781 I-0.0499 J-0.0385
G1 X2.7325 Y-0.3374
G2 X2.7289 Y-0.3692 I-0.0623 J-0.009
X2.4349 Y-0.8323 I-1.3192 J0.5124
X2.3887 Y-0.8786 Z0.0798 I-1.0252 J0.9756
G3 X2.3717 Y-0.907 Z0.0771 I0.0436 J-0.0455
G1 X2.367 Y-0.9259
X2.3616 Y-0.9448
X2.3551 Y-0.9637
X2.3431 Y-0.9917
X2.3382 Y-1.0015
X2.3242 Y-1.0261
X2.3161 Y-1.0393
X2.3053 Y-1.0557
X2.29 Y-1.0771
X2.2864 Y-1.0818
X2.2753 Y-1.096
X2.2486 Y-1.1297
X2.2211 Y-1.1682
X2.2003 Y-1.2032
X2.1782 Y-1.2479
X2.1569 Y-1.3014
X2.1397 Y-1.3563
X2.1257 Y-1.4121
X2.1142 Y-1.4686
X2.1049 Y-1.5254
X2.0972 Y-1.5824
X2.091 Y-1.6397
X2.0748 Y-1.6949
X2.0481 Y-1.7459
X2.0131 Y-1.7917
X1.972 Y-1.832
X1.9264 Y-1.8671
X1.8774 Y-1.8974
X1.8261 Y-1.9233
X1.7729 Y-1.9455
X1.7185 Y-1.9643
X1.6632 Y-1.9802
X1.6072 Y-1.9936
X1.5507 Y-2.0049
X1.4939 Y-2.0144
X1.4735 Y-2.0172
X1.4545 Y-2.0213
X1.4364 Y-2.0282
X1.4194 Y-2.0377
X1.3013 Y-2.1163
X1.2849 Y-2.1275
X1.266 Y-2.1407
X1.2471 Y-2.1543
X1.096 Y-2.2749
X1.0814 Y-2.2864
X1.0771 Y-2.2897
X1.0582 Y-2.3034
G3 X1.0393 Y-2.3275 I0.0387 J-0.0497
G1 X1.0368 Y-2.3332 Z0.0774
X1.0343 Y-2.3388 Z0.0783
X1.0319 Y-2.3442 Z0.0798
X1.0295 Y-2.3496 Z0.0819
X1.0273 Y-2.3547 Z0.0845
X1.0251 Y-2.3595 Z0.0877
X1.0231 Y-2.3641 Z0.0914
X1.0212 Y-2.3682 Z0.0955
X1.0195 Y-2.372 Z0.1001
X1.018 Y-2.3754 Z0.1051
X1.0168 Y-2.3783 Z0.1104
X1.0157 Y-2.3807 Z0.116
X1.0148 Y-2.3826 Z0.1218
X1.0142 Y-2.384 Z0.1278
X1.0139 Y-2.3848 Z0.1339
X1.0137 Y-2.3851 Z0.1401
Z0.8086
X2.3327 Y-1.0893
Z0.2031
Z0.1401
X2.3324 Y-1.0894 Z0.1339
X2.3316 Y-1.0898 Z0.1278
X2.3302 Y-1.0903 Z0.1218
X2.3282 Y-1.0911 Z0.116
X2.3257 Y-1.092 Z0.1104
X2.3228 Y-1.0931 Z0.1051
X2.3193 Y-1.0944 Z0.1001
X2.3155 Y-1.0959 Z0.0955
X2.3112 Y-1.0976 Z0.0914
X2.3065 Y-1.0993 Z0.0877
X2.3016 Y-1.1012 Z0.0845
X2.2964 Y-1.1032 Z0.0819
X2.2909 Y-1.1053 Z0.0798
X2.2853 Y-1.1074 Z0.0783
X2.2796 Y-1.1096 Z0.0774
X2.2739 Y-1.1118 Z0.0771
G3 X2.2486 Y-1.1297 I0.0222 J-0.0582
G1 X2.1541 Y-1.2491
X2.1418 Y-1.266
X2.1283 Y-1.2849
X2.1163 Y-1.3022
X1.9758 Y-1.5117
X1.9463 Y-1.5559
X1.9395 Y-1.5684
X1.8896 Y-1.6689
X1.8832 Y-1.6817
X1.8727 Y-1.7006
X1.8707 Y-1.7042
X1.8614 Y-1.7195
X1.8518 Y-1.7343
X1.849 Y-1.7384
X1.8354 Y-1.7573
X1.8329 Y-1.7607
X1.8207 Y-1.7762
X1.814 Y-1.7839
X1.8041 Y-1.7951
X1.7951 Y-1.8041
X1.7839 Y-1.814
X1.7762 Y-1.8207
X1.7607 Y-1.8329
X1.7573 Y-1.8354
X1.7384 Y-1.8491
X1.7344 Y-1.8518
X1.7195 Y-1.8615
X1.7046 Y-1.8707
X1.7006 Y-1.873
X1.6817 Y-1.8835
X1.5873 Y-1.9314
X1.5684 Y-1.941
X1.5583 Y-1.9463
X1.5289 Y-1.9652
X1.5117 Y-1.9764
X1.4194 Y-2.0377
G3 X1.4002 Y-2.06 Z0.0795 I0.0367 J-0.0512
G2 X1.3669 Y-2.1207 Z0.0851 I-1.2569 J0.6503
X1.0076 Y-2.5303 I-1.2236 J0.7109
X0.9781 Y-2.5427 I-0.0385 J0.0499
G1 X-0.3374 Y-2.7325
G2 X-0.3692 Y-2.7289 I-0.009 J0.0623
X-0.8323 Y-2.4349 I0.5124 J1.3192
X-0.8786 Y-2.3887 Z0.0798 I0.9756 J1.0252
G3 X-0.907 Y-2.3717 Z0.0771 I-0.0455 J-0.0436
G1 X-0.9259 Y-2.367
X-0.9448 Y-2.3616
X-0.9637 Y-2.3551
X-0.9917 Y-2.3431
X-1.0015 Y-2.3382
X-1.0261 Y-2.3242
X-1.0393 Y-2.3161
X-1.0557 Y-2.3053
X-1.0771 Y-2.29
X-1.0818 Y-2.2864
X-1.096 Y-2.2753
X-1.1297 Y-2.2486
X-1.1682 Y-2.2211
X-1.2032 Y-2.2003
X-1.2479 Y-2.1782
X-1.3014 Y-2.1569
X-1.3563 Y-2.1397
X-1.4121 Y-2.1257
X-1.4686 Y-2.1142
X-1.5254 Y-2.1049
X-1.5824 Y-2.0972
X-1.6397 Y-2.091
X-1.6949 Y-2.0748
X-1.7459 Y-2.0481
X-1.7917 Y-2.0131
X-1.832 Y-1.972
X-1.8671 Y-1.9264
X-1.8974 Y-1.8774
X-1.9233 Y-1.8261
X-1.9455 Y-1.7729
X-1.9643 Y-1.7185
X-1.9802 Y-1.6632
X-1.9936 Y-1.6072
X-2.0049 Y-1.5507
X-2.0144 Y-1.4939
X-2.0172 Y-1.4735
X-2.0213 Y-1.4545
X-2.0282 Y-1.4364
X-2.0377 Y-1.4194
X-2.1163 Y-1.3013
X-2.1275 Y-1.2849
X-2.1407 Y-1.266
X-2.1543 Y-1.2471
X-2.2749 Y-1.096
X-2.2864 Y-1.0814
X-2.2897 Y-1.0771
X-2.3034 Y-1.0582
G3 X-2.3275 Y-1.0393 I-0.0497 J-0.0387
G1 X-2.3332 Y-1.0368 Z0.0774
X-2.3388 Y-1.0343 Z0.0783
X-2.3442 Y-1.0319 Z0.0798
X-2.3496 Y-1.0295 Z0.0819
X-2.3547 Y-1.0273 Z0.0845
X-2.3595 Y-1.0251 Z0.0877
X-2.3641 Y-1.0231 Z0.0914
X-2.3682 Y-1.0212 Z0.0955
X-2.372 Y-1.0195 Z0.1001
X-2.3754 Y-1.018 Z0.1051
X-2.3783 Y-1.0168 Z0.1104
X-2.3807 Y-1.0157 Z0.116
X-2.3826 Y-1.0148 Z0.1218
X-2.384 Y-1.0142 Z0.1278
X-2.3848 Y-1.0139 Z0.1339
X-2.3851 Y-1.0137 Z0.1401
Z0.8086
X-1.0893 Y-2.3327
Z0.2031
Z0.1401
X-1.0894 Y-2.3324 Z0.1339
X-1.0898 Y-2.3316 Z0.1278
X-1.0903 Y-2.3302 Z0.1218
X-1.0911 Y-2.3282 Z0.116
X-1.092 Y-2.3257 Z0.1104
X-1.0931 Y-2.3228 Z0.1051
X-1.0944 Y-2.3193 Z0.1001
X-1.0959 Y-2.3155 Z0.0955
X-1.0976 Y-2.3112 Z0.0914
X-1.0993 Y-2.3065 Z0.0877
X-1.1012 Y-2.3016 Z0.0845
X-1.1032 Y-2.2964 Z0.0819
X-1.1053 Y-2.2909 Z0.0798
X-1.1074 Y-2.2853 Z0.0783
X-1.1096 Y-2.2796 Z0.0774
X-1.1118 Y-2.2739 Z0.0771
G3 X-1.1297 Y-2.2486 I-0.0582 J-0.0222
G1 X-1.2491 Y-2.1541
X-1.266 Y-2.1418
X-1.2849 Y-2.1283
X-1.3022 Y-2.1163
X-1.5117 Y-1.9758
X-1.5559 Y-1.9463
X-1.5684 Y-1.9395
X-1.6689 Y-1.8896
X-1.6817 Y-1.8832
X-1.7006 Y-1.8727
X-1.7042 Y-1.8707
X-1.7195 Y-1.8614
X-1.7343 Y-1.8518
X-1.7384 Y-1.849
X-1.7573 Y-1.8354
X-1.7607 Y-1.8329
X-1.7762 Y-1.8207
X-1.7839 Y-1.814
X-1.7951 Y-1.8041
X-1.8041 Y-1.7951
X-1.814 Y-1.7839
X-1.8207 Y-1.7762
X-1.8329 Y-1.7607
X-1.8354 Y-1.7573
X-1.8491 Y-1.7384
X-1.8518 Y-1.7344
X-1.8615 Y-1.7195
X-1.8707 Y-1.7046
X-1.873 Y-1.7006
X-1.8835 Y-1.6817
X-1.9314 Y-1.5873
X-1.941 Y-1.5684
X-1.9463 Y-1.5583
X-1.9652 Y-1.5289
X-1.9764 Y-1.5117
X-2.0377 Y-1.4194
X-2.0402 Y-1.4167 Z0.0773
X-2.0426 Y-1.4141 Z0.0779
X-2.0449 Y-1.4115 Z0.079
X-2.0471 Y-1.409 Z0.0805
X-2.05 Y-1.407 Z0.0826
X-2.0527 Y-1.4051 Z0.0852
X-2.055 Y-1.4035 Z0.0882
X-2.057 Y-1.4021 Z0.0915
X-2.0586 Y-1.4009 Z0.0951
X-2.0597 Y-1.4004 Z0.0982
X-2.0605 Y-1.4 Z0.1014
X-2.0609 Y-1.3997 Z0.1047
X-2.0611 Y-1.3996 Z0.108
Z0.8086
X-2.1335 Y-2.0389
Z0.2562
Z0.1932
X-2.1333 Y-2.0387 Z0.187
X-2.1325 Y-2.0383 Z0.1809
X-2.1312 Y-2.0375 Z0.1749
X-2.1294 Y-2.0364 Z0.1691
X-2.1271 Y-2.0351 Z0.1635
X-2.1244 Y-2.0335 Z0.1582
X-2.1212 Y-2.0316 Z0.1533
X-2.1177 Y-2.0295 Z0.1487
X-2.1137 Y-2.0272 Z0.1445
X-2.1094 Y-2.0246 Z0.1408
X-2.1049 Y-2.0219 Z0.1377
X-2.1001 Y-2.0191 Z0.135
X-2.0951 Y-2.0161 Z0.1329
X-2.0899 Y-2.0131 Z0.1314
X-2.0846 Y-2.0099 Z0.1305
X-2.0793 Y-2.0068 Z0.1302
G3 X-1.802 Y-1.7992 I-0.8194 J1.3838
G1 X-1.7984 Y-1.7956
X-1.795 Y-1.7906
X-1.7868 Y-1.7742
X-1.7813 Y-1.7567
X-1.7784 Y-1.7386
Y-1.7202
X-1.7812 Y-1.7021
X-1.7867 Y-1.6846
X-1.7948 Y-1.6681
X-1.7978 Y-1.6628
X-1.8075 Y-1.6439
X-1.8458 Y-1.5684
X-1.8518 Y-1.557
X-1.8707 Y-1.5237
X-1.8778 Y-1.5117
X-1.991 Y-1.3416
X-2.0042 Y-1.3227
X-2.0177 Y-1.3038
X-2.0219 Y-1.2983
X-2.1352 Y-1.1561
X-2.1528 Y-1.1338
X-2.2371 Y-1.0204
X-2.2501 Y-1.0015
X-2.2618 Y-0.9826
X-2.272 Y-0.9637
X-2.2803 Y-0.9448
X-2.2876 Y-0.9259
X-2.2934 Y-0.907
X-2.2981 Y-0.8881
X-2.3018 Y-0.8692
X-2.3053 Y-0.8468
X-2.3076 Y-0.8314
X-2.3188 Y-0.7558
X-2.3242 Y-0.718
X-2.3266 Y-0.6991
X-2.3487 Y-0.5102
X-2.351 Y-0.4913
X-2.3544 Y-0.4724
X-2.358 Y-0.4535
X-2.3998 Y-0.2414
X-2.4033 Y-0.2268
X-2.4094 Y-0.2079
X-2.4376 Y-0.1241
X-2.4412 Y-0.1134
X-2.4474 Y-0.0945
X-2.4519 Y-0.0756
X-2.4565 Y-0.0556
X-2.4586 Y-0.0378
X-2.4607 Y-0.0189
X-2.4608 Y0.
X-2.4607 Y0.0189
X-2.4586 Y0.0378
X-2.4565 Y0.0556
X-2.4519 Y0.0756
X-2.4474 Y0.0945
X-2.4413 Y0.1134
X-2.4041 Y0.2268
X-2.3998 Y0.2437
X-2.3538 Y0.4724
X-2.3501 Y0.4913
X-2.3479 Y0.5102
X-2.3393 Y0.5858
X-2.3266 Y0.6991
X-2.3242 Y0.7184
X-2.3188 Y0.7558
X-2.3076 Y0.8314
X-2.3047 Y0.8503
X-2.3018 Y0.8692
X-2.2982 Y0.8881
X-2.2934 Y0.907
X-2.2876 Y0.9259
X-2.2803 Y0.9448
X-2.272 Y0.9637
X-2.2618 Y0.9826
X-2.2501 Y1.0015
X-2.2371 Y1.0204
X-2.1528 Y1.1338
X-2.1352 Y1.1563
X-2.0219 Y1.2996
X-2.0187 Y1.3038
X-2.003 Y1.3254
X-1.9914 Y1.3416
X-1.8774 Y1.5117
X-1.8707 Y1.5228
X-1.8518 Y1.5555
X-1.8449 Y1.5684
X-1.8074 Y1.6439
X-1.7978 Y1.6628
X-1.7951 Y1.6675
X-1.7867 Y1.6817
X-1.7762 Y1.697
X-1.7596 Y1.7195
X-1.7573 Y1.7223
X-1.7384 Y1.7412
X-1.7223 Y1.7573
X-1.7195 Y1.7596
X-1.697 Y1.7762
X-1.6817 Y1.7867
X-1.6675 Y1.7951
X-1.6628 Y1.7978
X-1.6439 Y1.8075
X-1.5684 Y1.8458
X-1.557 Y1.8518
X-1.5237 Y1.8707
X-1.5117 Y1.8778
X-1.3416 Y1.991
X-1.3227 Y2.0042
X-1.3038 Y2.0177
X-1.2983 Y2.0219
X-1.1561 Y2.1352
X-1.1338 Y2.1528
X-1.0204 Y2.2371
X-1.0015 Y2.2501
X-0.9826 Y2.2618
X-0.9637 Y2.272
X-0.9448 Y2.2803
X-0.9259 Y2.2876
X-0.907 Y2.2934
X-0.8881 Y2.2982
X-0.8692 Y2.3018
X-0.8468 Y2.3053
X-0.8314 Y2.3076
X-0.7558 Y2.3188
X-0.718 Y2.3242
X-0.6991 Y2.3266
X-0.5102 Y2.3487
X-0.4913 Y2.351
X-0.4724 Y2.3544
X-0.4535 Y2.358
X-0.2414 Y2.3998
X-0.2268 Y2.4033
X-0.2079 Y2.4094
X-0.1241 Y2.4376
X-0.1134 Y2.4412
X-0.0945 Y2.4474
X-0.0756 Y2.4519
X-0.0556 Y2.4565
X-0.0378 Y2.4586
X-0.0189 Y2.4607
X0. Y2.4608
X0.0189 Y2.4607
X0.0378 Y2.4586
X0.0556 Y2.4565
X0.0756 Y2.4519
X0.0945 Y2.4474
X0.1134 Y2.4413
X0.2268 Y2.4041
X0.2437 Y2.3998
X0.4724 Y2.3538
X0.4913 Y2.3501
X0.5102 Y2.3479
X0.5858 Y2.3393
X0.6991 Y2.3266
X0.7184 Y2.3242
X0.7558 Y2.3188
X0.8314 Y2.3076
X0.8503 Y2.3047
X0.8692 Y2.3018
X0.8881 Y2.2982
X0.907 Y2.2934
X0.9259 Y2.2876
X0.9448 Y2.2803
X0.9637 Y2.272
X0.9826 Y2.2618
X1.0015 Y2.2501
X1.0204 Y2.2371
X1.1338 Y2.1528
X1.1563 Y2.1352
X1.2996 Y2.0219
X1.3038 Y2.0187
X1.3254 Y2.003
X1.3416 Y1.9914
X1.5117 Y1.8774
X1.5228 Y1.8707
X1.5555 Y1.8518
X1.5684 Y1.8449
X1.6439 Y1.8074
X1.6628 Y1.7978
X1.6675 Y1.7951
X1.6817 Y1.7867
X1.697 Y1.7762
X1.7195 Y1.7596
X1.7223 Y1.7573
X1.7412 Y1.7384
X1.7573 Y1.7223
X1.7596 Y1.7195
X1.7762 Y1.697
X1.7867 Y1.6817
X1.7951 Y1.6675
X1.7978 Y1.6628
X1.8075 Y1.6439
X1.8458 Y1.5684
X1.8518 Y1.557
X1.8707 Y1.5237
X1.8778 Y1.5117
X1.991 Y1.3416
X2.0042 Y1.3227
X2.0177 Y1.3038
X2.0219 Y1.2983
X2.1352 Y1.1561
X2.1528 Y1.1338
X2.2371 Y1.0204
X2.2501 Y1.0015
X2.2618 Y0.9826
X2.272 Y0.9637
X2.2803 Y0.9448
X2.2876 Y0.9259
X2.2934 Y0.907
X2.2982 Y0.8881
X2.3018 Y0.8692
X2.3053 Y0.8468
X2.3076 Y0.8314
X2.3188 Y0.7558
X2.3242 Y0.718
X2.3266 Y0.6991
X2.3487 Y0.5102
X2.351 Y0.4913
X2.3544 Y0.4724
X2.358 Y0.4535
X2.3998 Y0.2414
X2.4033 Y0.2268
X2.4094 Y0.2079
X2.4376 Y0.1241
X2.4412 Y0.1134
X2.4474 Y0.0945
X2.4519 Y0.0756
X2.4565 Y0.0556
X2.4586 Y0.0378
X2.4607 Y0.0189
X2.4608 Y0.
X2.4607 Y-0.0189
X2.4586 Y-0.0378
X2.4565 Y-0.0556
X2.4519 Y-0.0756
X2.4474 Y-0.0945
X2.4413 Y-0.1134
X2.4041 Y-0.2268
X2.3998 Y-0.2437
X2.3538 Y-0.4724
X2.3501 Y-0.4913
X2.3479 Y-0.5102
X2.3393 Y-0.5858
X2.3266 Y-0.6991
X2.3242 Y-0.7184
X2.3188 Y-0.7558
X2.3076 Y-0.8314
X2.3047 Y-0.8503
X2.3018 Y-0.8692
X2.2982 Y-0.8881
X2.2934 Y-0.907
X2.2876 Y-0.9259
X2.2803 Y-0.9448
X2.272 Y-0.9637
X2.2618 Y-0.9826
X2.2501 Y-1.0015
X2.2371 Y-1.0204
X2.1528 Y-1.1338
X2.1352 Y-1.1563
X2.0219 Y-1.2996
X2.0187 Y-1.3038
X2.003 Y-1.3254
X1.9914 Y-1.3416
X1.8774 Y-1.5117
X1.8707 Y-1.5228
X1.8518 Y-1.5555
X1.8449 Y-1.5684
X1.8074 Y-1.6439
X1.7978 Y-1.6628
X1.7951 Y-1.6675
X1.7867 Y-1.6817
X1.7762 Y-1.697
X1.7596 Y-1.7195
X1.7573 Y-1.7223
X1.7384 Y-1.7412
X1.7223 Y-1.7573
X1.7195 Y-1.7596
X1.697 Y-1.7762
X1.6817 Y-1.7867
X1.6675 Y-1.7951
X1.6628 Y-1.7978
X1.6439 Y-1.8075
X1.5684 Y-1.8458
X1.557 Y-1.8518
X1.5237 Y-1.8707
X1.5117 Y-1.8778
X1.3416 Y-1.991
X1.3227 Y-2.0042
X1.3038 Y-2.0177
X1.2983 Y-2.0219
X1.1561 Y-2.1352
X1.1338 Y-2.1528
X1.0204 Y-2.2371
X1.0015 Y-2.2501
X0.9826 Y-2.2618
X0.9637 Y-2.272
X0.9448 Y-2.2803
X0.9259 Y-2.2876
X0.907 Y-2.2934
X0.8881 Y-2.2982
X0.8692 Y-2.3018
X0.8468 Y-2.3053
X0.8314 Y-2.3076
X0.7558 Y-2.3188
X0.718 Y-2.3242
X0.6991 Y-2.3266
X0.5102 Y-2.3487
X0.4913 Y-2.351
X0.4724 Y-2.3544
X0.4535 Y-2.358
X0.2414 Y-2.3998
X0.2268 Y-2.4033
X0.2079 Y-2.4094
X0.1241 Y-2.4376
X0.1134 Y-2.4412
X0.0945 Y-2.4474
X0.0756 Y-2.4519
X0.0556 Y-2.4565
X0.0378 Y-2.4586
X0.0189 Y-2.4607
X0. Y-2.4608
X-0.0189 Y-2.4607
X-0.0378 Y-2.4586
X-0.0556 Y-2.4565
X-0.0756 Y-2.4519
X-0.0945 Y-2.4474
X-0.1134 Y-2.4413
X-0.2268 Y-2.4041
X-0.2437 Y-2.3998
X-0.4724 Y-2.3538
X-0.4913 Y-2.3501
X-0.5102 Y-2.3479
X-0.5858 Y-2.3393
X-0.6991 Y-2.3266
X-0.7184 Y-2.3242
X-0.7558 Y-2.3188
X-0.8314 Y-2.3076
X-0.8503 Y-2.3047
X-0.8692 Y-2.3018
X-0.8881 Y-2.2982
X-0.907 Y-2.2934
X-0.9259 Y-2.2876
X-0.9448 Y-2.2803
X-0.9637 Y-2.272
X-0.9826 Y-2.2618
X-1.0015 Y-2.2501
X-1.0204 Y-2.2371
X-1.1338 Y-2.1528
X-1.1563 Y-2.1352
X-1.2996 Y-2.0219
X-1.3038 Y-2.0187
X-1.3254 Y-2.003
X-1.3416 Y-1.9914
X-1.5117 Y-1.8774
X-1.5228 Y-1.8707
X-1.5555 Y-1.8518
X-1.5684 Y-1.8449
X-1.6439 Y-1.8074
X-1.6543 Y-1.8021
X-1.6578 Y-1.801 Z0.1304
X-1.6612 Y-1.7998 Z0.1311
X-1.6645 Y-1.7987 Z0.1321
X-1.6676 Y-1.7977 Z0.1336
X-1.6709 Y-1.7973 Z0.1355
X-1.6739 Y-1.797 Z0.1378
X-1.6765 Y-1.7967 Z0.1405
X-1.6789 Y-1.7965 Z0.1434
X-1.6808 Y-1.7963 Z0.1467
X-1.6824 Z0.1501
X-1.6835 Y-1.7964 Z0.1537
X-1.6842 Z0.1574
X-1.6844 Z0.1611
Z0.8086
X-2.0791 Y-1.9779
Z0.3094
Z0.2464
X-2.0789 Y-1.9778 Z0.2402
X-2.0781 Y-1.9773 Z0.2341
X-2.0768 Y-1.9765 Z0.2281
X-2.075 Y-1.9755 Z0.2223
X-2.0727 Y-1.9741 Z0.2167
X-2.07 Y-1.9725 Z0.2114
X-2.0668 Y-1.9706 Z0.2064
X-2.0632 Y-1.9685 Z0.2018
X-2.0593 Y-1.9662 Z0.1977
X-2.055 Y-1.9637 Z0.194
X-2.0505 Y-1.961 Z0.1908
X-2.0457 Y-1.9581 Z0.1882
X-2.0407 Y-1.9551 Z0.1861
X-2.0355 Y-1.9521 Z0.1846
X-2.0302 Y-1.949 Z0.1837
X-2.0249 Y-1.9458 Z0.1834
G3 X-1.7476 Y-1.7382 I-0.8194 J1.3838
G1 X-1.7448 Y-1.7354
X-1.7411 Y-1.7307
X-1.7376 Y-1.7258
X-1.7344 Y-1.7208
X-1.7267 Y-1.7051
X-1.7213 Y-1.6886
X-1.7185 Y-1.6714
X-1.7181 Y-1.6539
X-1.7203 Y-1.6366
X-1.725 Y-1.6199
X-1.732 Y-1.6039
X-1.7384 Y-1.592
X-1.7505 Y-1.5684
X-1.7762 Y-1.5177
X-1.7799 Y-1.5117
X-1.7951 Y-1.488
X-1.8044 Y-1.4739
X-1.8547 Y-1.3983
X-1.8673 Y-1.3794
X-1.8896 Y-1.3492
X-1.971 Y-1.2471
X-1.9852 Y-1.2282
X-2.1541 Y-1.0008
X-2.1672 Y-0.9826
X-2.1796 Y-0.9637
X-2.1913 Y-0.9448
X-2.2004 Y-0.9259
X-2.2087 Y-0.907
X-2.2152 Y-0.8881
X-2.2209 Y-0.8692
X-2.2251 Y-0.8503
X-2.2285 Y-0.8314
X-2.2703 Y-0.548
X-2.273 Y-0.5291
X-2.278 Y-0.4913
X-2.2912 Y-0.3779
X-2.2936 Y-0.359
X-2.3007 Y-0.3212
X-2.3053 Y-0.2979
X-2.3193 Y-0.2268
X-2.3275 Y-0.189
X-2.3327 Y-0.1701
X-2.3454 Y-0.1323
X-2.3579 Y-0.0945
X-2.362 Y-0.0777
X-2.3668 Y-0.0567
X-2.3692 Y-0.0378
X-2.3713 Y-0.0189
X-2.3714 Y0.
X-2.3713 Y0.0189
X-2.3692 Y0.0378
X-2.3668 Y0.0567
X-2.362 Y0.0777
X-2.3579 Y0.0945
X-2.3457 Y0.1323
X-2.3333 Y0.1701
X-2.3281 Y0.189
X-2.3195 Y0.2268
X-2.2929 Y0.359
X-2.2907 Y0.3779
X-2.2779 Y0.4913
X-2.2755 Y0.5102
X-2.273 Y0.5291
X-2.2703 Y0.548
X-2.2285 Y0.8314
X-2.2251 Y0.8503
X-2.2209 Y0.8692
X-2.2152 Y0.8881
X-2.2087 Y0.907
X-2.2004 Y0.9259
X-2.1913 Y0.9448
X-2.1796 Y0.9637
X-2.1672 Y0.9826
X-2.1536 Y1.0015
X-1.9841 Y1.2297
X-1.971 Y1.2471
X-1.8896 Y1.3501
X-1.8677 Y1.3794
X-1.8518 Y1.403
X-1.8042 Y1.4739
X-1.7917 Y1.4928
X-1.7792 Y1.5117
X-1.7762 Y1.5164
X-1.7691 Y1.5306
X-1.7573 Y1.5543
X-1.7503 Y1.5684
X-1.7384 Y1.5918
X-1.7309 Y1.6062
X-1.7191 Y1.625
X-1.7061 Y1.6439
X-1.7006 Y1.6509
X-1.6906 Y1.6628
X-1.6817 Y1.6724
X-1.6724 Y1.6817
X-1.6628 Y1.6906
X-1.6509 Y1.7006
X-1.6439 Y1.7061
X-1.625 Y1.7191
X-1.6062 Y1.7309
X-1.592 Y1.7384
X-1.5684 Y1.7505
X-1.5177 Y1.7762
X-1.5117 Y1.7799
X-1.488 Y1.7951
X-1.4739 Y1.8044
X-1.3983 Y1.8547
X-1.3794 Y1.8673
X-1.3492 Y1.8896
X-1.2471 Y1.971
X-1.2282 Y1.9852
X-1.0008 Y2.1541
X-0.9826 Y2.1672
X-0.9637 Y2.1796
X-0.9448 Y2.1913
X-0.9259 Y2.2004
X-0.907 Y2.2087
X-0.8881 Y2.2152
X-0.8692 Y2.2209
X-0.8503 Y2.2251
X-0.8314 Y2.2285
X-0.548 Y2.2703
X-0.5291 Y2.273
X-0.4913 Y2.278
X-0.3779 Y2.2912
X-0.359 Y2.2936
X-0.3212 Y2.3007
X-0.2979 Y2.3053
X-0.2268 Y2.3193
X-0.189 Y2.3275
X-0.1701 Y2.3327
X-0.1323 Y2.3454
X-0.0945 Y2.3579
X-0.0777 Y2.362
X-0.0567 Y2.3668
X-0.0378 Y2.3692
X-0.0189 Y2.3713
X0. Y2.3714
X0.0189 Y2.3713
X0.0378 Y2.3692
X0.0567 Y2.3668
X0.0777 Y2.362
X0.0945 Y2.3579
X0.1323 Y2.3457
X0.1701 Y2.3333
X0.189 Y2.3281
X0.2268 Y2.3195
X0.359 Y2.2929
X0.3779 Y2.2907
X0.4913 Y2.2779
X0.5102 Y2.2755
X0.5291 Y2.273
X0.548 Y2.2703
X0.8314 Y2.2285
X0.8503 Y2.2251
X0.8692 Y2.2209
X0.8881 Y2.2152
X0.907 Y2.2087
X0.9259 Y2.2004
X0.9448 Y2.1913
X0.9637 Y2.1796
X0.9826 Y2.1672
X1.0015 Y2.1536
X1.2297 Y1.9841
X1.2471 Y1.971
X1.3501 Y1.8896
X1.3794 Y1.8677
X1.403 Y1.8518
X1.4739 Y1.8042
X1.4928 Y1.7917
X1.5117 Y1.7792
X1.5164 Y1.7762
X1.5306 Y1.7691
X1.5543 Y1.7573
X1.5684 Y1.7503
X1.5918 Y1.7384
X1.6062 Y1.7309
X1.625 Y1.7191
X1.6439 Y1.7061
X1.6509 Y1.7006
X1.6628 Y1.6906
X1.6724 Y1.6817
X1.6817 Y1.6724
X1.6906 Y1.6628
X1.7006 Y1.6509
X1.7061 Y1.6439
X1.7191 Y1.625
X1.7309 Y1.6062
X1.7384 Y1.592
X1.7505 Y1.5684
X1.7762 Y1.5177
X1.7799 Y1.5117
X1.7951 Y1.488
X1.8044 Y1.4739
X1.8547 Y1.3983
X1.8673 Y1.3794
X1.8896 Y1.3492
X1.971 Y1.2471
X1.9852 Y1.2282
X2.1541 Y1.0008
X2.1672 Y0.9826
X2.1796 Y0.9637
X2.1913 Y0.9448
X2.2004 Y0.9259
X2.2087 Y0.907
X2.2152 Y0.8881
X2.2209 Y0.8692
X2.2251 Y0.8503
X2.2285 Y0.8314
X2.2703 Y0.548
X2.273 Y0.5291
X2.278 Y0.4913
X2.2912 Y0.3779
X2.2936 Y0.359
X2.3007 Y0.3212
X2.3053 Y0.2979
X2.3193 Y0.2268
X2.3275 Y0.189
X2.3327 Y0.1701
X2.3454 Y0.1323
X2.3579 Y0.0945
X2.362 Y0.0777
X2.3668 Y0.0567
X2.3692 Y0.0378
X2.3713 Y0.0189
X2.3714 Y0.
X2.3713 Y-0.0189
X2.3692 Y-0.0378
X2.3668 Y-0.0567
X2.362 Y-0.0777
X2.3579 Y-0.0945
X2.3457 Y-0.1323
X2.3333 Y-0.1701
X2.3281 Y-0.189
X2.3195 Y-0.2268
X2.2929 Y-0.359
X2.2907 Y-0.3779
X2.2779 Y-0.4913
X2.2755 Y-0.5102
X2.273 Y-0.5291
X2.2703 Y-0.548
X2.2285 Y-0.8314
X2.2251 Y-0.8503
X2.2209 Y-0.8692
X2.2152 Y-0.8881
X2.2087 Y-0.907
X2.2004 Y-0.9259
X2.1913 Y-0.9448
X2.1796 Y-0.9637
X2.1672 Y-0.9826
X2.1536 Y-1.0015
X1.9841 Y-1.2297
X1.971 Y-1.2471
X1.8896 Y-1.3501
X1.8677 Y-1.3794
X1.8518 Y-1.403
X1.8042 Y-1.4739
X1.7917 Y-1.4928
X1.7792 Y-1.5117
X1.7762 Y-1.5164
X1.7691 Y-1.5306
X1.7573 Y-1.5543
X1.7503 Y-1.5684
X1.7384 Y-1.5918
X1.7309 Y-1.6062
X1.7191 Y-1.625
X1.7061 Y-1.6439
X1.7006 Y-1.6509
X1.6906 Y-1.6628
X1.6817 Y-1.6724
X1.6724 Y-1.6817
X1.6628 Y-1.6906
X1.6509 Y-1.7006
X1.6439 Y-1.7061
X1.625 Y-1.7191
X1.6062 Y-1.7309
X1.592 Y-1.7384
X1.5684 Y-1.7505
X1.5177 Y-1.7762
X1.5117 Y-1.7799
X1.488 Y-1.7951
X1.4739 Y-1.8044
X1.3983 Y-1.8547
X1.3794 Y-1.8673
X1.3492 Y-1.8896
X1.2471 Y-1.971
X1.2282 Y-1.9852
X1.0008 Y-2.1541
X0.9826 Y-2.1672
X0.9637 Y-2.1796
X0.9448 Y-2.1913
X0.9259 Y-2.2004
X0.907 Y-2.2087
X0.8881 Y-2.2152
X0.8692 Y-2.2209
X0.8503 Y-2.2251
X0.8314 Y-2.2285
X0.548 Y-2.2703
X0.5291 Y-2.273
X0.4913 Y-2.278
X0.3779 Y-2.2912
X0.359 Y-2.2936
X0.3212 Y-2.3007
X0.2979 Y-2.3053
X0.2268 Y-2.3193
X0.189 Y-2.3275
X0.1701 Y-2.3327
X0.1323 Y-2.3454
X0.0945 Y-2.3579
X0.0777 Y-2.362
X0.0567 Y-2.3668
X0.0378 Y-2.3692
X0.0189 Y-2.3713
X0. Y-2.3714
X-0.0189 Y-2.3713
X-0.0378 Y-2.3692
X-0.0567 Y-2.3668
X-0.0777 Y-2.362
X-0.0945 Y-2.3579
X-0.1323 Y-2.3457
X-0.1701 Y-2.3333
X-0.189 Y-2.3281
X-0.2268 Y-2.3195
X-0.359 Y-2.2929
X-0.3779 Y-2.2907
X-0.4913 Y-2.2779
X-0.5102 Y-2.2755
X-0.5291 Y-2.273
X-0.548 Y-2.2703
X-0.8314 Y-2.2285
X-0.8503 Y-2.2251
X-0.8692 Y-2.2209
X-0.8881 Y-2.2152
X-0.907 Y-2.2087
X-0.9259 Y-2.2004
X-0.9448 Y-2.1913
X-0.9637 Y-2.1796
X-0.9826 Y-2.1672
X-1.0015 Y-2.1536
X-1.2297 Y-1.9841
X-1.2471 Y-1.971
X-1.3501 Y-1.8896
X-1.3794 Y-1.8677
X-1.403 Y-1.8518
X-1.4739 Y-1.8042
X-1.4928 Y-1.7917
X-1.5117 Y-1.7792
X-1.5164 Y-1.7762
X-1.5306 Y-1.7691
X-1.5543 Y-1.7573
X-1.5684 Y-1.7503
X-1.5873 Y-1.7407
X-1.5907 Y-1.7396 Z0.1836
X-1.5941 Y-1.7384 Z0.1842
X-1.5974 Y-1.7373 Z0.1853
X-1.6006 Y-1.7363 Z0.1868
X-1.6038 Y-1.7359 Z0.1887
X-1.6068 Y-1.7356 Z0.191
X-1.6094 Y-1.7353 Z0.1936
X-1.6118 Y-1.7351 Z0.1966
X-1.6137 Y-1.7349 Z0.1998
X-1.6153 Z0.2032
X-1.6164 Y-1.735 Z0.2068
X-1.6171 Z0.2105
X-1.6173 Z0.2143
Z0.8086
X-1.9915 Y-1.9419
Z0.3625
Z0.2995
X-1.9913 Y-1.9418 Z0.2933
X-1.9905 Y-1.9413 Z0.2872
X-1.9892 Y-1.9405 Z0.2812
X-1.9875 Y-1.9393 Z0.2754
X-1.9853 Y-1.9379 Z0.2698
X-1.9826 Y-1.9362 Z0.2645
X-1.9795 Y-1.9342 Z0.2596
X-1.976 Y-1.9319 Z0.255
X-1.9722 Y-1.9294 Z0.2508
X-1.968 Y-1.9267 Z0.2471
X-1.9635 Y-1.9239 Z0.244
X-1.9589 Y-1.9208 Z0.2413
X-1.954 Y-1.9177 Z0.2392
X-1.9489 Y-1.9144 Z0.2377
X-1.9438 Y-1.9111 Z0.2368
X-1.9386 Y-1.9078 Z0.2365
G3 X-1.6694 Y-1.6897 I-0.8719 J1.3513
G1 X-1.6665 Y-1.6865
X-1.6631 Y-1.6816
X-1.6599 Y-1.6765
X-1.6569 Y-1.6713
X-1.654 Y-1.6656
X-1.6477 Y-1.6497
X-1.6438 Y-1.633
X-1.6426 Y-1.6159
X-1.6439 Y-1.5988
X-1.6478 Y-1.5821
X-1.6542 Y-1.5662
X-1.6628 Y-1.5515
X-1.664 Y-1.5495
X-1.6743 Y-1.5306
X-1.6817 Y-1.5164
X-1.7061 Y-1.4739
X-1.7184 Y-1.455
X-1.7384 Y-1.4249
X-1.7442 Y-1.4172
X-1.7588 Y-1.3983
X-1.7762 Y-1.3765
X-1.7951 Y-1.3524
X-1.8035 Y-1.3416
X-2.0701 Y-0.9826
X-2.098 Y-0.9448
X-2.1098 Y-0.9259
X-2.1163 Y-0.9146
X-2.1206 Y-0.907
X-2.1352 Y-0.8738
X-2.1371 Y-0.8692
X-2.1432 Y-0.8503
X-2.1481 Y-0.8314
X-2.1541 Y-0.7987
X-2.155 Y-0.7936
X-2.2247 Y-0.3212
X-2.2271 Y-0.3023
X-2.2337 Y-0.2456
X-2.2362 Y-0.2268
X-2.2434 Y-0.189
X-2.2474 Y-0.1701
X-2.2515 Y-0.1512
X-2.2561 Y-0.1323
X-2.2685 Y-0.0945
X-2.2733 Y-0.0756
X-2.2775 Y-0.0567
X-2.2798 Y-0.0378
X-2.2819 Y-0.0189
X-2.282 Y0.
X-2.2819 Y0.0189
X-2.2798 Y0.0378
X-2.2775 Y0.0567
X-2.2733 Y0.0756
X-2.2685 Y0.0945
X-2.2563 Y0.1323
X-2.2517 Y0.1512
X-2.2475 Y0.1701
X-2.2434 Y0.189
X-2.2359 Y0.2268
X-2.2335 Y0.2456
X-2.2271 Y0.3023
X-2.2247 Y0.3212
X-2.155 Y0.7936
X-2.1541 Y0.7987
X-2.1481 Y0.8314
X-2.1432 Y0.8503
X-2.1371 Y0.8692
X-2.1352 Y0.8738
X-2.1206 Y0.907
X-2.1163 Y0.9146
X-2.1098 Y0.9259
X-2.098 Y0.9448
X-2.0701 Y0.9826
X-1.8035 Y1.3416
X-1.7888 Y1.3605
X-1.774 Y1.3794
X-1.7591 Y1.3983
X-1.7444 Y1.4172
X-1.7384 Y1.4252
X-1.7184 Y1.455
X-1.7061 Y1.4739
X-1.6817 Y1.5162
X-1.6742 Y1.5306
X-1.664 Y1.5495
X-1.6628 Y1.5515
X-1.6511 Y1.5684
X-1.6373 Y1.5873
X-1.625 Y1.6022
X-1.6214 Y1.6062
X-1.6062 Y1.6213
X-1.6022 Y1.625
X-1.5873 Y1.6373
X-1.5684 Y1.6511
X-1.5515 Y1.6628
X-1.5495 Y1.664
X-1.5306 Y1.6743
X-1.5164 Y1.6817
X-1.4739 Y1.7061
X-1.455 Y1.7184
X-1.4249 Y1.7384
X-1.4172 Y1.7442
X-1.3983 Y1.7588
X-1.3765 Y1.7762
X-1.3524 Y1.7951
X-1.3416 Y1.8035
X-0.9826 Y2.0701
X-0.9448 Y2.098
X-0.9259 Y2.1098
X-0.9146 Y2.1163
X-0.907 Y2.1206
X-0.8738 Y2.1352
X-0.8692 Y2.1371
X-0.8503 Y2.1432
X-0.8314 Y2.1481
X-0.7987 Y2.1541
X-0.7936 Y2.155
X-0.3212 Y2.2247
X-0.3023 Y2.2271
X-0.2456 Y2.2337
X-0.2268 Y2.2362
X-0.189 Y2.2434
X-0.1701 Y2.2474
X-0.1512 Y2.2515
X-0.1323 Y2.2561
X-0.0945 Y2.2685
X-0.0756 Y2.2733
X-0.0567 Y2.2775
X-0.0378 Y2.2798
X-0.0189 Y2.2819
X0. Y2.282
X0.0189 Y2.2819
X0.0378 Y2.2798
X0.0567 Y2.2775
X0.0756 Y2.2733
X0.0945 Y2.2685
X0.1323 Y2.2563
X0.1512 Y2.2517
X0.1701 Y2.2475
X0.189 Y2.2434
X0.2268 Y2.2359
X0.2456 Y2.2335
X0.3023 Y2.2271
X0.3212 Y2.2247
X0.7936 Y2.155
X0.7987 Y2.1541
X0.8314 Y2.1481
X0.8503 Y2.1432
X0.8692 Y2.1371
X0.8738 Y2.1352
X0.907 Y2.1206
X0.9146 Y2.1163
X0.9259 Y2.1098
X0.9448 Y2.098
X0.9826 Y2.0701
X1.3416 Y1.8035
X1.3605 Y1.7888
X1.3794 Y1.774
X1.3983 Y1.7591
X1.4172 Y1.7444
X1.4252 Y1.7384
X1.455 Y1.7184
X1.4739 Y1.7061
X1.5162 Y1.6817
X1.5306 Y1.6742
X1.5495 Y1.664
X1.5515 Y1.6628
X1.5684 Y1.6511
X1.5873 Y1.6373
X1.6022 Y1.625
X1.6062 Y1.6214
X1.6213 Y1.6062
X1.625 Y1.6022
X1.6373 Y1.5873
X1.6511 Y1.5684
X1.6628 Y1.5515
X1.664 Y1.5495
X1.6743 Y1.5306
X1.6817 Y1.5164
X1.7061 Y1.4739
X1.7184 Y1.455
X1.7384 Y1.4249
X1.7442 Y1.4172
X1.7588 Y1.3983
X1.7762 Y1.3765
X1.7951 Y1.3524
X1.8035 Y1.3416
X2.0701 Y0.9826
X2.098 Y0.9448
X2.1098 Y0.9259
X2.1163 Y0.9146
X2.1206 Y0.907
X2.1352 Y0.8738
X2.1371 Y0.8692
X2.1432 Y0.8503
X2.1481 Y0.8314
X2.1541 Y0.7987
X2.155 Y0.7936
X2.2247 Y0.3212
X2.2271 Y0.3023
X2.2337 Y0.2456
X2.2362 Y0.2268
X2.2434 Y0.189
X2.2474 Y0.1701
X2.2515 Y0.1512
X2.2561 Y0.1323
X2.2685 Y0.0945
X2.2733 Y0.0756
X2.2775 Y0.0567
X2.2798 Y0.0378
X2.2819 Y0.0189
X2.282 Y0.
X2.2819 Y-0.0189
X2.2798 Y-0.0378
X2.2775 Y-0.0567
X2.2733 Y-0.0756
X2.2685 Y-0.0945
X2.2563 Y-0.1323
X2.2517 Y-0.1512
X2.2475 Y-0.1701
X2.2434 Y-0.189
X2.2359 Y-0.2268
X2.2335 Y-0.2456
X2.2271 Y-0.3023
X2.2247 Y-0.3212
X2.155 Y-0.7936
X2.1541 Y-0.7987
X2.1481 Y-0.8314
X2.1432 Y-0.8503
X2.1371 Y-0.8692
X2.1352 Y-0.8738
X2.1206 Y-0.907
X2.1163 Y-0.9146
X2.1098 Y-0.9259
X2.098 Y-0.9448
X2.0701 Y-0.9826
X1.8035 Y-1.3416
X1.7888 Y-1.3605
X1.774 Y-1.3794
X1.7591 Y-1.3983
X1.7444 Y-1.4172
X1.7384 Y-1.4252
X1.7184 Y-1.455
X1.7061 Y-1.4739
X1.6817 Y-1.5162
X1.6742 Y-1.5306
X1.664 Y-1.5495
X1.6628 Y-1.5515
X1.6511 Y-1.5684
X1.6373 Y-1.5873
X1.625 Y-1.6022
X1.6214 Y-1.6062
X1.6062 Y-1.6213
X1.6022 Y-1.625
X1.5873 Y-1.6373
X1.5684 Y-1.6511
X1.5515 Y-1.6628
X1.5495 Y-1.664
X1.5306 Y-1.6743
X1.5164 Y-1.6817
X1.4739 Y-1.7061
X1.455 Y-1.7184
X1.4249 Y-1.7384
X1.4172 Y-1.7442
X1.3983 Y-1.7588
X1.3765 Y-1.7762
X1.3524 Y-1.7951
X1.3416 Y-1.8035
X0.9826 Y-2.0701
X0.9448 Y-2.098
X0.9259 Y-2.1098
X0.9146 Y-2.1163
X0.907 Y-2.1206
X0.8738 Y-2.1352
X0.8692 Y-2.1371
X0.8503 Y-2.1432
X0.8314 Y-2.1481
X0.7987 Y-2.1541
X0.7936 Y-2.155
X0.3212 Y-2.2247
X0.3023 Y-2.2271
X0.2456 Y-2.2337
X0.2268 Y-2.2362
X0.189 Y-2.2434
X0.1701 Y-2.2474
X0.1512 Y-2.2515
X0.1323 Y-2.2561
X0.0945 Y-2.2685
X0.0756 Y-2.2733
X0.0567 Y-2.2775
X0.0378 Y-2.2798
X0.0189 Y-2.2819
X0. Y-2.282
X-0.0189 Y-2.2819
X-0.0378 Y-2.2798
X-0.0567 Y-2.2775
X-0.0756 Y-2.2733
X-0.0945 Y-2.2685
X-0.1323 Y-2.2563
X-0.1512 Y-2.2517
X-0.1701 Y-2.2475
X-0.189 Y-2.2434
X-0.2268 Y-2.2359
X-0.2456 Y-2.2335
X-0.3023 Y-2.2271
X-0.3212 Y-2.2247
X-0.7936 Y-2.155
X-0.7987 Y-2.1541
X-0.8314 Y-2.1481
X-0.8503 Y-2.1432
X-0.8692 Y-2.1371
X-0.8738 Y-2.1352
X-0.907 Y-2.1206
X-0.9146 Y-2.1163
X-0.9259 Y-2.1098
X-0.9448 Y-2.098
X-0.9826 Y-2.0701
X-1.3416 Y-1.8035
X-1.3605 Y-1.7888
X-1.3794 Y-1.774
X-1.3983 Y-1.7591
X-1.4172 Y-1.7444
X-1.4252 Y-1.7384
X-1.455 Y-1.7184
X-1.4739 Y-1.7061
X-1.5162 Y-1.6817
X-1.5306 Y-1.6742
X-1.534 Y-1.673 Z0.2367
X-1.5374 Y-1.6718 Z0.2374
X-1.5407 Y-1.6707 Z0.2384
X-1.5438 Y-1.6696 Z0.2399
X-1.5473 Y-1.6692 Z0.242
X-1.5506 Y-1.6688 Z0.2446
X-1.5534 Y-1.6685 Z0.2476
X-1.5558 Y-1.6682 Z0.251
X-1.5578 Y-1.668 Z0.2546
Z0.2547
X-1.5593 Z0.2588
X-1.5602 Y-1.6681 Z0.2631
X-1.5606 Z0.2674
Z0.8086
X-2.3164 Y-0.5567
Z0.4157
Z0.3527
X-2.3163 Y-0.5564 Z0.3465
X-2.3161 Y-0.5555 Z0.3404
X-2.3157 Y-0.5541 Z0.3344
X-2.3152 Y-0.552 Z0.3286
X-2.3145 Y-0.5495 Z0.323
X-2.3138 Y-0.5464 Z0.3177
X-2.3128 Y-0.5428 Z0.3127
X-2.3118 Y-0.5388 Z0.3081
X-2.3107 Y-0.5344 Z0.304
X-2.3094 Y-0.5296 Z0.3003
X-2.3081 Y-0.5244 Z0.2971
X-2.3067 Y-0.519 Z0.2945
X-2.3053 Y-0.5134 Z0.2924
X-2.3038 Y-0.5076 Z0.2909
X-2.3023 Y-0.5017 Z0.29
X-2.3008 Y-0.4957 Z0.2897
G3 X-2.2514 Y-0.1527 I-1.5579 J0.3991
G1 Y-0.1383
X-2.25 Y-0.124
X-2.2472 Y-0.1099
X-2.2431 Y-0.0961
X-2.2376 Y-0.0828
X-2.2308 Y-0.0701
X-2.2103 Y-0.0394
X-2.2027 Y-0.026
X-2.1971 Y-0.0116
X-2.1937 Y0.0035
X-2.1926 Y0.0189
X-2.1904 Y0.0378
X-2.1881 Y0.0567
X-2.1842 Y0.0756
X-2.1793 Y0.0945
X-2.1763 Y0.1134
X-2.154 Y0.2645
X-2.0842 Y0.7369
X-2.0814 Y0.7558
X-2.0783 Y0.7747
X-2.0752 Y0.7936
X-2.0701 Y0.8125
X-2.065 Y0.8314
X-2.0578 Y0.8503
X-2.0493 Y0.8692
X-2.0389 Y0.8881
X-2.028 Y0.907
X-2.0219 Y0.916
X-2.0148 Y0.9259
X-1.6358 Y1.4361
X-1.625 Y1.4505
X-1.6216 Y1.455
X-1.608 Y1.4739
X-1.5873 Y1.5069
X-1.5842 Y1.5117
X-1.5683 Y1.5306
X-1.5522 Y1.5495
X-1.5495 Y1.5522
X-1.5304 Y1.5684
X-1.5117 Y1.5842
X-1.5069 Y1.5873
X-1.4739 Y1.608
X-1.455 Y1.6216
X-1.4505 Y1.625
X-1.4361 Y1.6358
X-0.9259 Y2.0148
X-0.916 Y2.0219
X-0.907 Y2.028
X-0.8881 Y2.0389
X-0.8692 Y2.0493
X-0.8503 Y2.0578
X-0.8314 Y2.065
X-0.8125 Y2.0701
X-0.7936 Y2.0752
X-0.7734 Y2.0785
X-0.7558 Y2.0814
X-0.7369 Y2.0842
X-0.1323 Y2.1735
X-0.1134 Y2.1763
X-0.0945 Y2.1793
X-0.0756 Y2.1842
X-0.0567 Y2.1881
X-0.0378 Y2.1904
X-0.0189 Y2.1926
X0.
X0.0189
X0.0378 Y2.1904
X0.0567 Y2.1881
X0.0756 Y2.1842
X0.0945 Y2.1793
X0.1134 Y2.1763
X0.2645 Y2.154
X0.7369 Y2.0842
X0.7558 Y2.0814
X0.7747 Y2.0783
X0.7936 Y2.0752
X0.8125 Y2.0701
X0.8314 Y2.065
X0.8503 Y2.0578
X0.8692 Y2.0493
X0.8881 Y2.0389
X0.907 Y2.028
X0.916 Y2.0219
X0.9259 Y2.0148
X1.4361 Y1.6358
X1.4505 Y1.625
X1.455 Y1.6216
X1.4739 Y1.608
X1.5069 Y1.5873
X1.5117 Y1.5842
X1.5306 Y1.5683
X1.5495 Y1.5522
X1.5522 Y1.5495
X1.5684 Y1.5304
X1.5842 Y1.5117
X1.5873 Y1.5069
X1.608 Y1.4739
X1.6216 Y1.455
X1.625 Y1.4505
X1.6358 Y1.4361
X2.0148 Y0.9259
X2.0219 Y0.916
X2.028 Y0.907
X2.0389 Y0.8881
X2.0493 Y0.8692
X2.0578 Y0.8503
X2.065 Y0.8314
X2.0701 Y0.8125
X2.0752 Y0.7936
X2.0785 Y0.7734
X2.0814 Y0.7558
X2.0842 Y0.7369
X2.1735 Y0.1323
X2.1763 Y0.1134
X2.1793 Y0.0945
X2.1842 Y0.0756
X2.1881 Y0.0567
X2.1904 Y0.0378
X2.1926 Y0.0189
Y0.
Y-0.0189
X2.1904 Y-0.0378
X2.1881 Y-0.0567
X2.1842 Y-0.0756
X2.1793 Y-0.0945
X2.1763 Y-0.1134
X2.154 Y-0.2645
X2.0842 Y-0.7369
X2.0814 Y-0.7558
X2.0783 Y-0.7747
X2.0752 Y-0.7936
X2.0701 Y-0.8125
X2.065 Y-0.8314
X2.0578 Y-0.8503
X2.0493 Y-0.8692
X2.0389 Y-0.8881
X2.028 Y-0.907
X2.0219 Y-0.916
X2.0148 Y-0.9259
X1.6358 Y-1.4361
X1.625 Y-1.4505
X1.6216 Y-1.455
X1.608 Y-1.4739
X1.5873 Y-1.5069
X1.5842 Y-1.5117
X1.5683 Y-1.5306
X1.5522 Y-1.5495
X1.5495 Y-1.5522
X1.5304 Y-1.5684
X1.5117 Y-1.5842
X1.5069 Y-1.5873
X1.4739 Y-1.608
X1.455 Y-1.6216
X1.4505 Y-1.625
X1.4361 Y-1.6358
X0.9259 Y-2.0148
X0.916 Y-2.0219
X0.907 Y-2.028
X0.8881 Y-2.0389
X0.8692 Y-2.0493
X0.8503 Y-2.0578
X0.8314 Y-2.065
X0.8125 Y-2.0701
X0.7936 Y-2.0752
X0.7734 Y-2.0785
X0.7558 Y-2.0814
X0.7369 Y-2.0842
X0.1323 Y-2.1735
X0.1134 Y-2.1763
X0.0945 Y-2.1793
X0.0756 Y-2.1842
X0.0567 Y-2.1881
X0.0378 Y-2.1904
X0.0189 Y-2.1926
X0.
X-0.0189
X-0.0378 Y-2.1904
X-0.0567 Y-2.1881
X-0.0756 Y-2.1842
X-0.0945 Y-2.1793
X-0.1134 Y-2.1763
X-0.2645 Y-2.154
X-0.7369 Y-2.0842
X-0.7558 Y-2.0814
X-0.7747 Y-2.0783
X-0.7936 Y-2.0752
X-0.8125 Y-2.0701
X-0.8314 Y-2.065
X-0.8503 Y-2.0578
X-0.8692 Y-2.0493
X-0.8881 Y-2.0389
X-0.907 Y-2.028
X-0.916 Y-2.0219
X-0.9259 Y-2.0148
X-1.4361 Y-1.6358
X-1.4505 Y-1.625
X-1.455 Y-1.6216
X-1.4739 Y-1.608
X-1.5069 Y-1.5873
X-1.5117 Y-1.5842
X-1.5306 Y-1.5683
X-1.5495 Y-1.5522
X-1.5522 Y-1.5495
X-1.5684 Y-1.5304
X-1.5842 Y-1.5117
X-1.5873 Y-1.5069
X-1.608 Y-1.4739
X-1.6216 Y-1.455
X-1.625 Y-1.4505
X-1.6358 Y-1.4361
X-2.0148 Y-0.9259
X-2.0219 Y-0.916
X-2.028 Y-0.907
X-2.0389 Y-0.8881
X-2.0493 Y-0.8692
X-2.0578 Y-0.8503
X-2.065 Y-0.8314
X-2.0701 Y-0.8125
X-2.0752 Y-0.7936
X-2.0785 Y-0.7734
X-2.0814 Y-0.7558
X-2.0842 Y-0.7369
X-2.1735 Y-0.1323
X-2.1763 Y-0.1134
X-2.1793 Y-0.0945
X-2.182 Y-0.0841
X-2.1834 Y-0.0807 Z0.2899
X-2.1848 Y-0.0774 Z0.2905
X-2.1862 Y-0.0742 Z0.2916
X-2.1875 Y-0.0712 Z0.2931
X-2.1895 Y-0.0683 Z0.2952
X-2.1914 Y-0.0656 Z0.2978
X-2.1931 Y-0.0633 Z0.3008
X-2.1945 Y-0.0613 Z0.3041
X-2.1956 Y-0.0597 Z0.3077
X-2.1965 Y-0.0589 Z0.3108
X-2.1971 Y-0.0582 Z0.314
X-2.1974 Y-0.0578 Z0.3173
X-2.1975 Y-0.0577 Z0.3206
Z0.8086
X1.8773 Y1.7983
Z0.4688
Z0.4058
X1.8771 Y1.7982 Z0.3996
X1.8763 Y1.7977 Z0.3935
X1.875 Y1.7969 Z0.3875
X1.8732 Y1.7959 Z0.3817
X1.8709 Y1.7945 Z0.3761
X1.8682 Y1.7929 Z0.3708
X1.865 Y1.791 Z0.3658
X1.8614 Y1.7889 Z0.3613
X1.8575 Y1.7866 Z0.3571
X1.8532 Y1.784 Z0.3534
X1.8487 Y1.7813 Z0.3503
X1.8439 Y1.7785 Z0.3476
X1.8388 Y1.7755 Z0.3455
X1.8337 Y1.7725 Z0.344
X1.8284 Y1.7694 Z0.3431
X1.8231 Y1.7662 Z0.3428
G3 X1.5458 Y1.5586 I0.8194 J-1.3838
G1 X1.5432 Y1.556
X1.5397 Y1.5511
X1.5366 Y1.546
X1.5337 Y1.5408
X1.5311 Y1.5354
X1.5307 Y1.5344
X1.5251 Y1.5179
X1.5224 Y1.5007
Y1.4833
X1.5252 Y1.4662
X1.5308 Y1.4497
X1.5389 Y1.4344
X1.5495 Y1.4205
X1.5804 Y1.3794
X1.9313 Y0.907
X1.9446 Y0.8881
X1.9574 Y0.8692
X1.9652 Y0.8571
X1.9689 Y0.8503
X1.9781 Y0.8314
X1.9841 Y0.8166
X1.9924 Y0.7936
X1.9974 Y0.7747
X2.003 Y0.7509
X2.0079 Y0.718
X2.0974 Y0.1113
X2.0994 Y0.0945
X2.1009 Y0.0756
X2.1019 Y0.0567
X2.102 Y0.0189
Y-0.0189
X2.1019 Y-0.0567
X2.1009 Y-0.0756
X2.0994 Y-0.0945
X2.0974 Y-0.1113
X2.0079 Y-0.718
X2.003 Y-0.7509
X1.9974 Y-0.7747
X1.9924 Y-0.7936
X1.9841 Y-0.8166
X1.9781 Y-0.8314
X1.9689 Y-0.8503
X1.9652 Y-0.8571
X1.9574 Y-0.8692
X1.9446 Y-0.8881
X1.9313 Y-0.907
X1.5804 Y-1.3794
X1.5495 Y-1.4205
X1.5355 Y-1.4361
X1.5175 Y-1.455
X1.5117 Y-1.461
X1.461 Y-1.5117
X1.455 Y-1.5175
X1.4361 Y-1.5355
X1.4205 Y-1.5495
X1.3794 Y-1.5804
X0.907 Y-1.9313
X0.8881 Y-1.9446
X0.8692 Y-1.9574
X0.8571 Y-1.9652
X0.8503 Y-1.9689
X0.8314 Y-1.9781
X0.8166 Y-1.9841
X0.7936 Y-1.9924
X0.7747 Y-1.9974
X0.7509 Y-2.003
X0.718 Y-2.0079
X0.1113 Y-2.0974
X0.0945 Y-2.0994
X0.0756 Y-2.1009
X0.0567 Y-2.1019
X0.0189 Y-2.102
X-0.0189
X-0.0567 Y-2.1019
X-0.0756 Y-2.1009
X-0.0945 Y-2.0994
X-0.1113 Y-2.0974
X-0.718 Y-2.0079
X-0.7509 Y-2.003
X-0.7747 Y-1.9974
X-0.7936 Y-1.9924
X-0.8166 Y-1.9841
X-0.8314 Y-1.9781
X-0.8503 Y-1.9689
X-0.8571 Y-1.9652
X-0.8692 Y-1.9574
X-0.8881 Y-1.9446
X-0.907 Y-1.9313
X-1.3794 Y-1.5804
X-1.4205 Y-1.5495
X-1.4361 Y-1.5355
X-1.455 Y-1.5175
X-1.461 Y-1.5117
X-1.5117 Y-1.461
X-1.5175 Y-1.455
X-1.5355 Y-1.4361
X-1.5495 Y-1.4205
X-1.5804 Y-1.3794
X-1.9313 Y-0.907
X-1.9446 Y-0.8881
X-1.9574 Y-0.8692
X-1.9652 Y-0.8571
X-1.9689 Y-0.8503
X-1.9781 Y-0.8314
X-1.9841 Y-0.8166
X-1.9924 Y-0.7936
X-1.9974 Y-0.7747
X-2.003 Y-0.7509
X-2.0079 Y-0.718
X-2.0974 Y-0.1113
X-2.0994 Y-0.0945
X-2.1009 Y-0.0756
X-2.1019 Y-0.0567
X-2.102 Y-0.0189
Y0.0189
X-2.1019 Y0.0567
X-2.1009 Y0.0756
X-2.0994 Y0.0945
X-2.0974 Y0.1113
X-2.0079 Y0.718
X-2.003 Y0.7509
X-1.9974 Y0.7747
X-1.9924 Y0.7936
X-1.9841 Y0.8166
X-1.9781 Y0.8314
X-1.9689 Y0.8503
X-1.9652 Y0.8571
X-1.9574 Y0.8692
X-1.9446 Y0.8881
X-1.9313 Y0.907
X-1.5804 Y1.3794
X-1.5495 Y1.4205
X-1.5355 Y1.4361
X-1.5175 Y1.455
X-1.5117 Y1.461
X-1.461 Y1.5117
X-1.455 Y1.5175
X-1.4361 Y1.5355
X-1.4205 Y1.5495
X-1.3794 Y1.5804
X-0.907 Y1.9313
X-0.8881 Y1.9446
X-0.8692 Y1.9574
X-0.8571 Y1.9652
X-0.8503 Y1.9689
X-0.8314 Y1.9781
X-0.8166 Y1.9841
X-0.7936 Y1.9924
X-0.7747 Y1.9974
X-0.7509 Y2.003
X-0.718 Y2.0079
X-0.1113 Y2.0974
X-0.0945 Y2.0994
X-0.0756 Y2.1009
X-0.0567 Y2.1019
X-0.0189 Y2.102
X0.0189
X0.0567 Y2.1019
X0.0756 Y2.1009
X0.0945 Y2.0994
X0.1113 Y2.0974
X0.718 Y2.0079
X0.7509 Y2.003
X0.7747 Y1.9974
X0.7936 Y1.9924
X0.8166 Y1.9841
X0.8314 Y1.9781
X0.8503 Y1.9689
X0.8571 Y1.9652
X0.8692 Y1.9574
X0.8881 Y1.9446
X0.907 Y1.9313
X1.3794 Y1.5804
X1.4205 Y1.5495
X1.4361 Y1.5355
X1.455 Y1.5175
X1.461 Y1.5117
X1.5117 Y1.461
X1.5175 Y1.455
X1.5355 Y1.4361
X1.5495 Y1.4205
X1.5523 Y1.4182 Z0.343
X1.555 Y1.4159 Z0.3437
X1.5577 Y1.4137 Z0.3447
X1.5603 Y1.4116 Z0.3462
X1.5634 Y1.41 Z0.3483
X1.5663 Y1.4085 Z0.3509
X1.5689 Y1.4072 Z0.3539
X1.571 Y1.4061 Z0.3573
X1.5728 Y1.4052 Z0.3609
X1.5739 Y1.4048 Z0.364
X1.5748 Y1.4046 Z0.3672
X1.5753 Y1.4044 Z0.3704
X1.5754 Y1.4043 Z0.3737
Z0.8086
X1.8146 Y1.7305
Z0.522
Z0.459
X1.8143 Y1.7303 Z0.4528
X1.8135 Y1.7299 Z0.4467
X1.8122 Y1.7291 Z0.4407
X1.8105 Y1.7281 Z0.4349
X1.8082 Y1.7267 Z0.4293
X1.8054 Y1.7251 Z0.424
X1.8023 Y1.7232 Z0.419
X1.7987 Y1.7211 Z0.4144
X1.7948 Y1.7188 Z0.4103
X1.7905 Y1.7162 Z0.4066
X1.7859 Y1.7135 Z0.4034
X1.7811 Y1.7107 Z0.4008
X1.7761 Y1.7077 Z0.3987
X1.7709 Y1.7047 Z0.3972
X1.7657 Y1.7015 Z0.3963
X1.7604 Y1.6984 Z0.396
G3 X1.483 Y1.4908 I0.8194 J-1.3838
G1 X1.4788 Y1.4865
X1.476 Y1.4812
X1.4736 Y1.4757
X1.4713 Y1.4702
X1.4694 Y1.4645
X1.4651 Y1.4462
X1.4638 Y1.4275
X1.4654 Y1.4088
X1.4699 Y1.3906
X1.4771 Y1.3733
X1.4869 Y1.3573
X1.4991 Y1.343
X1.5117 Y1.3305
X1.5191 Y1.3227
X1.5369 Y1.3038
X1.5495 Y1.2895
X1.5812 Y1.2471
X1.8619 Y0.8692
X1.8707 Y0.8573
X1.8753 Y0.8503
X1.8876 Y0.8314
X1.8896 Y0.828
X1.8975 Y0.8125
X1.9085 Y0.7886
X1.9137 Y0.7747
X1.9198 Y0.7558
X1.9246 Y0.7369
X1.9283 Y0.718
X1.9316 Y0.6991
X2.0013 Y0.2268
X2.0068 Y0.189
X2.0084 Y0.1701
X2.0096 Y0.1512
X2.0097 Y0.1134
Y-0.1134
X2.0096 Y-0.1512
X2.0084 Y-0.1701
X2.0068 Y-0.189
X1.9985 Y-0.2456
X1.9316 Y-0.6991
X1.9283 Y-0.718
X1.9246 Y-0.7369
X1.9198 Y-0.7558
X1.9137 Y-0.7747
X1.9085 Y-0.7886
X1.8975 Y-0.8125
X1.8896 Y-0.828
X1.8876 Y-0.8314
X1.8753 Y-0.8503
X1.8707 Y-0.8573
X1.8058 Y-0.9448
X1.5812 Y-1.2471
X1.5495 Y-1.2895
X1.5369 Y-1.3038
X1.5191 Y-1.3227
X1.5117 Y-1.3305
X1.3305 Y-1.5117
X1.3227 Y-1.5191
X1.3038 Y-1.5369
X1.2895 Y-1.5495
X1.2471 Y-1.5812
X0.8692 Y-1.8619
X0.8573 Y-1.8707
X0.8503 Y-1.8753
X0.8314 Y-1.8876
X0.828 Y-1.8896
X0.8125 Y-1.8975
X0.7886 Y-1.9085
X0.7747 Y-1.9137
X0.7558 Y-1.9198
X0.7369 Y-1.9246
X0.718 Y-1.9283
X0.6991 Y-1.9316
X0.2268 Y-2.0013
X0.189 Y-2.0068
X0.1701 Y-2.0084
X0.1512 Y-2.0096
X0.1134 Y-2.0097
X-0.1134
X-0.1512 Y-2.0096
X-0.1701 Y-2.0084
X-0.189 Y-2.0068
X-0.2456 Y-1.9985
X-0.6991 Y-1.9316
X-0.718 Y-1.9283
X-0.7369 Y-1.9246
X-0.7558 Y-1.9198
X-0.7747 Y-1.9137
X-0.7886 Y-1.9085
X-0.8125 Y-1.8975
X-0.828 Y-1.8896
X-0.8314 Y-1.8876
X-0.8503 Y-1.8753
X-0.8573 Y-1.8707
X-0.9448 Y-1.8058
X-1.2471 Y-1.5812
X-1.2895 Y-1.5495
X-1.3038 Y-1.5369
X-1.3227 Y-1.5191
X-1.3305 Y-1.5117
X-1.5117 Y-1.3305
X-1.5191 Y-1.3227
X-1.5369 Y-1.3038
X-1.5495 Y-1.2895
X-1.5812 Y-1.2471
X-1.8619 Y-0.8692
X-1.8707 Y-0.8573
X-1.8753 Y-0.8503
X-1.8876 Y-0.8314
X-1.8896 Y-0.828
X-1.8975 Y-0.8125
X-1.9085 Y-0.7886
X-1.9137 Y-0.7747
X-1.9198 Y-0.7558
X-1.9246 Y-0.7369
X-1.9283 Y-0.718
X-1.9316 Y-0.6991
X-2.0013 Y-0.2268
X-2.0068 Y-0.189
X-2.0084 Y-0.1701
X-2.0096 Y-0.1512
X-2.0097 Y-0.1134
Y0.1134
X-2.0096 Y0.1512
X-2.0084 Y0.1701
X-2.0068 Y0.189
X-1.9985 Y0.2456
X-1.9316 Y0.6991
X-1.9283 Y0.718
X-1.9246 Y0.7369
X-1.9198 Y0.7558
X-1.9137 Y0.7747
X-1.9085 Y0.7886
X-1.8975 Y0.8125
X-1.8896 Y0.828
X-1.8876 Y0.8314
X-1.8753 Y0.8503
X-1.8707 Y0.8573
X-1.8058 Y0.9448
X-1.5812 Y1.2471
X-1.5495 Y1.2895
X-1.5369 Y1.3038
X-1.5191 Y1.3227
X-1.5117 Y1.3305
X-1.3305 Y1.5117
X-1.3227 Y1.5191
X-1.3038 Y1.5369
X-1.2895 Y1.5495
X-1.2471 Y1.5812
X-0.8692 Y1.8619
X-0.8573 Y1.8707
X-0.8503 Y1.8753
X-0.8314 Y1.8876
X-0.828 Y1.8896
X-0.8125 Y1.8975
X-0.7886 Y1.9085
X-0.7747 Y1.9137
X-0.7558 Y1.9198
X-0.7369 Y1.9246
X-0.718 Y1.9283
X-0.6991 Y1.9316
X-0.2268 Y2.0013
X-0.189 Y2.0068
X-0.1701 Y2.0084
X-0.1512 Y2.0096
X-0.1134 Y2.0097
X0.1134
X0.1512 Y2.0096
X0.1701 Y2.0084
X0.189 Y2.0068
X0.2456 Y1.9985
X0.6991 Y1.9316
X0.718 Y1.9283
X0.7369 Y1.9246
X0.7558 Y1.9198
X0.7747 Y1.9137
X0.7886 Y1.9085
X0.8125 Y1.8975
X0.828 Y1.8896
X0.8314 Y1.8876
X0.8503 Y1.8753
X0.8573 Y1.8707
X0.9448 Y1.8058
X1.2471 Y1.5812
X1.2895 Y1.5495
X1.3038 Y1.5369
X1.3227 Y1.5191
X1.3305 Y1.5117
X1.4991 Y1.343
X1.5021 Y1.3409 Z0.3962
X1.5049 Y1.3387 Z0.3968
X1.5077 Y1.3366 Z0.3979
X1.5104 Y1.3346 Z0.3994
X1.5137 Y1.3332 Z0.4015
X1.5166 Y1.3319 Z0.4041
X1.5192 Y1.3308 Z0.4071
X1.5214 Y1.3298 Z0.4104
X1.5232 Y1.329 Z0.414
X1.5244 Y1.3286 Z0.4171
X1.5253 Y1.3284 Z0.4203
X1.5258 Y1.3283 Z0.4236
X1.5259 Y1.3282 Z0.4269
Z0.8086
X1.7485 Y1.666
Z0.5751
Z0.5121
X1.7482 Y1.6659 Z0.5059
X1.7475 Y1.6654 Z0.4998
X1.7462 Y1.6647 Z0.4938
X1.7444 Y1.6636 Z0.488
X1.7421 Y1.6622 Z0.4824
X1.7394 Y1.6606 Z0.4771
X1.7362 Y1.6588 Z0.4721
X1.7326 Y1.6566 Z0.4676
X1.7287 Y1.6543 Z0.4634
X1.7244 Y1.6518 Z0.4597
X1.7198 Y1.6491 Z0.4566
X1.715 Y1.6462 Z0.4539
X1.71 Y1.6433 Z0.4518
X1.7049 Y1.6402 Z0.4503
X1.6996 Y1.6371 Z0.4494
X1.6943 Y1.6339 Z0.4491
G3 X1.4169 Y1.4263 I0.8194 J-1.3838
G1 X1.4127 Y1.4221
X1.4099 Y1.4167
X1.4076 Y1.4112
X1.4057 Y1.4055
X1.404 Y1.3998
X1.4026 Y1.3939
X1.4014 Y1.3881
X1.3995 Y1.3705
X1.4 Y1.3528
X1.403 Y1.3354
X1.4083 Y1.3185
X1.4159 Y1.3026
X1.4255 Y1.2878
X1.4372 Y1.2745
X1.5117 Y1.1999
X1.5206 Y1.1904
X1.5382 Y1.1715
X1.5495 Y1.1584
X1.5873 Y1.1077
X1.7762 Y0.8533
X1.7951 Y0.8276
X1.8054 Y0.8125
X1.8162 Y0.7936
X1.8266 Y0.7747
X1.8348 Y0.7558
X1.8417 Y0.7369
X1.847 Y0.718
X1.8517 Y0.6991
X1.8549 Y0.6803
X1.8581 Y0.6614
X1.9085 Y0.3198
X1.9138 Y0.2834
X1.9156 Y0.2645
X1.9168 Y0.2456
X1.9174 Y0.2268
Y-0.189
Y-0.2268
X1.9168 Y-0.2456
X1.9156 Y-0.2645
X1.9138 Y-0.2834
X1.9083 Y-0.3212
X1.8581 Y-0.6614
X1.8549 Y-0.6803
X1.8517 Y-0.6991
X1.847 Y-0.718
X1.8417 Y-0.7369
X1.8348 Y-0.7558
X1.8266 Y-0.7747
X1.8162 Y-0.7936
X1.8054 Y-0.8125
X1.7951 Y-0.8276
X1.7762 Y-0.8533
X1.582 Y-1.1149
X1.5495 Y-1.1584
X1.5382 Y-1.1715
X1.5206 Y-1.1904
X1.5117 Y-1.1999
X1.1999 Y-1.5117
X1.1904 Y-1.5206
X1.1715 Y-1.5382
X1.1584 Y-1.5495
X1.1077 Y-1.5873
X0.8533 Y-1.7762
X0.8276 Y-1.7951
X0.8125 Y-1.8054
X0.7936 Y-1.8162
X0.7747 Y-1.8266
X0.7558 Y-1.8348
X0.7369 Y-1.8417
X0.718 Y-1.847
X0.6991 Y-1.8517
X0.6803 Y-1.8549
X0.6614 Y-1.8581
X0.3198 Y-1.9085
X0.2834 Y-1.9138
X0.2645 Y-1.9156
X0.2456 Y-1.9168
X0.2268 Y-1.9174
X-0.189
X-0.2268
X-0.2456 Y-1.9168
X-0.2645 Y-1.9156
X-0.2834 Y-1.9138
X-0.3212 Y-1.9083
X-0.6614 Y-1.8581
X-0.6803 Y-1.8549
X-0.6991 Y-1.8517
X-0.718 Y-1.847
X-0.7369 Y-1.8417
X-0.7558 Y-1.8348
X-0.7747 Y-1.8266
X-0.7936 Y-1.8162
X-0.8125 Y-1.8054
X-0.8276 Y-1.7951
X-0.8533 Y-1.7762
X-1.1149 Y-1.582
X-1.1584 Y-1.5495
X-1.1715 Y-1.5382
X-1.1904 Y-1.5206
X-1.1999 Y-1.5117
X-1.5117 Y-1.1999
X-1.5206 Y-1.1904
X-1.5382 Y-1.1715
X-1.5495 Y-1.1584
X-1.5873 Y-1.1077
X-1.7762 Y-0.8533
X-1.7951 Y-0.8276
X-1.8054 Y-0.8125
X-1.8162 Y-0.7936
X-1.8266 Y-0.7747
X-1.8348 Y-0.7558
X-1.8417 Y-0.7369
X-1.847 Y-0.718
X-1.8517 Y-0.6991
X-1.8549 Y-0.6803
X-1.8581 Y-0.6614
X-1.9085 Y-0.3198
X-1.9138 Y-0.2834
X-1.9156 Y-0.2645
X-1.9168 Y-0.2456
X-1.9174 Y-0.2268
Y0.189
Y0.2268
X-1.9168 Y0.2456
X-1.9156 Y0.2645
X-1.9138 Y0.2834
X-1.9083 Y0.3212
X-1.8581 Y0.6614
X-1.8549 Y0.6803
X-1.8517 Y0.6991
X-1.847 Y0.718
X-1.8417 Y0.7369
X-1.8348 Y0.7558
X-1.8266 Y0.7747
X-1.8162 Y0.7936
X-1.8054 Y0.8125
X-1.7951 Y0.8276
X-1.7762 Y0.8533
X-1.582 Y1.1149
X-1.5495 Y1.1584
X-1.5382 Y1.1715
X-1.5206 Y1.1904
X-1.5117 Y1.1999
X-1.1999 Y1.5117
X-1.1904 Y1.5206
X-1.1715 Y1.5382
X-1.1584 Y1.5495
X-1.1077 Y1.5873
X-0.8533 Y1.7762
X-0.8276 Y1.7951
X-0.8125 Y1.8054
X-0.7936 Y1.8162
X-0.7747 Y1.8266
X-0.7558 Y1.8348
X-0.7369 Y1.8417
X-0.718 Y1.847
X-0.6991 Y1.8517
X-0.6803 Y1.8549
X-0.6614 Y1.8581
X-0.3198 Y1.9085
X-0.2834 Y1.9138
X-0.2645 Y1.9156
X-0.2456 Y1.9168
X-0.2268 Y1.9174
X0.189
X0.2268
X0.2456 Y1.9168
X0.2645 Y1.9156
X0.2834 Y1.9138
X0.3212 Y1.9083
X0.6614 Y1.8581
X0.6803 Y1.8549
X0.6991 Y1.8517
X0.718 Y1.847
X0.7369 Y1.8417
X0.7558 Y1.8348
X0.7747 Y1.8266
X0.7936 Y1.8162
X0.8125 Y1.8054
X0.8276 Y1.7951
X0.8533 Y1.7762
X1.1149 Y1.582
X1.1584 Y1.5495
X1.1715 Y1.5382
X1.1904 Y1.5206
X1.1999 Y1.5117
X1.4372 Y1.2745
X1.4401 Y1.2723 Z0.4493
X1.443 Y1.2702 Z0.45
X1.4457 Y1.2681 Z0.451
X1.4484 Y1.2661 Z0.4525
X1.4517 Y1.2647 Z0.4546
X1.4546 Y1.2633 Z0.4572
X1.4572 Y1.2622 Z0.4602
X1.4595 Y1.2612 Z0.4636
X1.4613 Y1.2604 Z0.4672
X1.4624 Y1.2601 Z0.4703
X1.4633 Y1.2598 Z0.4735
X1.4638 Y1.2597 Z0.4767
X1.4639 Y1.2596 Z0.48
Z0.8086
X1.6823 Y1.6017
Z0.6283
Z0.5653
X1.682 Y1.6015 Z0.5591
X1.6813 Y1.6011 Z0.553
X1.68 Y1.6003 Z0.547
X1.6782 Y1.5992 Z0.5412
X1.6759 Y1.5979 Z0.5356
X1.6732 Y1.5963 Z0.5303
X1.67 Y1.5944 Z0.5253
X1.6664 Y1.5923 Z0.5207
X1.6625 Y1.5899 Z0.5166
X1.6582 Y1.5874 Z0.5129
X1.6537 Y1.5847 Z0.5097
X1.6488 Y1.5819 Z0.5071
X1.6438 Y1.5789 Z0.505
X1.6387 Y1.5758 Z0.5035
X1.6334 Y1.5727 Z0.5026
X1.6281 Y1.5696 Z0.5023
G3 X1.3507 Y1.362 I0.8194 J-1.3838
G1 X1.3465 Y1.3577
X1.3438 Y1.3524
X1.3415 Y1.3468
X1.3395 Y1.3412
X1.3378 Y1.3354
X1.3364 Y1.3296
X1.3352 Y1.3237
X1.3351 Y1.323
X1.3334 Y1.3054
X1.3341 Y1.2878
X1.3371 Y1.2704
X1.3425 Y1.2536
X1.3501 Y1.2377
X1.3598 Y1.223
X1.3714 Y1.2097
X1.5117 Y1.0694
X1.5221 Y1.0582
X1.5395 Y1.0393
X1.5495 Y1.0272
X1.5873 Y0.9765
X1.709 Y0.8125
X1.7195 Y0.7978
X1.7354 Y0.7747
X1.7384 Y0.7694
X1.7458 Y0.7558
X1.7554 Y0.7369
X1.7625 Y0.718
X1.7695 Y0.6991
X1.7762 Y0.6721
X1.7787 Y0.6614
X1.7845 Y0.6236
X1.8152 Y0.4157
X1.818 Y0.3968
X1.8207 Y0.3779
X1.823 Y0.359
X1.8241 Y0.3401
X1.8251 Y0.3212
Y-0.3212
X1.8241 Y-0.3401
X1.823 Y-0.359
X1.8207 Y-0.3779
X1.818 Y-0.3968
X1.8124 Y-0.4346
X1.7845 Y-0.6236
X1.7787 Y-0.6614
X1.7762 Y-0.6721
X1.7695 Y-0.6991
X1.7625 Y-0.718
X1.7554 Y-0.7369
X1.7458 Y-0.7558
X1.7384 Y-0.7694
X1.7354 Y-0.7747
X1.7195 Y-0.7978
X1.709 Y-0.8125
X1.5827 Y-0.9826
X1.5495 Y-1.0272
X1.5395 Y-1.0393
X1.5221 Y-1.0582
X1.5117 Y-1.0694
X1.0694 Y-1.5117
X1.0582 Y-1.5221
X1.0393 Y-1.5395
X1.0272 Y-1.5495
X0.9765 Y-1.5873
X0.8125 Y-1.709
X0.7978 Y-1.7195
X0.7747 Y-1.7354
X0.7694 Y-1.7384
X0.7558 Y-1.7458
X0.7369 Y-1.7554
X0.718 Y-1.7625
X0.6991 Y-1.7695
X0.6721 Y-1.7762
X0.6614 Y-1.7787
X0.6236 Y-1.7845
X0.4157 Y-1.8152
X0.3968 Y-1.818
X0.3779 Y-1.8207
X0.359 Y-1.823
X0.3401 Y-1.8241
X0.3212 Y-1.8251
X-0.3212
X-0.3401 Y-1.8241
X-0.359 Y-1.823
X-0.3779 Y-1.8207
X-0.3968 Y-1.818
X-0.4346 Y-1.8124
X-0.6236 Y-1.7845
X-0.6614 Y-1.7787
X-0.6721 Y-1.7762
X-0.6991 Y-1.7695
X-0.718 Y-1.7625
X-0.7369 Y-1.7554
X-0.7558 Y-1.7458
X-0.7694 Y-1.7384
X-0.7747 Y-1.7354
X-0.7978 Y-1.7195
X-0.8125 Y-1.709
X-0.9826 Y-1.5827
X-1.0272 Y-1.5495
X-1.0393 Y-1.5395
X-1.0582 Y-1.5221
X-1.0694 Y-1.5117
X-1.5117 Y-1.0694
X-1.5221 Y-1.0582
X-1.5395 Y-1.0393
X-1.5495 Y-1.0272
X-1.5873 Y-0.9765
X-1.709 Y-0.8125
X-1.7195 Y-0.7978
X-1.7354 Y-0.7747
X-1.7384 Y-0.7694
X-1.7458 Y-0.7558
X-1.7554 Y-0.7369
X-1.7625 Y-0.718
X-1.7695 Y-0.6991
X-1.7762 Y-0.6721
X-1.7787 Y-0.6614
X-1.7845 Y-0.6236
X-1.8152 Y-0.4157
X-1.818 Y-0.3968
X-1.8207 Y-0.3779
X-1.823 Y-0.359
X-1.8241 Y-0.3401
X-1.8251 Y-0.3212
Y0.3212
X-1.8241 Y0.3401
X-1.823 Y0.359
X-1.8207 Y0.3779
X-1.818 Y0.3968
X-1.8124 Y0.4346
X-1.7845 Y0.6236
X-1.7787 Y0.6614
X-1.7762 Y0.6721
X-1.7695 Y0.6991
X-1.7625 Y0.718
X-1.7554 Y0.7369
X-1.7458 Y0.7558
X-1.7384 Y0.7694
X-1.7354 Y0.7747
X-1.7195 Y0.7978
X-1.709 Y0.8125
X-1.5827 Y0.9826
X-1.5495 Y1.0272
X-1.5395 Y1.0393
X-1.5221 Y1.0582
X-1.5117 Y1.0694
X-1.0694 Y1.5117
X-1.0582 Y1.5221
X-1.0393 Y1.5395
X-1.0272 Y1.5495
X-0.9765 Y1.5873
X-0.8125 Y1.709
X-0.7978 Y1.7195
X-0.7747 Y1.7354
X-0.7694 Y1.7384
X-0.7558 Y1.7458
X-0.7369 Y1.7554
X-0.718 Y1.7625
X-0.6991 Y1.7695
X-0.6721 Y1.7762
X-0.6614 Y1.7787
X-0.6236 Y1.7845
X-0.4157 Y1.8152
X-0.3968 Y1.818
X-0.3779 Y1.8207
X-0.359 Y1.823
X-0.3401 Y1.8241
X-0.3212 Y1.8251
X0.3212
X0.3401 Y1.8241
X0.359 Y1.823
X0.3779 Y1.8207
X0.3968 Y1.818
X0.4346 Y1.8124
X0.6236 Y1.7845
X0.6614 Y1.7787
X0.6721 Y1.7762
X0.6991 Y1.7695
X0.718 Y1.7625
X0.7369 Y1.7554
X0.7558 Y1.7458
X0.7694 Y1.7384
X0.7747 Y1.7354
X0.7978 Y1.7195
X0.8125 Y1.709
X0.9826 Y1.5827
X1.0272 Y1.5495
X1.0393 Y1.5395
X1.0582 Y1.5221
X1.0694 Y1.5117
X1.3714 Y1.2097
X1.3743 Y1.2075 Z0.5025
X1.3772 Y1.2054 Z0.5031
X1.38 Y1.2033 Z0.5042
X1.3826 Y1.2013 Z0.5057
X1.3859 Y1.1999 Z0.5078
X1.3888 Y1.1986 Z0.5104
X1.3915 Y1.1974 Z0.5134
X1.3937 Y1.1965 Z0.5167
X1.3955 Y1.1957 Z0.5203
X1.3966 Y1.1953 Z0.5234
X1.3975 Y1.1951 Z0.5266
X1.398 Y1.1949 Z0.5299
X1.3982 Z0.5332
Z0.8086
X1.6197 Y1.5338
Z0.6814
Z0.6184
X1.6194 Y1.5336 Z0.6122
X1.6186 Y1.5332 Z0.6061
X1.6173 Y1.5324 Z0.6001
X1.6155 Y1.5313 Z0.5943
X1.6133 Y1.53 Z0.5887
X1.6105 Y1.5284 Z0.5834
X1.6074 Y1.5265 Z0.5784
X1.6038 Y1.5244 Z0.5739
X1.5999 Y1.522 Z0.5697
X1.5956 Y1.5195 Z0.566
X1.591 Y1.5168 Z0.5629
X1.5862 Y1.514 Z0.5602
X1.5812 Y1.511 Z0.5581
X1.576 Y1.5079 Z0.5566
X1.5708 Y1.5048 Z0.5557
X1.5655 Y1.5017 Z0.5554
G3 X1.2881 Y1.2941 I0.8194 J-1.3838
G1 X1.2839 Y1.2898
X1.2811 Y1.2845
X1.2788 Y1.2789
X1.2769 Y1.2733
X1.2752 Y1.2675
X1.2738 Y1.2617
X1.2726 Y1.2558
X1.2725 Y1.2551
X1.2707 Y1.2375
X1.2714 Y1.2199
X1.2745 Y1.2025
X1.2798 Y1.1857
X1.2875 Y1.1698
X1.2971 Y1.1551
X1.3087 Y1.1418
X1.5117 Y0.9388
X1.5236 Y0.9259
X1.5407 Y0.907
X1.5495 Y0.8961
X1.6396 Y0.7747
X1.6439 Y0.7687
X1.6648 Y0.7369
X1.6745 Y0.718
X1.6836 Y0.6991
X1.6905 Y0.6803
X1.6969 Y0.6614
X1.7006 Y0.6467
X1.7016 Y0.6425
X1.7054 Y0.6236
X1.711 Y0.5858
X1.725 Y0.4913
X1.7303 Y0.4535
X1.7315 Y0.4346
X1.7326 Y0.4157
X1.7328 Y0.3968
Y-0.3968
X1.7326 Y-0.4157
X1.7315 Y-0.4346
X1.7303 Y-0.4535
X1.725 Y-0.4913
X1.7082 Y-0.6047
X1.7054 Y-0.6236
X1.7016 Y-0.6425
X1.7006 Y-0.6467
X1.6969 Y-0.6614
X1.6905 Y-0.6803
X1.6836 Y-0.6991
X1.6745 Y-0.718
X1.6648 Y-0.7369
X1.6439 Y-0.7687
X1.6396 Y-0.7747
X1.5495 Y-0.8961
X1.5407 Y-0.907
X1.5236 Y-0.9259
X1.5117 Y-0.9388
X0.9388 Y-1.5117
X0.9259 Y-1.5236
X0.907 Y-1.5407
X0.8961 Y-1.5495
X0.7747 Y-1.6396
X0.7687 Y-1.6439
X0.7369 Y-1.6648
X0.718 Y-1.6745
X0.6991 Y-1.6836
X0.6803 Y-1.6905
X0.6614 Y-1.6969
X0.6467 Y-1.7006
X0.6425 Y-1.7016
X0.6236 Y-1.7054
X0.5858 Y-1.711
X0.4913 Y-1.725
X0.4535 Y-1.7303
X0.4346 Y-1.7315
X0.4157 Y-1.7326
X0.3968 Y-1.7328
X-0.3968
X-0.4157 Y-1.7326
X-0.4346 Y-1.7315
X-0.4535 Y-1.7303
X-0.4913 Y-1.725
X-0.6047 Y-1.7082
X-0.6236 Y-1.7054
X-0.6425 Y-1.7016
X-0.6467 Y-1.7006
X-0.6614 Y-1.6969
X-0.6803 Y-1.6905
X-0.6991 Y-1.6836
X-0.718 Y-1.6745
X-0.7369 Y-1.6648
X-0.7687 Y-1.6439
X-0.7747 Y-1.6396
X-0.8961 Y-1.5495
X-0.907 Y-1.5407
X-0.9259 Y-1.5236
X-0.9388 Y-1.5117
X-1.5117 Y-0.9388
X-1.5236 Y-0.9259
X-1.5407 Y-0.907
X-1.5495 Y-0.8961
X-1.6396 Y-0.7747
X-1.6439 Y-0.7687
X-1.6648 Y-0.7369
X-1.6745 Y-0.718
X-1.6836 Y-0.6991
X-1.6905 Y-0.6803
X-1.6969 Y-0.6614
X-1.7006 Y-0.6467
X-1.7016 Y-0.6425
X-1.7054 Y-0.6236
X-1.711 Y-0.5858
X-1.725 Y-0.4913
X-1.7303 Y-0.4535
X-1.7315 Y-0.4346
X-1.7326 Y-0.4157
X-1.7328 Y-0.3968
Y0.3968
X-1.7326 Y0.4157
X-1.7315 Y0.4346
X-1.7303 Y0.4535
X-1.725 Y0.4913
X-1.7082 Y0.6047
X-1.7054 Y0.6236
X-1.7016 Y0.6425
X-1.7006 Y0.6467
X-1.6969 Y0.6614
X-1.6905 Y0.6803
X-1.6836 Y0.6991
X-1.6745 Y0.718
X-1.6648 Y0.7369
X-1.6439 Y0.7687
X-1.6396 Y0.7747
X-1.5495 Y0.8961
X-1.5407 Y0.907
X-1.5236 Y0.9259
X-1.5117 Y0.9388
X-0.9388 Y1.5117
X-0.9259 Y1.5236
X-0.907 Y1.5407
X-0.8961 Y1.5495
X-0.7747 Y1.6396
X-0.7687 Y1.6439
X-0.7369 Y1.6648
X-0.718 Y1.6745
X-0.6991 Y1.6836
X-0.6803 Y1.6905
X-0.6614 Y1.6969
X-0.6467 Y1.7006
X-0.6425 Y1.7016
X-0.6236 Y1.7054
X-0.5858 Y1.711
X-0.4913 Y1.725
X-0.4535 Y1.7303
X-0.4346 Y1.7315
X-0.4157 Y1.7326
X-0.3968 Y1.7328
X0.3968
X0.4157 Y1.7326
X0.4346 Y1.7315
X0.4535 Y1.7303
X0.4913 Y1.725
X0.6047 Y1.7082
X0.6236 Y1.7054
X0.6425 Y1.7016
X0.6467 Y1.7006
X0.6614 Y1.6969
X0.6803 Y1.6905
X0.6991 Y1.6836
X0.718 Y1.6745
X0.7369 Y1.6648
X0.7687 Y1.6439
X0.7747 Y1.6396
X0.8961 Y1.5495
X0.907 Y1.5407
X0.9259 Y1.5236
X0.9388 Y1.5117
X1.3087 Y1.1418
X1.3117 Y1.1396 Z0.5556
X1.3145 Y1.1375 Z0.5563
X1.3173 Y1.1354 Z0.5573
X1.32 Y1.1334 Z0.5588
X1.3233 Y1.132 Z0.5609
X1.3262 Y1.1307 Z0.5635
X1.3288 Y1.1295 Z0.5665
X1.331 Y1.1285 Z0.5699
X1.3328 Y1.1277 Z0.5735
X1.334 Y1.1274 Z0.5766
X1.3349 Y1.1272 Z0.5798
X1.3354 Y1.127 Z0.583
X1.3355 Z0.5863
Z0.8086
X-2.7623 Y2.7552
Z0.126
Z0.063
X-2.7621 Y2.7549 Z0.0568
X-2.7616 Y2.7542 Z0.0507
X-2.7608 Y2.7529 Z0.0447
X-2.7597 Y2.7512 Z0.0389
X-2.7582 Y2.749 Z0.0333
X-2.7565 Y2.7463 Z0.028
X-2.7545 Y2.7432 Z0.023
X-2.7522 Y2.7398 Z0.0184
X-2.7497 Y2.7359 Z0.0143
X-2.747 Y2.7318 Z0.0106
X-2.7441 Y2.7273 Z0.0074
X-2.741 Y2.7227 Z0.0048
X-2.7378 Y2.7178 Z0.0027
X-2.7345 Y2.7128 Z0.0012
X-2.7312 Y2.7077 Z0.0003
X-2.7278 Y2.7025 Z0.
G3 X-2.5078 Y2.4348 I1.3453 J0.8812
G1 X-2.5052 Y2.4324
X-2.4567 Y2.4111
X-2.4023 Y2.3924
X-2.3467 Y2.3773
X-2.2904 Y2.3652
X-2.2337 Y2.3555
X-2.1766 Y2.3476
X-2.1194 Y2.3413
X-2.0621 Y2.3361
X-2.0046 Y2.3319
X-1.9472 Y2.3286
X-1.8897 Y2.3258
X-1.8321 Y2.3236
X-1.7746 Y2.3218
X-1.717 Y2.3203
X-1.6595 Y2.3192
X-1.6019 Y2.3182
X-1.5443 Y2.3174
X-1.4868 Y2.3168
X-1.4292 Y2.3163
X-1.3716 Y2.3158
X-1.3141 Y2.3155
X-1.2565 Y2.3152
X-1.1989 Y2.315
X-1.0878 Y2.3147
X-1.0687 Y2.3161
X-1.0499 Y2.3202
X-1.032 Y2.3271
X-0.9981 Y2.3431
X-0.9637 Y2.3577
X-0.9528 Y2.362
X-0.7936 Y2.4188
X-0.7558 Y2.4322
X-0.7396 Y2.4376
X-0.718 Y2.4436
X-0.6991 Y2.4479
X-0.2834 Y2.5298
X-0.271 Y2.5321
X-0.2456 Y2.5352
X-0.2268 Y2.537
X-0.1701 Y2.5397
X-0.0378 Y2.5461
X-0.0189 Y2.547
X0.0189
X0.0378 Y2.5461
X0.2268 Y2.5366
X0.2456 Y2.5351
X0.2753 Y2.5321
X0.2834 Y2.5305
X0.3212 Y2.523
X0.6991 Y2.4472
X0.718 Y2.443
X0.7394 Y2.4376
X0.7558 Y2.4323
X0.7747 Y2.4258
X0.7948 Y2.4187
X0.8125 Y2.4123
X0.8676 Y2.3956
X0.923 Y2.38
X0.9792 Y2.3675
X1.0359 Y2.3574
X1.0929 Y2.3492
X1.1501 Y2.3426
X1.2074 Y2.3373
X1.2648 Y2.333
X1.3223 Y2.3295
X1.3798 Y2.3267
X1.4373 Y2.3244
X1.4949 Y2.3225
X1.5524 Y2.321
X1.61 Y2.3197
X1.6675 Y2.3187
X1.7251 Y2.3179
X1.7827 Y2.3173
X1.8403 Y2.3167
X1.8978 Y2.3163
X1.9554 Y2.316
X1.9696 Y2.3138
X2.0254 Y2.2995
X2.0738 Y2.2684
X2.1151 Y2.2282
X2.1498 Y2.1823
X2.1788 Y2.1326
X2.2029 Y2.0803
X2.2229 Y2.0263
X2.2394 Y1.9711
X2.253 Y1.9152
X2.2641 Y1.8587
X2.2733 Y1.8019
X2.2808 Y1.7448
X2.2869 Y1.6875
X2.2919 Y1.6302
X2.296 Y1.5728
X2.2993 Y1.5153
X2.3021 Y1.4578
X2.3043 Y1.4002
X2.3061 Y1.3427
X2.3076 Y1.2851
X2.3088 Y1.2276
X2.3098 Y1.17
X2.3106 Y1.1125
X2.3108 Y1.0943
X2.3123 Y1.0758
X2.3165 Y1.0577
X2.3232 Y1.0404
X2.3431 Y0.9981
X2.3577 Y0.9637
X2.362 Y0.9528
X2.4188 Y0.7936
X2.4322 Y0.7558
X2.4376 Y0.7396
X2.4436 Y0.718
X2.4479 Y0.6991
X2.5298 Y0.2834
X2.5321 Y0.271
X2.5352 Y0.2456
X2.537 Y0.2268
X2.5397 Y0.1701
X2.5461 Y0.0378
X2.547 Y0.0189
Y-0.0189
X2.5461 Y-0.0378
X2.5366 Y-0.2268
X2.5351 Y-0.2456
X2.5321 Y-0.2753
X2.5305 Y-0.2834
X2.523 Y-0.3212
X2.4472 Y-0.6991
X2.443 Y-0.718
X2.4376 Y-0.7394
X2.4323 Y-0.7558
X2.4258 Y-0.7747
X2.4187 Y-0.7948
X2.4123 Y-0.8125
X2.3956 Y-0.8676
X2.38 Y-0.923
X2.3675 Y-0.9792
X2.3574 Y-1.0359
X2.3492 Y-1.0929
X2.3426 Y-1.1501
X2.3373 Y-1.2074
X2.333 Y-1.2648
X2.3295 Y-1.3223
X2.3267 Y-1.3798
X2.3244 Y-1.4373
X2.3225 Y-1.4949
X2.321 Y-1.5524
X2.3197 Y-1.61
X2.3187 Y-1.6675
X2.3179 Y-1.7251
X2.3173 Y-1.7827
X2.3167 Y-1.8403
X2.3163 Y-1.8978
X2.316 Y-1.9554
X2.3138 Y-1.9696
X2.2995 Y-2.0254
X2.2684 Y-2.0738
X2.2282 Y-2.1151
X2.1823 Y-2.1498
X2.1326 Y-2.1788
X2.0803 Y-2.2029
X2.0263 Y-2.2229
X1.9711 Y-2.2394
X1.9152 Y-2.253
X1.8587 Y-2.2641
X1.8019 Y-2.2733
X1.7448 Y-2.2808
X1.6875 Y-2.2869
X1.6302 Y-2.2919
X1.5728 Y-2.296
X1.5153 Y-2.2993
X1.4578 Y-2.3021
X1.4002 Y-2.3043
X1.3427 Y-2.3061
X1.2851 Y-2.3076
X1.2276 Y-2.3088
X1.17 Y-2.3098
X1.1125 Y-2.3106
X1.0943 Y-2.3108
X1.0758 Y-2.3123
X1.0577 Y-2.3165
X1.0404 Y-2.3232
X0.9981 Y-2.3431
X0.9637 Y-2.3577
X0.9528 Y-2.362
X0.7936 Y-2.4188
X0.7558 Y-2.4322
X0.7396 Y-2.4376
X0.718 Y-2.4436
X0.6991 Y-2.4479
X0.2834 Y-2.5298
X0.271 Y-2.5321
X0.2456 Y-2.5352
X0.2268 Y-2.537
X0.1701 Y-2.5397
X0.0378 Y-2.5461
X0.0189 Y-2.547
X-0.0189
X-0.0378 Y-2.5461
X-0.2268 Y-2.5366
X-0.2456 Y-2.5351
X-0.2753 Y-2.5321
X-0.2834 Y-2.5305
X-0.3212 Y-2.523
X-0.6991 Y-2.4472
X-0.718 Y-2.443
X-0.7394 Y-2.4376
X-0.7558 Y-2.4323
X-0.7747 Y-2.4258
X-0.7948 Y-2.4187
X-0.8125 Y-2.4123
X-0.8676 Y-2.3956
X-0.923 Y-2.38
X-0.9792 Y-2.3675
X-1.0359 Y-2.3574
X-1.0929 Y-2.3492
X-1.1501 Y-2.3426
X-1.2074 Y-2.3373
X-1.2648 Y-2.333
X-1.3223 Y-2.3295
X-1.3798 Y-2.3267
X-1.4373 Y-2.3244
X-1.4949 Y-2.3225
X-1.5524 Y-2.321
X-1.61 Y-2.3197
X-1.6675 Y-2.3187
X-1.7251 Y-2.3179
X-1.7827 Y-2.3173
X-1.8403 Y-2.3167
X-1.8978 Y-2.3163
X-1.9554 Y-2.316
X-1.9696 Y-2.3138
X-2.0254 Y-2.2995
X-2.0738 Y-2.2684
X-2.1151 Y-2.2282
X-2.1498 Y-2.1823
X-2.1788 Y-2.1326
X-2.2029 Y-2.0803
X-2.2229 Y-2.0263
X-2.2394 Y-1.9711
X-2.253 Y-1.9152
X-2.2641 Y-1.8587
X-2.2733 Y-1.8019
X-2.2808 Y-1.7448
X-2.2869 Y-1.6875
X-2.2919 Y-1.6302
X-2.296 Y-1.5728
X-2.2993 Y-1.5153
X-2.3021 Y-1.4578
X-2.3043 Y-1.4002
X-2.3061 Y-1.3427
X-2.3076 Y-1.2851
X-2.3088 Y-1.2276
X-2.3098 Y-1.17
X-2.3106 Y-1.1125
X-2.3108 Y-1.0943
X-2.3123 Y-1.0758
X-2.3165 Y-1.0577
X-2.3232 Y-1.0404
X-2.3431 Y-0.9981
X-2.3577 Y-0.9637
X-2.362 Y-0.9528
X-2.4188 Y-0.7936
X-2.4322 Y-0.7558
X-2.4376 Y-0.7396
X-2.4436 Y-0.718
X-2.4479 Y-0.6991
X-2.5298 Y-0.2834
X-2.5321 Y-0.271
X-2.5352 Y-0.2456
X-2.537 Y-0.2268
X-2.5397 Y-0.1701
X-2.5461 Y-0.0378
X-2.547 Y-0.0189
Y0.0189
X-2.5461 Y0.0378
X-2.5366 Y0.2268
X-2.5351 Y0.2456
X-2.5321 Y0.2753
X-2.5305 Y0.2834
X-2.523 Y0.3212
X-2.4472 Y0.6991
X-2.443 Y0.718
X-2.4376 Y0.7394
X-2.4323 Y0.7558
X-2.4258 Y0.7747
X-2.4187 Y0.7948
X-2.4123 Y0.8125
X-2.3956 Y0.8676
X-2.38 Y0.923
X-2.3675 Y0.9792
X-2.3574 Y1.0359
X-2.3492 Y1.0929
X-2.3426 Y1.1501
X-2.3373 Y1.2074
X-2.333 Y1.2648
X-2.3295 Y1.3223
X-2.3267 Y1.3798
X-2.3244 Y1.4373
X-2.3225 Y1.4949
X-2.321 Y1.5524
X-2.3197 Y1.61
X-2.3187 Y1.6675
X-2.3179 Y1.7251
X-2.3178 Y1.7395
X-2.3162 Y1.7538
X-2.3132 Y1.7679
X-2.3089 Y1.7816
X-2.2863 Y1.8346
X-2.2472 Y1.8768
X-2.2014 Y1.9117
X-2.1515 Y1.9405
X-2.099 Y1.964
X-2.0446 Y1.9831
X-1.9892 Y1.9986
X-1.933 Y2.0112
X-1.8763 Y2.0213
X-1.8194 Y2.0294
X-1.7622 Y2.036
X-1.7048 Y2.0413
X-1.6474 Y2.0455
X-1.5899 Y2.0488
X-1.5308 Y2.0516
X-1.513 Y2.0535
X-1.4957 Y2.0578
X-1.4792 Y2.0644
X-1.4637 Y2.0733
X-1.2471 Y2.2174
X-1.2282 Y2.2299
X-1.2093 Y2.2417
X-1.1715 Y2.2612
X-1.1526 Y2.2702
X-1.032 Y2.3271
G3 X-1.0046 Y2.3548 Z0.0032 I-0.0289 J0.056
G2 X-0.9764 Y2.4069 Z0.008 I0.9168 J-0.4619
X-0.8538 Y2.5763 I0.8886 J-0.5141
X-0.8097 Y2.5973 I0.047 J-0.0419
G1 X0.566 Y2.6609
G2 X0.6119 Y2.6441 I0.0029 J-0.0629
X0.7497 Y2.4866 I-0.6997 J-0.7512
X0.7825 Y2.4374 Z0.0032 I-0.8375 J-0.5937
G3 X0.8125 Y2.4123 Z0. I0.0534 J0.0334
G1 X0.9528 Y2.362
X0.9637 Y2.3577
X0.9981 Y2.3431
X1.1715 Y2.2609
X1.2093 Y2.242
X1.2282 Y2.2306
X1.2296 Y2.2297
X1.2792 Y2.2005
X1.305 Y2.1877
X1.3562 Y2.1651
X1.4106 Y2.1463
X1.4661 Y2.1309
X1.5223 Y2.1185
X1.5789 Y2.1083
X1.6359 Y2.1
X1.6912 Y2.0838
X1.7423 Y2.0573
X1.7882 Y2.0226
X1.8288 Y1.9818
X1.8642 Y1.9364
X1.8948 Y1.8876
X1.921 Y1.8363
X1.9434 Y1.7833
X1.9625 Y1.729
X1.9786 Y1.6737
X1.9923 Y1.6178
X1.9967 Y1.596
X2.0011 Y1.5797
X2.0076 Y1.5641
X2.0161 Y1.5495
X2.2174 Y1.2471
X2.2299 Y1.2282
X2.2417 Y1.2093
X2.2613 Y1.1715
X2.2702 Y1.1526
X2.3232 Y1.0404
G3 X2.3434 Y1.0174 I0.056 J0.0289
G1 X2.3485 Y1.0139 Z0.0003
X2.3535 Y1.0104 Z0.0012
X2.3584 Y1.007 Z0.0027
X2.3632 Y1.0037 Z0.0048
X2.3678 Y1.0005 Z0.0074
X2.3722 Y0.9975 Z0.0106
X2.3763 Y0.9947 Z0.0143
X2.38 Y0.9921 Z0.0184
X2.3835 Y0.9897 Z0.023
X2.3865 Y0.9876 Z0.028
X2.3891 Y0.9858 Z0.0333
X2.3913 Y0.9843 Z0.0389
X2.393 Y0.9831 Z0.0447
X2.3942 Y0.9823 Z0.0507
X2.395 Y0.9818 Z0.0568
X2.3952 Y0.9816 Z0.063
Z0.8086
X1.1822 Y2.31
Z0.126
Z0.063
X1.1823 Y2.3097 Z0.0568
X1.1827 Y2.3089 Z0.0507
X1.1833 Y2.3075 Z0.0447
X1.1842 Y2.3057 Z0.0389
X1.1854 Y2.3033 Z0.0333
X1.1868 Y2.3004 Z0.028
X1.1884 Y2.2971 Z0.023
X1.1902 Y2.2934 Z0.0184
X1.1922 Y2.2893 Z0.0143
X1.1944 Y2.2848 Z0.0106
X1.1967 Y2.28 Z0.0074
X1.1991 Y2.275 Z0.0048
X1.2017 Y2.2698 Z0.0027
X1.2043 Y2.2644 Z0.0012
X1.207 Y2.2589 Z0.0003
X1.2097 Y2.2533 Z0.
G3 X1.2296 Y2.2297 I0.0561 J0.0272
G1 X1.2471 Y2.2182
X1.266 Y2.2056
X1.5684 Y2.0027
X1.5961 Y1.9841
X1.6062 Y1.9769
X1.625 Y1.9612
X1.6424 Y1.9463
X1.7673 Y1.8329
X1.7951 Y1.8075
X1.8075 Y1.7951
X1.8329 Y1.7672
X1.9463 Y1.6419
X1.961 Y1.625
X1.9773 Y1.6062
X1.9841 Y1.5971
X2.0035 Y1.5684
X2.0161 Y1.5495
G3 X2.0476 Y1.5266 Z0.0032 I0.051 J0.0369
G2 X2.1035 Y1.5069 Z0.008 I-0.4109 J-1.2566
X2.4526 Y1.3102 I-0.4669 J-1.237
X2.4759 Y1.271 I-0.0389 J-0.0496
G1 X2.7552 Y-0.4049
G2 X2.756 Y-0.4153 I-0.0621 J-0.0104
X2.7459 Y-0.4496 I-0.063 J0.
X2.4835 Y-0.7454 I-1.1092 J0.7195
X2.4329 Y-0.7856 Z0.0028 I-0.8468 J1.0153
G3 X2.4123 Y-0.8125 Z0. I0.0379 J-0.0503
G1 X2.362 Y-0.9528
X2.3577 Y-0.9637
X2.3431 Y-0.9981
X2.2609 Y-1.1715
X2.242 Y-1.2093
X2.2306 Y-1.2282
X2.2297 Y-1.2296
X2.2005 Y-1.2792
X2.1877 Y-1.305
X2.1651 Y-1.3562
X2.1463 Y-1.4106
X2.1309 Y-1.4661
X2.1185 Y-1.5223
X2.1083 Y-1.5789
X2.1 Y-1.6359
X2.0838 Y-1.6912
X2.0573 Y-1.7423
X2.0226 Y-1.7882
X1.9818 Y-1.8288
X1.9364 Y-1.8642
X1.8876 Y-1.8948
X1.8363 Y-1.921
X1.7833 Y-1.9434
X1.729 Y-1.9625
X1.6737 Y-1.9786
X1.6178 Y-1.9923
X1.596 Y-1.9967
X1.5797 Y-2.0011
X1.5641 Y-2.0076
X1.5495 Y-2.0161
X1.2471 Y-2.2174
X1.2282 Y-2.2299
X1.2093 Y-2.2417
X1.1715 Y-2.2613
X1.1526 Y-2.2702
X1.0404 Y-2.3232
G3 X1.0174 Y-2.3434 I0.0289 J-0.056
G1 X1.0139 Y-2.3485 Z0.0003
X1.0104 Y-2.3535 Z0.0012
X1.007 Y-2.3584 Z0.0027
X1.0037 Y-2.3632 Z0.0048
X1.0005 Y-2.3678 Z0.0074
X0.9975 Y-2.3722 Z0.0106
X0.9947 Y-2.3763 Z0.0143
X0.9921 Y-2.38 Z0.0184
X0.9897 Y-2.3835 Z0.023
X0.9876 Y-2.3865 Z0.028
X0.9858 Y-2.3891 Z0.0333
X0.9843 Y-2.3913 Z0.0389
X0.9831 Y-2.393 Z0.0447
X0.9823 Y-2.3942 Z0.0507
X0.9818 Y-2.395 Z0.0568
X0.9816 Y-2.3952 Z0.063
Z0.8086
X2.31 Y-1.1822
Z0.126
Z0.063
X2.3097 Y-1.1823 Z0.0568
X2.3089 Y-1.1827 Z0.0507
X2.3075 Y-1.1833 Z0.0447
X2.3057 Y-1.1842 Z0.0389
X2.3033 Y-1.1854 Z0.0333
X2.3004 Y-1.1868 Z0.028
X2.2971 Y-1.1884 Z0.023
X2.2934 Y-1.1902 Z0.0184
X2.2893 Y-1.1922 Z0.0143
X2.2848 Y-1.1944 Z0.0106
X2.28 Y-1.1967 Z0.0074
X2.275 Y-1.1991 Z0.0048
X2.2698 Y-1.2017 Z0.0027
X2.2644 Y-1.2043 Z0.0012
X2.2589 Y-1.207 Z0.0003
X2.2533 Y-1.2097 Z0.
G3 X2.2297 Y-1.2296 I0.0272 J-0.0561
G1 X2.2182 Y-1.2471
X2.2056 Y-1.266
X2.0027 Y-1.5684
X1.9841 Y-1.5961
X1.9769 Y-1.6062
X1.9612 Y-1.625
X1.9463 Y-1.6424
X1.8329 Y-1.7673
X1.8075 Y-1.7951
X1.7951 Y-1.8075
X1.7672 Y-1.8329
X1.6419 Y-1.9463
X1.625 Y-1.961
X1.6062 Y-1.9773
X1.5971 Y-1.9841
X1.5684 Y-2.0035
X1.5495 Y-2.0161
G3 X1.5266 Y-2.0476 Z0.0032 I0.0369 J-0.051
G2 X1.5069 Y-2.1035 Z0.008 I-1.2566 J0.4109
X1.3102 Y-2.4526 I-1.237 J0.4669
X1.271 Y-2.4759 I-0.0496 J0.0389
G1 X-0.4049 Y-2.7552
G2 X-0.4153 Y-2.756 I-0.0104 J0.0621
X-0.4496 Y-2.7459 I0. J0.063
X-0.7454 Y-2.4835 I0.7195 J1.1092
X-0.7856 Y-2.4329 Z0.0028 I1.0153 J0.8468
G3 X-0.8125 Y-2.4123 Z0. I-0.0503 J-0.0379
G1 X-0.9528 Y-2.362
X-0.9637 Y-2.3577
X-0.9981 Y-2.3431
X-1.1715 Y-2.2609
X-1.2093 Y-2.242
X-1.2282 Y-2.2306
X-1.2296 Y-2.2297
X-1.2792 Y-2.2005
X-1.305 Y-2.1877
X-1.3562 Y-2.1651
X-1.4106 Y-2.1463
X-1.4661 Y-2.1309
X-1.5223 Y-2.1185
X-1.5789 Y-2.1083
X-1.6359 Y-2.1
X-1.6912 Y-2.0838
X-1.7423 Y-2.0573
X-1.7882 Y-2.0226
X-1.8288 Y-1.9818
X-1.8642 Y-1.9364
X-1.8948 Y-1.8876
X-1.921 Y-1.8363
X-1.9434 Y-1.7833
X-1.9625 Y-1.729
X-1.9786 Y-1.6737
X-1.9923 Y-1.6178
X-1.9967 Y-1.596
X-2.0011 Y-1.5797
X-2.0076 Y-1.5641
X-2.0161 Y-1.5495
X-2.2174 Y-1.2471
X-2.2299 Y-1.2282
X-2.2417 Y-1.2093
X-2.2613 Y-1.1715
X-2.2702 Y-1.1526
X-2.3232 Y-1.0404
G3 X-2.3434 Y-1.0174 I-0.056 J-0.0289
G1 X-2.3485 Y-1.0139 Z0.0003
X-2.3535 Y-1.0104 Z0.0012
X-2.3584 Y-1.007 Z0.0027
X-2.3632 Y-1.0037 Z0.0048
X-2.3678 Y-1.0005 Z0.0074
X-2.3722 Y-0.9975 Z0.0106
X-2.3763 Y-0.9947 Z0.0143
X-2.38 Y-0.9921 Z0.0184
X-2.3835 Y-0.9897 Z0.023
X-2.3865 Y-0.9876 Z0.028
X-2.3891 Y-0.9858 Z0.0333
X-2.3913 Y-0.9843 Z0.0389
X-2.393 Y-0.9831 Z0.0447
X-2.3942 Y-0.9823 Z0.0507
X-2.395 Y-0.9818 Z0.0568
X-2.3952 Y-0.9816 Z0.063
Z0.8086
X-1.1821 Y-2.31
Z0.126
Z0.063
X-1.1823 Y-2.3097 Z0.0568
X-1.1827 Y-2.3089 Z0.0507
X-1.1833 Y-2.3075 Z0.0447
X-1.1842 Y-2.3057 Z0.0389
X-1.1854 Y-2.3033 Z0.0333
X-1.1868 Y-2.3004 Z0.028
X-1.1884 Y-2.2971 Z0.023
X-1.1902 Y-2.2934 Z0.0184
X-1.1922 Y-2.2893 Z0.0143
X-1.1944 Y-2.2848 Z0.0106
X-1.1967 Y-2.28 Z0.0074
X-1.1991 Y-2.275 Z0.0048
X-1.2017 Y-2.2698 Z0.0027
X-1.2043 Y-2.2644 Z0.0012
X-1.207 Y-2.2589 Z0.0003
X-1.2097 Y-2.2533 Z0.
G3 X-1.2296 Y-2.2297 I-0.0561 J-0.0272
G1 X-1.2471 Y-2.2182
X-1.266 Y-2.2056
X-1.5684 Y-2.0027
X-1.5961 Y-1.9841
X-1.6062 Y-1.9769
X-1.625 Y-1.9612
X-1.6424 Y-1.9463
X-1.7673 Y-1.8329
X-1.7951 Y-1.8075
X-1.8075 Y-1.7951
X-1.8329 Y-1.7672
X-1.9463 Y-1.6419
X-1.961 Y-1.625
X-1.9773 Y-1.6062
X-1.9841 Y-1.5971
X-2.0035 Y-1.5684
X-2.0161 Y-1.5495
G3 X-2.0476 Y-1.5266 Z0.0032 I-0.051 J-0.0369
G2 X-2.1035 Y-1.5069 Z0.008 I0.4109 J1.2566
X-2.4526 Y-1.3102 I0.4669 J1.237
X-2.4759 Y-1.271 I0.0389 J0.0496
G1 X-2.7552 Y0.4049
G2 X-2.756 Y0.4153 I0.0621 J0.0104
X-2.7459 Y0.4496 I0.063 J0.
X-2.4835 Y0.7454 I1.1092 J-0.7195
X-2.4329 Y0.7856 Z0.0028 I0.8468 J-1.0153
G3 X-2.4123 Y0.8125 Z0. I-0.0379 J0.0503
G1 X-2.362 Y0.9528
X-2.3577 Y0.9637
X-2.3431 Y0.9981
X-2.2609 Y1.1715
X-2.242 Y1.2093
X-2.2306 Y1.2282
X-2.2297 Y1.2296
X-2.2005 Y1.2792
X-2.1877 Y1.305
X-2.1651 Y1.3562
X-2.1463 Y1.4106
X-2.125 Y1.4641
X-2.0948 Y1.5131
X-2.0574 Y1.5568
X-2.0145 Y1.5953
X-1.9676 Y1.6287
X-1.9666 Y1.6293
X-1.9553 Y1.6366
X-1.9448 Y1.645
X-1.9353 Y1.6545
X-1.8329 Y1.7673
X-1.8075 Y1.7951
X-1.7951 Y1.8075
X-1.7672 Y1.8329
X-1.6419 Y1.9463
X-1.625 Y1.961
X-1.6062 Y1.9773
X-1.5971 Y1.9841
X-1.5684 Y2.0035
X-1.5495 Y2.0162
X-1.4637 Y2.0733
G3 X-1.4439 Y2.0966 I-0.0367 J0.0512
G1 X-1.4411 Y2.1022 Z0.0003
X-1.4384 Y2.1076 Z0.0012
X-1.4358 Y2.113 Z0.0027
X-1.4332 Y2.1182 Z0.0048
X-1.4307 Y2.1233 Z0.0074
X-1.4284 Y2.128 Z0.0106
X-1.4262 Y2.1325 Z0.0143
X-1.4242 Y2.1366 Z0.0184
X-1.4223 Y2.1403 Z0.023
X-1.4207 Y2.1436 Z0.028
X-1.4193 Y2.1465 Z0.0333
X-1.4181 Y2.1488 Z0.0389
X-1.4172 Y2.1507 Z0.0447
X-1.4166 Y2.152 Z0.0507
X-1.4162 Y2.1529 Z0.0568
X-1.416 Y2.1531 Z0.063
Z0.8086
X-2.31 Y1.1821
Z0.126
Z0.063
X-2.3097 Y1.1823 Z0.0568
X-2.3089 Y1.1827 Z0.0507
X-2.3075 Y1.1833 Z0.0447
X-2.3057 Y1.1842 Z0.0389
X-2.3033 Y1.1854 Z0.0333
X-2.3004 Y1.1868 Z0.028
X-2.2971 Y1.1884 Z0.023
X-2.2934 Y1.1902 Z0.0184
X-2.2893 Y1.1922 Z0.0143
X-2.2848 Y1.1944 Z0.0106
X-2.28 Y1.1967 Z0.0074
X-2.275 Y1.1991 Z0.0048
X-2.2698 Y1.2017 Z0.0027
X-2.2644 Y1.2043 Z0.0012
X-2.2589 Y1.207 Z0.0003
X-2.2533 Y1.2097 Z0.
G3 X-2.2297 Y1.2296 I-0.0272 J0.0561
G1 X-2.2182 Y1.2471
X-2.2056 Y1.266
X-2.0027 Y1.5684
X-1.9841 Y1.5961
X-1.9769 Y1.6062
X-1.9612 Y1.625
X-1.9463 Y1.6424
X-1.9353 Y1.6545
G3 X-1.9218 Y1.682 I-0.0481 J0.0407
G1 X-1.9205 Y1.688 Z0.0003
X-1.9192 Y1.694 Z0.0012
X-1.9179 Y1.6999 Z0.0027
X-1.9167 Y1.7056 Z0.0048
X-1.9156 Y1.711 Z0.0074
X-1.9144 Y1.7162 Z0.0106
X-1.9134 Y1.7211 Z0.0143
X-1.9124 Y1.7255 Z0.0184
X-1.9116 Y1.7296 Z0.023
X-1.9108 Y1.7332 Z0.028
X-1.9101 Y1.7363 Z0.0333
X-1.9096 Y1.7389 Z0.0389
X-1.9091 Y1.7409 Z0.0447
X-1.9088 Y1.7424 Z0.0507
X-1.9086 Y1.7433 Z0.0568
Y1.7436 Z0.063
Z1.2086

M5
M9
G53 G0 Z0.
G53 G0 X0. Y0.
M11
G0 A0.
M30

%
