%
O05006
(Using high feed G1 F650. instead of G0.)
(Mquina)
(  proveedor: Autodesk)
(  model: Generic 4-axis A Table)
(  description: This machine has YXA axis on the Table and Z axis on the Head)
(T2 D=0.2362 CR=0. - ZMIN=0. - fresa con punta plana)
G90 G94 G17
G20
(When using Fusion for Personal Use, the feedrate of rapid)
(moves is reduced to match the feedrate of cutting moves,)
(which can increase machining time. Unrestricted rapid moves)
(are available with a Fusion Subscription.)
G53 G0 Z0.

(Paralelo2)
T2 M6
S5000 M3
G17 G90 G94
G54
G53 G0 X0. Y0.
M11
G0 A0.
M10
M8
G1 X0.4951 Y-2.2718 F650.
G0 G43 Z1.2086 H2
G1 Z0.1236 F39.37
Z0.0236 F13.123
G18 G3 X0.4715 Z0. I-0.0236 K0. F39.37
G1 Z0.0312
X0.2147 Z0.0636
X0.0323 Z0.1
X0.0179 Z0.1019
X0.0046 Z0.1026
X-0.011 Z0.1024
X-0.0255 Z0.101
X-0.0404 Z0.0985
X-0.2268 Z0.0623
X-0.4711 Z0.0312
Z0.
G3 X-0.4947 Z0.0236 I0. K0.0236
G1 Z0.8086
X-0.7503 Y-2.2127
Z0.1386
Z0.0236 F13.123
G2 X-0.7267 Z0. I0.0236 K0. F39.37
G1 Z0.0386
X-0.7265 Z0.0393
X-0.7249 Z0.0403
X-0.7204 Z0.0414
X-0.6216 Z0.0496
X-0.1911 Z0.1044
X-0.0417 Z0.1333
X-0.0271 Z0.1359
X-0.0125 Z0.1374
X0.0033 Z0.1378
X0.0181 Z0.137
X0.0324 Z0.1351
X0.1806 Z0.1055
X0.6009 Z0.0526
X0.7199 Z0.0421
X0.7242 Z0.0411
X0.7257 Z0.04
X0.7258 Z0.
X0.8807 Y-2.1575
X0.891 Y-2.1537
Z0.0676
X0.8748 Z0.071
X0.8604 Z0.0729
X0.8236 Z0.0765
X0.4688 Z0.1068
X0.1463 Z0.1475
X0.0323 Z0.1702
X0.0178 Z0.1721
X0.0043 Z0.1728
X-0.0112 Z0.1726
X-0.0258 Z0.1712
X-0.0412 Z0.1685
X-0.1556 Z0.1464
X-0.4857 Z0.1045
X-0.8356 Z0.0754
X-0.8669 Z0.0722
X-0.8824 Z0.0696
X-0.891 Z0.0676
Z0.
X-0.8989 Y-2.1502
X-1.016 Y-2.0946
Z0.0463
X-1.015 Z0.0478
X-1.0115 Z0.0501
X-0.9464 Z0.0799
X-0.9048 Z0.0968
X-0.8889 Z0.103
X-0.8731 Z0.108
X-0.8572 Z0.1118
X-0.8418 Z0.1144
X-0.5975 Z0.1387
X-0.3504 Z0.1592
X-0.1207 Z0.1884
X-0.0416 Z0.2036
X-0.0271 Z0.2061
X-0.0124 Z0.2076
X0.0029 Z0.208
X0.018 Z0.2072
X0.0323 Z0.2053
X0.1122 Z0.1894
X0.3353 Z0.1612
X0.5869 Z0.1396
X0.8308 Z0.1155
X0.8461 Z0.1138
X0.8614 Z0.1109
X0.877 Z0.1069
X0.8926 Z0.1017
X0.9434 Z0.0812
X1.0099 Z0.0505
X1.0149 Z0.0475
X1.0165 Z0.0456
X1.0166 Z0.
X1.0884 Y-2.0607
X1.0955 Y-2.0572
X1.1023 Y-2.0532
X1.109 Y-2.0488
X1.1289 Y-2.0356
X1.1288 Z0.0312
X1.1122 Z0.0374
X0.979 Z0.0989
X0.8684 Z0.1436
X0.853 Z0.1488
X0.8375 Z0.1529
X0.8223 Z0.1558
X0.8062 Z0.1576
X0.3492 Z0.2029
X0.2026 Z0.2155
X0.0782 Z0.2313
X0.0322 Z0.2404
X0.0177 Z0.2423
X0.0042 Z0.2431
X-0.0119 Z0.2427
X-0.0265 Z0.2413
X-0.0411 Z0.2388
X-0.0851 Z0.2304
X-0.2158 Z0.2139
X-0.358 Z0.2021
X-0.8174 Z0.1565
X-0.8328 Z0.1539
X-0.8487 Z0.1501
X-0.8645 Z0.1451
X-0.8805 Z0.1388
X-0.982 Z0.0977
X-1.122 Z0.0341
X-1.1302 Z0.0312
Z0.
X-1.2182 Y-1.9765
Z0.0312
X-1.1448 Z0.0577
X-1.0176 Z0.1154
X-0.8563 Z0.1808
X-0.8403 Z0.1871
X-0.8243 Z0.1922
X-0.8085 Z0.196
X-0.7931 Z0.1985
X-0.121 Z0.2652
X-0.0817 Z0.2686
X-0.0565 Z0.2715
X-0.0422 Z0.2737
X-0.0278 Z0.2762
X-0.0133 Z0.2778
X0.0015 Z0.2782
X0.0141 Z0.2777
X0.0288 Z0.2761
X0.0436 Z0.2734
X0.0689 Z0.27
X0.1096 Z0.2663
X0.7838 Z0.1995
X0.798 Z0.1978
X0.8131 Z0.195
X0.8286 Z0.1909
X0.844 Z0.1857
X1.0146 Z0.1167
X1.1357 Z0.0608
X1.2175 Z0.0312
X1.2176 Z0.
X1.3064 Y-1.9175
X1.3063 Z0.0312
X1.1587 Z0.0844
X1.0502 Z0.1345
X0.8196 Z0.2278
X0.8042 Z0.233
X0.7887 Z0.2371
X0.7737 Z0.2399
X0.7589 Z0.2417
X0.0462 Z0.3123
X0.0322 Z0.3127
X-0.0423 Z0.3125
X-0.0552 Z0.3114
X-0.7684 Z0.2407
X-0.7838 Z0.2381
X-0.7997 Z0.2343
X-0.8155 Z0.2293
X-0.8316 Z0.223
X-1.0533 Z0.1332
X-1.1675 Z0.0814
X-1.3062 Z0.0312
Z0.
X-1.3172 Y-1.9101
X-1.3832 Y-1.8658
X-1.3942 Y-1.8584
Z0.0312
X-1.1902 Z0.105
X-1.0888 Z0.151
X-0.8066 Z0.2654
X-0.7911 Z0.2714
X-0.7753 Z0.2764
X-0.7594 Z0.2802
X-0.744 Z0.2827
X-0.1118 Z0.3455
X-0.0984 Z0.3465
X0.0905 Z0.3466
X0.1029 Z0.3463
X0.7328 Z0.2839
X0.7489 Z0.2821
X0.7641 Z0.2792
X0.7796 Z0.2751
X0.795 Z0.2699
X1.0858 Z0.1523
X1.182 Z0.1079
X1.395 Z0.0312
X1.3951 Z0.
X1.4059 Y-1.8512
X1.4602 Y-1.8151
X1.4709 Y-1.8077
X1.481 Y-1.7994
X1.4809 Z0.0322
X1.4796 Z0.0337
X1.4763 Z0.0353
X1.453 Z0.0422
X1.2052 Z0.1314
X1.1217 Z0.1699
X0.7706 Z0.312
X0.7551 Z0.3172
X0.7396 Z0.3213
X0.7245 Z0.3241
X0.7102 Z0.3258
X0.1602 Z0.3803
X0.148 Z0.3806
X-0.1567 Z0.3805
X-0.1717 Z0.3792
X-0.7198 Z0.3248
X-0.7351 Z0.3223
X-0.751 Z0.3184
X-0.7669 Z0.3134
X-0.7829 Z0.3071
X-1.1244 Z0.1688
X-1.2131 Z0.1286
X-1.4657 Z0.0373
X-1.4772 Z0.034
X-1.4804 Z0.0324
X-1.4814 Z0.0312
Z0.
X-1.4896 Y-1.7921
X-1.5466 Y-1.7403
X-1.5465 Z0.0459
X-1.5453 Z0.0475
X-1.5421 Z0.0491
X-1.45 Z0.0749
X-1.2357 Z0.1523
X-1.1601 Z0.1865
X-0.7582 Z0.3493
X-0.7422 Z0.3556
X-0.7264 Z0.3606
X-0.7105 Z0.3644
X-0.695 Z0.3669
X-0.2273 Z0.4134
X-0.2139 Z0.4145
X0.205 Z0.4146
X0.2174 Z0.4143
X0.684 Z0.3681
X0.7001 Z0.3662
X0.7152 Z0.3634
X0.7307 Z0.3593
X0.7461 Z0.3541
X1.1572 Z0.1877
X1.2285 Z0.1549
X1.439 Z0.0791
X1.5415 Z0.0499
X1.5449 Z0.0482
X1.5462 Z0.0466
X1.5463 Z0.
X1.6115 Y-1.6813
X1.6114 Z0.0612
X1.6101 Z0.0628
X1.6063 Z0.0645
X1.4243 Z0.1162
X1.2517 Z0.1784
X1.1928 Z0.2055
X0.7217 Z0.3962
X0.7062 Z0.4014
X0.6907 Z0.4055
X0.6756 Z0.4083
X0.6613 Z0.41
X0.2746 Z0.4483
X0.2621 Z0.4486
X-0.2701 Z0.4485
X-0.2836 Z0.4475
X-0.6709 Z0.409
X-0.6862 Z0.4065
X-0.702 Z0.4026
X-0.718 Z0.3976
X-0.734 Z0.3913
X-1.1958 Z0.2042
X-1.2583 Z0.176
X-1.4343 Z0.1125
X-1.6071 Z0.0642
X-1.6103 Z0.0625
X-1.6115 Z0.061
X-1.6117 Z0.
X-1.6428 Y-1.653
X-1.6504 Y-1.6457
X-1.6575 Y-1.6379
X-1.6645 Y-1.6301
X-1.6716 Y-1.6222
Z0.0628
X-1.6712 Z0.0643
X-1.6691 Z0.0666
X-1.665 Z0.069
X-1.6429 Z0.0801
X-1.6204 Z0.0901
X-1.5981 Z0.0987
X-1.5767 Z0.1058
X-1.4184 Z0.1501
X-1.2811 Z0.1996
X-1.2314 Z0.222
X-0.7088 Z0.4337
X-0.6932 Z0.4398
X-0.6774 Z0.4448
X-0.6615 Z0.4486
X-0.6461 Z0.4511
X-0.3422 Z0.4813
X-0.3279 Z0.4825
X0.3188 Z0.4826
X0.3325 Z0.4823
X0.6351 Z0.4523
X0.6512 Z0.4504
X0.6663 Z0.4476
X0.6818 Z0.4435
X0.6972 Z0.4383
X1.2283 Z0.2233
X1.2749 Z0.2019
X1.4095 Z0.1534
X1.5558 Z0.1118
X1.5803 Z0.1047
X1.6013 Z0.0976
X1.6231 Z0.089
X1.6451 Z0.079
X1.6668 Z0.0681
X1.6701 Z0.0657
X1.6716 Z0.0635
X1.6717 Z0.
X1.6784 Y-1.6149
X1.7253 Y-1.5632
X1.7251 Z0.0499
X1.7236 Z0.0521
X1.7196 Z0.055
X1.6082 Z0.1175
X1.5865 Z0.1285
X1.5645 Z0.1384
X1.5426 Z0.1471
X1.5215 Z0.1543
X1.4974 Z0.1613
X1.3951 Z0.1904
X1.2981 Z0.2254
X1.2638 Z0.2411
X0.6728 Z0.4804
X0.6573 Z0.4856
X0.6418 Z0.4897
X0.6267 Z0.4925
X0.6124 Z0.4942
X0.3897 Z0.5163
X0.3757 Z0.5166
X-0.3855 Z0.5165
X-0.3989 Z0.5154
X-0.6217 Z0.4932
X-0.6371 Z0.4907
X-0.653 Z0.4869
X-0.6688 Z0.4819
X-0.6847 Z0.4757
X-1.2671 Z0.2398
X-1.3038 Z0.2233
X-1.4027 Z0.1876
X-1.5179 Z0.1554
X-1.5392 Z0.1483
X-1.5615 Z0.1397
X-1.584 Z0.1297
X-1.6061 Z0.1186
X-1.6515 Z0.0933
X-1.7213 Z0.0543
X-1.7241 Z0.0519
X-1.725 Z0.0502
Z0.
X-1.7785 Y-1.5041
X-1.7784 Z0.0371
X-1.7776 Z0.0388
X-1.7747 Z0.0412
X-1.5937 Z0.1423
X-1.5471 Z0.1682
X-1.525 Z0.1793
X-1.5025 Z0.1893
X-1.4802 Z0.198
X-1.4589 Z0.205
X-1.387 Z0.2252
X-1.3268 Z0.2468
X-1.3028 Z0.2575
X-0.6606 Z0.5176
X-0.6446 Z0.5239
X-0.6286 Z0.5289
X-0.6128 Z0.5328
X-0.5974 Z0.5353
X-0.4545 Z0.5496
X-0.4417 Z0.5505
X0.4313 Z0.5506
X0.4469 Z0.5502
X0.588 Z0.5363
X0.6023 Z0.5346
X0.6174 Z0.5318
X0.6329 Z0.5277
X0.6483 Z0.5225
X1.2995 Z0.2589
X1.3212 Z0.2489
X1.3803 Z0.2275
X1.4389 Z0.2108
X1.4626 Z0.2039
X1.4837 Z0.1967
X1.5055 Z0.188
X1.5275 Z0.1781
X1.5492 Z0.1671
X1.7731 Z0.0414
X1.7772 Z0.0384
X1.7788 Z0.0362
X1.7789 Z0.
X1.7915 Y-1.4903
X1.7977 Y-1.4834
X1.8035 Y-1.476
X1.8087 Y-1.4683
X1.8243 Y-1.4451
Z0.0312
X1.7195 Z0.088
X1.4902 Z0.2167
X1.4686 Z0.2277
X1.4466 Z0.2377
X1.4247 Z0.2463
X1.4036 Z0.2535
X1.3802 Z0.2603
X1.365 Z0.2649
X1.3443 Z0.2725
X1.3346 Z0.2769
X0.6238 Z0.5646
X0.6084 Z0.5698
X0.5929 Z0.5739
X0.5778 Z0.5767
X0.5634 Z0.5784
X0.5039 Z0.5843
X0.4889 Z0.5846
X-0.4998 Z0.5845
X-0.5134 Z0.5834
X-0.5733 Z0.5774
X-0.5888 Z0.5748
X-0.6047 Z0.5709
X-0.6206 Z0.5658
X-0.6368 Z0.5595
X-1.3382 Z0.2753
X-1.3501 Z0.2702
X-1.3717 Z0.2626
X-1.4011 Z0.2543
X-1.4226 Z0.2471
X-1.4449 Z0.2384
X-1.4674 Z0.2283
X-1.4895 Z0.2171
X-1.7674 Z0.0623
X-1.8251 Z0.0312
Z0.
X-1.835 Y-1.4303
X-1.8644 Y-1.3861
Z0.0312
X-1.5307 Z0.2111
X-1.4364 Z0.2635
X-1.4145 Z0.275
X-1.392 Z0.2854
X-1.2807 Z0.3307
X-0.6105 Z0.6023
X-0.5947 Z0.6084
X0.5942 Z0.6086
X0.5994 Z0.6067
X0.8095 Z0.5217
X1.387 Z0.2875
X1.409 Z0.2776
X1.4307 Z0.2666
X1.499 Z0.2283
X1.8639 Z0.0312
Z0.
X1.9035 Y-1.327
Z0.0312
X1.4906 Z0.2542
X1.4575 Z0.2732
X1.3879 Z0.311
X1.3772 Z0.3157
X0.6577 Z0.6086
X-0.6579
X-1.3843 Z0.3128
X-1.3943 Z0.3076
X-1.4641 Z0.2695
X-1.5015 Z0.2481
X-1.9037 Z0.0312
Z0.
X-1.9381 Y-1.2753
X-1.943 Y-1.268
Z0.0312
X-1.6509 Z0.1887
X-1.5618 Z0.2402
X-1.3935 Z0.332
X-1.3833 Z0.3372
X-0.7172 Z0.6085
X0.7167 Z0.6086
X1.376 Z0.3402
X1.387 Z0.3354
X1.5558 Z0.2435
X1.6441 Z0.1928
X1.943 Z0.0312
X1.9431 Z0.
X1.9828 Y-1.2089
X1.9826 Z0.0312
X1.7974 Z0.1314
X1.6537 Z0.214
X1.3862 Z0.3598
X1.3752 Z0.3646
X0.776 Z0.6086
X-0.776
X-1.3824 Z0.3616
X-1.3926 Z0.3564
X-1.6596 Z0.2107
X-1.8008 Z0.1291
X-1.9823 Z0.0312
Z0.
X-2.0167 Y-1.1572
X-2.0216 Y-1.1499
Z0.0312
X-1.951 Z0.0693
X-1.7574 Z0.1814
X-1.3915 Z0.3809
X-1.3815 Z0.386
X-0.835 Z0.6086
X0.835
X1.3743 Z0.389
X1.3853 Z0.3842
X1.7516 Z0.1846
X1.9504 Z0.0702
X2.0224 Z0.0312
Z0.
X2.0466 Y-1.1137
X2.0513 Y-1.1064
X2.0554 Y-1.0987
X2.0592 Y-1.0908
X2.059 Z0.0332
X2.0577 Z0.0352
X2.0534 Z0.0379
X1.8494 Z0.1552
X1.3844 Z0.4086
X1.3734 Z0.4134
X0.894 Z0.6086
X-0.8941
X-1.3805 Z0.4105
X-1.3907 Z0.4053
X-1.8553 Z0.1519
X-2.0573 Z0.0346
X-2.0591 Z0.0327
X-2.0596 Z0.0312
Z0.
X-2.0631 Y-1.0834
X-2.0875 Y-1.0318
Z0.0422
X-2.087 Z0.0438
X-2.0851 Z0.0458
X-1.9532 Z0.1224
X-1.3898 Z0.4297
X-1.3796 Z0.4348
X-0.9531 Z0.6086
X0.9531
X1.3724 Z0.4379
X1.3834 Z0.4331
X1.9472 Z0.1258
X2.0806 Z0.0491
X2.0857 Z0.0459
X2.087 Z0.044
X2.0872 Z0.
X2.1152 Y-0.9727
X2.115 Z0.0548
X2.1136 Z0.0567
X2.109 Z0.0596
X2.045 Z0.0964
X1.3825 Z0.4575
X1.3717 Z0.4622
X1.0121 Z0.6086
X-1.0122
X-1.3787 Z0.4592
X-1.3887 Z0.4542
X-2.0511 Z0.093
X-2.1131 Z0.0569
X-2.1149 Z0.055
X-2.1153 Z0.0534
Z0.
X-2.1432 Y-0.9137
Z0.0645
X-2.1429 Z0.0658
X-2.1415 Z0.0676
X-1.3879 Z0.4785
X-1.3778 Z0.4837
X-1.0715 Z0.6085
X1.0712 Z0.6086
X1.3707 Z0.4867
X1.3815 Z0.4819
X2.0639 Z0.11
X2.1417 Z0.0675
X2.143 Z0.0655
X2.1431 Z0.
X2.15 Y-0.8993
X2.1533 Y-0.892
X2.1561 Y-0.8846
X2.1668 Y-0.8546
X2.1667 Z0.0628
X2.1652 Z0.0651
X2.1613 Z0.0683
X2.132 Z0.088
X2.0923 Z0.1138
X2.052 Z0.1386
X2.0124 Z0.1617
X1.9741 Z0.1828
X1.3807 Z0.5063
X1.3699 Z0.511
X1.1302 Z0.6086
X-1.1305 Z0.6085
X-1.3768 Z0.5081
X-1.387 Z0.5029
X-2.0027 Z0.1671
X-2.0429 Z0.144
X-2.0839 Z0.1191
X-2.1247 Z0.0929
X-2.161 Z0.0685
X-2.1651 Z0.0653
X-2.1665 Z0.0632
X-2.1668 Z0.0621
Z0.
X-2.1878 Y-0.7956
Z0.0518
X-2.1875 Z0.0531
X-2.1858 Z0.0553
X-2.1465 Z0.084
X-1.9821 Z0.1945
X-1.9414 Z0.2207
X-1.9004 Z0.2457
X-1.8602 Z0.2688
X-1.3861 Z0.5273
X-1.376 Z0.5325
X-1.1896 Z0.6085
X1.1893 Z0.6086
X1.3689 Z0.5354
X1.3798 Z0.5307
X1.6668 Z0.3743
X1.8606 Z0.2685
X1.9 Z0.2459
X1.9402 Z0.2214
X1.9802 Z0.1958
X2.1434 Z0.0862
X2.1827 Z0.0573
X2.1865 Z0.0543
X2.1879 Z0.052
X2.188 Z0.
X2.2092 Y-0.7365
X2.2091 Z0.0413
X2.2076 Z0.0437
X2.2034 Z0.047
X2.1287 Z0.102
X1.838 Z0.2972
X1.7981 Z0.3228
X1.7579 Z0.3472
X1.7186 Z0.3699
X1.5988 Z0.4353
X1.3788 Z0.5551
X1.368 Z0.5599
X1.2482 Z0.6086
X-1.2487 Z0.6084
X-1.375 Z0.5569
X-1.3851 Z0.5518
X-1.7178 Z0.3703
X-1.7579 Z0.3472
X-1.7989 Z0.3223
X-1.8397 Z0.2961
X-2.1318 Z0.0998
X-2.2069 Z0.0449
X-2.2086 Z0.0428
X-2.2089 Z0.0414
Z0.
X-2.2273 Y-0.6849
X-2.23 Y-0.6775
Z0.0312
X-2.2296 Z0.0325
X-2.228 Z0.0346
X-2.1171 Z0.1155
X-1.6974 Z0.3975
X-1.6567 Z0.4237
X-1.6157 Z0.4487
X-1.5755 Z0.4718
X-1.3842 Z0.5762
X-1.3742 Z0.5813
X-1.3077 Z0.6084
X1.3072 Z0.6086
X1.3671 Z0.5843
X1.3778 Z0.5796
X1.4689 Z0.53
X1.5761 Z0.4714
X1.6155 Z0.4488
X1.6557 Z0.4243
X1.6956 Z0.3987
X2.1143 Z0.1175
X2.2278 Z0.0338
X2.2299 Z0.0314
X2.23 Z0.
X2.2318 Y-0.6701
X2.2333 Y-0.6628
X2.2422 Y-0.6184
X2.2421 Z0.0312
X2.2105 Z0.0515
X2.0997 Z0.1332
X1.5531 Z0.5003
X1.5132 Z0.5259
X1.473 Z0.5504
X1.4337 Z0.573
X1.378 Z0.6034
X1.3672 Z0.6083
X1.3663 Z0.6086
X-1.3668 Z0.6084
X-1.3782 Z0.6034
X-1.434 Z0.5728
X-1.4742 Z0.5497
X-1.5152 Z0.5247
X-1.556 Z0.4984
X-2.1026 Z0.1311
X-2.221 Z0.0451
X-2.2428 Z0.0312
Z0.
X-2.2544 Y-0.5594
Z0.0312
X-2.1946 Z0.0693
X-2.088 Z0.1468
X-1.4401 Z0.5822
X-1.4006 Z0.6084
X1.4004 Z0.6086
X1.4106 Z0.6019
X2.0849 Z0.149
X2.1849 Z0.0753
X2.2539 Z0.0312
X2.254 Z0.
X2.2659 Y-0.5003
Z0.0312
X2.1592 Z0.0992
X2.0704 Z0.1646
X1.4479 Z0.5827
X1.4319 Z0.5922
X1.4034 Z0.6086
X-1.4038 Z0.6084
X-1.4435 Z0.5854
X-1.4578 Z0.5761
X-2.0735 Z0.1624
X-2.1684 Z0.0935
X-2.2661 Z0.0312
Z0.
X-2.2763 Y-0.4487
X-2.2777 Y-0.4413
Z0.0312
X-2.1421 Z0.1176
X-2.0589 Z0.1781
X-1.5187 Z0.5411
X-1.504 Z0.5506
X-1.4037 Z0.6085
X1.4034 Z0.6086
X1.4928 Z0.5571
X1.5088 Z0.5476
X2.0558 Z0.1802
X2.1336 Z0.123
X2.2777 Z0.0312
X2.2778 Z0.
X2.2881 Y-0.3896
X2.2896 Y-0.3822
X2.2895 Z0.0312
X2.1079 Z0.1468
X2.0413 Z0.1959
X1.5698 Z0.5125
X1.5538 Z0.5221
X1.4034 Z0.6086
X-1.4038 Z0.6084
X-1.5649 Z0.5156
X-1.5793 Z0.5062
X-2.0442 Z0.1938
X-2.1159 Z0.1418
X-2.2893 Z0.0312
Z0.
X-2.2995 Y-0.3306
X-2.301 Y-0.3232
Z0.0312
X-2.0898 Z0.1658
X-2.0297 Z0.2094
X-1.6403 Z0.4711
X-1.6258 Z0.4805
X-1.4038 Z0.6084
X1.4035 Z0.6086
X1.6147 Z0.487
X1.6307 Z0.4775
X2.0265 Z0.2116
X2.082 Z0.1708
X2.3015 Z0.0312
Z0.
X2.3118 Y-0.2715
X2.3133 Y-0.2641
Z0.0312
X2.0564 Z0.1946
X2.0119 Z0.2273
X1.6916 Z0.4424
X1.6754 Z0.452
X1.4034 Z0.6086
X-1.4036
X-1.6866 Z0.4455
X-1.7011 Z0.4361
X-2.0151 Z0.2251
X-2.0636 Z0.1899
X-2.3126 Z0.0312
Z0.
X-2.3141 Y-0.2568
X-2.3169 Y-0.2422
X-2.3184 Y-0.2348
X-2.3195 Y-0.2275
X-2.3202 Y-0.2201
X-2.3206 Y-0.2126
X-2.321 Y-0.2051
X-2.3209 Z0.034
X-2.3202 Z0.0357
X-2.318 Z0.038
X-2.2563 Z0.0747
X-2.0373 Z0.2141
X-2.0004 Z0.2408
X-1.7622 Z0.4009
X-1.7475 Z0.4104
X-1.4036 Z0.6086
X1.4035
X1.7364 Z0.4169
X1.7525 Z0.4073
X1.9974 Z0.2429
X2.0308 Z0.2184
X2.2336 Z0.0893
X2.3147 Z0.0409
X2.3189 Z0.038
X2.3204 Z0.0358
X2.3206 Z0.
X2.321 Y-0.1977
X2.3232 Y-0.1534
X2.3236 Y-0.1461
X2.3234 Z0.0454
X2.322 Z0.0476
X2.3185 Z0.0501
X2.1358 Z0.159
X2.0049 Z0.2424
X1.9826 Z0.2587
X1.8134 Z0.3723
X1.797 Z0.382
X1.4034 Z0.6086
X-1.4036
X-1.8085 Z0.3753
X-1.823 Z0.3659
X-1.9857 Z0.2565
X-2.0113 Z0.2381
X-2.1547 Z0.147
X-2.3208 Z0.0481
X-2.3231 Z0.0458
X-2.3238 Z0.0438
Z0.
X-2.3267 Y-0.087
X-2.3266 Z0.0543
X-2.3259 Z0.0559
X-2.3236 Z0.0582
X-2.053 Z0.2192
X-1.9855 Z0.262
X-1.9713 Z0.2721
X-1.884 Z0.3308
X-1.8694 Z0.3402
X-1.4036 Z0.6086
X1.4035
X1.858 Z0.3469
X1.8742 Z0.3373
X1.9678 Z0.2745
X1.9792 Z0.2662
X2.038 Z0.2286
X2.3213 Z0.0599
X2.325 Z0.0574
X2.3264 Z0.0552
X2.3265 Z0.
X2.3269 Y-0.0796
X2.3295 Y-0.028
X2.3293 Z0.0649
X2.3279 Z0.0671
X2.3228 Z0.0703
X1.9518 Z0.2911
X1.9338 Z0.303
X1.9173 Z0.3128
X1.4035 Z0.6086
X-1.4036
X-1.9303 Z0.3052
X-1.9448 Z0.2958
X-1.957 Z0.2878
X-2.3278 Z0.0672
X-2.3293 Z0.065
X-2.3295 Z0.0639
Z0.
X-2.3306 Y-0.0058
X-2.3307 Y0.0016
X-2.3304 Y0.009
X-2.3293 Y0.0311
Z0.0635
X-2.329 Z0.0649
X-2.3273 Z0.067
X-1.9587 Z0.2864
X-1.9417 Z0.2976
X-1.9271 Z0.307
X-1.4035 Z0.6086
X1.4035
X1.915 Z0.3141
X1.9311 Z0.3045
X1.9541 Z0.2893
X2.3255 Z0.0683
X2.3279 Z0.0664
X2.3292 Z0.0642
X2.3293 Z0.
X2.3265 Y0.0901
X2.3264 Z0.0541
X2.325 Z0.0564
X2.3216 Z0.0589
X2.0469 Z0.2224
X1.9809 Z0.2648
X1.968 Z0.274
X1.871 Z0.3391
X1.8548 Z0.3487
X1.4035 Z0.6086
X-1.4036
X-1.8661 Z0.3421
X-1.8807 Z0.3327
X-1.972 Z0.2713
X-1.9859 Z0.2613
X-2.0551 Z0.2176
X-2.3236 Z0.0579
X-2.3257 Z0.0557
X-2.3263 Z0.0537
Z0.
X-2.3234 Y0.1492
Z0.044
X-2.3228 Z0.046
X-2.3206 Z0.0481
X-2.1528 Z0.148
X-2.0113 Z0.2377
X-1.9864 Z0.2557
X-1.8197 Z0.3678
X-1.8053 Z0.3772
X-1.4036 Z0.6086
X1.4034
X1.7942 Z0.3837
X1.8101 Z0.3741
X1.983 Z0.2581
X2.0071 Z0.2407
X2.1488 Z0.1501
X2.3186 Z0.0489
X2.322 Z0.0464
X2.3235 Z0.0441
X2.3237 Z0.
X2.3208 Y0.2082
X2.3207 Z0.0339
X2.3193 Z0.0361
X2.3161 Z0.0385
X2.2504 Z0.0778
X2.0335 Z0.2164
X1.9976 Z0.2424
X1.7492 Z0.4092
X1.7333 Z0.4187
X1.4035 Z0.6086
X-1.4036
X-1.7444 Z0.4122
X-1.7589 Z0.4028
X-2.0011 Z0.24
X-2.0368 Z0.2139
X-2.2509 Z0.0782
X-2.3176 Z0.0384
X-2.3198 Z0.0363
X-2.3204 Z0.0348
Z0.
X-2.3197 Y0.2232
X-2.3193 Y0.2306
X-2.3184 Y0.238
X-2.3171 Y0.2453
X-2.3142 Y0.26
X-2.3127 Y0.2673
Z0.0312
X-2.0626 Z0.19
X-2.0158 Z0.2243
X-1.6979 Z0.438
X-1.6834 Z0.4473
X-1.4036 Z0.6086
X1.4035
X1.6722 Z0.4539
X1.6884 Z0.4442
X2.0123 Z0.2267
X2.0597 Z0.1923
X2.312 Z0.0312
Z0.
X2.3105 Y0.2747
X2.3004 Y0.3263
X2.3003 Z0.0312
X2.0859 Z0.1682
X2.0269 Z0.211
X1.6274 Z0.4794
X1.6113 Z0.4889
X1.4034 Z0.6086
X-1.4038 Z0.6084
X-1.6225 Z0.4824
X-1.637 Z0.473
X-2.0302 Z0.2087
X-2.0881 Z0.1663
X-2.3008 Z0.0312
Z0.
X-2.2994 Y0.3337
X-2.2905 Y0.378
X-2.289 Y0.3854
Z0.0312
X-2.1139 Z0.1424
X-2.0449 Z0.193
X-1.576 Z0.5081
X-1.5617 Z0.5174
X-1.4037 Z0.6085
X1.4034 Z0.6086
X1.5505 Z0.524
X1.5666 Z0.5144
X2.0415 Z0.1954
X2.1121 Z0.144
X2.2887 Z0.0312
Z0.
X2.2785 Y0.437
X2.2771 Y0.4444
X2.277 Z0.0312
X2.1383 Z0.1199
X2.0562 Z0.1797
X1.5056 Z0.5495
X1.4896 Z0.559
X1.4035 Z0.6086
X-1.4038 Z0.6084
X-1.5008 Z0.5525
X-1.5152 Z0.5431
X-2.0596 Z0.1773
X-2.1396 Z0.1185
X-2.2771 Z0.0312
Z0.
X-2.2653 Y0.5035
Z0.0312
X-2.1652 Z0.0947
X-2.074 Z0.1617
X-1.4548 Z0.5779
X-1.4403 Z0.5873
X-1.4038 Z0.6084
X1.4034 Z0.6086
X1.4285 Z0.5942
X1.4446 Z0.5846
X2.0708 Z0.164
X2.1645 Z0.0958
X2.2654 Z0.0312
X2.2655 Z0.
X2.2538 Y0.5625
Z0.0312
X2.1907 Z0.0716
X2.0854 Z0.1483
X1.4181 Z0.5965
X1.3995 Z0.6086
X-1.3999 Z0.6084
X-1.4418 Z0.5807
X-2.0887 Z0.146
X-2.191 Z0.0708
X-2.2534 Z0.0312
Z0.
X-2.2519 Y0.5699
X-2.243 Y0.6142
X-2.2416 Y0.6216
Z0.0312
X-2.2166 Z0.047
X-2.1033 Z0.1304
X-1.5624 Z0.4938
X-1.5216 Z0.52
X-1.4806 Z0.545
X-1.4404 Z0.5681
X-1.3774 Z0.6025
X-1.3636 Z0.6085
X1.3632 Z0.6086
X1.3674 Z0.6069
X1.3782 Z0.6021
X1.4412 Z0.5677
X1.4805 Z0.545
X1.5207 Z0.5206
X1.5607 Z0.4949
X2.1001 Z0.1326
X2.2167 Z0.0477
X2.2421 Z0.0312
X2.2422 Z0.
X2.2349 Y0.6587
X2.2333 Y0.6661
X2.2313 Y0.6734
X2.2288 Y0.6806
X2.2287 Z0.0326
X2.2272 Z0.0348
X2.222 Z0.0388
X2.1147 Z0.1169
X1.7032 Z0.3933
X1.6632 Z0.4189
X1.6231 Z0.4434
X1.5837 Z0.466
X1.4758 Z0.525
X1.3779 Z0.5783
X1.367 Z0.583
X1.3042 Z0.6086
X-1.3046 Z0.6084
X-1.3743 Z0.58
X-1.3842 Z0.5749
X-1.5831 Z0.4664
X-1.6233 Z0.4433
X-1.6643 Z0.4183
X-1.705 Z0.3921
X-2.1179 Z0.1147
X-2.2271 Z0.034
X-2.2289 Z0.0318
X-2.2291 Z0.0312
Z0.
X-2.2266 Y0.688
X-2.2107 Y0.7323
X-2.2081 Y0.7397
Z0.0409
X-2.2077 Z0.0426
X-2.2059 Z0.0447
X-2.1325 Z0.099
X-1.8472 Z0.2907
X-1.8065 Z0.3169
X-1.7655 Z0.3418
X-1.7253 Z0.3649
X-1.3851 Z0.5505
X-1.3751 Z0.5556
X-1.2455 Z0.6085
X1.2451 Z0.6086
X1.368 Z0.5586
X1.3788 Z0.5539
X1.5968 Z0.4351
X1.726 Z0.3645
X1.7654 Z0.3419
X1.8056 Z0.3174
X1.8455 Z0.2918
X2.1292 Z0.1014
X2.2022 Z0.0482
X2.2063 Z0.045
X2.2076 Z0.0428
X2.2078 Z0.
X2.1867 Y0.7987
X2.1866 Z0.0532
X2.1851 Z0.0555
X2.1794 Z0.0598
X2.1438 Z0.0856
X1.9877 Z0.1904
X1.9477 Z0.2161
X1.9075 Z0.2405
X1.8681 Z0.2632
X1.6415 Z0.3868
X1.3797 Z0.5294
X1.3689 Z0.5342
X1.1861 Z0.6086
X-1.1865 Z0.6085
X-1.376 Z0.5312
X-1.3862 Z0.526
X-1.8677 Z0.2634
X-1.9079 Z0.2403
X-1.9489 Z0.2153
X-1.9897 Z0.1891
X-2.1471 Z0.0833
X-2.1848 Z0.0555
X-2.1865 Z0.0533
X-2.1869 Z0.0517
Z0.
X-2.1657 Y0.8578
X-2.1656 Z0.0631
X-2.1646 Z0.0651
X-2.1618 Z0.0676
X-2.1322 Z0.0875
X-2.0915 Z0.1137
X-2.0505 Z0.1386
X-2.0103 Z0.1617
X-1.387 Z0.5017
X-1.3769 Z0.5068
X-1.1275 Z0.6084
X1.127 Z0.6086
X1.3696 Z0.5098
X1.3806 Z0.505
X2.0014 Z0.1667
X2.0404 Z0.1445
X2.0804 Z0.1205
X2.1205 Z0.0952
X2.1596 Z0.0692
X2.164 Z0.0658
X2.1655 Z0.0636
X2.1656 Z0.
X2.1576 Y0.8803
X2.1549 Y0.8878
X2.1519 Y0.8952
X2.1485 Y0.9024
X2.1451 Y0.9096
X2.1417 Y0.9168
X2.1416 Z0.0647
X2.1403 Z0.0667
X2.1374 Z0.0686
X1.3816 Z0.4806
X1.3708 Z0.4853
X1.068 Z0.6086
X-1.0684 Z0.6085
X-1.3778 Z0.4824
X-1.3879 Z0.4773
X-2.1396 Z0.0673
X-2.1413 Z0.0654
X-2.1417 Z0.0641
Z0.
X-2.1137 Y0.9759
Z0.0533
X-2.1132 Z0.0548
X-2.1115 Z0.0567
X-2.0459 Z0.0945
X-1.389 Z0.4528
X-1.3788 Z0.458
X-1.0091 Z0.6086
X1.0089
X1.3716 Z0.461
X1.3826 Z0.4561
X2.0405 Z0.0975
X2.1084 Z0.0583
X2.1124 Z0.0556
X2.1137 Z0.0536
X2.1138 Z0.
X2.0895 Y1.0275
X2.086 Y1.0349
X2.0858 Z0.0425
X2.0845 Z0.0445
X2.0808 Z0.0469
X1.9426 Z0.127
X1.3834 Z0.4318
X1.3724 Z0.4366
X0.9498 Z0.6086
X-0.9502 Z0.6085
X-1.3796 Z0.4336
X-1.3898 Z0.4284
X-1.9481 Z0.1239
X-2.0835 Z0.0459
X-2.0853 Z0.044
X-2.0857 Z0.0425
Z0.
X-2.0822 Y1.0423
X-2.0577 Y1.0939
Z0.0318
X-2.0572 Z0.0333
X-2.0555 Z0.0351
X-1.8504 Z0.1533
X-1.3907 Z0.404
X-1.3806 Z0.4091
X-0.8912 Z0.6085
X0.8909 Z0.6086
X1.3734 Z0.4121
X1.3844 Z0.4073
X1.8448 Z0.1564
X2.0513 Z0.0367
X2.0562 Z0.0337
X2.0579 Z0.0317
X2.058 Z0.
X2.0537 Y1.1016
X2.0488 Y1.109
X2.0195 Y1.153
Z0.0312
X1.9314 Z0.0789
X1.7469 Z0.1859
X1.3853 Z0.383
X1.3743 Z0.3878
X0.8319 Z0.6086
X-0.8322 Z0.6085
X-1.3815 Z0.3847
X-1.3917 Z0.3795
X-1.7524 Z0.1828
X-1.9559 Z0.0659
X-2.0203 Z0.0312
Z0.
X-1.9807 Y1.212
Z0.0312
X-1.8025 Z0.1273
X-1.6546 Z0.2122
X-1.3926 Z0.3551
X-1.3824 Z0.3603
X-0.7729 Z0.6086
X0.7727
X1.3752 Z0.3633
X1.3862 Z0.3585
X1.6491 Z0.2153
X1.7814 Z0.1386
X1.9801 Z0.0312
X1.9802 Z0.
X1.9409 Y1.2711
Z0.0312
X1.6313 Z0.1984
X1.5513 Z0.2447
X1.3871 Z0.3341
X1.3762 Z0.3389
X0.7138 Z0.6086
X-0.7138
X-1.3834 Z0.3359
X-1.3935 Z0.3307
X-1.5569 Z0.2415
X-1.6492 Z0.1887
X-1.941 Z0.0312
Z0.
X-1.9361 Y1.2785
X-1.9014 Y1.3301
Z0.0312
X-1.497 Z0.2494
X-1.4591 Z0.2709
X-1.3945 Z0.3063
X-1.3843 Z0.3115
X-0.6551 Z0.6084
X0.6546 Z0.6086
X1.3769 Z0.3146
X1.3879 Z0.3098
X1.453 Z0.2744
X1.4813 Z0.2581
X1.9016 Z0.0312
Z0.
X1.8623 Y1.3892
Z0.0312
X1.5168 Z0.2177
X1.4327 Z0.2646
X1.4111 Z0.2755
X1.3891 Z0.2854
X0.6007 Z0.6045
X0.5886 Z0.6086
X-0.5894 Z0.6084
X-0.6055 Z0.6026
X-1.3824 Z0.2881
X-1.405 Z0.2784
X-1.4272 Z0.2675
X-1.4488 Z0.2557
X-1.5332 Z0.2085
X-1.8618 Z0.0312
Z0.
X-1.8272 Y1.4409
X-1.8222 Y1.4482
Z0.0312
X-1.7537 Z0.0681
X-1.4937 Z0.2139
X-1.4715 Z0.2252
X-1.449 Z0.2353
X-1.4267 Z0.2441
X-1.4052 Z0.2514
X-1.372 Z0.2609
X-1.3478 Z0.2693
X-1.3364 Z0.2743
X-0.6378 Z0.5573
X-0.6216 Z0.5637
X-0.6058 Z0.5687
X-0.59 Z0.5725
X-0.5745 Z0.5751
X-0.5103 Z0.5816
X-0.4968 Z0.5827
X0.4864 Z0.5828
X0.5005 Z0.5825
X0.5649 Z0.5762
X0.5791 Z0.5745
X0.5942 Z0.5716
X0.6097 Z0.5676
X0.6252 Z0.5624
X1.3321 Z0.2762
X1.3432 Z0.2713
X1.3668 Z0.2625
X1.3831 Z0.2577
X1.4055 Z0.2513
X1.4266 Z0.2441
X1.4485 Z0.2355
X1.4704 Z0.2257
X1.4921 Z0.2148
X1.7519 Z0.0698
X1.823 Z0.0312
X1.8231 Z0.
X1.8178 Y1.4561
X1.8125 Y1.4641
X1.8071 Y1.4718
X1.8011 Y1.4791
X1.7947 Y1.4862
X1.7756 Y1.5073
X1.7755 Z0.0382
X1.7739 Z0.0403
X1.7697 Z0.0432
X1.5511 Z0.1651
X1.5294 Z0.1761
X1.5075 Z0.1859
X1.4856 Z0.1945
X1.4645 Z0.2016
X1.441 Z0.2084
X1.383 Z0.2247
X1.3207 Z0.2475
X1.2972 Z0.2581
X0.6496 Z0.5203
X0.6342 Z0.5255
X0.6187 Z0.5295
X0.6036 Z0.5324
X0.5875 Z0.5343
X0.4433 Z0.5485
X0.4292 Z0.5488
X-0.4397 Z0.5487
X-0.4533 Z0.5476
X-0.5987 Z0.5331
X-0.614 Z0.5305
X-0.6299 Z0.5267
X-0.6458 Z0.5217
X-0.6619 Z0.5154
X-1.3006 Z0.2566
X-1.3243 Z0.2459
X-1.3864 Z0.2238
X-1.4633 Z0.202
X-1.4847 Z0.1948
X-1.5069 Z0.1861
X-1.5294 Z0.1761
X-1.5515 Z0.1649
X-1.5994 Z0.1381
X-1.772 Z0.0411
X-1.775 Z0.0385
X-1.776 Z0.0365
X-1.7761 Z0.
X-1.7225 Y1.5663
X-1.7224 Z0.0502
X-1.7214 Z0.0521
X-1.7184 Z0.0547
X-1.6562 Z0.0897
X-1.6105 Z0.1153
X-1.5884 Z0.1265
X-1.5659 Z0.1365
X-1.5437 Z0.1452
X-1.5222 Z0.1524
X-1.4012 Z0.1867
X-1.3008 Z0.2225
X-1.2649 Z0.2389
X-0.686 Z0.4734
X-0.6703 Z0.4796
X-0.6543 Z0.4846
X-0.6385 Z0.4884
X-0.6231 Z0.491
X-0.3943 Z0.5137
X-0.3813 Z0.5147
X0.3732 Z0.5148
X0.3867 Z0.5144
X0.6118 Z0.4922
X0.6279 Z0.4903
X0.6433 Z0.4874
X0.6588 Z0.4833
X0.6742 Z0.4781
X1.2618 Z0.2403
X1.298 Z0.2239
X1.3987 Z0.1872
X1.5 Z0.1587
X1.5235 Z0.152
X1.5445 Z0.1449
X1.5663 Z0.1364
X1.5883 Z0.1265
X1.61 Z0.1156
X1.7165 Z0.0562
X1.7206 Z0.0534
X1.7221 Z0.0512
X1.7222 Z0.
X1.6688 Y1.6254
X1.6686 Z0.0644
X1.6671 Z0.0665
X1.6647 Z0.0682
X1.6429 Z0.0789
X1.6209 Z0.0886
X1.5991 Z0.0969
X1.5782 Z0.1037
X1.4147 Z0.1495
X1.2753 Z0.2002
X1.2261 Z0.2225
X0.6986 Z0.4361
X0.6832 Z0.4413
X0.6677 Z0.4453
X0.6527 Z0.4482
X0.6385 Z0.4499
X0.3294 Z0.4804
X0.3137 Z0.4808
X-0.3254 Z0.4807
X-0.34 Z0.4795
X-0.6475 Z0.4489
X-0.6629 Z0.4464
X-0.6788 Z0.4425
X-0.6946 Z0.4375
X-0.7105 Z0.4313
X-1.2295 Z0.2211
X-1.2778 Z0.1989
X-1.4158 Z0.1496
X-1.5811 Z0.1028
X-1.6025 Z0.0957
X-1.6247 Z0.087
X-1.6472 Z0.0769
X-1.6661 Z0.0674
X-1.6683 Z0.065
X-1.6688 Z0.0634
Z0.
X-1.6546 Y1.6411
X-1.6473 Y1.6488
X-1.6395 Y1.656
X-1.6081 Y1.6844
X-1.608 Z0.0604
X-1.6069 Z0.0618
X-1.6038 Z0.0634
X-1.4305 Z0.1125
X-1.2545 Z0.1754
X-1.1936 Z0.2034
X-0.7351 Z0.3892
X-0.719 Z0.3954
X-0.7032 Z0.4004
X-0.6873 Z0.4043
X-0.6719 Z0.4068
X-0.2817 Z0.4456
X-0.2678 Z0.4467
X0.2579 Z0.4468
X0.2718 Z0.4465
X0.6609 Z0.408
X0.677 Z0.4061
X0.6921 Z0.4032
X0.7076 Z0.3992
X0.723 Z0.394
X1.1905 Z0.2048
X1.2528 Z0.1765
X1.4302 Z0.112
X1.6033 Z0.0635
X1.6068 Z0.0618
X1.6081 Z0.0601
X1.6082 Z0.
X1.5432 Y1.7435
X1.543 Z0.0451
X1.5418 Z0.0467
X1.5382 Z0.0485
X1.4461 Z0.0744
X1.2299 Z0.1529
X1.1548 Z0.187
X0.7475 Z0.3519
X0.7321 Z0.3571
X0.7166 Z0.3611
X0.7016 Z0.364
X0.6868 Z0.3657
X0.2149 Z0.4125
X0.2009 Z0.4128
X-0.2103 Z0.4127
X-0.2243 Z0.4116
X-0.6963 Z0.3647
X-0.7117 Z0.3622
X-0.7276 Z0.3584
X-0.7435 Z0.3534
X-0.759 Z0.3473
X-1.1581 Z0.1856
X-1.2313 Z0.1519
X-1.4448 Z0.0755
X-1.5386 Z0.0489
X-1.5416 Z0.0473
X-1.5427 Z0.0459
X-1.5428 Z0.
X-1.5347 Y1.7509
X-1.4857 Y1.7952
X-1.4775 Y1.8025
X-1.4774 Z0.0313
X-1.4764 Z0.0327
X-1.4734 Z0.0343
X-1.4596 Z0.0383
X-1.2081 Z0.1284
X-1.1226 Z0.1678
X-0.7834 Z0.3052
X-0.7679 Z0.3112
X-0.7521 Z0.3162
X-0.7363 Z0.3201
X-0.7209 Z0.3226
X-0.1673 Z0.3776
X-0.1527 Z0.3787
X0.1453 Z0.3788
X0.1572 Z0.3785
X0.7096 Z0.3238
X0.7258 Z0.3219
X0.7409 Z0.3191
X0.7564 Z0.315
X0.7719 Z0.3098
X1.1193 Z0.1692
X1.2072 Z0.1293
X1.4662 Z0.0354
X1.4744 Z0.033
X1.4772 Z0.0313
X1.4773 Z0.
X1.4664 Y1.81
X1.3896 Y1.8616
X1.3895 Z0.0312
X1.1845 Z0.1056
X1.0836 Z0.1515
X0.7963 Z0.2677
X0.7808 Z0.2729
X0.7653 Z0.277
X0.7502 Z0.2798
X0.734 Z0.2817
X0.0999 Z0.3445
X0.0864 Z0.3448
X-0.0952 Z0.3447
X-0.1083 Z0.3437
X-0.7453 Z0.2805
X-0.7607 Z0.278
X-0.7766 Z0.2741
X-0.7924 Z0.2691
X-0.8084 Z0.2629
X-1.0869 Z0.1501
X-1.1846 Z0.105
X-1.3904 Z0.0312
Z0.
X-1.3016 Y1.9206
Z0.0312
X-1.1615 Z0.0815
X-1.0514 Z0.1322
X-0.8331 Z0.2207
X-0.8171 Z0.227
X-0.8011 Z0.232
X-0.7853 Z0.2358
X-0.77 Z0.2384
X-0.0525 Z0.3096
X-0.0392 Z0.3107
X0.0279 Z0.3108
X0.043 Z0.3105
X0.7605 Z0.2394
X0.7748 Z0.2377
X0.7899 Z0.2349
X0.8054 Z0.2308
X0.8208 Z0.2256
X1.0481 Z0.1336
X1.1618 Z0.082
X1.3015 Z0.0312
Z0.
X1.2135 Y1.9797
Z0.0312
X1.1391 Z0.0583
X1.0123 Z0.1159
X0.8453 Z0.1835
X0.8299 Z0.1887
X0.8144 Z0.1927
X0.7993 Z0.1956
X0.7845 Z0.1973
X0.1223 Z0.2629
X0.0779 Z0.2668
X0.0451 Z0.2712
X0.0293 Z0.2741
X0.0151 Z0.2758
X0.0024 Z0.2763
X-0.0131 Z0.2759
X-0.0277 Z0.2744
X-0.0428 Z0.2716
X-0.0539 Z0.2699
X-0.0863 Z0.266
X-0.1345 Z0.2618
X-0.7942 Z0.1963
X-0.8096 Z0.1938
X-0.8255 Z0.19
X-0.8413 Z0.185
X-0.8574 Z0.1787
X-1.0155 Z0.1146
X-1.1382 Z0.058
X-1.2129 Z0.0312
Z0.
X-1.1242 Y2.0387
Z0.0312
X-1.1151 Z0.0344
X-0.9801 Z0.0967
X-0.8818 Z0.1366
X-0.8658 Z0.1429
X-0.85 Z0.1479
X-0.8341 Z0.1517
X-0.8187 Z0.1542
X-0.3724 Z0.1985
X-0.2187 Z0.2117
X-0.0843 Z0.2284
X-0.0417 Z0.2368
X-0.0262 Z0.2395
X-0.0117 Z0.2409
X0.0041 Z0.2412
X0.017 Z0.2405
X0.0311 Z0.2388
X0.081 Z0.2291
X0.2145 Z0.2119
X0.3619 Z0.1995
X0.8082 Z0.1553
X0.8233 Z0.1536
X0.8386 Z0.1507
X0.8541 Z0.1467
X0.8696 Z0.1415
X0.9768 Z0.0982
X1.1152 Z0.0352
X1.1255 Z0.0312
Z0.
X1.1187 Y2.0433
X1.1119 Y2.0478
X1.1049 Y2.0521
X1.0977 Y2.0559
X1.0903 Y2.0594
X1.0168 Y2.0943
X1.0094 Y2.0978
X1.0093 Z0.0478
X1.0077 Z0.0496
X1.0027 Z0.0525
X0.941 Z0.0804
X0.8938 Z0.0995
X0.8782 Z0.1047
X0.8626 Z0.1087
X0.8476 Z0.1115
X0.8324 Z0.1133
X0.6005 Z0.1362
X0.3502 Z0.1571
X0.1169 Z0.187
X0.0314 Z0.2036
X0.0169 Z0.2054
X0.0033 Z0.2061
X-0.0125 Z0.2057
X-0.0271 Z0.2043
X-0.0421 Z0.2016
X-0.1193 Z0.1864
X-0.3518 Z0.1573
X-0.611 Z0.1352
X-0.8433 Z0.1121
X-0.8587 Z0.1096
X-0.8745 Z0.1057
X-0.8905 Z0.1007
X-0.9065 Z0.0944
X-0.9444 Z0.079
X-1.0051 Z0.0508
X-1.0088 Z0.0483
X-1.0099 Z0.0467
Z0.
X-0.8988 Y2.1502
X-0.8908 Y2.1538
X-0.8825 Y2.1568
Z0.067
X-0.8823 Z0.0675
X-0.8695 Z0.0698
X-0.8495 Z0.0719
X-0.4846 Z0.103
X-0.1531 Z0.1445
X-0.042 Z0.1665
X-0.0271 Z0.1692
X-0.0124 Z0.1706
X0.0032 Z0.171
X0.0168 Z0.1703
X0.0313 Z0.1685
X0.1522 Z0.145
X0.4856 Z0.1023
X0.8379 Z0.0729
X0.8662 Z0.0702
X0.8816 Z0.0677
X0.8824 Z0.0674
X0.8825 Z0.
X0.8723 Y2.1605
X0.718 Y2.2159
X0.7178 Z0.0375
X0.7164 Z0.0386
X0.7116 Z0.0398
X0.6212 Z0.0475
X0.188 Z0.103
X0.0315 Z0.1334
X0.017 Z0.1352
X0.0041 Z0.1359
X-0.0116 Z0.1356
X-0.0262 Z0.1342
X-0.0416 Z0.1315
X-0.1869 Z0.1026
X-0.6175 Z0.0487
X-0.711 Z0.0406
X-0.7154 Z0.0396
X-0.7168 Z0.0386
X-0.717 Z0.038
Z0.
G3 X-0.7406 Z0.0236 I0. K0.0236
G1 Z0.8086
X-0.4792 Y2.2749
Z0.1236
Z0.0236 F13.123
G2 X-0.4555 Z0. I0.0236 K0. F39.37
G1 Z0.0312
X-0.2213 Z0.0606
X-0.0412 Z0.0964
X-0.026 Z0.0991
X-0.0114 Z0.1005
X0.0038 Z0.1008
X0.017 Z0.1001
X0.0314 Z0.0983
X0.2237 Z0.0609
X0.4555 Z0.0312
Z0.
G2 X0.4791 Z0.0236 I0. K0.0236
G1 Z1.2086

M5
M9
G53 G0 Z0.
G53 G0 X0. Y0.
M11
G0 A0.
M30

%
