%
O05007
(Using high feed G1 F650. instead of G0.)
(Mquina)
(  proveedor: Autodesk)
(  model: Generic 4-axis A Table)
(  description: This machine has YXA axis on the Table and Z axis on the Head)
(T2 D=0.2362 CR=0. - ZMIN=0. - fresa con punta plana)
G90 G94 G17
G20
(When using Fusion for Personal Use, the feedrate of rapid)
(moves is reduced to match the feedrate of cutting moves,)
(which can increase machining time. Unrestricted rapid moves)
(are available with a Fusion Subscription.)
G53 G0 Z0.

(Contorneado3)
T2 M6
S5000 M3
G17 G90 G94
G54
G53 G0 X0. Y0.
M11
G0 A0.
M10
M8
G1 X-2.3476 Y-0.1426 F650.
G0 G43 Z1.2086 H2
G1 Z0.1266 F39.37
Z0.0735 F13.123
Z0.0276 F39.37
G3 X-2.3252 Y-0.1178 I-0.0011 J0.0236
G1 X-2.3303 Y-0.0116
X-2.3306 Y-0.0039
Y0.0039
X-2.3303 Y0.0116
X-2.3198 Y0.2213
X-2.3194 Y0.229
X-2.3186 Y0.2368
X-2.3174 Y0.2438
X-2.3173 Y0.2445
X-2.232 Y0.6691
X-2.2315 Y0.6715
X-2.2295 Y0.6793
X-2.2269 Y0.6871
X-2.1573 Y0.8812
X-2.1545 Y0.8889
X-2.1544 Y0.8892
X-2.1512 Y0.8967
X-2.1475 Y0.9044
X-2.0592 Y1.0908
X-2.0555 Y1.0985
X-2.0534 Y1.1025
X-2.0513 Y1.1063
X-2.0464 Y1.1141
X-1.8068 Y1.4712
X-1.805 Y1.4739
X-1.8013 Y1.4789
X-1.7972 Y1.4839
X-1.7948 Y1.4867
X-1.6538 Y1.642
X-1.6497 Y1.6463
X-1.6463 Y1.6497
X-1.642 Y1.6538
X-1.4834 Y1.7972
X-1.4789 Y1.8012
X-1.4745 Y1.805
X-1.4712 Y1.8076
X-1.4637 Y1.8128
X-1.1063 Y2.0506
X-1.102 Y2.0534
X-1.0985 Y2.0555
X-1.0908 Y2.0596
X-1.0874 Y2.0612
X-0.9044 Y2.1475
X-0.8967 Y2.1512
X-0.8892 Y2.1544
X-0.8889 Y2.1545
X-0.8812 Y2.1573
X-0.6793 Y2.2293
X-0.6715 Y2.2319
X-0.6711 Y2.232
X-0.6638 Y2.2338
X-0.656 Y2.2354
X-0.2368 Y2.318
X-0.229 Y2.3193
X-0.2213 Y2.3201
X-0.2135 Y2.3206
X-0.0116 Y2.3303
X-0.0039 Y2.3306
X0.0039
X0.0116 Y2.3303
X0.2213 Y2.3198
X0.229 Y2.3194
X0.2368 Y2.3186
X0.2439 Y2.3174
X0.2445 Y2.3173
X0.6691 Y2.232
X0.6715 Y2.2315
X0.6793 Y2.2295
X0.6871 Y2.2269
X0.8812 Y2.1573
X0.8889 Y2.1545
X0.8892 Y2.1544
X0.8967 Y2.1512
X0.9044 Y2.1475
X1.0908 Y2.0592
X1.0985 Y2.0555
X1.1025 Y2.0534
X1.1063 Y2.0513
X1.1141 Y2.0464
X1.4712 Y1.8068
X1.4739 Y1.805
X1.4789 Y1.8013
X1.4839 Y1.7972
X1.4867 Y1.7948
X1.642 Y1.6538
X1.6463 Y1.6497
X1.6497 Y1.6463
X1.6538 Y1.642
X1.7972 Y1.4834
X1.8012 Y1.4789
X1.805 Y1.4745
X1.8076 Y1.4712
X1.8128 Y1.4637
X2.0506 Y1.1063
X2.0534 Y1.102
X2.0555 Y1.0985
X2.0596 Y1.0908
X2.0612 Y1.0874
X2.1475 Y0.9044
X2.1512 Y0.8967
X2.1544 Y0.8892
X2.1545 Y0.8889
X2.1573 Y0.8812
X2.2293 Y0.6793
X2.2319 Y0.6715
X2.232 Y0.6711
X2.2338 Y0.6638
X2.2354 Y0.656
X2.318 Y0.2368
X2.3193 Y0.229
X2.3201 Y0.2213
X2.3206 Y0.2135
X2.3303 Y0.0116
X2.3306 Y0.0039
Y-0.0039
X2.3303 Y-0.0116
X2.3198 Y-0.2213
X2.3194 Y-0.229
X2.3186 Y-0.2368
X2.3174 Y-0.2439
X2.3173 Y-0.2445
X2.232 Y-0.6691
X2.2315 Y-0.6715
X2.2295 Y-0.6793
X2.2269 Y-0.6871
X2.1573 Y-0.8812
X2.1545 Y-0.8889
X2.1544 Y-0.8892
X2.1512 Y-0.8967
X2.1475 Y-0.9044
X2.0592 Y-1.0908
X2.0555 Y-1.0985
X2.0534 Y-1.1025
X2.0513 Y-1.1063
X2.0464 Y-1.1141
X1.8068 Y-1.4712
X1.805 Y-1.4739
X1.8013 Y-1.4789
X1.7972 Y-1.4839
X1.7948 Y-1.4867
X1.6538 Y-1.642
X1.6497 Y-1.6463
X1.6463 Y-1.6497
X1.642 Y-1.6538
X1.4834 Y-1.7972
X1.4789 Y-1.8012
X1.4745 Y-1.805
X1.4712 Y-1.8076
X1.4637 Y-1.8128
X1.1063 Y-2.0506
X1.102 Y-2.0534
X1.0985 Y-2.0555
X1.0908 Y-2.0596
X1.0874 Y-2.0612
X0.9044 Y-2.1475
X0.8967 Y-2.1512
X0.8892 Y-2.1544
X0.8889 Y-2.1545
X0.8812 Y-2.1573
X0.6793 Y-2.2293
X0.6715 Y-2.2319
X0.6711 Y-2.232
X0.6638 Y-2.2338
X0.656 Y-2.2354
X0.2368 Y-2.318
X0.229 Y-2.3193
X0.2213 Y-2.3201
X0.2135 Y-2.3206
X0.0116 Y-2.3303
X0.0039 Y-2.3306
X-0.0039
X-0.0116 Y-2.3303
X-0.2213 Y-2.3198
X-0.229 Y-2.3194
X-0.2368 Y-2.3186
X-0.2439 Y-2.3174
X-0.2446 Y-2.3173
X-0.6691 Y-2.232
X-0.6715 Y-2.2315
X-0.6793 Y-2.2295
X-0.6871 Y-2.2269
X-0.8812 Y-2.1573
X-0.8889 Y-2.1545
X-0.8892 Y-2.1544
X-0.8967 Y-2.1512
X-0.9044 Y-2.1475
X-1.0908 Y-2.0592
X-1.0985 Y-2.0555
X-1.1025 Y-2.0534
X-1.1063 Y-2.0513
X-1.1141 Y-2.0464
X-1.4712 Y-1.8068
X-1.4739 Y-1.805
X-1.4789 Y-1.8013
X-1.4839 Y-1.7972
X-1.4867 Y-1.7948
X-1.642 Y-1.6538
X-1.6463 Y-1.6497
X-1.6497 Y-1.6463
X-1.6538 Y-1.642
X-1.7972 Y-1.4834
X-1.8012 Y-1.4789
X-1.805 Y-1.4745
X-1.8076 Y-1.4712
X-1.8128 Y-1.4637
X-2.0506 Y-1.1063
X-2.0534 Y-1.102
X-2.0555 Y-1.0985
X-2.0596 Y-1.0908
X-2.0612 Y-1.0874
X-2.1475 Y-0.9044
X-2.1512 Y-0.8967
X-2.1544 Y-0.8892
X-2.1545 Y-0.8889
X-2.1573 Y-0.8812
X-2.2293 Y-0.6793
X-2.2319 Y-0.6715
X-2.232 Y-0.6711
X-2.2338 Y-0.6638
X-2.2354 Y-0.656
X-2.318 Y-0.2368
X-2.3193 Y-0.229
X-2.3201 Y-0.2213
X-2.3206 Y-0.2135
X-2.3252 Y-0.1178
X-2.3258 Y-0.1042 Z0.0275
X-2.3265 Y-0.0906
X-2.3271 Y-0.0769 Z0.0274
X-2.3278 Y-0.0633 Z0.0273
X-2.3285 Y-0.0497 Z0.0272
X-2.3291 Y-0.036 Z0.027
X-2.3298 Y-0.0224 Z0.0268
X-2.3301 Y-0.0156 Z0.0267
X-2.3304 Y-0.0088 Z0.0266
X-2.3307 Y-0.002 Z0.0264
X-2.3306 Y0.0049 Z0.0263
X-2.3303 Y0.0117 Z0.0262
X-2.3299 Y0.0185 Z0.026
X-2.3296 Y0.0253 Z0.0259
X-2.3292 Y0.0321 Z0.0257
X-2.3289 Y0.0389 Z0.0256
X-2.3286 Y0.0457 Z0.0254
X-2.3282 Y0.0526 Z0.0252
X-2.3279 Y0.0594 Z0.0251
X-2.3275 Y0.0662 Z0.0249
X-2.3272 Y0.073 Z0.0247
X-2.3269 Y0.0798 Z0.0245
X-2.3265 Y0.0866 Z0.0243
X-2.3264 Y0.09 Z0.0242
X-2.3262 Y0.0934 Z0.0241
X-2.326 Y0.0968 Z0.024
X-2.3258 Y0.1002 Z0.0239
X-2.3257 Y0.1037 Z0.0238
X-2.3255 Y0.1071 Z0.0237
X-2.3253 Y0.1105 Z0.0236
X-2.3252 Y0.1139 Z0.0235
X-2.325 Y0.1173 Z0.0234
X-2.3248 Y0.1207 Z0.0233
X-2.3246 Y0.1241 Z0.0231
X-2.3245 Y0.1275 Z0.023
X-2.3243 Y0.1309 Z0.0229
X-2.3241 Y0.1343 Z0.0228
X-2.324 Y0.1377 Z0.0227
X-2.3238 Y0.1411 Z0.0226
X-2.3236 Y0.1445 Z0.0225
X-2.3235 Y0.1479 Z0.0223
X-2.3233 Y0.1514 Z0.0222
X-2.3231 Y0.1548 Z0.0221
X-2.3229 Y0.1582 Z0.022
X-2.3228 Y0.1616 Z0.0219
X-2.3226 Y0.165 Z0.0217
X-2.3224 Y0.1684 Z0.0216
X-2.3223 Y0.1718 Z0.0215
X-2.3221 Y0.1752 Z0.0214
X-2.3219 Y0.1786 Z0.0213
X-2.3217 Y0.182 Z0.0211
X-2.3216 Y0.1854 Z0.021
X-2.3214 Y0.1888 Z0.0209
X-2.3212 Y0.1922 Z0.0208
X-2.3211 Y0.1956 Z0.0207
X-2.3207 Y0.2025 Z0.0204
X-2.3202 Y0.2127 Z0.0201
X-2.3199 Y0.2195 Z0.0198
X-2.3197 Y0.2229 Z0.0197
X-2.3195 Y0.2263 Z0.0196
X-2.3193 Y0.2297 Z0.0195
X-2.319 Y0.2331 Z0.0194
X-2.3186 Y0.2365 Z0.0192
X-2.3181 Y0.2399 Z0.0191
X-2.3175 Y0.2432 Z0.019
X-2.3169 Y0.2466 Z0.0189
X-2.3162 Y0.2499 Z0.0188
X-2.3148 Y0.2566 Z0.0185
X-2.3128 Y0.2666 Z0.0182
X-2.3115 Y0.2733 Z0.0179
X-2.3108 Y0.2767 Z0.0178
X-2.3095 Y0.2834 Z0.0176
X-2.3054 Y0.3034 Z0.0169
X-2.3041 Y0.3101 Z0.0166
X-2.2994 Y0.3335 Z0.0158
X-2.2954 Y0.3536 Z0.0151
X-2.292 Y0.3703 Z0.0145
X-2.286 Y0.4004 Z0.0134
X-2.2712 Y0.474 Z0.0108
X-2.2705 Y0.4773 Z0.0107
X-2.2692 Y0.484 Z0.0104
X-2.2651 Y0.5041 Z0.0097
X-2.2638 Y0.5108 Z0.0095
X-2.2618 Y0.5208 Z0.0091
X-2.2604 Y0.5275 Z0.0089
X-2.2598 Y0.5309 Z0.0088
X-2.2584 Y0.5375 Z0.0085
X-2.2564 Y0.5476 Z0.0082
X-2.2551 Y0.5543 Z0.0079
X-2.2544 Y0.5576 Z0.0078
X-2.2531 Y0.5643 Z0.0076
X-2.2517 Y0.571 Z0.0073
X-2.2504 Y0.5777 Z0.0071
X-2.249 Y0.5844 Z0.0069
X-2.2484 Y0.5877 Z0.0067
X-2.2477 Y0.5911 Z0.0066
X-2.247 Y0.5944 Z0.0065
X-2.2463 Y0.5977 Z0.0064
X-2.2457 Y0.6011 Z0.0063
X-2.245 Y0.6044 Z0.0061
X-2.2443 Y0.6078 Z0.006
X-2.2436 Y0.6111 Z0.0059
X-2.243 Y0.6145 Z0.0058
X-2.2423 Y0.6178 Z0.0057
X-2.2416 Y0.6212 Z0.0055
X-2.241 Y0.6245 Z0.0054
X-2.2403 Y0.6278 Z0.0053
X-2.2396 Y0.6312 Z0.0052
X-2.2389 Y0.6345 Z0.0051
X-2.2383 Y0.6379 Z0.005
X-2.2376 Y0.6412 Z0.0048
X-2.2369 Y0.6446 Z0.0047
X-2.2363 Y0.6479 Z0.0046
X-2.2356 Y0.6513 Z0.0045
X-2.2349 Y0.6546 Z0.0044
X-2.2342 Y0.658 Z0.0043
X-2.2336 Y0.6613 Z0.0042
X-2.2329 Y0.6646 Z0.0041
X-2.2322 Y0.668 Z0.0039
X-2.2315 Y0.6713 Z0.0038
X-2.2308 Y0.6746 Z0.0037
X-2.2299 Y0.6779 Z0.0036
X-2.2289 Y0.6812 Z0.0035
X-2.2279 Y0.6845 Z0.0034
X-2.2267 Y0.6877 Z0.0033
X-2.2256 Y0.6909 Z0.0032
X-2.2233 Y0.6973 Z0.003
X-2.221 Y0.7037 Z0.0028
X-2.2187 Y0.7102 Z0.0027
X-2.2164 Y0.7166 Z0.0025
X-2.2141 Y0.723 Z0.0023
X-2.2118 Y0.7294 Z0.0021
X-2.2094 Y0.7358 Z0.002
X-2.2071 Y0.7423 Z0.0018
X-2.2048 Y0.7487 Z0.0016
X-2.2025 Y0.7551 Z0.0015
X-2.2002 Y0.7615 Z0.0014
X-2.1979 Y0.7679 Z0.0012
X-2.1956 Y0.7744 Z0.0011
X-2.1933 Y0.7808 Z0.001
X-2.191 Y0.7872 Z0.0009
X-2.1887 Y0.7936 Z0.0008
X-2.1841 Y0.8065 Z0.0006
X-2.1795 Y0.8193 Z0.0004
X-2.1749 Y0.8322 Z0.0002
X-2.1703 Y0.845 Z0.0001
X-2.1657 Y0.8578
X-2.1611 Y0.8707 Z0.
X-2.1568 Y0.8825
X-2.1545 Y0.8889
X-2.1544 Y0.8892
X-2.1512 Y0.8967
X-2.1475 Y0.9044
X-2.0592 Y1.0908
X-2.0555 Y1.0985
X-2.0534 Y1.1025
X-2.0513 Y1.1063
X-2.0464 Y1.1141
X-1.8068 Y1.4712
X-1.805 Y1.4739
X-1.8013 Y1.4789
X-1.7972 Y1.4839
X-1.7948 Y1.4867
X-1.6538 Y1.642
X-1.6497 Y1.6463
X-1.6463 Y1.6497
X-1.642 Y1.6538
X-1.4834 Y1.7972
X-1.4789 Y1.8012
X-1.4745 Y1.805
X-1.4712 Y1.8076
X-1.4637 Y1.8128
X-1.1063 Y2.0506
X-1.102 Y2.0534
X-1.0985 Y2.0555
X-1.0908 Y2.0596
X-1.0874 Y2.0612
X-0.9044 Y2.1475
X-0.8967 Y2.1512
X-0.8892 Y2.1544
X-0.8889 Y2.1545
X-0.8812 Y2.1573
X-0.6793 Y2.2293
X-0.6715 Y2.2319
X-0.6711 Y2.232
X-0.6638 Y2.2338
X-0.656 Y2.2354
X-0.2368 Y2.318
X-0.229 Y2.3193
X-0.2213 Y2.3201
X-0.2135 Y2.3206
X-0.0116 Y2.3303
X-0.0039 Y2.3306
X0.0039
X0.0116 Y2.3303
X0.2213 Y2.3198
X0.229 Y2.3194
X0.2368 Y2.3186
X0.2439 Y2.3174
X0.2445 Y2.3173
X0.6691 Y2.232
X0.6715 Y2.2315
X0.6793 Y2.2295
X0.6871 Y2.2269
X0.8812 Y2.1573
X0.8889 Y2.1545
X0.8892 Y2.1544
X0.8967 Y2.1512
X0.9044 Y2.1475
X1.0908 Y2.0592
X1.0985 Y2.0555
X1.1025 Y2.0534
X1.1063 Y2.0513
X1.1141 Y2.0464
X1.4712 Y1.8068
X1.4739 Y1.805
X1.4789 Y1.8013
X1.4839 Y1.7972
X1.4867 Y1.7948
X1.642 Y1.6538
X1.6463 Y1.6497
X1.6497 Y1.6463
X1.6538 Y1.642
X1.7972 Y1.4834
X1.8012 Y1.4789
X1.805 Y1.4745
X1.8076 Y1.4712
X1.8128 Y1.4637
X2.0506 Y1.1063
X2.0534 Y1.102
X2.0555 Y1.0985
X2.0596 Y1.0908
X2.0612 Y1.0874
X2.1475 Y0.9044
X2.1512 Y0.8967
X2.1544 Y0.8892
X2.1545 Y0.8889
X2.1573 Y0.8812
X2.2293 Y0.6793
X2.2319 Y0.6715
X2.232 Y0.6711
X2.2338 Y0.6638
X2.2354 Y0.656
X2.318 Y0.2368
X2.3193 Y0.229
X2.3201 Y0.2213
X2.3206 Y0.2135
X2.3303 Y0.0116
X2.3306 Y0.0039
Y-0.0039
X2.3303 Y-0.0116
X2.3198 Y-0.2213
X2.3194 Y-0.229
X2.3186 Y-0.2368
X2.3174 Y-0.2439
X2.3173 Y-0.2445
X2.232 Y-0.6691
X2.2315 Y-0.6715
X2.2295 Y-0.6793
X2.2269 Y-0.6871
X2.1573 Y-0.8812
X2.1545 Y-0.8889
X2.1544 Y-0.8892
X2.1512 Y-0.8967
X2.1475 Y-0.9044
X2.0592 Y-1.0908
X2.0555 Y-1.0985
X2.0534 Y-1.1025
X2.0513 Y-1.1063
X2.0464 Y-1.1141
X1.8068 Y-1.4712
X1.805 Y-1.4739
X1.8013 Y-1.4789
X1.7972 Y-1.4839
X1.7948 Y-1.4867
X1.6538 Y-1.642
X1.6497 Y-1.6463
X1.6463 Y-1.6497
X1.642 Y-1.6538
X1.4834 Y-1.7972
X1.4789 Y-1.8012
X1.4745 Y-1.805
X1.4712 Y-1.8076
X1.4637 Y-1.8128
X1.1063 Y-2.0506
X1.102 Y-2.0534
X1.0985 Y-2.0555
X1.0908 Y-2.0596
X1.0874 Y-2.0612
X0.9044 Y-2.1475
X0.8967 Y-2.1512
X0.8892 Y-2.1544
X0.8889 Y-2.1545
X0.8812 Y-2.1573
X0.6793 Y-2.2293
X0.6715 Y-2.2319
X0.6711 Y-2.232
X0.6638 Y-2.2338
X0.656 Y-2.2354
X0.2368 Y-2.318
X0.229 Y-2.3193
X0.2213 Y-2.3201
X0.2135 Y-2.3206
X0.0116 Y-2.3303
X0.0039 Y-2.3306
X-0.0039
X-0.0116 Y-2.3303
X-0.2213 Y-2.3198
X-0.229 Y-2.3194
X-0.2368 Y-2.3186
X-0.2439 Y-2.3174
X-0.2446 Y-2.3173
X-0.6691 Y-2.232
X-0.6715 Y-2.2315
X-0.6793 Y-2.2295
X-0.6871 Y-2.2269
X-0.8812 Y-2.1573
X-0.8889 Y-2.1545
X-0.8892 Y-2.1544
X-0.8967 Y-2.1512
X-0.9044 Y-2.1475
X-1.0908 Y-2.0592
X-1.0985 Y-2.0555
X-1.1025 Y-2.0534
X-1.1063 Y-2.0513
X-1.1141 Y-2.0464
X-1.4712 Y-1.8068
X-1.4739 Y-1.805
X-1.4789 Y-1.8013
X-1.4839 Y-1.7972
X-1.4867 Y-1.7948
X-1.642 Y-1.6538
X-1.6463 Y-1.6497
X-1.6497 Y-1.6463
X-1.6538 Y-1.642
X-1.7972 Y-1.4834
X-1.8012 Y-1.4789
X-1.805 Y-1.4745
X-1.8076 Y-1.4712
X-1.8128 Y-1.4637
X-2.0506 Y-1.1063
X-2.0534 Y-1.102
X-2.0555 Y-1.0985
X-2.0596 Y-1.0908
X-2.0612 Y-1.0874
X-2.1475 Y-0.9044
X-2.1512 Y-0.8967
X-2.1544 Y-0.8892
X-2.1545 Y-0.8889
X-2.1573 Y-0.8812
X-2.2293 Y-0.6793
X-2.2319 Y-0.6715
X-2.232 Y-0.6711
X-2.2338 Y-0.6638
X-2.2354 Y-0.656
X-2.318 Y-0.2368
X-2.3193 Y-0.229
X-2.3201 Y-0.2213
X-2.3206 Y-0.2135
X-2.3303 Y-0.0116
X-2.3306 Y-0.0039
Y0.0039
X-2.3303 Y0.0116
X-2.3198 Y0.2213
X-2.3194 Y0.229
X-2.3186 Y0.2368
X-2.3174 Y0.2438
X-2.3173 Y0.2445
X-2.232 Y0.6691
X-2.2315 Y0.6715
X-2.2295 Y0.6793
X-2.2269 Y0.6871
X-2.1573 Y0.8812
X-2.1568 Y0.8825
G3 X-2.171 Y0.9127 I-0.0222 J0.008
G1 X-2.1745 Y0.914 Z0.0003
X-2.1778 Y0.9152 Z0.0012
X-2.1811 Y0.9164 Z0.0026
X-2.184 Y0.9175 Z0.0045
X-2.1867 Y0.9184 Z0.0069
X-2.189 Y0.9192 Z0.0097
X-2.1908 Y0.9199 Z0.0129
X-2.1921 Y0.9204 Z0.0163
X-2.1929 Y0.9207 Z0.0199
X-2.1932 Y0.9208 Z0.0236
Z1.2086

M5
M9
G53 G0 Z0.
G53 G0 X0. Y0.
M11
G0 A0.
M30

%
