%
O05008
(Using high feed G1 F650. instead of G0.)
(Mquina)
(  proveedor: Autodesk)
(  model: Generic 4-axis A Table)
(  description: This machine has YXA axis on the Table and Z axis on the Head)
(T3 D=0.2362 CR=0.1181 - ZMIN=0.0407 - fresa con punta de bola)
G90 G94 G17
G20
(When using Fusion for Personal Use, the feedrate of rapid)
(moves is reduced to match the feedrate of cutting moves,)
(which can increase machining time. Unrestricted rapid moves)
(are available with a Fusion Subscription.)
G53 G0 Z0.

(Festoneado2)
T3 M6
S5000 M3
G17 G90 G94
G54
G53 G0 X0. Y0.
M11
G0 A0.
M10
M8
G1 X-1.3681 Y-0.1787 F650.
G0 G43 Z1.2086 H3
G1 Z0.6705 F39.37
Z0.6048 F13.123
X-1.368 Y-0.179 Z0.6012 F39.37
X-1.3679 Y-0.1798 Z0.5978
X-1.3677 Y-0.181 Z0.5945
X-1.3675 Y-0.1828 Z0.5914
X-1.3672 Y-0.185 Z0.5887
X-1.3668 Y-0.1876 Z0.5863
X-1.3664 Y-0.1905 Z0.5843
X-1.3659 Y-0.1937 Z0.5828
X-1.3655 Y-0.197 Z0.5817
X-1.365 Y-0.2005 Z0.5812
X-1.3645 Y-0.204
X-1.3489 Y-0.3129 Z0.5902
X-1.345 Y-0.3389 Z0.5924
X-1.3437 Y-0.3476 Z0.5932
X-1.3423 Y-0.3563 Z0.594
X-1.3404 Y-0.365 Z0.595
X-1.338 Y-0.3737 Z0.5962
X-1.3352 Y-0.3824 Z0.5976
X-1.3297 Y-0.3981 Z0.6
X-1.326 Y-0.4085 Z0.6014
X-1.321 Y-0.4223 Z0.6031
X-1.3166 Y-0.4345 Z0.6044
X-1.3123 Y-0.4461 Z0.6055
X-1.307 Y-0.4606 Z0.6066
X-1.3036 Y-0.4698 Z0.6072
X-1.2975 Y-0.4867 Z0.608
X-1.2943 Y-0.4954 Z0.6082
X-1.2912 Y-0.5041 Z0.6084
X-1.2862 Y-0.518 Z0.6086
X-1.2816 Y-0.5301
X-1.2776 Y-0.5394
X-1.2738 Y-0.5475 Z0.6085
X-1.2689 Y-0.5579 Z0.6084
X-1.2615 Y-0.5736 Z0.6079
X-1.2575 Y-0.5823 Z0.6075
X-1.2515 Y-0.5952 Z0.6068
X-1.2454 Y-0.6084 Z0.6058
X-1.2414 Y-0.617 Z0.605
X-1.2341 Y-0.6328 Z0.6034
X-1.2293 Y-0.6431 Z0.6021
X-1.2252 Y-0.6518 Z0.6009
X-1.2212 Y-0.6605 Z0.5996
X-1.2167 Y-0.6697 Z0.5982
X-1.2127 Y-0.6779 Z0.5968
X-1.2079 Y-0.6866 Z0.5954
X-1.2023 Y-0.6953 Z0.5943
X-1.1993 Y-0.6996 Z0.5937
X-1.1906 Y-0.7115 Z0.5924
X-1.1445 Y-0.7735 Z0.586
X-1.0862 Y-0.8517 Z0.5779
X-1.0786 Y-0.8604 Z0.5774
X-1.0777 Y-0.8614
X-1.0411 Y-0.8952 Z0.5785
X-1.0131 Y-0.9212 Z0.5793
X-0.9948 Y-0.9386 Z0.5797
X-0.9769 Y-0.956 Z0.5799
X-0.956 Y-0.9769
X-0.9386 Y-0.9948 Z0.5797
X-0.926 Y-1.0081 Z0.5794
X-0.9038 Y-1.0321 Z0.5787
X-0.8691 Y-1.07 Z0.5774
X-0.8619 Y-1.0777 Z0.5772
X-0.8509 Y-1.0864 Z0.5782
X-0.7126 Y-1.1899 Z0.5923
X-0.704 Y-1.1963 Z0.5932
X-0.6997 Y-1.1993 Z0.5937
X-0.6953 Y-1.2023 Z0.5943
X-0.686 Y-1.208 Z0.5956
X-0.6779 Y-1.2124 Z0.5969
X-0.6691 Y-1.2167 Z0.5983
X-0.6605 Y-1.2209 Z0.5997
X-0.651 Y-1.2254 Z0.6011
X-0.6431 Y-1.2291 Z0.6021
X-0.6325 Y-1.2341 Z0.6034
X-0.617 Y-1.2413 Z0.605
X-0.6084 Y-1.2453 Z0.6058
X-0.5951 Y-1.2515 Z0.6068
X-0.5823 Y-1.2574 Z0.6076
X-0.5736 Y-1.2615 Z0.6079
X-0.558 Y-1.2689 Z0.6084
X-0.5475 Y-1.2738 Z0.6085
X-0.5388 Y-1.2778 Z0.6086
X-0.5301 Y-1.2817
X-0.5181 Y-1.2862
X-0.5041 Y-1.2913 Z0.6084
X-0.494 Y-1.2949 Z0.6082
X-0.478 Y-1.3007 Z0.6076
X-0.4693 Y-1.3039 Z0.6071
X-0.4606 Y-1.3071 Z0.6066
X-0.4464 Y-1.3123 Z0.6055
X-0.4345 Y-1.3167 Z0.6044
X-0.4228 Y-1.321 Z0.6031
X-0.4085 Y-1.3262 Z0.6013
X-0.3988 Y-1.3297 Z0.6
X-0.3911 Y-1.3324 Z0.5988
X-0.3824 Y-1.3355 Z0.5974
X-0.373 Y-1.3384 Z0.596
X-0.365 Y-1.3405 Z0.595
X-0.3563 Y-1.3422 Z0.594
X-0.3389 Y-1.3449 Z0.5925
X-0.2955 Y-1.3513 Z0.5888
X-0.1651 Y-1.3703 Z0.5779
X-0.1564 Y-1.3711 Z0.5774
X-0.1391 Y-1.3705 Z0.5778
X-0.0695 Y-1.3679 Z0.5793
X-0.0435 Y-1.3671 Z0.5797
X-0.0261 Y-1.3668 Z0.5799
X-0.0087 Y-1.3666 Z0.58
X0. Y-1.3667
X0.0087 Y-1.3666
X0.0174 Y-1.3667
X0.0348 Y-1.367 Z0.5798
X0.0521 Y-1.3675 Z0.5795
X0.0782 Y-1.3684 Z0.579
X0.113 Y-1.3698 Z0.5781
X0.1477 Y-1.3713 Z0.5773
X0.1564 Y-1.3711 Z0.5774
X0.1651 Y-1.37 Z0.5781
X0.3303 Y-1.3463 Z0.5917
X0.3476 Y-1.3437 Z0.5932
X0.3563 Y-1.3422 Z0.594
X0.365 Y-1.3405 Z0.595
X0.3737 Y-1.3381 Z0.5962
X0.3824 Y-1.3353 Z0.5975
X0.3982 Y-1.3297 Z0.6
X0.4085 Y-1.326 Z0.6014
X0.4223 Y-1.321 Z0.6031
X0.4345 Y-1.3165 Z0.6044
X0.4461 Y-1.3123 Z0.6055
X0.4606 Y-1.307 Z0.6066
X0.4698 Y-1.3036 Z0.6072
X0.4867 Y-1.2975 Z0.608
X0.4954 Y-1.2943 Z0.6082
X0.5041 Y-1.2912 Z0.6084
X0.518 Y-1.2862 Z0.6086
X0.5301 Y-1.2816
X0.5394 Y-1.2776
X0.5475 Y-1.2738 Z0.6085
X0.558 Y-1.2689 Z0.6084
X0.5736 Y-1.2615 Z0.6079
X0.5823 Y-1.2575 Z0.6075
X0.5952 Y-1.2515 Z0.6068
X0.6084 Y-1.2454 Z0.6058
X0.617 Y-1.2414 Z0.605
X0.6328 Y-1.2341 Z0.6034
X0.6431 Y-1.2293 Z0.6021
X0.6518 Y-1.2252 Z0.6009
X0.6605 Y-1.2212 Z0.5996
X0.6697 Y-1.2167 Z0.5982
X0.6779 Y-1.2127 Z0.5968
X0.6866 Y-1.2078 Z0.5954
X0.6953 Y-1.2022 Z0.5943
X0.6994 Y-1.1993 Z0.5938
X0.7126 Y-1.1896 Z0.5924
X0.8082 Y-1.1185 Z0.5824
X0.8517 Y-1.0862 Z0.5779
X0.8604 Y-1.0786 Z0.5774
X0.8614 Y-1.0777
X0.8952 Y-1.0411 Z0.5785
X0.9212 Y-1.0131 Z0.5793
X0.9386 Y-0.9948 Z0.5797
X0.956 Y-0.9769 Z0.5799
X0.9769 Y-0.956
X0.9948 Y-0.9386 Z0.5797
X1.0081 Y-0.926 Z0.5794
X1.0321 Y-0.9038 Z0.5787
X1.07 Y-0.8691 Z0.5774
X1.0777 Y-0.8619 Z0.5772
X1.0864 Y-0.8508 Z0.5782
X1.1906 Y-0.7114 Z0.5925
X1.1961 Y-0.704 Z0.5933
X1.1993 Y-0.6995 Z0.5938
X1.2022 Y-0.6953 Z0.5943
X1.208 Y-0.6859 Z0.5956
X1.2124 Y-0.6779 Z0.5969
X1.2167 Y-0.6691 Z0.5983
X1.2209 Y-0.6605 Z0.5997
X1.2254 Y-0.651 Z0.6011
X1.2291 Y-0.6431 Z0.6021
X1.2341 Y-0.6325 Z0.6034
X1.2413 Y-0.617 Z0.605
X1.2453 Y-0.6084 Z0.6058
X1.2515 Y-0.5951 Z0.6068
X1.2574 Y-0.5823 Z0.6076
X1.2615 Y-0.5736 Z0.6079
X1.2689 Y-0.5579 Z0.6084
X1.2738 Y-0.5475 Z0.6085
X1.2778 Y-0.5388 Z0.6086
X1.2816 Y-0.5301
X1.2862 Y-0.518
X1.2913 Y-0.5041 Z0.6084
X1.2949 Y-0.4938 Z0.6082
X1.3007 Y-0.478 Z0.6076
X1.3039 Y-0.4693 Z0.6071
X1.3071 Y-0.4606 Z0.6066
X1.3123 Y-0.4463 Z0.6055
X1.3167 Y-0.4345 Z0.6044
X1.321 Y-0.4227 Z0.6031
X1.3262 Y-0.4085 Z0.6013
X1.3297 Y-0.3988 Z0.6
X1.3324 Y-0.3911 Z0.5988
X1.3355 Y-0.3824 Z0.5974
X1.3384 Y-0.373 Z0.596
X1.3405 Y-0.365 Z0.595
X1.3422 Y-0.3563 Z0.594
X1.3449 Y-0.3389 Z0.5925
X1.3513 Y-0.2955 Z0.5888
X1.3703 Y-0.1651 Z0.5779
X1.3711 Y-0.1564 Z0.5774
X1.3705 Y-0.1391 Z0.5778
X1.3679 Y-0.0695 Z0.5793
X1.3671 Y-0.0435 Z0.5797
X1.3668 Y-0.0261 Z0.5799
X1.3666 Y-0.0087 Z0.58
X1.3667 Y0.
X1.3666 Y0.0087
X1.3667 Y0.0174
X1.367 Y0.0348 Z0.5798
X1.3675 Y0.0521 Z0.5795
X1.3684 Y0.0782 Z0.579
X1.3698 Y0.113 Z0.5781
X1.3713 Y0.1477 Z0.5773
X1.3711 Y0.1564 Z0.5774
X1.37 Y0.1651 Z0.5781
X1.3463 Y0.3303 Z0.5917
X1.3437 Y0.3476 Z0.5932
X1.3422 Y0.3563 Z0.594
X1.3404 Y0.365 Z0.595
X1.3384 Y0.3725 Z0.596
X1.3352 Y0.3824 Z0.5976
X1.3297 Y0.3982 Z0.6
X1.326 Y0.4085 Z0.6014
X1.321 Y0.4223 Z0.6031
X1.3166 Y0.4345 Z0.6044
X1.3123 Y0.4462 Z0.6055
X1.307 Y0.4606 Z0.6066
X1.3036 Y0.4699 Z0.6072
X1.3007 Y0.478 Z0.6076
X1.2949 Y0.4938 Z0.6082
X1.2913 Y0.5041 Z0.6084
X1.2862 Y0.5181 Z0.6086
X1.2817 Y0.5301
X1.2776 Y0.5395
X1.2738 Y0.5475 Z0.6085
X1.2689 Y0.558 Z0.6084
X1.2616 Y0.5736 Z0.6079
X1.2575 Y0.5823 Z0.6075
X1.2515 Y0.5953 Z0.6068
X1.2454 Y0.6084 Z0.6058
X1.2414 Y0.617 Z0.605
X1.2374 Y0.6257 Z0.6041
X1.2334 Y0.6344 Z0.6032
X1.2294 Y0.6431 Z0.6021
X1.2253 Y0.6518 Z0.6009
X1.2212 Y0.6605 Z0.5996
X1.2167 Y0.6698 Z0.5981
X1.2127 Y0.6779 Z0.5968
X1.2078 Y0.6866 Z0.5954
X1.2022 Y0.6953 Z0.5943
X1.1993 Y0.6994 Z0.5938
X1.1896 Y0.7126 Z0.5924
X1.1185 Y0.8082 Z0.5824
X1.0862 Y0.8517 Z0.5779
X1.0786 Y0.8604 Z0.5774
X1.0777 Y0.8614
X1.0411 Y0.8952 Z0.5785
X1.0131 Y0.9212 Z0.5793
X0.9948 Y0.9386 Z0.5797
X0.9769 Y0.956 Z0.5799
X0.956 Y0.9769
X0.9386 Y0.9948 Z0.5797
X0.926 Y1.0081 Z0.5794
X0.9038 Y1.0321 Z0.5787
X0.8691 Y1.07 Z0.5774
X0.8619 Y1.0777 Z0.5772
X0.8509 Y1.0864 Z0.5782
X0.7349 Y1.1733 Z0.59
X0.7116 Y1.1906 Z0.5924
X0.704 Y1.1963 Z0.5932
X0.6996 Y1.1993 Z0.5937
X0.6953 Y1.2022 Z0.5943
X0.6859 Y1.208 Z0.5956
X0.6779 Y1.2123 Z0.5969
X0.669 Y1.2167 Z0.5984
X0.6605 Y1.2208 Z0.5997
X0.6508 Y1.2254 Z0.6011
X0.6431 Y1.229 Z0.6022
X0.6324 Y1.2341 Z0.6035
X0.617 Y1.2413 Z0.6051
X0.6084 Y1.2453 Z0.6058
X0.5951 Y1.2515 Z0.6068
X0.5823 Y1.2574 Z0.6076
X0.5736 Y1.2615 Z0.6079
X0.5579 Y1.2689 Z0.6084
X0.5475 Y1.2738 Z0.6085
X0.5388 Y1.2778 Z0.6086
X0.5301 Y1.2816
X0.518 Y1.2862
X0.5041 Y1.2913 Z0.6084
X0.4938 Y1.2949 Z0.6082
X0.478 Y1.3007 Z0.6076
X0.4693 Y1.3039 Z0.6071
X0.4606 Y1.3071 Z0.6066
X0.4464 Y1.3123 Z0.6055
X0.4345 Y1.3167 Z0.6044
X0.4228 Y1.321 Z0.6031
X0.4085 Y1.3262 Z0.6013
X0.3988 Y1.3297 Z0.6
X0.3911 Y1.3324 Z0.5988
X0.3824 Y1.3355 Z0.5974
X0.3732 Y1.3384 Z0.596
X0.365 Y1.3405 Z0.5949
X0.3563 Y1.3422 Z0.594
X0.3389 Y1.3449 Z0.5925
X0.2868 Y1.3525 Z0.5881
X0.1651 Y1.3703 Z0.5779
X0.1564 Y1.3711 Z0.5774
X0.1391 Y1.3705 Z0.5778
X0.0695 Y1.3679 Z0.5793
X0.0435 Y1.3671 Z0.5797
X0.0261 Y1.3668 Z0.5799
X0.0087 Y1.3666 Z0.58
X0. Y1.3667
X-0.0087 Y1.3666
X-0.0174 Y1.3667
X-0.0348 Y1.367 Z0.5798
X-0.0521 Y1.3675 Z0.5795
X-0.0869 Y1.3688 Z0.5788
X-0.1477 Y1.3713 Z0.5773
X-0.1564 Y1.3711 Z0.5774
X-0.1651 Y1.37 Z0.578
X-0.3129 Y1.3489 Z0.5902
X-0.3389 Y1.345 Z0.5924
X-0.3476 Y1.3437 Z0.5932
X-0.3563 Y1.3423 Z0.594
X-0.365 Y1.3404 Z0.595
X-0.3737 Y1.338 Z0.5962
X-0.3824 Y1.3352 Z0.5976
X-0.3981 Y1.3297 Z0.6
X-0.4085 Y1.326 Z0.6014
X-0.4223 Y1.321 Z0.6031
X-0.4345 Y1.3166 Z0.6044
X-0.4462 Y1.3123 Z0.6055
X-0.4606 Y1.307 Z0.6066
X-0.4699 Y1.3036 Z0.6072
X-0.478 Y1.3007 Z0.6076
X-0.4937 Y1.2949 Z0.6082
X-0.5041 Y1.2912 Z0.6084
X-0.518 Y1.2862 Z0.6086
X-0.5301 Y1.2816
X-0.5394 Y1.2776
X-0.5475 Y1.2738 Z0.6085
X-0.5579 Y1.2689 Z0.6084
X-0.5736 Y1.2615 Z0.6079
X-0.5823 Y1.2575 Z0.6075
X-0.5952 Y1.2515 Z0.6068
X-0.6084 Y1.2454 Z0.6058
X-0.617 Y1.2414 Z0.605
X-0.6328 Y1.2341 Z0.6034
X-0.6431 Y1.2293 Z0.6021
X-0.6518 Y1.2252 Z0.6009
X-0.6605 Y1.2212 Z0.5996
X-0.6697 Y1.2167 Z0.5982
X-0.6779 Y1.2127 Z0.5968
X-0.6866 Y1.2078 Z0.5954
X-0.6953 Y1.2023 Z0.5943
X-0.6996 Y1.1993 Z0.5937
X-0.704 Y1.1962 Z0.5932
X-0.7387 Y1.1704 Z0.5896
X-0.8517 Y1.0862 Z0.5779
X-0.8604 Y1.0786 Z0.5774
X-0.8614 Y1.0777
X-0.8952 Y1.0411 Z0.5785
X-0.9212 Y1.0131 Z0.5793
X-0.9386 Y0.9948 Z0.5797
X-0.956 Y0.9769 Z0.5799
X-0.9769 Y0.956
X-0.9948 Y0.9386 Z0.5797
X-1.0081 Y0.926 Z0.5794
X-1.0321 Y0.9038 Z0.5787
X-1.07 Y0.8691 Z0.5774
X-1.0777 Y0.8619 Z0.5772
X-1.0864 Y0.8508 Z0.5782
X-1.1899 Y0.7126 Z0.5923
X-1.1963 Y0.704 Z0.5932
X-1.1993 Y0.6997 Z0.5937
X-1.2023 Y0.6953 Z0.5943
X-1.208 Y0.686 Z0.5956
X-1.2123 Y0.6779 Z0.5969
X-1.2167 Y0.669 Z0.5984
X-1.2208 Y0.6605 Z0.5997
X-1.2254 Y0.6508 Z0.6011
X-1.229 Y0.6431 Z0.6022
X-1.2341 Y0.6324 Z0.6035
X-1.2413 Y0.617 Z0.6051
X-1.2453 Y0.6084 Z0.6058
X-1.2515 Y0.5951 Z0.6068
X-1.2574 Y0.5823 Z0.6076
X-1.2615 Y0.5736 Z0.6079
X-1.2689 Y0.558 Z0.6084
X-1.2738 Y0.5475 Z0.6085
X-1.2778 Y0.5388 Z0.6086
X-1.2817 Y0.5301
X-1.2862 Y0.5181
X-1.2913 Y0.5041 Z0.6084
X-1.2949 Y0.494 Z0.6082
X-1.3007 Y0.478 Z0.6076
X-1.3039 Y0.4693 Z0.6071
X-1.3071 Y0.4606 Z0.6066
X-1.3123 Y0.4465 Z0.6055
X-1.3167 Y0.4345 Z0.6044
X-1.321 Y0.4228 Z0.6031
X-1.3262 Y0.4085 Z0.6013
X-1.3297 Y0.3989 Z0.6
X-1.3325 Y0.3911 Z0.5988
X-1.3355 Y0.3824 Z0.5974
X-1.3384 Y0.3732 Z0.596
X-1.3405 Y0.365 Z0.5949
X-1.3422 Y0.3563 Z0.594
X-1.3449 Y0.3389 Z0.5925
X-1.3513 Y0.2955 Z0.5888
X-1.3703 Y0.1651 Z0.5779
X-1.3711 Y0.1564 Z0.5774
X-1.3705 Y0.1391 Z0.5778
X-1.3679 Y0.0695 Z0.5793
X-1.3671 Y0.0435 Z0.5797
X-1.3668 Y0.0261 Z0.5799
X-1.3666 Y0.0087 Z0.58
X-1.3667 Y0.
X-1.3666 Y-0.0087
X-1.3667 Y-0.0174
X-1.367 Y-0.0348 Z0.5798
X-1.3675 Y-0.0521 Z0.5795
X-1.3688 Y-0.0869 Z0.5787
X-1.3713 Y-0.1477 Z0.5773
X-1.3711 Y-0.1564 Z0.5774
X-1.37 Y-0.1651 Z0.578
X-1.3645 Y-0.204 Z0.5812
X-1.3629 Y-0.2114 Z0.5822
X-1.3617 Y-0.215 Z0.5828
X-1.3605 Y-0.2185 Z0.5835
X-1.3575 Y-0.2254 Z0.5852
X-1.3512 Y-0.239 Z0.5889
X-1.3483 Y-0.2459 Z0.5906
X-1.3459 Y-0.253 Z0.5919
X-1.345 Y-0.2567 Z0.5925
X-1.3443 Y-0.2604 Z0.5928
X-1.3392 Y-0.2955 Z0.5956
X-1.334 Y-0.3303 Z0.5981
X-1.3312 Y-0.3476 Z0.5994
X-1.3295 Y-0.3563 Z0.6
X-1.3273 Y-0.365 Z0.6009
X-1.3246 Y-0.3737 Z0.6019
X-1.321 Y-0.3838 Z0.6031
X-1.3152 Y-0.3998 Z0.6048
X-1.3119 Y-0.4085 Z0.6056
X-1.3087 Y-0.4172 Z0.6063
X-1.3036 Y-0.4307 Z0.6072
X-1.2989 Y-0.4432 Z0.6078
X-1.2949 Y-0.4539 Z0.6082
X-1.2892 Y-0.4693 Z0.6085
X-1.2829 Y-0.4867 Z0.6086
X-1.2735 Y-0.5128
X-1.2689 Y-0.525
X-1.2627 Y-0.5388
X-1.2464 Y-0.5736
X-1.2424 Y-0.5823 Z0.6085
X-1.2384 Y-0.591 Z0.6083
X-1.2341 Y-0.6004 Z0.608
X-1.2305 Y-0.6084 Z0.6076
X-1.2254 Y-0.6196 Z0.607
X-1.2187 Y-0.6344 Z0.6059
X-1.2147 Y-0.6431 Z0.6051
X-1.208 Y-0.6578 Z0.6036
X-1.2027 Y-0.6692 Z0.6022
X-1.1993 Y-0.6758 Z0.6014
X-1.1982 Y-0.6779 Z0.6012
X-1.193 Y-0.6866 Z0.6002
X-1.1906 Y-0.6902 Z0.5998
X-1.1872 Y-0.6953 Z0.5994
X-1.1733 Y-0.7145 Z0.5977
X-1.1554 Y-0.7387 Z0.5955
X-1.1361 Y-0.7648 Z0.593
X-1.0777 Y-0.8432 Z0.5848
X-1.0704 Y-0.8517 Z0.5843
X-1.069 Y-0.8532
X-1.033 Y-0.8865 Z0.5854
X-1.005 Y-0.9125 Z0.5862
X-0.9866 Y-0.9299 Z0.5866
X-0.9687 Y-0.9473 Z0.5868
X-0.9473 Y-0.9687
X-0.9299 Y-0.9866 Z0.5866
X-0.9178 Y-0.9994 Z0.5863
X-0.9017 Y-1.0168 Z0.5858
X-0.8604 Y-1.0618 Z0.5843
X-0.8537 Y-1.069 Z0.5841
X-0.8425 Y-1.0777 Z0.5851
X-0.7561 Y-1.1424 Z0.5939
X-0.7263 Y-1.1646 Z0.5967
X-0.7027 Y-1.182 Z0.5987
X-0.6953 Y-1.1873 Z0.5993
X-0.6903 Y-1.1906 Z0.5998
X-0.6866 Y-1.1929 Z0.6002
X-0.6779 Y-1.198 Z0.6012
X-0.6692 Y-1.2023 Z0.6023
X-0.6571 Y-1.208 Z0.6037
X-0.6431 Y-1.2145 Z0.6052
X-0.6344 Y-1.2185 Z0.6059
X-0.6193 Y-1.2254 Z0.607
X-0.6084 Y-1.2304 Z0.6076
X-0.5997 Y-1.2344 Z0.608
X-0.591 Y-1.2384 Z0.6083
X-0.5814 Y-1.2428 Z0.6085
X-0.5736 Y-1.2464 Z0.6086
X-0.5388 Y-1.2627
X-0.5251 Y-1.2689
X-0.5128 Y-1.2736
X-0.4867 Y-1.283
X-0.4693 Y-1.2893 Z0.6085
X-0.4542 Y-1.2949 Z0.6082
X-0.4432 Y-1.299 Z0.6078
X-0.431 Y-1.3036 Z0.6072
X-0.4172 Y-1.3088 Z0.6062
X-0.4079 Y-1.3123 Z0.6055
X-0.3998 Y-1.3154 Z0.6047
X-0.3845 Y-1.321 Z0.6031
X-0.3737 Y-1.3248 Z0.6018
X-0.365 Y-1.3274 Z0.6008
X-0.3551 Y-1.3297 Z0.6
X-0.3476 Y-1.331 Z0.5994
X-0.3216 Y-1.3352 Z0.5976
X-0.2868 Y-1.3404 Z0.595
X-0.252 Y-1.3456 Z0.5921
X-0.1651 Y-1.3583 Z0.5848
X-0.1564 Y-1.3591 Z0.5843
X-0.1477 Y-1.3589 Z0.5844
X-0.0695 Y-1.356 Z0.5861
X-0.0435 Y-1.3552 Z0.5866
X-0.0261 Y-1.3549 Z0.5868
X-0.0087 Y-1.3547 Z0.5869
X0. Y-1.3548 Z0.5868
X0.0174
X0.0348 Y-1.3551 Z0.5866
X0.0521 Y-1.3556 Z0.5864
X0.0782 Y-1.3565 Z0.5858
X0.1391 Y-1.359 Z0.5844
X0.1477 Y-1.3594 Z0.5842
X0.1564 Y-1.3591 Z0.5843
X0.1738 Y-1.3567 Z0.5857
X0.2694 Y-1.3429 Z0.5936
X0.3042 Y-1.3378 Z0.5963
X0.3303 Y-1.3339 Z0.5982
X0.3476 Y-1.3311 Z0.5994
X0.3563 Y-1.3295 Z0.6
X0.365 Y-1.3274 Z0.6009
X0.3737 Y-1.3246 Z0.6019
X0.384 Y-1.321 Z0.6031
X0.3998 Y-1.3152 Z0.6048
X0.4085 Y-1.3119 Z0.6056
X0.4172 Y-1.3087 Z0.6063
X0.4306 Y-1.3036 Z0.6072
X0.4432 Y-1.2989 Z0.6078
X0.4539 Y-1.2949 Z0.6082
X0.4693 Y-1.2892 Z0.6085
X0.4867 Y-1.2829 Z0.6086
X0.5128 Y-1.2735
X0.525 Y-1.2689
X0.5388 Y-1.2627
X0.5736 Y-1.2464
X0.5823 Y-1.2424 Z0.6085
X0.591 Y-1.2384 Z0.6083
X0.6005 Y-1.2341 Z0.608
X0.6084 Y-1.2305 Z0.6076
X0.6196 Y-1.2254 Z0.607
X0.6344 Y-1.2187 Z0.6059
X0.6431 Y-1.2147 Z0.6051
X0.6578 Y-1.208 Z0.6036
X0.6692 Y-1.2026 Z0.6022
X0.6757 Y-1.1993 Z0.6014
X0.6779 Y-1.1981 Z0.6012
X0.6866 Y-1.1929 Z0.6002
X0.69 Y-1.1906 Z0.5999
X0.6953 Y-1.187 Z0.5994
X0.7126 Y-1.1744 Z0.5979
X0.7387 Y-1.1553 Z0.5956
X0.7648 Y-1.136 Z0.593
X0.8431 Y-1.0777 Z0.5848
X0.8517 Y-1.0704 Z0.5843
X0.8532 Y-1.069
X0.8865 Y-1.033 Z0.5854
X0.9125 Y-1.005 Z0.5862
X0.9299 Y-0.9866 Z0.5866
X0.9473 Y-0.9687 Z0.5868
X0.9687 Y-0.9473
X0.9866 Y-0.9299 Z0.5866
X0.9994 Y-0.9178 Z0.5863
X1.0168 Y-0.9017 Z0.5858
X1.0618 Y-0.8604 Z0.5843
X1.069 Y-0.8536 Z0.5841
X1.0777 Y-0.8425 Z0.5851
X1.1423 Y-0.7561 Z0.5939
X1.1616 Y-0.73 Z0.5964
X1.182 Y-0.7024 Z0.5988
X1.1871 Y-0.6953 Z0.5994
X1.1906 Y-0.6901 Z0.5999
X1.1929 Y-0.6866 Z0.6003
X1.1979 Y-0.6779 Z0.6012
X1.1993 Y-0.6752 Z0.6016
X1.2023 Y-0.6692 Z0.6023
X1.208 Y-0.6571 Z0.6037
X1.2145 Y-0.6431 Z0.6052
X1.2185 Y-0.6344 Z0.6059
X1.2254 Y-0.6193 Z0.607
X1.2304 Y-0.6084 Z0.6076
X1.2344 Y-0.5997 Z0.608
X1.2384 Y-0.591 Z0.6083
X1.2428 Y-0.5814 Z0.6085
X1.2464 Y-0.5736 Z0.6086
X1.2627 Y-0.5388
X1.2689 Y-0.525
X1.2735 Y-0.5128
X1.2862 Y-0.4776
X1.2893 Y-0.4693 Z0.6085
X1.2949 Y-0.4541 Z0.6082
X1.299 Y-0.4432 Z0.6078
X1.3036 Y-0.431 Z0.6072
X1.3088 Y-0.4172 Z0.6062
X1.3123 Y-0.4079 Z0.6055
X1.3154 Y-0.3998 Z0.6047
X1.321 Y-0.3845 Z0.6031
X1.3248 Y-0.3737 Z0.6018
X1.3274 Y-0.365 Z0.6008
X1.3297 Y-0.3551 Z0.6
X1.331 Y-0.3476 Z0.5994
X1.3352 Y-0.3216 Z0.5976
X1.3404 Y-0.2868 Z0.595
X1.3456 Y-0.252 Z0.5921
X1.3583 Y-0.1651 Z0.5848
X1.3591 Y-0.1564 Z0.5843
X1.3589 Y-0.1477 Z0.5844
X1.356 Y-0.0695 Z0.5861
X1.3552 Y-0.0435 Z0.5866
X1.3549 Y-0.0261 Z0.5868
X1.3547 Y-0.0087 Z0.5869
X1.3548 Y0. Z0.5868
Y0.0174
X1.3551 Y0.0348 Z0.5866
X1.3556 Y0.0521 Z0.5864
X1.3565 Y0.0782 Z0.5858
X1.359 Y0.1391 Z0.5844
X1.3594 Y0.1477 Z0.5842
X1.3591 Y0.1564 Z0.5843
X1.3567 Y0.1738 Z0.5857
X1.3429 Y0.2694 Z0.5936
X1.3378 Y0.3042 Z0.5963
X1.3339 Y0.3303 Z0.5982
X1.3311 Y0.3476 Z0.5994
X1.3295 Y0.3563 Z0.6
X1.3273 Y0.365 Z0.6009
X1.3246 Y0.3737 Z0.6019
X1.321 Y0.3839 Z0.6031
X1.3152 Y0.3998 Z0.6048
X1.3119 Y0.4085 Z0.6056
X1.3087 Y0.4172 Z0.6063
X1.3036 Y0.4307 Z0.6072
X1.299 Y0.4432 Z0.6078
X1.2949 Y0.454 Z0.6082
X1.2893 Y0.4693 Z0.6085
X1.2829 Y0.4867 Z0.6086
X1.2736 Y0.5128
X1.2689 Y0.5251
X1.2627 Y0.5388
X1.2505 Y0.5649
X1.2428 Y0.5815 Z0.6085
X1.2385 Y0.591 Z0.6083
X1.2341 Y0.6005 Z0.608
X1.2305 Y0.6084 Z0.6076
X1.2254 Y0.6197 Z0.607
X1.2187 Y0.6344 Z0.6059
X1.2148 Y0.6431 Z0.6051
X1.208 Y0.6579 Z0.6036
X1.2027 Y0.6692 Z0.6022
X1.1993 Y0.6758 Z0.6014
X1.1982 Y0.6779 Z0.6012
X1.1929 Y0.6866 Z0.6002
X1.1906 Y0.69 Z0.5999
X1.187 Y0.6953 Z0.5994
X1.1733 Y0.7143 Z0.5978
X1.1553 Y0.7387 Z0.5956
X1.136 Y0.7648 Z0.593
X1.0777 Y0.8431 Z0.5848
X1.0704 Y0.8517 Z0.5843
X1.069 Y0.8532
X1.033 Y0.8865 Z0.5854
X1.005 Y0.9125 Z0.5862
X0.9866 Y0.9299 Z0.5866
X0.9687 Y0.9473 Z0.5868
X0.9473 Y0.9687
X0.9299 Y0.9866 Z0.5866
X0.9178 Y0.9994 Z0.5863
X0.9017 Y1.0168 Z0.5858
X0.8604 Y1.0618 Z0.5843
X0.8537 Y1.069 Z0.5841
X0.8425 Y1.0777 Z0.5851
X0.7561 Y1.1424 Z0.5939
X0.73 Y1.1618 Z0.5963
X0.704 Y1.181 Z0.5986
X0.6953 Y1.1872 Z0.5994
X0.6902 Y1.1906 Z0.5999
X0.6866 Y1.1929 Z0.6002
X0.6779 Y1.1979 Z0.6012
X0.6751 Y1.1993 Z0.6016
X0.6692 Y1.2023 Z0.6023
X0.657 Y1.208 Z0.6038
X0.6431 Y1.2144 Z0.6052
X0.6344 Y1.2184 Z0.6059
X0.6192 Y1.2254 Z0.607
X0.6084 Y1.2304 Z0.6076
X0.5997 Y1.2344 Z0.608
X0.591 Y1.2384 Z0.6083
X0.5814 Y1.2428 Z0.6085
X0.5736 Y1.2464 Z0.6086
X0.5388 Y1.2627
X0.525 Y1.2689
X0.5128 Y1.2735
X0.4776 Y1.2862
X0.4693 Y1.2893 Z0.6085
X0.4542 Y1.2949 Z0.6082
X0.4432 Y1.299 Z0.6078
X0.431 Y1.3036 Z0.6072
X0.4172 Y1.3088 Z0.6062
X0.4079 Y1.3123 Z0.6055
X0.3998 Y1.3154 Z0.6047
X0.3846 Y1.321 Z0.6031
X0.3737 Y1.3248 Z0.6018
X0.365 Y1.3275 Z0.6008
X0.3552 Y1.3297 Z0.6
X0.3476 Y1.331 Z0.5994
X0.3216 Y1.3352 Z0.5976
X0.2868 Y1.3404 Z0.595
X0.252 Y1.3456 Z0.5921
X0.1651 Y1.3583 Z0.5848
X0.1564 Y1.3591 Z0.5843
X0.1477 Y1.3589 Z0.5844
X0.0695 Y1.356 Z0.5861
X0.0435 Y1.3552 Z0.5866
X0.0261 Y1.3549 Z0.5868
X0.0087 Y1.3547 Z0.5869
X0. Y1.3548 Z0.5868
X-0.0174
X-0.0348 Y1.3551 Z0.5866
X-0.0521 Y1.3556 Z0.5864
X-0.0869 Y1.3569 Z0.5856
X-0.1477 Y1.3594 Z0.5842
X-0.1564 Y1.3591 Z0.5843
X-0.1651 Y1.3579 Z0.585
X-0.2694 Y1.343 Z0.5936
X-0.3042 Y1.3379 Z0.5962
X-0.3303 Y1.334 Z0.5981
X-0.3476 Y1.3312 Z0.5994
X-0.3563 Y1.3295 Z0.6
X-0.365 Y1.3273 Z0.6009
X-0.3737 Y1.3246 Z0.6019
X-0.3838 Y1.321 Z0.6031
X-0.3998 Y1.3152 Z0.6048
X-0.4085 Y1.3119 Z0.6056
X-0.4172 Y1.3087 Z0.6063
X-0.4307 Y1.3036 Z0.6072
X-0.4432 Y1.299 Z0.6078
X-0.454 Y1.2949 Z0.6082
X-0.4693 Y1.2893 Z0.6085
X-0.4867 Y1.2829 Z0.6086
X-0.5128 Y1.2735
X-0.525 Y1.2689
X-0.5388 Y1.2627
X-0.5736 Y1.2464
X-0.5823 Y1.2424 Z0.6085
X-0.591 Y1.2384 Z0.6083
X-0.6004 Y1.2341 Z0.608
X-0.6084 Y1.2305 Z0.6076
X-0.6196 Y1.2254 Z0.607
X-0.6344 Y1.2187 Z0.6059
X-0.6431 Y1.2147 Z0.6051
X-0.6578 Y1.208 Z0.6036
X-0.6692 Y1.2026 Z0.6022
X-0.6757 Y1.1993 Z0.6014
X-0.6779 Y1.1982 Z0.6012
X-0.6866 Y1.193 Z0.6002
X-0.6902 Y1.1906 Z0.5998
X-0.6953 Y1.1872 Z0.5994
X-0.7145 Y1.1733 Z0.5977
X-0.7387 Y1.1554 Z0.5955
X-0.7648 Y1.1361 Z0.593
X-0.8432 Y1.0777 Z0.5848
X-0.8517 Y1.0704 Z0.5843
X-0.8532 Y1.069
X-0.8865 Y1.033 Z0.5854
X-0.9125 Y1.005 Z0.5862
X-0.9299 Y0.9866 Z0.5866
X-0.9473 Y0.9687 Z0.5868
X-0.9687 Y0.9473
X-0.9866 Y0.9299 Z0.5866
X-0.9994 Y0.9178 Z0.5863
X-1.0168 Y0.9017 Z0.5858
X-1.0618 Y0.8604 Z0.5843
X-1.069 Y0.8537 Z0.5841
X-1.0777 Y0.8425 Z0.5851
X-1.1424 Y0.7561 Z0.5939
X-1.1646 Y0.7263 Z0.5967
X-1.182 Y0.7027 Z0.5987
X-1.1873 Y0.6953 Z0.5994
X-1.1906 Y0.6903 Z0.5998
X-1.1929 Y0.6866 Z0.6002
X-1.1979 Y0.6779 Z0.6012
X-1.1993 Y0.6752 Z0.6016
X-1.2023 Y0.6692 Z0.6023
X-1.208 Y0.657 Z0.6038
X-1.2144 Y0.6431 Z0.6052
X-1.2184 Y0.6344 Z0.6059
X-1.2254 Y0.6192 Z0.607
X-1.2304 Y0.6084 Z0.6076
X-1.2344 Y0.5997 Z0.608
X-1.2384 Y0.591 Z0.6083
X-1.2428 Y0.5814 Z0.6085
X-1.2464 Y0.5736 Z0.6086
X-1.2627 Y0.5388
X-1.2689 Y0.5251
X-1.2736 Y0.5128
X-1.283 Y0.4867
X-1.2893 Y0.4693 Z0.6085
X-1.2949 Y0.4543 Z0.6082
X-1.299 Y0.4432 Z0.6078
X-1.3036 Y0.431 Z0.6072
X-1.3088 Y0.4172 Z0.6062
X-1.3123 Y0.4079 Z0.6055
X-1.3154 Y0.3998 Z0.6047
X-1.321 Y0.3846 Z0.6031
X-1.3249 Y0.3737 Z0.6018
X-1.3275 Y0.365 Z0.6008
X-1.3297 Y0.3552 Z0.6
X-1.331 Y0.3476 Z0.5994
X-1.3352 Y0.3216 Z0.5976
X-1.3404 Y0.2868 Z0.595
X-1.3456 Y0.252 Z0.5921
X-1.3583 Y0.1651 Z0.5848
X-1.3591 Y0.1564 Z0.5843
X-1.3589 Y0.1477 Z0.5844
X-1.356 Y0.0695 Z0.5861
X-1.3552 Y0.0435 Z0.5866
X-1.3549 Y0.0261 Z0.5868
X-1.3547 Y0.0087 Z0.5869
X-1.3548 Y0. Z0.5868
Y-0.0174
X-1.3551 Y-0.0348 Z0.5866
X-1.3556 Y-0.0521 Z0.5864
X-1.3569 Y-0.0869 Z0.5856
X-1.3594 Y-0.1477 Z0.5842
X-1.3591 Y-0.1564 Z0.5843
X-1.358 Y-0.1651 Z0.585
X-1.3443 Y-0.2604 Z0.5928
X-1.3427 Y-0.2678 Z0.5938
X-1.3415 Y-0.2714 Z0.5944
X-1.3402 Y-0.275 Z0.5951
X-1.3372 Y-0.2819 Z0.5966
X-1.3338 Y-0.2887 Z0.5982
X-1.3305 Y-0.2954 Z0.5996
X-1.3274 Y-0.3023 Z0.6009
X-1.3249 Y-0.3095 Z0.6018
X-1.3239 Y-0.3131 Z0.6021
X-1.3231 Y-0.3169 Z0.6024
X-1.321 Y-0.3303 Z0.6031
X-1.3195 Y-0.3389 Z0.6035
X-1.3179 Y-0.3476 Z0.604
X-1.316 Y-0.3563 Z0.6045
X-1.3135 Y-0.365 Z0.6052
X-1.3123 Y-0.3685 Z0.6055
X-1.3073 Y-0.3824 Z0.6065
X-1.3036 Y-0.3921 Z0.6072
X-1.3007 Y-0.3998 Z0.6076
X-1.2949 Y-0.415 Z0.6082
X-1.2908 Y-0.4259 Z0.6084
X-1.2862 Y-0.438 Z0.6086
X-1.2776 Y-0.4613
X-1.2683 Y-0.4867
X-1.2602 Y-0.5092
X-1.2588 Y-0.5128
X-1.2554 Y-0.5214
X-1.2515 Y-0.5302
X-1.2428 Y-0.5488
X-1.2313 Y-0.5736
X-1.2194 Y-0.5997
X-1.2155 Y-0.6084 Z0.6085
X-1.2116 Y-0.617 Z0.6083
X-1.2077 Y-0.6257 Z0.6081
X-1.2038 Y-0.6344 Z0.6077
X-1.1993 Y-0.6444 Z0.6071
X-1.196 Y-0.6518 Z0.6067
X-1.1906 Y-0.6635 Z0.6057
X-1.1878 Y-0.6692 Z0.6053
X-1.182 Y-0.6796 Z0.6045
X-1.1774 Y-0.6866 Z0.604
X-1.1713 Y-0.6953 Z0.6034
X-1.1525 Y-0.7213 Z0.6017
X-1.1335 Y-0.7474 Z0.5998
X-1.1124 Y-0.7762 Z0.5974
X-1.095 Y-0.7998 Z0.5953
X-1.0759 Y-0.8256 Z0.5927
X-1.069 Y-0.8349 Z0.5917
X-1.0622 Y-0.843 Z0.5912
X-1.0603 Y-0.845 Z0.5911
X-1.0248 Y-0.8778 Z0.5922
X-0.9969 Y-0.9038 Z0.593
X-0.9785 Y-0.9212 Z0.5934
X-0.9647 Y-0.9346 Z0.5936
X-0.9518 Y-0.9473
X-0.9386 Y-0.9606
X-0.9261 Y-0.9734 Z0.5935
X-0.9178 Y-0.9821 Z0.5933
X-0.9016 Y-0.9994 Z0.5929
X-0.8855 Y-1.0168 Z0.5924
X-0.8517 Y-1.0537 Z0.5911
X-0.8454 Y-1.0603 Z0.591
X-0.8342 Y-1.069 Z0.592
X-0.8082 Y-1.0884 Z0.5946
X-0.7822 Y-1.1077 Z0.597
X-0.7523 Y-1.1298 Z0.5995
X-0.7286 Y-1.1472 Z0.6013
X-0.704 Y-1.1651 Z0.6029
X-0.6926 Y-1.1733 Z0.6036
X-0.6866 Y-1.1775 Z0.604
X-0.6794 Y-1.182 Z0.6045
X-0.6692 Y-1.1876 Z0.6053
X-0.6605 Y-1.1917 Z0.606
X-0.6518 Y-1.1957 Z0.6067
X-0.6431 Y-1.1997 Z0.6072
X-0.6344 Y-1.2036 Z0.6077
X-0.6246 Y-1.208 Z0.6081
X-0.617 Y-1.2114 Z0.6083
X-0.6053 Y-1.2167 Z0.6085
X-0.5736 Y-1.2312 Z0.6086
X-0.5475 Y-1.2434
X-0.5301 Y-1.2516
X-0.5214 Y-1.2555
X-0.5094 Y-1.2602
X-0.478 Y-1.2715
X-0.4519 Y-1.2811
X-0.4345 Y-1.2877 Z0.6085
X-0.4259 Y-1.2909 Z0.6084
X-0.4154 Y-1.2949 Z0.6082
X-0.3998 Y-1.3009 Z0.6075
X-0.3911 Y-1.3042 Z0.6071
X-0.3824 Y-1.3075 Z0.6065
X-0.3693 Y-1.3123 Z0.6055
X-0.365 Y-1.3136 Z0.6051
X-0.3563 Y-1.316 Z0.6045
X-0.3476 Y-1.3178 Z0.604
X-0.3289 Y-1.321 Z0.6031
X-0.2955 Y-1.3264 Z0.6012
X-0.2607 Y-1.3318 Z0.5991
X-0.226 Y-1.3372 Z0.5966
X-0.1912 Y-1.3424 Z0.5939
X-0.1651 Y-1.3462 Z0.5918
X-0.1564 Y-1.3472 Z0.5912
X-0.1477 Y-1.347 Z0.5913
X-0.0695 Y-1.3441 Z0.593
X-0.0435 Y-1.3433 Z0.5934
X-0.0261 Y-1.343 Z0.5936
X-0.0087 Y-1.3428 Z0.5937
X0. Y-1.3429
X0.0087 Y-1.3428
X0.0174 Y-1.3429
X0.0348 Y-1.3432 Z0.5935
X0.0521 Y-1.3436 Z0.5932
X0.0782 Y-1.3446 Z0.5927
X0.1304 Y-1.3468 Z0.5914
X0.1477 Y-1.3475 Z0.591
X0.1564 Y-1.347 Z0.5913
X0.1738 Y-1.3446 Z0.5927
X0.2086 Y-1.3396 Z0.5954
X0.2433 Y-1.3344 Z0.598
X0.274 Y-1.3297 Z0.6
X0.3042 Y-1.325 Z0.6017
X0.3303 Y-1.3209 Z0.6031
X0.3389 Y-1.3195 Z0.6036
X0.3476 Y-1.3179 Z0.604
X0.3563 Y-1.316 Z0.6045
X0.365 Y-1.3136 Z0.6052
X0.3688 Y-1.3123 Z0.6055
X0.3824 Y-1.3073 Z0.6065
X0.3922 Y-1.3036 Z0.6072
X0.3998 Y-1.3007 Z0.6076
X0.4149 Y-1.2949 Z0.6082
X0.4259 Y-1.2908 Z0.6084
X0.438 Y-1.2862 Z0.6086
X0.4613 Y-1.2776
X0.4867 Y-1.2683
X0.5092 Y-1.2602
X0.5128 Y-1.2588
X0.5214 Y-1.2554
X0.5303 Y-1.2515
X0.5475 Y-1.2434
X0.5736 Y-1.2313
X0.5997 Y-1.2194
X0.6084 Y-1.2155 Z0.6085
X0.617 Y-1.2116 Z0.6083
X0.6257 Y-1.2077 Z0.6081
X0.6344 Y-1.2038 Z0.6077
X0.6444 Y-1.1993 Z0.6071
X0.6518 Y-1.196 Z0.6067
X0.6635 Y-1.1906 Z0.6058
X0.6692 Y-1.1878 Z0.6053
X0.6794 Y-1.182 Z0.6045
X0.6866 Y-1.1772 Z0.604
X0.6953 Y-1.1711 Z0.6035
X0.7213 Y-1.1523 Z0.6018
X0.7474 Y-1.1334 Z0.5999
X0.7761 Y-1.1124 Z0.5975
X0.7997 Y-1.095 Z0.5953
X0.8256 Y-1.0758 Z0.5927
X0.8348 Y-1.069 Z0.5918
X0.843 Y-1.0621 Z0.5912
X0.845 Y-1.0603 Z0.5911
X0.8778 Y-1.0248 Z0.5922
X0.9038 Y-0.9969 Z0.593
X0.9212 Y-0.9785 Z0.5934
X0.9346 Y-0.9647 Z0.5936
X0.9473 Y-0.9518
X0.9606 Y-0.9386
X0.9734 Y-0.9261 Z0.5935
X0.9821 Y-0.9178 Z0.5933
X0.9994 Y-0.9016 Z0.5929
X1.0168 Y-0.8855 Z0.5924
X1.0537 Y-0.8517 Z0.5911
X1.0603 Y-0.8454 Z0.591
X1.069 Y-0.8341 Z0.592
X1.0883 Y-0.8082 Z0.5946
X1.1076 Y-0.7822 Z0.597
X1.1298 Y-0.7521 Z0.5995
X1.1472 Y-0.7283 Z0.6013
X1.1649 Y-0.704 Z0.6029
X1.1733 Y-0.6924 Z0.6036
X1.1773 Y-0.6866 Z0.604
X1.182 Y-0.6793 Z0.6045
X1.1876 Y-0.6692 Z0.6053
X1.1917 Y-0.6605 Z0.606
X1.1957 Y-0.6518 Z0.6067
X1.1997 Y-0.6431 Z0.6072
X1.2036 Y-0.6344 Z0.6077
X1.208 Y-0.6246 Z0.6081
X1.2114 Y-0.617 Z0.6083
X1.2167 Y-0.6053 Z0.6085
X1.2312 Y-0.5736 Z0.6086
X1.2434 Y-0.5475
X1.2515 Y-0.5301
X1.2554 Y-0.5214
X1.2602 Y-0.5093
X1.2715 Y-0.478
X1.2844 Y-0.4432
X1.2876 Y-0.4345 Z0.6085
X1.2909 Y-0.4259 Z0.6084
X1.2949 Y-0.4154 Z0.6082
X1.3009 Y-0.3998 Z0.6075
X1.3042 Y-0.3911 Z0.6071
X1.3075 Y-0.3824 Z0.6065
X1.3123 Y-0.3693 Z0.6055
X1.3136 Y-0.365 Z0.6051
X1.316 Y-0.3563 Z0.6045
X1.3178 Y-0.3476 Z0.604
X1.321 Y-0.3289 Z0.6031
X1.3264 Y-0.2955 Z0.6012
X1.3318 Y-0.2607 Z0.5991
X1.3372 Y-0.226 Z0.5966
X1.3424 Y-0.1912 Z0.5939
X1.3462 Y-0.1651 Z0.5918
X1.3472 Y-0.1564 Z0.5912
X1.347 Y-0.1477 Z0.5913
X1.3441 Y-0.0695 Z0.593
X1.3433 Y-0.0435 Z0.5934
X1.343 Y-0.0261 Z0.5936
X1.3428 Y-0.0087 Z0.5937
X1.3429 Y0.
X1.3428 Y0.0087
X1.3429 Y0.0174
X1.3432 Y0.0348 Z0.5935
X1.3436 Y0.0521 Z0.5932
X1.3446 Y0.0782 Z0.5927
X1.3471 Y0.1391 Z0.5912
X1.3475 Y0.1477 Z0.591
X1.347 Y0.1564 Z0.5913
X1.3446 Y0.1738 Z0.5927
X1.3396 Y0.2086 Z0.5954
X1.3344 Y0.2433 Z0.598
X1.3297 Y0.274 Z0.6
X1.325 Y0.3042 Z0.6017
X1.3209 Y0.3303 Z0.6031
X1.3194 Y0.3389 Z0.6036
X1.3179 Y0.3476 Z0.604
X1.316 Y0.3563 Z0.6045
X1.3135 Y0.365 Z0.6052
X1.3123 Y0.3686 Z0.6055
X1.3073 Y0.3824 Z0.6065
X1.3036 Y0.3921 Z0.6072
X1.3007 Y0.3998 Z0.6076
X1.2949 Y0.415 Z0.6082
X1.2909 Y0.4259 Z0.6084
X1.2862 Y0.4381 Z0.6086
X1.2746 Y0.4693
X1.2652 Y0.4954
X1.2602 Y0.5094
X1.2555 Y0.5214
X1.2515 Y0.5303
X1.2341 Y0.5676
X1.2194 Y0.5997
X1.2155 Y0.6084 Z0.6085
X1.2116 Y0.617 Z0.6083
X1.2077 Y0.6257 Z0.608
X1.2038 Y0.6344 Z0.6077
X1.1993 Y0.6445 Z0.6071
X1.1961 Y0.6518 Z0.6066
X1.1906 Y0.6636 Z0.6057
X1.1879 Y0.6692 Z0.6053
X1.182 Y0.6794 Z0.6045
X1.1772 Y0.6866 Z0.604
X1.1711 Y0.6953 Z0.6035
X1.1523 Y0.7213 Z0.6018
X1.1334 Y0.7474 Z0.5999
X1.1124 Y0.7761 Z0.5975
X1.095 Y0.7997 Z0.5953
X1.0758 Y0.8256 Z0.5927
X1.069 Y0.8348 Z0.5918
X1.0621 Y0.843 Z0.5912
X1.0603 Y0.845 Z0.5911
X1.0248 Y0.8778 Z0.5922
X0.9969 Y0.9038 Z0.593
X0.9785 Y0.9212 Z0.5934
X0.9647 Y0.9346 Z0.5936
X0.9518 Y0.9473
X0.9386 Y0.9606
X0.9261 Y0.9734 Z0.5935
X0.9178 Y0.9821 Z0.5933
X0.9016 Y0.9994 Z0.5929
X0.8855 Y1.0168 Z0.5924
X0.8517 Y1.0537 Z0.5911
X0.8454 Y1.0603 Z0.591
X0.8342 Y1.069 Z0.592
X0.8082 Y1.0884 Z0.5946
X0.7822 Y1.1078 Z0.597
X0.7523 Y1.1298 Z0.5995
X0.7213 Y1.1525 Z0.6017
X0.6953 Y1.1714 Z0.6034
X0.6866 Y1.1774 Z0.604
X0.6793 Y1.182 Z0.6045
X0.6692 Y1.1875 Z0.6053
X0.6605 Y1.1916 Z0.6061
X0.6518 Y1.1957 Z0.6067
X0.6431 Y1.1996 Z0.6073
X0.6344 Y1.2035 Z0.6077
X0.6245 Y1.208 Z0.6081
X0.617 Y1.2114 Z0.6083
X0.6053 Y1.2167 Z0.6085
X0.5736 Y1.2312 Z0.6086
X0.5475 Y1.2434
X0.5301 Y1.2515
X0.5214 Y1.2554
X0.5093 Y1.2602
X0.478 Y1.2715
X0.4519 Y1.2811
X0.4345 Y1.2877 Z0.6085
X0.4259 Y1.291 Z0.6084
X0.4154 Y1.2949 Z0.6082
X0.3998 Y1.3009 Z0.6075
X0.3911 Y1.3042 Z0.6071
X0.3824 Y1.3075 Z0.6065
X0.3694 Y1.3123 Z0.6055
X0.365 Y1.3137 Z0.6051
X0.3563 Y1.316 Z0.6045
X0.3476 Y1.3178 Z0.604
X0.3289 Y1.321 Z0.6031
X0.2955 Y1.3264 Z0.6012
X0.2607 Y1.3318 Z0.5991
X0.226 Y1.3372 Z0.5966
X0.1912 Y1.3424 Z0.5939
X0.1651 Y1.3462 Z0.5918
X0.1564 Y1.3472 Z0.5912
X0.1477 Y1.347 Z0.5913
X0.0695 Y1.3441 Z0.593
X0.0435 Y1.3433 Z0.5934
X0.0261 Y1.343 Z0.5936
X0.0087 Y1.3428 Z0.5937
X0. Y1.3429
X-0.0087 Y1.3428
X-0.0174 Y1.3429
X-0.0348 Y1.3432 Z0.5935
X-0.0521 Y1.3436 Z0.5932
X-0.0869 Y1.3449 Z0.5925
X-0.1477 Y1.3475 Z0.591
X-0.1564 Y1.347 Z0.5913
X-0.1738 Y1.3446 Z0.5927
X-0.1999 Y1.3409 Z0.5947
X-0.2347 Y1.3357 Z0.5973
X-0.2694 Y1.3305 Z0.5996
X-0.3042 Y1.3251 Z0.6017
X-0.3303 Y1.3209 Z0.6031
X-0.3389 Y1.3195 Z0.6035
X-0.3476 Y1.3179 Z0.604
X-0.3563 Y1.316 Z0.6045
X-0.365 Y1.3135 Z0.6052
X-0.3685 Y1.3123 Z0.6055
X-0.3824 Y1.3073 Z0.6065
X-0.3921 Y1.3036 Z0.6072
X-0.3998 Y1.3007 Z0.6076
X-0.415 Y1.2949 Z0.6082
X-0.4259 Y1.2909 Z0.6084
X-0.4381 Y1.2862 Z0.6086
X-0.4693 Y1.2746
X-0.4954 Y1.2651
X-0.5093 Y1.2602
X-0.5214 Y1.2554
X-0.5302 Y1.2515
X-0.5488 Y1.2428
X-0.5736 Y1.2313
X-0.5997 Y1.2194
X-0.6084 Y1.2155 Z0.6085
X-0.617 Y1.2116 Z0.6083
X-0.6257 Y1.2077 Z0.6081
X-0.6344 Y1.2038 Z0.6077
X-0.6444 Y1.1993 Z0.6071
X-0.6518 Y1.196 Z0.6067
X-0.6635 Y1.1906 Z0.6058
X-0.6692 Y1.1878 Z0.6053
X-0.6795 Y1.182 Z0.6045
X-0.6866 Y1.1774 Z0.604
X-0.6953 Y1.1713 Z0.6034
X-0.7213 Y1.1525 Z0.6017
X-0.7474 Y1.1335 Z0.5998
X-0.7762 Y1.1124 Z0.5974
X-0.7998 Y1.095 Z0.5953
X-0.8256 Y1.0759 Z0.5927
X-0.8349 Y1.069 Z0.5917
X-0.843 Y1.0622 Z0.5912
X-0.845 Y1.0603 Z0.5911
X-0.8778 Y1.0248 Z0.5922
X-0.9038 Y0.9969 Z0.593
X-0.9212 Y0.9785 Z0.5934
X-0.9346 Y0.9647 Z0.5936
X-0.9473 Y0.9518
X-0.9606 Y0.9386
X-0.9734 Y0.9261 Z0.5935
X-0.9821 Y0.9178 Z0.5933
X-0.9994 Y0.9016 Z0.5929
X-1.0168 Y0.8855 Z0.5924
X-1.0537 Y0.8517 Z0.5911
X-1.0603 Y0.8454 Z0.591
X-1.069 Y0.8342 Z0.592
X-1.0884 Y0.8082 Z0.5946
X-1.1077 Y0.7822 Z0.597
X-1.1298 Y0.7523 Z0.5995
X-1.1472 Y0.7286 Z0.6013
X-1.1651 Y0.704 Z0.6029
X-1.1733 Y0.6926 Z0.6036
X-1.1775 Y0.6866 Z0.604
X-1.182 Y0.6794 Z0.6045
X-1.1876 Y0.6692 Z0.6053
X-1.1917 Y0.6605 Z0.6061
X-1.1957 Y0.6518 Z0.6067
X-1.1996 Y0.6431 Z0.6073
X-1.2035 Y0.6344 Z0.6077
X-1.208 Y0.6245 Z0.6081
X-1.2114 Y0.617 Z0.6083
X-1.2167 Y0.6053 Z0.6085
X-1.2312 Y0.5736 Z0.6086
X-1.2434 Y0.5475
X-1.2516 Y0.5301
X-1.2555 Y0.5214
X-1.2602 Y0.5094
X-1.2715 Y0.478
X-1.2811 Y0.4519
X-1.2877 Y0.4345 Z0.6085
X-1.291 Y0.4259 Z0.6084
X-1.2949 Y0.4154 Z0.6082
X-1.3009 Y0.3998 Z0.6075
X-1.3043 Y0.3911 Z0.6071
X-1.3076 Y0.3824 Z0.6065
X-1.3123 Y0.3694 Z0.6055
X-1.3137 Y0.365 Z0.6051
X-1.316 Y0.3563 Z0.6045
X-1.3178 Y0.3476 Z0.604
X-1.321 Y0.3289 Z0.6031
X-1.3264 Y0.2955 Z0.6012
X-1.3318 Y0.2607 Z0.5991
X-1.3372 Y0.226 Z0.5966
X-1.3424 Y0.1912 Z0.5939
X-1.3462 Y0.1651 Z0.5918
X-1.3472 Y0.1564 Z0.5912
X-1.347 Y0.1477 Z0.5913
X-1.3441 Y0.0695 Z0.593
X-1.3433 Y0.0435 Z0.5934
X-1.343 Y0.0261 Z0.5936
X-1.3428 Y0.0087 Z0.5937
X-1.3429 Y0.
X-1.3428 Y-0.0087
X-1.3429 Y-0.0174
X-1.3432 Y-0.0348 Z0.5935
X-1.3436 Y-0.0521 Z0.5932
X-1.3449 Y-0.0869 Z0.5925
X-1.3475 Y-0.1477 Z0.591
X-1.3471 Y-0.1564 Z0.5912
X-1.3447 Y-0.1738 Z0.5926
X-1.3396 Y-0.2086 Z0.5954
X-1.3344 Y-0.2433 Z0.5979
X-1.3297 Y-0.2747 Z0.6
X-1.3251 Y-0.3042 Z0.6017
X-1.3231 Y-0.3169 Z0.6024
X-1.3213 Y-0.3243 Z0.603
X-1.32 Y-0.3279 Z0.6034
X-1.3186 Y-0.3314 Z0.6038
X-1.3151 Y-0.3382 Z0.6048
X-1.3113 Y-0.3448 Z0.6057
X-1.3073 Y-0.3514 Z0.6065
X-1.3033 Y-0.3581 Z0.6072
X-1.2996 Y-0.3649 Z0.6077
X-1.2966 Y-0.3721 Z0.608
X-1.2927 Y-0.3824 Z0.6083
X-1.2894 Y-0.3911 Z0.6085
X-1.2827 Y-0.4085 Z0.6086
X-1.2664 Y-0.4519
X-1.2537 Y-0.4867
X-1.2474 Y-0.5041
X-1.2428 Y-0.516
X-1.2364 Y-0.5301
X-1.2202 Y-0.5649
X-1.2043 Y-0.5997
X-1.1906 Y-0.6302 Z0.6085
X-1.1849 Y-0.6431 Z0.6083
X-1.181 Y-0.6518 Z0.6081
X-1.177 Y-0.6605 Z0.6077
X-1.1724 Y-0.6692 Z0.6074
X-1.167 Y-0.6779 Z0.607
X-1.1646 Y-0.6815 Z0.6069
X-1.1549 Y-0.6953 Z0.6063
X-1.1385 Y-0.7182 Z0.6053
X-1.1211 Y-0.7423 Z0.6041
X-1.1037 Y-0.7664 Z0.6026
X-1.086 Y-0.7909 Z0.601
X-1.067 Y-0.8169 Z0.5989
X-1.0603 Y-0.8261 Z0.5982
X-1.0536 Y-0.8343 Z0.5977
X-1.0516 Y-0.8365 Z0.5976
X-1.0255 Y-0.8605 Z0.5983
X-0.9975 Y-0.8865 Z0.5989
X-0.9734 Y-0.9091 Z0.5994
X-0.9607 Y-0.9212 Z0.5995
X-0.9473 Y-0.9344 Z0.5996
X-0.9299 Y-0.9518
X-0.9174 Y-0.9647 Z0.5995
X-0.9091 Y-0.9734 Z0.5994
X-0.8929 Y-0.9908 Z0.599
X-0.8769 Y-1.0081 Z0.5986
X-0.843 Y-1.0452 Z0.5976
X-0.8368 Y-1.0516 Z0.5975
X-0.8254 Y-1.0603 Z0.5984
X-0.7996 Y-1.0793 Z0.6004
X-0.7735 Y-1.0983 Z0.6022
X-0.7474 Y-1.1173 Z0.6038
X-0.7181 Y-1.1385 Z0.6053
X-0.694 Y-1.1559 Z0.6064
X-0.6817 Y-1.1646 Z0.6068
X-0.6779 Y-1.1671 Z0.607
X-0.6692 Y-1.1722 Z0.6074
X-0.6605 Y-1.1767 Z0.6078
X-0.6491 Y-1.182 Z0.6082
X-0.6344 Y-1.1886 Z0.6085
X-0.6084 Y-1.2003 Z0.6086
X-0.5723 Y-1.2167
X-0.5475 Y-1.2282
X-0.5301 Y-1.2364
X-0.5161 Y-1.2428
X-0.5041 Y-1.2475
X-0.469 Y-1.2602
X-0.4432 Y-1.2697
X-0.4172 Y-1.2796
X-0.3997 Y-1.2862
X-0.3911 Y-1.2896 Z0.6085
X-0.3772 Y-1.2949 Z0.6082
X-0.365 Y-1.2994 Z0.6077
X-0.3563 Y-1.302 Z0.6074
X-0.3499 Y-1.3036 Z0.6072
X-0.3389 Y-1.3057 Z0.6068
X-0.3129 Y-1.3102 Z0.6059
X-0.2868 Y-1.3145 Z0.6049
X-0.252 Y-1.3201 Z0.6034
X-0.2173 Y-1.3257 Z0.6015
X-0.1825 Y-1.3312 Z0.5994
X-0.1651 Y-1.3339 Z0.5982
X-0.1564 Y-1.3349 Z0.5977
X-0.1477
X-0.0695 Y-1.3318 Z0.5991
X-0.0435 Y-1.331 Z0.5994
X-0.0261 Y-1.3306 Z0.5996
X-0.0087 Y-1.3304 Z0.5997
X0. Y-1.3305 Z0.5996
X0.0087 Y-1.3304
X0.0261 Y-1.3306
X0.0435 Y-1.331 Z0.5994
X0.0695 Y-1.332 Z0.599
X0.113 Y-1.3338 Z0.5982
X0.1477 Y-1.3353 Z0.5975
X0.1564 Y-1.3347 Z0.5978
X0.1825 Y-1.3308 Z0.5995
X0.2173 Y-1.3255 Z0.6016
X0.252 Y-1.32 Z0.6034
X0.2868 Y-1.3145 Z0.6049
X0.3129 Y-1.3102 Z0.6059
X0.3389 Y-1.3059 Z0.6068
X0.3476 Y-1.3042 Z0.6071
X0.3501 Y-1.3036 Z0.6072
X0.3563 Y-1.302 Z0.6074
X0.365 Y-1.2993 Z0.6078
X0.3766 Y-1.2949 Z0.6082
X0.3911 Y-1.2894 Z0.6085
X0.4085 Y-1.2827 Z0.6086
X0.4452 Y-1.2689
X0.478 Y-1.2568
X0.5041 Y-1.2474
X0.516 Y-1.2428
X0.5301 Y-1.2364
X0.5649 Y-1.2202
X0.5915 Y-1.208
X0.6302 Y-1.1906 Z0.6085
X0.6431 Y-1.1849 Z0.6083
X0.6518 Y-1.181 Z0.6081
X0.6605 Y-1.177 Z0.6077
X0.6692 Y-1.1723 Z0.6074
X0.6779 Y-1.1669 Z0.607
X0.6813 Y-1.1646 Z0.6069
X0.6953 Y-1.1547 Z0.6064
X0.7213 Y-1.1361 Z0.6052
X0.7474 Y-1.1174 Z0.6038
X0.7735 Y-1.0985 Z0.6022
X0.8022 Y-1.0777 Z0.6001
X0.826 Y-1.0603 Z0.5982
X0.8343 Y-1.0536 Z0.5977
X0.8365 Y-1.0516 Z0.5976
X0.8605 Y-1.0255 Z0.5983
X0.8865 Y-0.9975 Z0.5989
X0.9091 Y-0.9734 Z0.5994
X0.9212 Y-0.9607 Z0.5995
X0.9344 Y-0.9473 Z0.5996
X0.9518 Y-0.9299
X0.9647 Y-0.9174 Z0.5995
X0.9734 Y-0.9091 Z0.5994
X0.9908 Y-0.8929 Z0.599
X1.0081 Y-0.8769 Z0.5986
X1.0452 Y-0.843 Z0.5976
X1.0516 Y-0.8368 Z0.5975
X1.0603 Y-0.8253 Z0.5984
X1.0792 Y-0.7996 Z0.6004
X1.0982 Y-0.7735 Z0.6023
X1.1172 Y-0.7474 Z0.6039
X1.1385 Y-0.7179 Z0.6054
X1.1559 Y-0.6937 Z0.6064
X1.161 Y-0.6866 Z0.6067
X1.1646 Y-0.6814 Z0.6069
X1.1669 Y-0.6779 Z0.607
X1.1721 Y-0.6692 Z0.6074
X1.1733 Y-0.6671 Z0.6075
X1.1767 Y-0.6605 Z0.6078
X1.182 Y-0.6491 Z0.6082
X1.1886 Y-0.6344 Z0.6085
X1.2003 Y-0.6084 Z0.6086
X1.2167 Y-0.5723
X1.2282 Y-0.5475
X1.2364 Y-0.5301
X1.2428 Y-0.516
X1.2475 Y-0.5041
X1.2602 Y-0.4689
X1.2729 Y-0.4345
X1.2862 Y-0.3997
X1.2896 Y-0.3911 Z0.6085
X1.2949 Y-0.3772 Z0.6082
X1.2994 Y-0.365 Z0.6077
X1.302 Y-0.3563 Z0.6074
X1.3036 Y-0.3499 Z0.6072
X1.3057 Y-0.3389 Z0.6068
X1.3102 Y-0.3129 Z0.6059
X1.3145 Y-0.2868 Z0.6049
X1.3201 Y-0.252 Z0.6034
X1.3257 Y-0.2173 Z0.6015
X1.3312 Y-0.1825 Z0.5994
X1.3339 Y-0.1651 Z0.5982
X1.3349 Y-0.1564 Z0.5977
Y-0.1477
X1.3318 Y-0.0695 Z0.5991
X1.331 Y-0.0435 Z0.5994
X1.3306 Y-0.0261 Z0.5996
X1.3304 Y-0.0087 Z0.5997
X1.3305 Y0. Z0.5996
X1.3304 Y0.0087
X1.3306 Y0.0261
X1.331 Y0.0435 Z0.5994
X1.332 Y0.0695 Z0.599
X1.3338 Y0.113 Z0.5982
X1.3353 Y0.1477 Z0.5975
X1.3347 Y0.1564 Z0.5978
X1.3308 Y0.1825 Z0.5995
X1.3255 Y0.2173 Z0.6016
X1.32 Y0.252 Z0.6034
X1.3145 Y0.2868 Z0.6049
X1.3102 Y0.3129 Z0.6059
X1.3074 Y0.3303 Z0.6065
X1.3058 Y0.3389 Z0.6068
X1.3036 Y0.35 Z0.6072
X1.302 Y0.3563 Z0.6074
X1.2992 Y0.365 Z0.6078
X1.2949 Y0.3765 Z0.6082
X1.2894 Y0.3911 Z0.6085
X1.2827 Y0.4085 Z0.6086
X1.2664 Y0.4519
X1.2568 Y0.478
X1.2475 Y0.5041
X1.2428 Y0.5161
X1.2364 Y0.5301
X1.2242 Y0.5562
X1.2122 Y0.5823
X1.1966 Y0.617
X1.1889 Y0.6344 Z0.6085
X1.182 Y0.6499 Z0.6082
X1.1771 Y0.6605 Z0.6077
X1.1723 Y0.6692 Z0.6074
X1.1669 Y0.6779 Z0.607
X1.1609 Y0.6866 Z0.6067
X1.1423 Y0.7126 Z0.6056
X1.1236 Y0.7387 Z0.6043
X1.1048 Y0.7648 Z0.6028
X1.0922 Y0.7822 Z0.6016
X1.0732 Y0.8082 Z0.5997
X1.0603 Y0.826 Z0.5982
X1.0536 Y0.8343 Z0.5977
X1.0516 Y0.8365 Z0.5976
X1.0255 Y0.8605 Z0.5983
X0.9975 Y0.8865 Z0.5989
X0.9734 Y0.9091 Z0.5994
X0.9607 Y0.9212 Z0.5995
X0.9473 Y0.9344 Z0.5996
X0.9299 Y0.9518
X0.9174 Y0.9647 Z0.5995
X0.9091 Y0.9734 Z0.5994
X0.8929 Y0.9908 Z0.599
X0.8769 Y1.0081 Z0.5986
X0.843 Y1.0452 Z0.5976
X0.8368 Y1.0516 Z0.5975
X0.8254 Y1.0603 Z0.5984
X0.7996 Y1.0793 Z0.6004
X0.7735 Y1.0984 Z0.6022
X0.7474 Y1.1173 Z0.6038
X0.7213 Y1.1362 Z0.6052
X0.6953 Y1.155 Z0.6063
X0.6866 Y1.1611 Z0.6067
X0.6816 Y1.1646 Z0.6069
X0.6779 Y1.167 Z0.607
X0.6692 Y1.1721 Z0.6074
X0.6671 Y1.1733 Z0.6075
X0.6605 Y1.1766 Z0.6078
X0.649 Y1.182 Z0.6082
X0.6344 Y1.1885 Z0.6085
X0.6084 Y1.2002 Z0.6086
X0.5649 Y1.2201
X0.5301 Y1.2364
X0.516 Y1.2428
X0.5041 Y1.2475
X0.4689 Y1.2602
X0.4432 Y1.2697
X0.4085 Y1.2829
X0.3911 Y1.2896 Z0.6085
X0.3772 Y1.2949 Z0.6082
X0.365 Y1.2995 Z0.6077
X0.3563 Y1.3021 Z0.6074
X0.3499 Y1.3036 Z0.6072
X0.3476 Y1.3041 Z0.6071
X0.3389 Y1.3057 Z0.6068
X0.3129 Y1.3102 Z0.6059
X0.2781 Y1.3159 Z0.6046
X0.2433 Y1.3215 Z0.6029
X0.2086 Y1.3271 Z0.601
X0.1738 Y1.3325 Z0.5988
X0.1651 Y1.3339 Z0.5982
X0.1564 Y1.3349 Z0.5977
X0.1477
X0.0695 Y1.3318 Z0.5991
X0.0435 Y1.331 Z0.5994
X0.0261 Y1.3306 Z0.5996
X0.0087 Y1.3304 Z0.5997
X0. Y1.3305 Z0.5996
X-0.0087 Y1.3304
X-0.0261 Y1.3306
X-0.0435 Y1.331 Z0.5994
X-0.0695 Y1.332 Z0.599
X-0.1304 Y1.3346 Z0.5979
X-0.1477 Y1.3353 Z0.5975
X-0.1564 Y1.3348 Z0.5978
X-0.1825 Y1.3309 Z0.5995
X-0.2173 Y1.3255 Z0.6016
X-0.252 Y1.3201 Z0.6034
X-0.2868 Y1.3146 Z0.6049
X-0.3129 Y1.3103 Z0.6059
X-0.3303 Y1.3074 Z0.6065
X-0.3389 Y1.3059 Z0.6068
X-0.3476 Y1.3042 Z0.6071
X-0.35 Y1.3036 Z0.6072
X-0.3563 Y1.3019 Z0.6074
X-0.365 Y1.2992 Z0.6078
X-0.3765 Y1.2949 Z0.6082
X-0.3911 Y1.2894 Z0.6085
X-0.4085 Y1.2827 Z0.6086
X-0.4519 Y1.2664
X-0.478 Y1.2568
X-0.5041 Y1.2474
X-0.516 Y1.2428
X-0.5301 Y1.2364
X-0.5649 Y1.2202
X-0.5915 Y1.208
X-0.6257 Y1.1926
X-0.6344 Y1.1888 Z0.6085
X-0.6498 Y1.182 Z0.6082
X-0.6605 Y1.177 Z0.6077
X-0.6692 Y1.1723 Z0.6074
X-0.6779 Y1.167 Z0.607
X-0.6815 Y1.1646 Z0.6069
X-0.6953 Y1.1549 Z0.6063
X-0.7182 Y1.1385 Z0.6053
X-0.7423 Y1.1211 Z0.6041
X-0.7664 Y1.1037 Z0.6026
X-0.7909 Y1.086 Z0.601
X-0.8169 Y1.067 Z0.5989
X-0.8261 Y1.0603 Z0.5982
X-0.8343 Y1.0536 Z0.5977
X-0.8365 Y1.0516 Z0.5976
X-0.8605 Y1.0255 Z0.5983
X-0.8865 Y0.9975 Z0.5989
X-0.9091 Y0.9734 Z0.5994
X-0.9212 Y0.9607 Z0.5995
X-0.9344 Y0.9473 Z0.5996
X-0.9518 Y0.9299
X-0.9647 Y0.9174 Z0.5995
X-0.9734 Y0.9091 Z0.5994
X-0.9908 Y0.8929 Z0.599
X-1.0081 Y0.8769 Z0.5986
X-1.0452 Y0.843 Z0.5976
X-1.0516 Y0.8368 Z0.5975
X-1.0603 Y0.8254 Z0.5984
X-1.0793 Y0.7996 Z0.6004
X-1.0983 Y0.7735 Z0.6022
X-1.1173 Y0.7474 Z0.6038
X-1.1385 Y0.7181 Z0.6053
X-1.1559 Y0.694 Z0.6064
X-1.1646 Y0.6817 Z0.6069
X-1.1671 Y0.6779 Z0.607
X-1.1722 Y0.6692 Z0.6074
X-1.1733 Y0.6672 Z0.6075
X-1.1767 Y0.6605 Z0.6078
X-1.182 Y0.649 Z0.6082
X-1.1885 Y0.6344 Z0.6085
X-1.2002 Y0.6084 Z0.6086
X-1.2201 Y0.5649
X-1.2364 Y0.5301
X-1.2428 Y0.5161
X-1.2475 Y0.5041
X-1.2602 Y0.469
X-1.2697 Y0.4432
X-1.2829 Y0.4085
X-1.2896 Y0.3911 Z0.6085
X-1.2949 Y0.3773 Z0.6082
X-1.2995 Y0.365 Z0.6077
X-1.3021 Y0.3563 Z0.6074
X-1.3036 Y0.3499 Z0.6072
X-1.3041 Y0.3476 Z0.6071
X-1.3057 Y0.3389 Z0.6068
X-1.3102 Y0.3129 Z0.6059
X-1.3145 Y0.2868 Z0.6049
X-1.3201 Y0.252 Z0.6034
X-1.3257 Y0.2173 Z0.6015
X-1.3312 Y0.1825 Z0.5994
X-1.3339 Y0.1651 Z0.5982
X-1.3349 Y0.1564 Z0.5977
Y0.1477
X-1.3318 Y0.0695 Z0.5991
X-1.331 Y0.0435 Z0.5994
X-1.3306 Y0.0261 Z0.5996
X-1.3304 Y0.0087 Z0.5997
X-1.3305 Y0. Z0.5996
X-1.3304 Y-0.0087
X-1.3306 Y-0.0261
X-1.331 Y-0.0435 Z0.5994
X-1.332 Y-0.0695 Z0.599
X-1.3346 Y-0.1304 Z0.5979
X-1.3353 Y-0.1477 Z0.5975
X-1.3348 Y-0.1564 Z0.5978
X-1.3322 Y-0.1738 Z0.5989
X-1.3282 Y-0.1999 Z0.6005
X-1.3228 Y-0.2347 Z0.6025
X-1.3187 Y-0.2607 Z0.6038
X-1.3146 Y-0.2868 Z0.6049
X-1.3101 Y-0.3146 Z0.606
X-1.3074 Y-0.3303 Z0.6065
X-1.3059 Y-0.3389 Z0.6068
X-1.3042 Y-0.3476 Z0.6071
X-1.3036 Y-0.35 Z0.6072
X-1.3019 Y-0.3563 Z0.6074
X-1.2992 Y-0.365 Z0.6078
X-1.2966 Y-0.3721 Z0.608
X-1.2934 Y-0.379 Z0.6083
X-1.2914 Y-0.3822 Z0.6084
X-1.2892 Y-0.3854 Z0.6085
X-1.2846 Y-0.3915 Z0.6086
X-1.2747 Y-0.4033
X-1.27 Y-0.4094
X-1.2659 Y-0.4159
X-1.2641 Y-0.4192
X-1.2626 Y-0.4228
X-1.2515 Y-0.4526
X-1.2422 Y-0.478
X-1.2341 Y-0.5004
X-1.2292 Y-0.5128
X-1.2212 Y-0.5301
X-1.208 Y-0.5584
X-1.1932 Y-0.591
X-1.1776 Y-0.6257
X-1.1699 Y-0.6431
X-1.1646 Y-0.6547
X-1.1615 Y-0.6605 Z0.6085
X-1.1559 Y-0.6699 Z0.6084
X-1.1505 Y-0.6779 Z0.6083
X-1.1382 Y-0.6953 Z0.608
X-1.1196 Y-0.7213 Z0.6074
X-1.101 Y-0.7474 Z0.6066
X-1.0823 Y-0.7735 Z0.6055
X-1.0636 Y-0.7996 Z0.6041
X-1.051 Y-0.8169 Z0.6031
X-1.0442 Y-0.8256 Z0.6027
X-1.0429 Y-0.8271
X-1.0342 Y-0.8351 Z0.6028
X-0.9972 Y-0.8691 Z0.6035
X-0.9785 Y-0.8865 Z0.6038
X-0.9601 Y-0.9038 Z0.604
X-0.9473 Y-0.9161 Z0.6041
X-0.9386 Y-0.9247
X-0.9212 Y-0.9421
X-0.9077 Y-0.956 Z0.604
X-0.8952 Y-0.9693 Z0.6039
X-0.8753 Y-0.9908 Z0.6035
X-0.8343 Y-1.0358 Z0.6026
X-0.8271 Y-1.0429 Z0.6027
X-0.8155 Y-1.0516 Z0.6033
X-0.7909 Y-1.0694 Z0.6047
X-0.7648 Y-1.0882 Z0.6059
X-0.7387 Y-1.1071 Z0.6069
X-0.7126 Y-1.1258 Z0.6077
X-0.6866 Y-1.1444 Z0.6082
X-0.6779 Y-1.1506 Z0.6083
X-0.67 Y-1.1559 Z0.6084
X-0.6605 Y-1.1613 Z0.6085
X-0.6541 Y-1.1646 Z0.6086
X-0.6344 Y-1.1735
X-0.591 Y-1.1931
X-0.5562 Y-1.209
X-0.5212 Y-1.2254
X-0.5128 Y-1.2292
X-0.5006 Y-1.2341
X-0.4693 Y-1.2454
X-0.4432 Y-1.2551
X-0.4067 Y-1.2689
X-0.3737 Y-1.2815
X-0.3612 Y-1.2862
X-0.3563 Y-1.2877 Z0.6085
X-0.3476 Y-1.2901
X-0.3389 Y-1.2918 Z0.6084
X-0.3216 Y-1.2949 Z0.6082
X-0.2955 Y-1.2993 Z0.6077
X-0.2607 Y-1.3052 Z0.6069
X-0.226 Y-1.3109 Z0.6058
X-0.1912 Y-1.3166 Z0.6044
X-0.164 Y-1.321 Z0.6031
X-0.1564 Y-1.322 Z0.6028
X-0.1477 Y-1.3221 Z0.6027
X-0.0695 Y-1.3188 Z0.6037
X-0.0435 Y-1.318 Z0.604
X-0.0261 Y-1.3176 Z0.6041
X-0.0087 Y-1.3174
X0. Y-1.3175
X0.0087
X0.0261 Y-1.3177
X0.0435 Y-1.3181 Z0.604
X0.0695 Y-1.319 Z0.6037
X0.1137 Y-1.321 Z0.6031
X0.1477 Y-1.3225 Z0.6026
X0.1564 Y-1.3218 Z0.6028
X0.1912 Y-1.3163 Z0.6045
X0.226 Y-1.3107 Z0.6058
X0.2607 Y-1.3051 Z0.6069
X0.2955 Y-1.2994 Z0.6077
X0.322 Y-1.2949 Z0.6082
X0.3303 Y-1.2935 Z0.6083
X0.3389 Y-1.2919 Z0.6084
X0.3476 Y-1.2901 Z0.6085
X0.3563 Y-1.2876
X0.3607 Y-1.2862 Z0.6086
X0.3737 Y-1.2813
X0.4172 Y-1.2647
X0.4526 Y-1.2515
X0.478 Y-1.2422
X0.5004 Y-1.2341
X0.5128 Y-1.2292
X0.5214 Y-1.2253
X0.5584 Y-1.208
X0.5823 Y-1.1971
X0.6257 Y-1.1776
X0.6431 Y-1.1699
X0.6546 Y-1.1646
X0.6605 Y-1.1614 Z0.6085
X0.6697 Y-1.1559 Z0.6084
X0.6779 Y-1.1503 Z0.6083
X0.704 Y-1.1319 Z0.6079
X0.7313 Y-1.1124 Z0.6071
X0.7561 Y-1.0947 Z0.6063
X0.7822 Y-1.076 Z0.6051
X0.8082 Y-1.0572 Z0.6037
X0.8169 Y-1.0509 Z0.6031
X0.8256 Y-1.0441 Z0.6027
X0.8271 Y-1.0429
X0.8351 Y-1.0342 Z0.6028
X0.8691 Y-0.9972 Z0.6035
X0.8865 Y-0.9785 Z0.6038
X0.9038 Y-0.9601 Z0.604
X0.9161 Y-0.9473 Z0.6041
X0.9247 Y-0.9386
X0.9421 Y-0.9212
X0.956 Y-0.9077 Z0.604
X0.9693 Y-0.8952 Z0.6039
X0.9908 Y-0.8753 Z0.6035
X1.0358 Y-0.8343 Z0.6026
X1.0429 Y-0.8271 Z0.6027
X1.0516 Y-0.8153 Z0.6034
X1.0693 Y-0.7909 Z0.6047
X1.0881 Y-0.7648 Z0.6059
X1.1069 Y-0.7387 Z0.6069
X1.1256 Y-0.7126 Z0.6077
X1.1472 Y-0.6824 Z0.6083
X1.1504 Y-0.6779
X1.1562 Y-0.6692 Z0.6084
X1.1613 Y-0.6605 Z0.6085
X1.1646 Y-0.654 Z0.6086
X1.1735 Y-0.6344
X1.1931 Y-0.591
X1.209 Y-0.5562
X1.2254 Y-0.5211
X1.2292 Y-0.5128
X1.2341 Y-0.5005
X1.2486 Y-0.4606
X1.2602 Y-0.4295
X1.2749 Y-0.3911
X1.2815 Y-0.3737
X1.2862 Y-0.3612
X1.2877 Y-0.3563 Z0.6085
X1.2901 Y-0.3476
X1.2918 Y-0.3389 Z0.6084
X1.2949 Y-0.3216 Z0.6082
X1.2993 Y-0.2955 Z0.6077
X1.3052 Y-0.2607 Z0.6069
X1.3109 Y-0.226 Z0.6058
X1.3166 Y-0.1912 Z0.6044
X1.321 Y-0.164 Z0.6031
X1.322 Y-0.1564 Z0.6028
X1.3221 Y-0.1477 Z0.6027
X1.3188 Y-0.0695 Z0.6037
X1.318 Y-0.0435 Z0.604
X1.3176 Y-0.0261 Z0.6041
X1.3174 Y-0.0087
X1.3175 Y0.
Y0.0087
X1.3177 Y0.0261
X1.3181 Y0.0435 Z0.604
X1.319 Y0.0695 Z0.6037
X1.321 Y0.1137 Z0.6031
X1.3225 Y0.1477 Z0.6026
X1.3218 Y0.1564 Z0.6028
X1.3163 Y0.1912 Z0.6045
X1.3107 Y0.226 Z0.6058
X1.3051 Y0.2607 Z0.6069
X1.2994 Y0.2955 Z0.6077
X1.2949 Y0.322 Z0.6082
X1.2935 Y0.3303 Z0.6083
X1.2919 Y0.3389 Z0.6084
X1.2901 Y0.3476 Z0.6085
X1.2876 Y0.3563
X1.2862 Y0.3605 Z0.6086
X1.2747 Y0.3911
X1.2615 Y0.4259
X1.2486 Y0.4606
X1.2391 Y0.4867
X1.2341 Y0.5006
X1.2292 Y0.5128
X1.2213 Y0.5301
X1.2091 Y0.5562
X1.1971 Y0.5823
X1.1815 Y0.617
X1.1699 Y0.6431
X1.1646 Y0.6548
X1.1615 Y0.6605 Z0.6085
X1.1559 Y0.6697 Z0.6084
X1.1503 Y0.6779 Z0.6083
X1.1319 Y0.704 Z0.6079
X1.1124 Y0.7313 Z0.6071
X1.0947 Y0.7561 Z0.6063
X1.076 Y0.7822 Z0.6051
X1.0572 Y0.8082 Z0.6037
X1.0509 Y0.8169 Z0.6031
X1.0441 Y0.8256 Z0.6027
X1.0429 Y0.8271
X1.0342 Y0.8351 Z0.6028
X0.9972 Y0.8691 Z0.6035
X0.9785 Y0.8865 Z0.6038
X0.9601 Y0.9038 Z0.604
X0.9473 Y0.9161 Z0.6041
X0.9386 Y0.9247
X0.9212 Y0.9421
X0.9077 Y0.956 Z0.604
X0.8952 Y0.9693 Z0.6039
X0.8753 Y0.9908 Z0.6035
X0.8343 Y1.0358 Z0.6026
X0.8271 Y1.0429 Z0.6027
X0.8155 Y1.0516 Z0.6033
X0.7909 Y1.0694 Z0.6047
X0.7648 Y1.0883 Z0.6059
X0.7387 Y1.1071 Z0.6069
X0.7126 Y1.1258 Z0.6077
X0.6866 Y1.1444 Z0.6082
X0.6779 Y1.1506 Z0.6083
X0.6692 Y1.1563 Z0.6084
X0.6605 Y1.1613 Z0.6085
X0.6539 Y1.1646 Z0.6086
X0.6349 Y1.1733
X0.6084 Y1.1852
X0.5649 Y1.205
X0.5388 Y1.2171
X0.5211 Y1.2254
X0.5128 Y1.2292
X0.5005 Y1.2341
X0.4606 Y1.2486
X0.4259 Y1.2616
X0.3911 Y1.2749
X0.3737 Y1.2816
X0.3613 Y1.2862
X0.3563 Y1.2878 Z0.6085
X0.3476 Y1.2901
X0.3389 Y1.2918 Z0.6084
X0.3216 Y1.2949 Z0.6082
X0.2955 Y1.2993 Z0.6077
X0.2607 Y1.3051 Z0.6069
X0.226 Y1.3109 Z0.6058
X0.1912 Y1.3166 Z0.6044
X0.164 Y1.321 Z0.6031
X0.1564 Y1.322 Z0.6028
X0.1477 Y1.3221 Z0.6027
X0.0695 Y1.3188 Z0.6037
X0.0435 Y1.318 Z0.604
X0.0261 Y1.3176 Z0.6041
X0.0087 Y1.3174
X0. Y1.3175
X-0.0087
X-0.0261 Y1.3177
X-0.0435 Y1.3181 Z0.604
X-0.0695 Y1.319 Z0.6037
X-0.1477 Y1.3225 Z0.6026
X-0.1564 Y1.3218 Z0.6028
X-0.1825 Y1.3178 Z0.6041
X-0.2173 Y1.3122 Z0.6055
X-0.252 Y1.3065 Z0.6067
X-0.2781 Y1.3023 Z0.6074
X-0.3129 Y1.2966 Z0.608
X-0.3303 Y1.2936 Z0.6083
X-0.3389 Y1.292 Z0.6084
X-0.3476 Y1.2901 Z0.6085
X-0.3563 Y1.2876
X-0.3605 Y1.2862 Z0.6086
X-0.3835 Y1.2776
X-0.4172 Y1.2648
X-0.4527 Y1.2515
X-0.4867 Y1.2391
X-0.5005 Y1.2341
X-0.5128 Y1.2292
X-0.5301 Y1.2212
X-0.5584 Y1.208
X-0.5823 Y1.1971
X-0.617 Y1.1815
X-0.6431 Y1.1699
X-0.6547 Y1.1646
X-0.6605 Y1.1615 Z0.6085
X-0.6699 Y1.1559 Z0.6084
X-0.6779 Y1.1505 Z0.6083
X-0.6953 Y1.1382 Z0.608
X-0.7213 Y1.1196 Z0.6074
X-0.7474 Y1.101 Z0.6066
X-0.7735 Y1.0823 Z0.6055
X-0.7996 Y1.0636 Z0.6041
X-0.8169 Y1.051 Z0.6031
X-0.8256 Y1.0442 Z0.6027
X-0.8271 Y1.0429
X-0.8351 Y1.0342 Z0.6028
X-0.8691 Y0.9972 Z0.6035
X-0.8865 Y0.9785 Z0.6038
X-0.9038 Y0.9601 Z0.604
X-0.9161 Y0.9473 Z0.6041
X-0.9247 Y0.9386
X-0.9421 Y0.9212
X-0.956 Y0.9077 Z0.604
X-0.9693 Y0.8952 Z0.6039
X-0.9908 Y0.8753 Z0.6035
X-1.0358 Y0.8343 Z0.6026
X-1.0429 Y0.8271 Z0.6027
X-1.0516 Y0.8155 Z0.6033
X-1.0694 Y0.7909 Z0.6047
X-1.0882 Y0.7648 Z0.6059
X-1.1071 Y0.7387 Z0.6069
X-1.1258 Y0.7126 Z0.6077
X-1.1444 Y0.6866 Z0.6082
X-1.1506 Y0.6779 Z0.6083
X-1.1559 Y0.6699 Z0.6084
X-1.1613 Y0.6605 Z0.6085
X-1.1646 Y0.654 Z0.6086
X-1.1734 Y0.6344
X-1.1906 Y0.5963
X-1.205 Y0.5649
X-1.2171 Y0.5388
X-1.2254 Y0.5212
X-1.2292 Y0.5128
X-1.2341 Y0.5006
X-1.2486 Y0.4606
X-1.2583 Y0.4345
X-1.2715 Y0.3998
X-1.2816 Y0.3737
X-1.2862 Y0.3613
X-1.2878 Y0.3563 Z0.6085
X-1.2901 Y0.3476
X-1.2918 Y0.3389 Z0.6084
X-1.2949 Y0.3216 Z0.6082
X-1.2993 Y0.2955 Z0.6077
X-1.3052 Y0.2607 Z0.6069
X-1.3109 Y0.226 Z0.6058
X-1.3166 Y0.1912 Z0.6044
X-1.321 Y0.164 Z0.6031
X-1.322 Y0.1564 Z0.6028
X-1.3221 Y0.1477 Z0.6027
X-1.3188 Y0.0695 Z0.6037
X-1.318 Y0.0435 Z0.604
X-1.3176 Y0.0261 Z0.6041
X-1.3174 Y0.0087
X-1.3175 Y0.
Y-0.0087
X-1.3177 Y-0.0261
X-1.3181 Y-0.0435 Z0.604
X-1.319 Y-0.0695 Z0.6037
X-1.3225 Y-0.1477 Z0.6026
X-1.3218 Y-0.1564 Z0.6028
X-1.3178 Y-0.1825 Z0.6041
X-1.3122 Y-0.2173 Z0.6055
X-1.3065 Y-0.252 Z0.6067
X-1.3023 Y-0.2781 Z0.6074
X-1.2966 Y-0.3129 Z0.608
X-1.2936 Y-0.3303 Z0.6083
X-1.292 Y-0.3389 Z0.6084
X-1.2901 Y-0.3476 Z0.6085
X-1.2876 Y-0.3563
X-1.2862 Y-0.3605 Z0.6086
X-1.2776 Y-0.3835
X-1.2626 Y-0.4228
X-1.2594 Y-0.4297
X-1.2574 Y-0.4329
X-1.2553 Y-0.4361
X-1.2507 Y-0.4422
X-1.2409 Y-0.4542
X-1.2363 Y-0.4603
X-1.2323 Y-0.4668
X-1.2306 Y-0.4702
X-1.2291 Y-0.4737
X-1.2213 Y-0.4954
X-1.2167 Y-0.507
X-1.208 Y-0.5259
X-1.1939 Y-0.5562
X-1.1781 Y-0.591
X-1.1587 Y-0.6344
X-1.1548 Y-0.6431
X-1.1506 Y-0.6518
X-1.1455 Y-0.6605
X-1.1385 Y-0.6711
X-1.1211 Y-0.6956
X-1.1028 Y-0.7213 Z0.6085
X-1.0843 Y-0.7474 Z0.6082
X-1.0657 Y-0.7735 Z0.6076
X-1.0471 Y-0.7996 Z0.6068
X-1.0409 Y-0.8082 Z0.6065
X-1.0341 Y-0.8169 Z0.6062
X-1.0249 Y-0.8256 Z0.6063
X-0.9869 Y-0.8604 Z0.6067
X-0.9682 Y-0.8778 Z0.6069
X-0.956 Y-0.8892 Z0.607
X-0.9386 Y-0.9059 Z0.6071
X-0.9299 Y-0.9144
X-0.9125 Y-0.9318
X-0.9038 Y-0.9407 Z0.607
X-0.8892 Y-0.956
X-0.8651 Y-0.9821 Z0.6067
X-0.8256 Y-1.0256 Z0.6062
X-0.8169 Y-1.0339
X-0.8082 Y-1.0403 Z0.6066
X-0.7805 Y-1.0603 Z0.6074
X-0.7561 Y-1.0778 Z0.608
X-0.73 Y-1.0965 Z0.6084
X-0.704 Y-1.1151 Z0.6086
X-0.6712 Y-1.1385
X-0.6692 Y-1.1399
X-0.6605 Y-1.1455
X-0.6575 Y-1.1472
X-0.6518 Y-1.1503
X-0.6401 Y-1.1559
X-0.5822 Y-1.182
X-0.5475 Y-1.1979
X-0.5214 Y-1.2101
X-0.5071 Y-1.2167
X-0.4954 Y-1.2214
X-0.4603 Y-1.2341
X-0.4345 Y-1.2436
X-0.3998 Y-1.2568
X-0.365 Y-1.2701
X-0.3563 Y-1.2734
X-0.3476 Y-1.2759
X-0.3404 Y-1.2776
X-0.3303 Y-1.2795
X-0.2907 Y-1.2862
X-0.2607 Y-1.2913 Z0.6084
X-0.226 Y-1.2972 Z0.608
X-0.1912 Y-1.303 Z0.6073
X-0.1651 Y-1.3073 Z0.6065
X-0.1564 Y-1.3086 Z0.6063
X-0.1477 Y-1.3088 Z0.6062
X-0.0782 Y-1.3058 Z0.6068
X-0.0521 Y-1.3049 Z0.607
X-0.0348 Y-1.3044
X-0.0087 Y-1.304 Z0.6071
X0. Y-1.3041
X0.0087
X0.0261 Y-1.3042
X0.0435 Y-1.3047 Z0.607
X0.0695 Y-1.3056 Z0.6068
X0.1391 Y-1.3089 Z0.6062
X0.1477 Y-1.3092 Z0.6061
X0.1564 Y-1.3083 Z0.6063
X0.1912 Y-1.3027 Z0.6073
X0.226 Y-1.2969 Z0.608
X0.2607 Y-1.2912 Z0.6084
X0.2955 Y-1.2855 Z0.6086
X0.3216 Y-1.2811
X0.3303 Y-1.2796
X0.3407 Y-1.2776
X0.3476 Y-1.2758
X0.3563 Y-1.2732
X0.3737 Y-1.2666
X0.4172 Y-1.25
X0.4432 Y-1.2403
X0.478 Y-1.2276
X0.4954 Y-1.2213
X0.507 Y-1.2167
X0.526 Y-1.208
X0.5475 Y-1.1979
X0.5736 Y-1.186
X0.617 Y-1.1664
X0.6344 Y-1.1587
X0.6431 Y-1.1548
X0.6518 Y-1.1505
X0.6605 Y-1.1454
X0.6708 Y-1.1385
X0.7126 Y-1.1089 Z0.6085
X0.7387 Y-1.0903 Z0.6083
X0.7648 Y-1.0718 Z0.6078
X0.7931 Y-1.0516 Z0.607
X0.8082 Y-1.0408 Z0.6065
X0.8169 Y-1.034 Z0.6062
X0.8256 Y-1.0249 Z0.6063
X0.8604 Y-0.9869 Z0.6067
X0.8778 Y-0.9682 Z0.6069
X0.8892 Y-0.956 Z0.607
X0.9059 Y-0.9386 Z0.6071
X0.9144 Y-0.9299
X0.9318 Y-0.9125
X0.9407 Y-0.9038 Z0.607
X0.956 Y-0.8892
X0.9821 Y-0.8651 Z0.6067
X1.0256 Y-0.8256 Z0.6062
X1.0339 Y-0.8169
X1.0429 Y-0.8046 Z0.6067
X1.0603 Y-0.7804 Z0.6075
X1.0777 Y-0.7561 Z0.608
X1.0963 Y-0.73 Z0.6084
X1.115 Y-0.704 Z0.6086
X1.1385 Y-0.671
X1.1454 Y-0.6605
X1.1472 Y-0.6574
X1.1503 Y-0.6518
X1.1545 Y-0.6431
X1.1662 Y-0.617
X1.182 Y-0.5822
X1.1979 Y-0.5475
X1.2101 Y-0.5214
X1.2167 Y-0.507
X1.2213 Y-0.4954
X1.2341 Y-0.4602
X1.2469 Y-0.4259
X1.2635 Y-0.3824
X1.2701 Y-0.365
X1.2734 Y-0.3563
X1.2759 Y-0.3476
X1.2776 Y-0.3404
X1.2795 Y-0.3303
X1.2862 Y-0.2907
X1.2913 Y-0.2607 Z0.6084
X1.2972 Y-0.226 Z0.608
X1.303 Y-0.1912 Z0.6073
X1.3073 Y-0.1651 Z0.6065
X1.3086 Y-0.1564 Z0.6063
X1.3088 Y-0.1477 Z0.6062
X1.3058 Y-0.0782 Z0.6068
X1.3049 Y-0.0521 Z0.607
X1.3044 Y-0.0348
X1.304 Y-0.0087 Z0.6071
X1.3041 Y0.
Y0.0087
X1.3042 Y0.0261
X1.3047 Y0.0435 Z0.607
X1.3056 Y0.0695 Z0.6068
X1.3089 Y0.1391 Z0.6062
X1.3092 Y0.1477 Z0.6061
X1.3083 Y0.1564 Z0.6063
X1.3027 Y0.1912 Z0.6073
X1.2969 Y0.226 Z0.608
X1.2912 Y0.2607 Z0.6084
X1.2855 Y0.2955 Z0.6086
X1.2811 Y0.3216
X1.2796 Y0.3303
X1.2776 Y0.3406
X1.2758 Y0.3476
X1.2731 Y0.3563
X1.26 Y0.3911
X1.2468 Y0.4259
X1.2339 Y0.4606
X1.2214 Y0.4954
X1.2167 Y0.5071
X1.208 Y0.5261
X1.198 Y0.5475
X1.186 Y0.5736
X1.1704 Y0.6084
X1.1588 Y0.6344
X1.1548 Y0.6431
X1.1506 Y0.6518
X1.1454 Y0.6605
X1.1385 Y0.6708
X1.1089 Y0.7126 Z0.6085
X1.0903 Y0.7387 Z0.6083
X1.0718 Y0.7648 Z0.6078
X1.0516 Y0.7931 Z0.607
X1.0408 Y0.8082 Z0.6065
X1.034 Y0.8169 Z0.6062
X1.0249 Y0.8256 Z0.6063
X0.9869 Y0.8604 Z0.6067
X0.9682 Y0.8778 Z0.6069
X0.956 Y0.8892 Z0.607
X0.9386 Y0.9059 Z0.6071
X0.9299 Y0.9144
X0.9125 Y0.9318
X0.9038 Y0.9407 Z0.607
X0.8892 Y0.956
X0.8651 Y0.9821 Z0.6067
X0.8256 Y1.0256 Z0.6062
X0.8169 Y1.0339
X0.8082 Y1.0403 Z0.6066
X0.7805 Y1.0603 Z0.6074
X0.7561 Y1.0779 Z0.608
X0.73 Y1.0965 Z0.6084
X0.704 Y1.1152 Z0.6086
X0.6779 Y1.1338
X0.6692 Y1.1398
X0.6605 Y1.1454
X0.6574 Y1.1472
X0.6518 Y1.1503
X0.64 Y1.1559
X0.591 Y1.178
X0.5562 Y1.1939
X0.5214 Y1.2101
X0.507 Y1.2167
X0.4954 Y1.2213
X0.4602 Y1.2341
X0.4345 Y1.2436
X0.3998 Y1.2568
X0.365 Y1.2702
X0.3563 Y1.2734
X0.3476 Y1.2759
X0.3389 Y1.2778
X0.3303 Y1.2795
X0.2955 Y1.2854
X0.2607 Y1.2913 Z0.6084
X0.2347 Y1.2957 Z0.6081
X0.1999 Y1.3015 Z0.6075
X0.1651 Y1.3073 Z0.6065
X0.1564 Y1.3086 Z0.6063
X0.1477 Y1.3088 Z0.6062
X0.0782 Y1.3058 Z0.6068
X0.0521 Y1.3049 Z0.607
X0.0348 Y1.3044
X0.0087 Y1.304 Z0.6071
X0. Y1.3041
X-0.0087
X-0.0261 Y1.3042
X-0.0435 Y1.3047 Z0.607
X-0.0695 Y1.3056 Z0.6068
X-0.1391 Y1.3088 Z0.6062
X-0.1477 Y1.3092
X-0.1564 Y1.3083 Z0.6063
X-0.1859 Y1.3036 Z0.6072
X-0.2173 Y1.2984 Z0.6078
X-0.2433 Y1.2942 Z0.6082
X-0.2781 Y1.2885 Z0.6085
X-0.3216 Y1.2812 Z0.6086
X-0.3303 Y1.2796
X-0.3407 Y1.2776
X-0.3476 Y1.2758
X-0.3563 Y1.2731
X-0.3906 Y1.2602
X-0.4259 Y1.2468
X-0.4606 Y1.2339
X-0.4954 Y1.2213
X-0.507 Y1.2167
X-0.5259 Y1.208
X-0.5562 Y1.1939
X-0.591 Y1.1781
X-0.6344 Y1.1587
X-0.6431 Y1.1548
X-0.6518 Y1.1505
X-0.6605 Y1.1455
X-0.6711 Y1.1385
X-0.6956 Y1.1211
X-0.7213 Y1.1028 Z0.6085
X-0.7474 Y1.0843 Z0.6082
X-0.7735 Y1.0657 Z0.6076
X-0.7996 Y1.0471 Z0.6068
X-0.8082 Y1.0409 Z0.6065
X-0.8169 Y1.0341 Z0.6062
X-0.8256 Y1.0249 Z0.6063
X-0.8604 Y0.9869 Z0.6067
X-0.8778 Y0.9682 Z0.6069
X-0.8892 Y0.956 Z0.607
X-0.9059 Y0.9386 Z0.6071
X-0.9144 Y0.9299
X-0.9318 Y0.9125
X-0.9407 Y0.9038 Z0.607
X-0.956 Y0.8892
X-0.9821 Y0.8651 Z0.6067
X-1.0256 Y0.8256 Z0.6062
X-1.0339 Y0.8169
X-1.0403 Y0.8082 Z0.6066
X-1.0603 Y0.7805 Z0.6074
X-1.0778 Y0.7561 Z0.608
X-1.0965 Y0.73 Z0.6084
X-1.1151 Y0.704 Z0.6086
X-1.1385 Y0.6712
X-1.1399 Y0.6692
X-1.1455 Y0.6605
X-1.1472 Y0.6575
X-1.1503 Y0.6518
X-1.1559 Y0.64
X-1.178 Y0.591
X-1.1939 Y0.5562
X-1.2061 Y0.5301
X-1.2142 Y0.5128
X-1.2167 Y0.5071
X-1.2214 Y0.4954
X-1.2341 Y0.4603
X-1.2436 Y0.4345
X-1.2568 Y0.3998
X-1.2689 Y0.3686
X-1.2734 Y0.3563
X-1.2759 Y0.3476
X-1.2778 Y0.3389
X-1.2795 Y0.3303
X-1.2862 Y0.2907
X-1.2913 Y0.2607 Z0.6084
X-1.2972 Y0.226 Z0.608
X-1.303 Y0.1912 Z0.6073
X-1.3073 Y0.1651 Z0.6065
X-1.3086 Y0.1564 Z0.6063
X-1.3088 Y0.1477 Z0.6062
X-1.3058 Y0.0782 Z0.6068
X-1.3049 Y0.0521 Z0.607
X-1.3044 Y0.0348
X-1.304 Y0.0087 Z0.6071
X-1.3041 Y0.
Y-0.0087
X-1.3042 Y-0.0261
X-1.3047 Y-0.0435 Z0.607
X-1.3056 Y-0.0695 Z0.6068
X-1.3088 Y-0.1391 Z0.6062
X-1.3092 Y-0.1477 Z0.6061
X-1.3084 Y-0.1564 Z0.6063
X-1.3036 Y-0.1859 Z0.6072
X-1.2985 Y-0.2173 Z0.6078
X-1.2927 Y-0.252 Z0.6083
X-1.287 Y-0.2868 Z0.6086
X-1.2812 Y-0.3216
X-1.2796 Y-0.3303
X-1.2776 Y-0.3407
X-1.2758 Y-0.3476
X-1.2731 Y-0.3563
X-1.2633 Y-0.3824
X-1.2498 Y-0.4179
X-1.2403 Y-0.4432
X-1.2291 Y-0.4737
X-1.226 Y-0.4807
X-1.224 Y-0.4839
X-1.2219 Y-0.4871
X-1.2171 Y-0.4932
X-1.2121 Y-0.4991
X-1.207 Y-0.5049
X-1.2021 Y-0.5109
X-1.1976 Y-0.5171
X-1.1956 Y-0.5204
X-1.1938 Y-0.5239
X-1.182 Y-0.5494
X-1.1669 Y-0.5823
X-1.1476 Y-0.6257
X-1.1437 Y-0.6344
X-1.1385 Y-0.6452
X-1.1347 Y-0.6518
X-1.1291 Y-0.6605
X-1.1211 Y-0.6719
X-1.0516 Y-0.7697 Z0.6085
X-1.0342 Y-0.7941 Z0.6083
X-1.0303 Y-0.7996
X-1.0255 Y-0.8058 Z0.6082
X-1.0235 Y-0.8082
X-1.0142 Y-0.8169
X-0.9762 Y-0.8517 Z0.6084
X-0.956 Y-0.8705
X-0.9473 Y-0.8786
X-0.9299 Y-0.8953 Z0.6085
X-0.9212 Y-0.9038
X-0.9038 Y-0.9212
X-0.8952 Y-0.9301
X-0.8786 Y-0.9473 Z0.6084
X-0.8546 Y-0.9734
X-0.8169 Y-1.0149 Z0.6082
X-0.8151 Y-1.0168 Z0.6081
X-0.8082 Y-1.0234 Z0.6082
X-0.7996 Y-1.0298 Z0.6083
X-0.7691 Y-1.0516 Z0.6085
X-0.6779 Y-1.1169 Z0.6086
X-0.6692 Y-1.1231
X-0.6594 Y-1.1298
X-0.6518 Y-1.1346
X-0.6447 Y-1.1385
X-0.6344 Y-1.1433
X-0.5823 Y-1.1668
X-0.5475 Y-1.1828
X-0.5121 Y-1.1993
X-0.5041 Y-1.203
X-0.4918 Y-1.208
X-0.4519 Y-1.2226
X-0.4259 Y-1.2322
X-0.3911 Y-1.2454
X-0.365 Y-1.2554
X-0.3524 Y-1.2602
X-0.3476 Y-1.2616
X-0.3389 Y-1.2638
X-0.3303 Y-1.2655
X-0.3111 Y-1.2689
X-0.1999 Y-1.2876 Z0.6085
X-0.1651 Y-1.2935 Z0.6083
X-0.1559 Y-1.2949 Z0.6082
X-0.1477 Y-1.2952
X-0.0782 Y-1.2921 Z0.6084
X-0.0521 Y-1.2912
X-0.0348 Y-1.2907
X-0.0087 Y-1.2903 Z0.6085
X0. Y-1.2904
X0.0087
X0.0261 Y-1.2906
X0.0435 Y-1.291 Z0.6084
X0.0695 Y-1.292
X0.1391 Y-1.2953 Z0.6082
X0.1477 Y-1.2955 Z0.6081
X0.1535 Y-1.2949 Z0.6082
X0.1564 Y-1.2945
X0.1912 Y-1.2888 Z0.6085
X0.2694 Y-1.2758 Z0.6086
X0.3216 Y-1.2671
X0.3303 Y-1.2656
X0.3389 Y-1.2638
X0.3476 Y-1.2615
X0.3519 Y-1.2602
X0.3749 Y-1.2515
X0.4085 Y-1.2386
X0.4439 Y-1.2254
X0.478 Y-1.213
X0.4916 Y-1.208
X0.5041 Y-1.203
X0.5128 Y-1.199
X0.5494 Y-1.182
X0.5736 Y-1.1709
X0.617 Y-1.1514
X0.6344 Y-1.1436
X0.6451 Y-1.1385
X0.6518 Y-1.1346
X0.6605 Y-1.1289
X0.6779 Y-1.1167
X0.7328 Y-1.0777
X0.7735 Y-1.0488 Z0.6085
X0.7996 Y-1.0302 Z0.6083
X0.8057 Y-1.0255 Z0.6082
X0.8082 Y-1.0234
X0.8169 Y-1.0142
X0.8517 Y-0.9762 Z0.6084
X0.8705 Y-0.956
X0.8786 Y-0.9473
X0.8953 Y-0.9299 Z0.6085
X0.9038 Y-0.9212
X0.9212 Y-0.9038
X0.9301 Y-0.8952
X0.9473 Y-0.8786 Z0.6084
X0.9734 Y-0.8546
X1.0149 Y-0.8169 Z0.6082
X1.0168 Y-0.8151 Z0.6081
X1.0233 Y-0.8082 Z0.6082
X1.0342 Y-0.7933 Z0.6084
X1.0516 Y-0.769 Z0.6086
X1.1229 Y-0.6692
X1.129 Y-0.6605
X1.1345 Y-0.6518
X1.1385 Y-0.6446
X1.1433 Y-0.6344
X1.1668 Y-0.5823
X1.1828 Y-0.5475
X1.1993 Y-0.512
X1.203 Y-0.5041
X1.208 Y-0.4917
X1.213 Y-0.478
X1.2225 Y-0.4519
X1.2341 Y-0.4208
X1.2488 Y-0.3824
X1.2554 Y-0.365
X1.2602 Y-0.3524
X1.2616 Y-0.3476
X1.2638 Y-0.3389
X1.2655 Y-0.3303
X1.2689 Y-0.3111
X1.2876 Y-0.1999 Z0.6085
X1.2935 Y-0.1651 Z0.6083
X1.2949 Y-0.1558 Z0.6082
X1.2952 Y-0.1477
X1.2921 Y-0.0782 Z0.6084
X1.2912 Y-0.0521
X1.2907 Y-0.0348
X1.2903 Y-0.0087 Z0.6085
X1.2904 Y0.
Y0.0087
X1.2906 Y0.0261
X1.291 Y0.0435 Z0.6084
X1.292 Y0.0695
X1.2953 Y0.1391 Z0.6082
X1.2955 Y0.1477 Z0.6081
X1.2949 Y0.1535 Z0.6082
X1.2945 Y0.1564
X1.2888 Y0.1912 Z0.6085
X1.2758 Y0.2694 Z0.6086
X1.2686 Y0.3129
X1.2671 Y0.3216
X1.2656 Y0.3303
X1.2638 Y0.3389
X1.2614 Y0.3476
X1.2602 Y0.3518
X1.2453 Y0.3911
X1.2321 Y0.4259
X1.2193 Y0.4606
X1.2099 Y0.4867
X1.208 Y0.4917
X1.203 Y0.5041
X1.195 Y0.5214
X1.1869 Y0.5388
X1.1733 Y0.5684
X1.1592 Y0.5997
X1.1437 Y0.6344
X1.1385 Y0.6452
X1.1346 Y0.6518
X1.1289 Y0.6605
X1.1167 Y0.6779
X1.0777 Y0.7328
X1.0488 Y0.7735 Z0.6085
X1.0302 Y0.7996 Z0.6083
X1.0255 Y0.8057 Z0.6082
X1.0234 Y0.8082
X1.0142 Y0.8169
X0.9762 Y0.8517 Z0.6084
X0.956 Y0.8705
X0.9473 Y0.8786
X0.9299 Y0.8953 Z0.6085
X0.9212 Y0.9038
X0.9038 Y0.9212
X0.8952 Y0.9301
X0.8786 Y0.9473 Z0.6084
X0.8546 Y0.9734
X0.8169 Y1.0149 Z0.6082
X0.8151 Y1.0168 Z0.6081
X0.8082 Y1.0234 Z0.6082
X0.7996 Y1.0298 Z0.6083
X0.7691 Y1.0516 Z0.6085
X0.6953 Y1.1045 Z0.6086
X0.6692 Y1.1231
X0.6605 Y1.1291
X0.6518 Y1.1346
X0.6446 Y1.1385
X0.6344 Y1.1433
X0.5872 Y1.1646
X0.5562 Y1.1787
X0.5301 Y1.1909
X0.512 Y1.1993
X0.5041 Y1.203
X0.4917 Y1.208
X0.478 Y1.213
X0.4519 Y1.2225
X0.4172 Y1.2355
X0.3824 Y1.2488
X0.365 Y1.2555
X0.3525 Y1.2602
X0.3476 Y1.2616
X0.3389 Y1.2638
X0.3303 Y1.2655
X0.311 Y1.2689
X0.1999 Y1.2876 Z0.6085
X0.1651 Y1.2935 Z0.6083
X0.1558 Y1.2949 Z0.6082
X0.1477 Y1.2952
X0.0782 Y1.2921 Z0.6084
X0.0521 Y1.2912
X0.0348 Y1.2907
X0.0087 Y1.2903 Z0.6085
X0. Y1.2904
X-0.0087
X-0.0261 Y1.2906
X-0.0435 Y1.291 Z0.6084
X-0.0695 Y1.292
X-0.1391 Y1.2952 Z0.6082
X-0.1477 Y1.2955 Z0.6081
X-0.1538 Y1.2949 Z0.6082
X-0.1651 Y1.2932 Z0.6083
X-0.1912 Y1.2889 Z0.6085
X-0.2607 Y1.2774 Z0.6086
X-0.3129 Y1.2687
X-0.3216 Y1.2672
X-0.3303 Y1.2656
X-0.3389 Y1.2638
X-0.3476 Y1.2614
X-0.3517 Y1.2602
X-0.3824 Y1.2486
X-0.4172 Y1.2354
X-0.4519 Y1.2225
X-0.4917 Y1.208
X-0.5041 Y1.203
X-0.5128 Y1.199
X-0.5494 Y1.182
X-0.5823 Y1.1669
X-0.6344 Y1.1436
X-0.6452 Y1.1385
X-0.6518 Y1.1347
X-0.6605 Y1.1291
X-0.6719 Y1.1211
X-0.7697 Y1.0516 Z0.6085
X-0.7941 Y1.0342 Z0.6083
X-0.7996 Y1.0303
X-0.8058 Y1.0255 Z0.6082
X-0.8082 Y1.0235
X-0.8169 Y1.0142
X-0.8517 Y0.9762 Z0.6084
X-0.8705 Y0.956
X-0.8786 Y0.9473
X-0.8953 Y0.9299 Z0.6085
X-0.9038 Y0.9212
X-0.9212 Y0.9038
X-0.9301 Y0.8952
X-0.9473 Y0.8786 Z0.6084
X-0.9734 Y0.8546
X-1.0149 Y0.8169 Z0.6082
X-1.0168 Y0.8151 Z0.6081
X-1.0234 Y0.8082 Z0.6082
X-1.0298 Y0.7996 Z0.6083
X-1.0516 Y0.7691 Z0.6085
X-1.1169 Y0.6779 Z0.6086
X-1.1231 Y0.6692
X-1.1298 Y0.6594
X-1.1346 Y0.6518
X-1.1385 Y0.6446
X-1.1433 Y0.6344
X-1.1646 Y0.5872
X-1.1828 Y0.5475
X-1.1993 Y0.5121
X-1.203 Y0.5041
X-1.208 Y0.4918
X-1.2226 Y0.4519
X-1.2322 Y0.4259
X-1.2454 Y0.3911
X-1.2555 Y0.365
X-1.2602 Y0.3525
X-1.2616 Y0.3476
X-1.2638 Y0.3389
X-1.2655 Y0.3303
X-1.2689 Y0.3111
X-1.2876 Y0.1999 Z0.6085
X-1.2935 Y0.1651 Z0.6083
X-1.2949 Y0.1558 Z0.6082
X-1.2952 Y0.1477
X-1.2921 Y0.0782 Z0.6084
X-1.2912 Y0.0521
X-1.2907 Y0.0348
X-1.2903 Y0.0087 Z0.6085
X-1.2904 Y0.
Y-0.0087
X-1.2906 Y-0.0261
X-1.291 Y-0.0435 Z0.6084
X-1.292 Y-0.0695
X-1.2952 Y-0.1391 Z0.6082
X-1.2955 Y-0.1477 Z0.6081
X-1.2949 Y-0.1541 Z0.6082
X-1.2918 Y-0.1738 Z0.6084
X-1.286 Y-0.2086 Z0.6086
X-1.2716 Y-0.2955
X-1.2672 Y-0.3216
X-1.2656 Y-0.3303
X-1.2638 Y-0.3389
X-1.2614 Y-0.3476
X-1.2602 Y-0.3517
X-1.2515 Y-0.3748
X-1.2386 Y-0.4085
X-1.2256 Y-0.4432
X-1.213 Y-0.478
X-1.208 Y-0.4916
X-1.203 Y-0.5041
X-1.199 Y-0.5128
X-1.1938 Y-0.5239
X-1.19 Y-0.5305
X-1.1878 Y-0.5336
X-1.1855 Y-0.5366
X-1.1804 Y-0.5424
X-1.1697 Y-0.5535
X-1.1647 Y-0.5593
X-1.1602 Y-0.5654
X-1.1582 Y-0.5687
X-1.1565 Y-0.5721
X-1.1402 Y-0.6084
X-1.1325 Y-0.6257
X-1.1284 Y-0.6344
X-1.1239 Y-0.6431
X-1.1211 Y-0.6475
X-1.1184 Y-0.6518
X-1.1123 Y-0.6605
X-1.0197 Y-0.7909
X-1.0168 Y-0.7946
X-1.0127 Y-0.7996
X-1.0034 Y-0.8082
X-0.9647 Y-0.8437
X-0.956 Y-0.8517
X-0.9374 Y-0.8691
X-0.9212 Y-0.8846
X-0.9104 Y-0.8952
X-0.8931 Y-0.9125
X-0.8846 Y-0.9212
X-0.8691 Y-0.9374
X-0.8517 Y-0.9562
X-0.8361 Y-0.9734
X-0.8082 Y-1.0041
X-0.8043 Y-1.0081
X-0.7996 Y-1.0127
X-0.7909 Y-1.0191
X-0.6692 Y-1.1062
X-0.6605 Y-1.1124
X-0.6518 Y-1.1184
X-0.6475 Y-1.1211
X-0.6431 Y-1.1237
X-0.6344 Y-1.1282
X-0.6257 Y-1.1322
X-0.5732 Y-1.1559
X-0.5475 Y-1.1676
X-0.5214 Y-1.1798
X-0.5041 Y-1.1879
X-0.498 Y-1.1906
X-0.4867 Y-1.1953
X-0.4432 Y-1.2111
X-0.4259 Y-1.2176
X-0.3911 Y-1.2307
X-0.3563 Y-1.244
X-0.3476 Y-1.2472
X-0.3389 Y-1.2496
X-0.3303 Y-1.2515
X-0.3129 Y-1.2546
X-0.1651 Y-1.2796
X-0.1564 Y-1.2809
X-0.1477 Y-1.2814
X-0.0782 Y-1.2784
X-0.0521 Y-1.2774
X-0.0348 Y-1.277
X-0.0087 Y-1.2766
X0. Y-1.2767
X0.0087 Y-1.2766
X0.0261 Y-1.2768
X0.0435 Y-1.2773
X0.0695 Y-1.2782
X0.1391 Y-1.2815
X0.1477 Y-1.2817
X0.1564 Y-1.2806
X0.3129 Y-1.2547
X0.3216 Y-1.2532
X0.3307 Y-1.2515
X0.3389 Y-1.2496
X0.3476 Y-1.2471
X0.365 Y-1.2405
X0.4085 Y-1.2239
X0.4345 Y-1.2142
X0.4693 Y-1.2015
X0.4867 Y-1.1952
X0.498 Y-1.1906
X0.5128 Y-1.1839
X0.5388 Y-1.1717
X0.5649 Y-1.1598
X0.6084 Y-1.1402
X0.6257 Y-1.1325
X0.6344 Y-1.1284
X0.6431 Y-1.1237
X0.6518 Y-1.1182
X0.6692 Y-1.106
X0.7126 Y-1.0752
X0.7909 Y-1.0196
X0.7945 Y-1.0168
X0.7996 Y-1.0127
X0.8038 Y-1.0081
X0.8437 Y-0.9647
X0.8517 Y-0.956
X0.8691 Y-0.9374
X0.8846 Y-0.9212
X0.8952 Y-0.9104
X0.9125 Y-0.8931
X0.9212 Y-0.8846
X0.9374 Y-0.8691
X0.9562 Y-0.8517
X0.9734 Y-0.8361
X1.0041 Y-0.8082
X1.0081 Y-0.8043
X1.0127 Y-0.7996
X1.019 Y-0.7909
X1.095 Y-0.6846
X1.1124 Y-0.6602
X1.1182 Y-0.6518
X1.1211 Y-0.6473
X1.1236 Y-0.6431
X1.1281 Y-0.6344
X1.1322 Y-0.6257
X1.1559 Y-0.5732
X1.1676 Y-0.5475
X1.1879 Y-0.5041
X1.1906 Y-0.498
X1.1952 Y-0.4867
X1.1993 Y-0.4755
X1.208 Y-0.4515
X1.2208 Y-0.4172
X1.2374 Y-0.3737
X1.244 Y-0.3563
X1.2472 Y-0.3476
X1.2496 Y-0.3389
X1.2515 Y-0.3303
X1.2546 Y-0.3129
X1.2796 Y-0.1651
X1.2809 Y-0.1564
X1.2814 Y-0.1477
X1.2784 Y-0.0782
X1.2774 Y-0.0521
X1.277 Y-0.0348
X1.2766 Y-0.0087
X1.2767 Y0.
X1.2766 Y0.0087
X1.2768 Y0.0261
X1.2773 Y0.0435
X1.2782 Y0.0695
X1.2815 Y0.1391
X1.2817 Y0.1477
X1.2806 Y0.1564
X1.2562 Y0.3042
X1.2532 Y0.3216
X1.2515 Y0.3306
X1.2496 Y0.3389
X1.2471 Y0.3476
X1.2339 Y0.3824
X1.2207 Y0.4172
X1.2079 Y0.4519
X1.1985 Y0.478
X1.1952 Y0.4867
X1.1906 Y0.498
X1.182 Y0.5169
X1.1717 Y0.5388
X1.1598 Y0.5649
X1.1472 Y0.5929
X1.1325 Y0.6257
X1.1285 Y0.6344
X1.1238 Y0.6431
X1.1211 Y0.6474
X1.1182 Y0.6518
X1.1122 Y0.6605
X1.0752 Y0.7126
X1.0196 Y0.7909
X1.0168 Y0.7945
X1.0127 Y0.7996
X1.0081 Y0.8038
X0.9647 Y0.8437
X0.956 Y0.8517
X0.9374 Y0.8691
X0.9212 Y0.8846
X0.9104 Y0.8952
X0.8931 Y0.9125
X0.8846 Y0.9212
X0.8691 Y0.9374
X0.8517 Y0.9562
X0.8361 Y0.9734
X0.8082 Y1.0041
X0.8043 Y1.0081
X0.7996 Y1.0127
X0.7909 Y1.0191
X0.6779 Y1.1
X0.6604 Y1.1124
X0.6518 Y1.1183
X0.6474 Y1.1211
X0.6431 Y1.1237
X0.6344 Y1.1281
X0.6257 Y1.1322
X0.5823 Y1.1517
X0.5475 Y1.1676
X0.5041 Y1.1879
X0.498 Y1.1906
X0.4867 Y1.1952
X0.4755 Y1.1993
X0.4515 Y1.208
X0.4259 Y1.2176
X0.3911 Y1.2307
X0.3563 Y1.2441
X0.3476 Y1.2473
X0.3389 Y1.2496
X0.3303 Y1.2515
X0.3216 Y1.2531
X0.2868 Y1.259
X0.1651 Y1.2796
X0.1564 Y1.2809
X0.1477 Y1.2814
X0.0782 Y1.2784
X0.0521 Y1.2774
X0.0348 Y1.277
X0.0087 Y1.2766
X0. Y1.2767
X-0.0087 Y1.2766
X-0.0261 Y1.2768
X-0.0435 Y1.2773
X-0.0695 Y1.2782
X-0.1391 Y1.2815
X-0.1477 Y1.2817
X-0.1564 Y1.2806
X-0.1825 Y1.2764
X-0.2955 Y1.2577
X-0.3216 Y1.2532
X-0.3308 Y1.2515
X-0.3389 Y1.2496
X-0.3476 Y1.247
X-0.3737 Y1.2372
X-0.4085 Y1.224
X-0.4432 Y1.2111
X-0.4867 Y1.1952
X-0.4979 Y1.1906
X-0.5168 Y1.182
X-0.5475 Y1.1677
X-0.5823 Y1.1519
X-0.6257 Y1.1325
X-0.6344 Y1.1284
X-0.6431 Y1.1238
X-0.6475 Y1.1211
X-0.6518 Y1.1183
X-0.6605 Y1.1123
X-0.7909 Y1.0197
X-0.7946 Y1.0168
X-0.7996 Y1.0127
X-0.8082 Y1.0034
X-0.8437 Y0.9647
X-0.8517 Y0.956
X-0.8691 Y0.9374
X-0.8846 Y0.9212
X-0.8952 Y0.9104
X-0.9125 Y0.8931
X-0.9212 Y0.8846
X-0.9374 Y0.8691
X-0.9562 Y0.8517
X-0.9734 Y0.8361
X-1.0041 Y0.8082
X-1.0081 Y0.8043
X-1.0127 Y0.7996
X-1.0191 Y0.7909
X-1.1062 Y0.6692
X-1.1124 Y0.6604
X-1.1184 Y0.6518
X-1.1211 Y0.6475
X-1.1237 Y0.6431
X-1.1281 Y0.6344
X-1.1322 Y0.6257
X-1.1517 Y0.5823
X-1.1676 Y0.5475
X-1.1798 Y0.5214
X-1.1879 Y0.5041
X-1.1906 Y0.498
X-1.1953 Y0.4867
X-1.2111 Y0.4432
X-1.2176 Y0.4259
X-1.2307 Y0.3911
X-1.2441 Y0.3563
X-1.2473 Y0.3476
X-1.2496 Y0.3389
X-1.2515 Y0.3303
X-1.2546 Y0.3129
X-1.2796 Y0.1651
X-1.2809 Y0.1564
X-1.2814 Y0.1477
X-1.2784 Y0.0782
X-1.2774 Y0.0521
X-1.277 Y0.0348
X-1.2766 Y0.0087
X-1.2767 Y0.
X-1.2766 Y-0.0087
X-1.2768 Y-0.0261
X-1.2773 Y-0.0435
X-1.2782 Y-0.0695
X-1.2815 Y-0.1391
X-1.2817 Y-0.1477
X-1.2807 Y-0.1564
X-1.2577 Y-0.2955
X-1.2532 Y-0.3216
X-1.2515 Y-0.3308
X-1.2496 Y-0.3389
X-1.247 Y-0.3476
X-1.2372 Y-0.3737
X-1.224 Y-0.4085
X-1.2142 Y-0.4345
X-1.2015 Y-0.4693
X-1.1952 Y-0.4867
X-1.1906 Y-0.4979
X-1.1814 Y-0.5181
X-1.1677 Y-0.5475
X-1.1565 Y-0.5721
X-1.1528 Y-0.5788
X-1.1507 Y-0.5819
X-1.1483 Y-0.585
X-1.1433 Y-0.5908
X-1.1329 Y-0.6021
X-1.1279 Y-0.6079
X-1.1234 Y-0.6141
X-1.1214 Y-0.6173
X-1.1197 Y-0.6207
X-1.1174 Y-0.6257
X-1.1124 Y-0.6354
X-1.1076 Y-0.6431
X-1.1016 Y-0.6518
X-1.0832 Y-0.6779
X-1.0081 Y-0.7833
X-1.0019 Y-0.7909
X-0.9908 Y-0.8011
X-0.9546 Y-0.8343
X-0.9386 Y-0.8492
X-0.9266 Y-0.8604
X-0.9125 Y-0.8739
X-0.8997 Y-0.8865
X-0.8824 Y-0.9038
X-0.8691 Y-0.9175
X-0.8573 Y-0.9299
X-0.8333 Y-0.956
X-0.7996 Y-0.9932
X-0.7935 Y-0.9994
X-0.7909 Y-1.002
X-0.7822 Y-1.0085
X-0.6605 Y-1.0955
X-0.6518 Y-1.1017
X-0.6431 Y-1.1076
X-0.6351 Y-1.1124
X-0.6257 Y-1.1171
X-0.6084 Y-1.125
X-0.5649 Y-1.1446
X-0.5388 Y-1.1565
X-0.503 Y-1.1733
X-0.4954 Y-1.1768
X-0.483 Y-1.182
X-0.4693 Y-1.187
X-0.4432 Y-1.1965
X-0.4172 Y-1.2062
X-0.3824 Y-1.2193
X-0.3563 Y-1.2293
X-0.3436 Y-1.2341
X-0.3389 Y-1.2354
X-0.3303 Y-1.2374
X-0.3216 Y-1.2391
X-0.3005 Y-1.2428
X-0.1651 Y-1.2656
X-0.1564 Y-1.267
X-0.1477 Y-1.2676
X-0.0782 Y-1.2646
X-0.0521 Y-1.2637
X-0.0348 Y-1.2632
X-0.0087 Y-1.2629
X0. Y-1.263
X0.0087 Y-1.2629
X0.0261 Y-1.2631
X0.0435 Y-1.2635
X0.0695 Y-1.2645
X0.1391 Y-1.2677
X0.1477 Y-1.2679
X0.1564 Y-1.2667
X0.3042 Y-1.2422
X0.3216 Y-1.2392
X0.3303 Y-1.2375
X0.3389 Y-1.2353
X0.3432 Y-1.2341
X0.3661 Y-1.2254
X0.3998 Y-1.2125
X0.4345 Y-1.1996
X0.4828 Y-1.182
X0.4954 Y-1.1767
X0.5128 Y-1.1687
X0.5403 Y-1.1559
X0.5649 Y-1.1447
X0.5997 Y-1.1291
X0.6175 Y-1.1211
X0.6257 Y-1.1173
X0.6351 Y-1.1124
X0.6431 Y-1.1075
X0.6518 Y-1.1015
X0.7099 Y-1.0603
X0.7832 Y-1.0081
X0.7909 Y-1.0019
X0.7932 Y-0.9994
X0.8343 Y-0.9546
X0.8492 Y-0.9386
X0.8604 Y-0.9266
X0.8739 Y-0.9125
X0.8865 Y-0.8997
X0.9038 Y-0.8824
X0.9175 Y-0.8691
X0.9299 Y-0.8573
X0.956 Y-0.8333
X0.9932 Y-0.7996
X0.9994 Y-0.7935
X1.002 Y-0.7909
X1.0084 Y-0.7822
X1.0429 Y-0.7339
X1.1015 Y-0.6518
X1.1075 Y-0.6431
X1.1127 Y-0.6344
X1.1171 Y-0.6257
X1.125 Y-0.6084
X1.1446 Y-0.5649
X1.1565 Y-0.5388
X1.1733 Y-0.5029
X1.1767 Y-0.4954
X1.182 Y-0.4829
X1.187 Y-0.4693
X1.1964 Y-0.4432
X1.208 Y-0.412
X1.2227 Y-0.3737
X1.2293 Y-0.3563
X1.2341 Y-0.3436
X1.2354 Y-0.3389
X1.2374 Y-0.3303
X1.2391 Y-0.3216
X1.2428 Y-0.3005
X1.2656 Y-0.1651
X1.267 Y-0.1564
X1.2676 Y-0.1477
X1.2646 Y-0.0782
X1.2637 Y-0.0521
X1.2632 Y-0.0348
X1.2629 Y-0.0087
X1.263 Y0.
X1.2629 Y0.0087
X1.2631 Y0.0261
X1.2635 Y0.0435
X1.2645 Y0.0695
X1.2677 Y0.1391
X1.2679 Y0.1477
X1.2667 Y0.1564
X1.2422 Y0.3042
X1.2392 Y0.3216
X1.2375 Y0.3303
X1.2353 Y0.3389
X1.2341 Y0.3431
X1.2192 Y0.3824
X1.208 Y0.4119
X1.1933 Y0.4519
X1.1838 Y0.478
X1.182 Y0.4829
X1.1804 Y0.4867
X1.1768 Y0.4954
X1.1687 Y0.5128
X1.1559 Y0.5404
X1.1447 Y0.5649
X1.1298 Y0.5982
X1.1211 Y0.6177
X1.1174 Y0.6257
X1.1124 Y0.6352
X1.1075 Y0.6431
X1.1015 Y0.6518
X1.0603 Y0.7099
X1.0081 Y0.7832
X1.0019 Y0.7909
X0.9994 Y0.7932
X0.9546 Y0.8343
X0.9386 Y0.8492
X0.9266 Y0.8604
X0.9125 Y0.8739
X0.8997 Y0.8865
X0.8824 Y0.9038
X0.8691 Y0.9175
X0.8573 Y0.9299
X0.8333 Y0.956
X0.7996 Y0.9932
X0.7935 Y0.9994
X0.7909 Y1.002
X0.7822 Y1.0085
X0.6692 Y1.0894
X0.6518 Y1.1017
X0.6431 Y1.1076
X0.6344 Y1.1127
X0.6257 Y1.117
X0.6084 Y1.1249
X0.5736 Y1.1406
X0.5388 Y1.1565
X0.5029 Y1.1733
X0.4954 Y1.1767
X0.4829 Y1.182
X0.4693 Y1.187
X0.4432 Y1.1964
X0.4085 Y1.2094
X0.3824 Y1.2193
X0.3563 Y1.2294
X0.3437 Y1.2341
X0.3389 Y1.2354
X0.3303 Y1.2374
X0.3216 Y1.2391
X0.2955 Y1.2436
X0.1651 Y1.2656
X0.1564 Y1.267
X0.1477 Y1.2676
X0.0782 Y1.2646
X0.0521 Y1.2637
X0.0348 Y1.2632
X0.0087 Y1.2629
X0. Y1.263
X-0.0087 Y1.2629
X-0.0261 Y1.2631
X-0.0435 Y1.2635
X-0.0695 Y1.2645
X-0.1391 Y1.2677
X-0.1477 Y1.2679
X-0.1564 Y1.2667
X-0.1999 Y1.2596
X-0.3014 Y1.2428
X-0.3129 Y1.2408
X-0.3216 Y1.2393
X-0.3303 Y1.2375
X-0.3389 Y1.2353
X-0.3429 Y1.2341
X-0.3661 Y1.2254
X-0.4085 Y1.2093
X-0.4432 Y1.1964
X-0.4829 Y1.182
X-0.4954 Y1.1767
X-0.5128 Y1.1687
X-0.5403 Y1.1559
X-0.5736 Y1.1407
X-0.6175 Y1.1211
X-0.6257 Y1.1173
X-0.6353 Y1.1124
X-0.6431 Y1.1076
X-0.6518 Y1.1016
X-0.6779 Y1.0832
X-0.7833 Y1.0081
X-0.7909 Y1.0019
X-0.8011 Y0.9908
X-0.8343 Y0.9546
X-0.8492 Y0.9386
X-0.8604 Y0.9266
X-0.8739 Y0.9125
X-0.8865 Y0.8997
X-0.9038 Y0.8824
X-0.9175 Y0.8691
X-0.9299 Y0.8573
X-0.956 Y0.8333
X-0.9932 Y0.7996
X-0.9994 Y0.7935
X-1.002 Y0.7909
X-1.0085 Y0.7822
X-1.0955 Y0.6605
X-1.1017 Y0.6518
X-1.1076 Y0.6431
X-1.1127 Y0.6344
X-1.117 Y0.6257
X-1.1249 Y0.6084
X-1.1406 Y0.5736
X-1.1565 Y0.5388
X-1.1733 Y0.503
X-1.1768 Y0.4954
X-1.182 Y0.483
X-1.187 Y0.4693
X-1.1997 Y0.4345
X-1.2127 Y0.3998
X-1.2227 Y0.3737
X-1.2294 Y0.3563
X-1.2341 Y0.3437
X-1.2354 Y0.3389
X-1.2374 Y0.3303
X-1.2391 Y0.3216
X-1.2428 Y0.3005
X-1.2656 Y0.1651
X-1.267 Y0.1564
X-1.2676 Y0.1477
X-1.2646 Y0.0782
X-1.2637 Y0.0521
X-1.2632 Y0.0348
X-1.2629 Y0.0087
X-1.263 Y0.
X-1.2629 Y-0.0087
X-1.2631 Y-0.0261
X-1.2635 Y-0.0435
X-1.2645 Y-0.0695
X-1.2677 Y-0.1391
X-1.2679 Y-0.1477
X-1.2668 Y-0.1564
X-1.2438 Y-0.2955
X-1.2408 Y-0.3129
X-1.2393 Y-0.3216
X-1.2375 Y-0.3303
X-1.2353 Y-0.3389
X-1.2341 Y-0.3429
X-1.2254 Y-0.3661
X-1.2126 Y-0.3998
X-1.2028 Y-0.4259
X-1.19 Y-0.4606
X-1.1838 Y-0.478
X-1.182 Y-0.4828
X-1.1767 Y-0.4954
X-1.1687 Y-0.5128
X-1.1559 Y-0.5403
X-1.1407 Y-0.5736
X-1.1197 Y-0.6207
X-1.1179 Y-0.6241
X-1.1169 Y-0.6257
X-1.1158 Y-0.6273
X-1.1134 Y-0.6302
X-1.1108 Y-0.6331
X-1.1052 Y-0.6383
X-1.0992 Y-0.6431
X-1.0929 Y-0.6479
X-1.0868 Y-0.6528
X-1.0812 Y-0.6581
X-1.0786 Y-0.661
X-1.0762 Y-0.664
X-1.0255 Y-0.7353
X-0.9983 Y-0.7735
X-0.9911 Y-0.7822
X-0.9438 Y-0.8256
X-0.9212 Y-0.8466
X-0.9068 Y-0.8604
X-0.8952 Y-0.8716
X-0.8778 Y-0.889
X-0.8691 Y-0.8978
X-0.8548 Y-0.9125
X-0.843 Y-0.9251
X-0.8226 Y-0.9473
X-0.7909 Y-0.9823
X-0.7822 Y-0.9913
X-0.7735 Y-0.9978
X-0.7347 Y-1.0255
X-0.6518 Y-1.0849
X-0.6431 Y-1.091
X-0.6372 Y-1.095
X-0.6344 Y-1.0968
X-0.6257 Y-1.1017
X-0.6217 Y-1.1037
X-0.617 Y-1.1059
X-0.591 Y-1.1177
X-0.5475 Y-1.1374
X-0.5214 Y-1.1494
X-0.4954 Y-1.1616
X-0.4889 Y-1.1646
X-0.478 Y-1.1692
X-0.4606 Y-1.1755
X-0.4259 Y-1.1883
X-0.3824 Y-1.2046
X-0.3476 Y-1.2179
X-0.3389 Y-1.2211
X-0.3303 Y-1.2233
X-0.3201 Y-1.2254
X-0.3042 Y-1.2282
X-0.1651 Y-1.2517
X-0.1564 Y-1.2531
X-0.1477 Y-1.2539
X-0.0782 Y-1.2509
X-0.0521 Y-1.25
X-0.0348 Y-1.2495
X-0.0087 Y-1.2491
X0. Y-1.2492
X0.0087
X0.0261 Y-1.2494
X0.0435 Y-1.2498
X0.0695 Y-1.2507
X0.1391 Y-1.254
X0.1477
X0.1564 Y-1.2528
X0.3042 Y-1.2283
X0.3205 Y-1.2254
X0.3303 Y-1.2233
X0.3389 Y-1.221
X0.365 Y-1.2111
X0.3998 Y-1.1979
X0.4259 Y-1.1881
X0.4666 Y-1.1733
X0.478 Y-1.1691
X0.4889 Y-1.1646
X0.4954 Y-1.1616
X0.5301 Y-1.1454
X0.5562 Y-1.1335
X0.591 Y-1.1179
X0.6084 Y-1.1102
X0.617 Y-1.1062
X0.6221 Y-1.1037
X0.6257 Y-1.1019
X0.6344 Y-1.0967
X0.6369 Y-1.095
X0.6518 Y-1.0847
X0.6984 Y-1.0516
X0.7735 Y-0.9982
X0.7822 Y-0.9911
X0.8256 Y-0.9438
X0.8466 Y-0.9212
X0.8604 Y-0.9068
X0.8716 Y-0.8952
X0.889 Y-0.8778
X0.8978 Y-0.8691
X0.9125 Y-0.8548
X0.9251 Y-0.843
X0.9473 Y-0.8226
X0.9823 Y-0.7909
X0.9913 Y-0.7822
X0.9977 Y-0.7735
X1.0864 Y-0.6495
X1.0908 Y-0.6431
X1.095 Y-0.637
X1.0967 Y-0.6344
X1.1017 Y-0.6257
X1.1037 Y-0.6216
X1.1059 Y-0.617
X1.1138 Y-0.5997
X1.1334 Y-0.5562
X1.1472 Y-0.5263
X1.1616 Y-0.4954
X1.1646 Y-0.4889
X1.1691 Y-0.478
X1.1755 Y-0.4606
X1.185 Y-0.4345
X1.1947 Y-0.4085
X1.2113 Y-0.365
X1.2179 Y-0.3476
X1.2211 Y-0.3389
X1.2233 Y-0.3303
X1.2254 Y-0.3201
X1.2282 Y-0.3042
X1.2517 Y-0.1651
X1.2531 Y-0.1564
X1.2539 Y-0.1477
X1.2509 Y-0.0782
X1.25 Y-0.0521
X1.2495 Y-0.0348
X1.2491 Y-0.0087
X1.2492 Y0.
Y0.0087
X1.2494 Y0.0261
X1.2498 Y0.0435
X1.2507 Y0.0695
X1.254 Y0.1391
Y0.1477
X1.2528 Y0.1564
X1.2283 Y0.3042
X1.2254 Y0.3205
X1.2233 Y0.3303
X1.221 Y0.3389
X1.2078 Y0.3737
X1.1946 Y0.4085
X1.1818 Y0.4432
X1.1724 Y0.4693
X1.1691 Y0.478
X1.1646 Y0.4889
X1.1576 Y0.5041
X1.1455 Y0.5301
X1.1336 Y0.5562
X1.118 Y0.591
X1.1102 Y0.6084
X1.1063 Y0.617
X1.1037 Y0.6222
X1.1019 Y0.6257
X1.0967 Y0.6344
X1.095 Y0.637
X1.0847 Y0.6518
X1.0516 Y0.6984
X0.9982 Y0.7735
X0.9911 Y0.7822
X0.9438 Y0.8256
X0.9212 Y0.8466
X0.9068 Y0.8604
X0.8952 Y0.8716
X0.8778 Y0.889
X0.8691 Y0.8978
X0.8548 Y0.9125
X0.843 Y0.9251
X0.8226 Y0.9473
X0.7909 Y0.9823
X0.7822 Y0.9913
X0.7735 Y0.9978
X0.7126 Y1.0414
X0.6518 Y1.0849
X0.6431 Y1.091
X0.6372 Y1.095
X0.6344 Y1.0968
X0.6257 Y1.1017
X0.6216 Y1.1037
X0.617 Y1.1059
X0.5642 Y1.1298
X0.5388 Y1.1414
X0.4954 Y1.1616
X0.4889 Y1.1646
X0.478 Y1.1691
X0.4606 Y1.1755
X0.4345 Y1.185
X0.3998 Y1.198
X0.3735 Y1.208
X0.3476 Y1.2179
X0.3389 Y1.2211
X0.3303 Y1.2233
X0.3201 Y1.2254
X0.2955 Y1.2297
X0.1651 Y1.2517
X0.1564 Y1.2531
X0.1477 Y1.2539
X0.0782 Y1.2509
X0.0521 Y1.25
X0.0348 Y1.2495
X0.0087 Y1.2491
X0. Y1.2492
X-0.0087
X-0.0261 Y1.2494
X-0.0435 Y1.2498
X-0.0695 Y1.2507
X-0.1391 Y1.254
X-0.1477
X-0.1564 Y1.2528
X-0.2955 Y1.2299
X-0.3129 Y1.2269
X-0.3216 Y1.2252
X-0.3303 Y1.2233
X-0.3389 Y1.2209
X-0.365 Y1.2111
X-0.3998 Y1.1979
X-0.4345 Y1.185
X-0.478 Y1.1691
X-0.4889 Y1.1646
X-0.5041 Y1.1576
X-0.5301 Y1.1454
X-0.5649 Y1.1296
X-0.5997 Y1.114
X-0.617 Y1.1062
X-0.6222 Y1.1037
X-0.6257 Y1.1019
X-0.6344 Y1.0968
X-0.6431 Y1.0909
X-0.6619 Y1.0777
X-0.7353 Y1.0255
X-0.7735 Y0.9983
X-0.7822 Y0.9911
X-0.8256 Y0.9438
X-0.8466 Y0.9212
X-0.8604 Y0.9068
X-0.8716 Y0.8952
X-0.889 Y0.8778
X-0.8978 Y0.8691
X-0.9125 Y0.8548
X-0.9251 Y0.843
X-0.9473 Y0.8226
X-0.9823 Y0.7909
X-0.9913 Y0.7822
X-0.9978 Y0.7735
X-1.0255 Y0.7347
X-1.0849 Y0.6518
X-1.091 Y0.6431
X-1.095 Y0.6372
X-1.0968 Y0.6344
X-1.1017 Y0.6257
X-1.1059 Y0.617
X-1.1255 Y0.5736
X-1.1414 Y0.5388
X-1.1576 Y0.5041
X-1.1646 Y0.4889
X-1.1692 Y0.478
X-1.1755 Y0.4606
X-1.1883 Y0.4259
X-1.2046 Y0.3824
X-1.218 Y0.3476
X-1.2211 Y0.3389
X-1.2233 Y0.3303
X-1.2254 Y0.3201
X-1.2297 Y0.2955
X-1.2517 Y0.1651
X-1.2531 Y0.1564
X-1.2539 Y0.1477
X-1.2509 Y0.0782
X-1.25 Y0.0521
X-1.2495 Y0.0348
X-1.2491 Y0.0087
X-1.2492 Y0.
Y-0.0087
X-1.2494 Y-0.0261
X-1.2498 Y-0.0435
X-1.2507 Y-0.0695
X-1.254 Y-0.1391
Y-0.1477
X-1.2528 Y-0.1564
X-1.2299 Y-0.2955
X-1.2269 Y-0.3129
X-1.2252 Y-0.3216
X-1.2233 Y-0.3303
X-1.2209 Y-0.3389
X-1.2111 Y-0.365
X-1.1979 Y-0.3998
X-1.1881 Y-0.4259
X-1.1733 Y-0.4666
X-1.1691 Y-0.478
X-1.1646 Y-0.4889
X-1.1576 Y-0.5041
X-1.1454 Y-0.5301
X-1.1296 Y-0.5649
X-1.114 Y-0.5997
X-1.1062 Y-0.617
X-1.1037 Y-0.6222
X-1.1019 Y-0.6257
X-1.0968 Y-0.6344
X-1.095 Y-0.6372
X-1.0848 Y-0.6518
X-1.0762 Y-0.664
X-1.0713 Y-0.6699
X-1.0685 Y-0.6725
X-1.0657 Y-0.6751
X-1.0596 Y-0.6798
X-1.0471 Y-0.6888
X-1.041 Y-0.6935
X-1.0354 Y-0.6987
X-1.0328 Y-0.7015
X-1.0305 Y-0.7045
X-0.9876 Y-0.7648
X-0.9821 Y-0.7716
X-0.9803 Y-0.7735
X-0.9386 Y-0.8117
X-0.9212 Y-0.8278
X-0.9038 Y-0.8441
X-0.8865 Y-0.8609
X-0.8691 Y-0.8782
X-0.8604 Y-0.887
X-0.8441 Y-0.9038
X-0.8343 Y-0.9143
X-0.8119 Y-0.9386
X-0.7804 Y-0.9734
X-0.7735 Y-0.9806
X-0.7716 Y-0.9821
X-0.7648 Y-0.9871
X-0.7474 Y-0.9996
X-0.699 Y-1.0342
X-0.6504 Y-1.069
X-0.6344 Y-1.0803
X-0.6257 Y-1.0859
X-0.617 Y-1.0907
X-0.6078 Y-1.095
X-0.5562 Y-1.1183
X-0.5301 Y-1.1303
X-0.4867 Y-1.1505
X-0.4741 Y-1.1559
X-0.4693 Y-1.1577
X-0.4172 Y-1.1768
X-0.3737 Y-1.1932
X-0.3476 Y-1.2033
X-0.3347 Y-1.208
X-0.3303 Y-1.2091
X-0.3216 Y-1.2111
X-0.3129 Y-1.2127
X-0.2899 Y-1.2167
X-0.1651 Y-1.2378
X-0.1564 Y-1.2392
X-0.1477 Y-1.2401
X-0.1304 Y-1.2394
X-0.0782 Y-1.2371
X-0.0521 Y-1.2362
X-0.0348 Y-1.2358
X-0.0087 Y-1.2354
X0. Y-1.2355
X0.0087 Y-1.2354
X0.0261 Y-1.2356
X0.0435 Y-1.236
X0.0608 Y-1.2366
X0.0956 Y-1.2382
X0.1391 Y-1.2402
X0.1477 Y-1.2401
X0.1564 Y-1.2388
X0.3042 Y-1.2143
X0.3129 Y-1.2128
X0.3216 Y-1.2111
X0.3303 Y-1.2091
X0.3344 Y-1.208
X0.3574 Y-1.1993
X0.3911 Y-1.1864
X0.4172 Y-1.1767
X0.4693 Y-1.1576
X0.474 Y-1.1559
X0.4867 Y-1.1505
X0.5313 Y-1.1298
X0.5649 Y-1.1146
X0.6084 Y-1.095
X0.617 Y-1.0909
X0.6257 Y-1.0859
X0.6344 Y-1.0801
X0.687 Y-1.0429
X0.7648 Y-0.9875
X0.7715 Y-0.9821
X0.7735 Y-0.9803
X0.8117 Y-0.9386
X0.8278 Y-0.9212
X0.8441 Y-0.9038
X0.8609 Y-0.8865
X0.8782 Y-0.8691
X0.887 Y-0.8604
X0.9038 Y-0.8441
X0.9143 Y-0.8343
X0.9386 Y-0.8119
X0.9734 Y-0.7804
X0.9806 Y-0.7735
X0.987 Y-0.7648
X1.0429 Y-0.6867
X1.0777 Y-0.638
X1.0801 Y-0.6344
X1.0858 Y-0.6257
X1.0907 Y-0.617
X1.095 Y-0.6078
X1.1223 Y-0.5475
X1.1343 Y-0.5214
X1.1472 Y-0.4938
X1.1505 Y-0.4867
X1.1559 Y-0.4741
X1.1609 Y-0.4606
X1.1704 Y-0.4345
X1.182 Y-0.4033
X1.2033 Y-0.3476
X1.208 Y-0.3347
X1.2091 Y-0.3303
X1.2111 Y-0.3216
X1.2127 Y-0.3129
X1.2167 Y-0.2899
X1.2378 Y-0.1651
X1.2392 Y-0.1564
X1.2401 Y-0.1477
X1.2394 Y-0.1304
X1.2371 Y-0.0782
X1.2362 Y-0.0521
X1.2358 Y-0.0348
X1.2354 Y-0.0087
X1.2355 Y0.
X1.2354 Y0.0087
X1.2356 Y0.0261
X1.236 Y0.0435
X1.2366 Y0.0608
X1.2382 Y0.0956
X1.2402 Y0.1391
X1.2401 Y0.1477
X1.2388 Y0.1564
X1.2158 Y0.2955
X1.2128 Y0.3129
X1.2111 Y0.3216
X1.2091 Y0.3303
X1.208 Y0.3342
X1.203 Y0.3476
X1.1832 Y0.3998
X1.1704 Y0.4345
X1.1577 Y0.4693
X1.1559 Y0.4741
X1.1505 Y0.4867
X1.1298 Y0.5313
X1.1146 Y0.5649
X1.0991 Y0.5997
X1.095 Y0.6086
X1.0909 Y0.617
X1.0859 Y0.6257
X1.0801 Y0.6344
X1.0429 Y0.687
X0.9875 Y0.7648
X0.9821 Y0.7715
X0.9803 Y0.7735
X0.9386 Y0.8117
X0.9212 Y0.8278
X0.9038 Y0.8441
X0.8865 Y0.8609
X0.8691 Y0.8782
X0.8604 Y0.887
X0.8441 Y0.9038
X0.8343 Y0.9143
X0.8119 Y0.9386
X0.7804 Y0.9734
X0.7735 Y0.9806
X0.7716 Y0.9821
X0.7648 Y0.9871
X0.7112 Y1.0255
X0.6505 Y1.069
X0.6344 Y1.0803
X0.6257 Y1.0859
X0.617 Y1.0906
X0.6078 Y1.095
X0.5649 Y1.1144
X0.5301 Y1.1303
X0.4938 Y1.1472
X0.4867 Y1.1505
X0.4741 Y1.1559
X0.4606 Y1.1609
X0.4345 Y1.1704
X0.4085 Y1.1801
X0.3737 Y1.1932
X0.3476 Y1.2033
X0.3348 Y1.208
X0.3303 Y1.2092
X0.3216 Y1.2111
X0.3129 Y1.2127
X0.2868 Y1.2172
X0.1651 Y1.2378
X0.1564 Y1.2392
X0.1477 Y1.2401
X0.1304 Y1.2394
X0.0782 Y1.2371
X0.0521 Y1.2362
X0.0348 Y1.2358
X0.0087 Y1.2354
X0. Y1.2355
X-0.0087 Y1.2354
X-0.0261 Y1.2356
X-0.0435 Y1.236
X-0.0608 Y1.2366
X-0.0956 Y1.2382
X-0.1391 Y1.2402
X-0.1477
X-0.1564 Y1.2389
X-0.2907 Y1.2167
X-0.3129 Y1.2129
X-0.3216 Y1.2112
X-0.3303 Y1.2091
X-0.3341 Y1.208
X-0.3476 Y1.203
X-0.3998 Y1.1832
X-0.4345 Y1.1703
X-0.4693 Y1.1577
X-0.474 Y1.1559
X-0.4867 Y1.1505
X-0.5128 Y1.1384
X-0.5388 Y1.1263
X-0.5736 Y1.1106
X-0.6085 Y1.095
X-0.617 Y1.0909
X-0.6257 Y1.086
X-0.6344 Y1.0802
X-0.6518 Y1.068
X-0.7648 Y0.9876
X-0.7716 Y0.9821
X-0.7735 Y0.9803
X-0.8117 Y0.9386
X-0.8278 Y0.9212
X-0.8441 Y0.9038
X-0.8609 Y0.8865
X-0.8782 Y0.8691
X-0.887 Y0.8604
X-0.9038 Y0.8441
X-0.9143 Y0.8343
X-0.9386 Y0.8119
X-0.9734 Y0.7804
X-0.9806 Y0.7735
X-0.9821 Y0.7716
X-0.9871 Y0.7648
X-0.9996 Y0.7474
X-1.0342 Y0.699
X-1.069 Y0.6504
X-1.0803 Y0.6344
X-1.0859 Y0.6257
X-1.0907 Y0.617
X-1.095 Y0.6078
X-1.1144 Y0.5649
X-1.1303 Y0.5301
X-1.1505 Y0.4867
X-1.1559 Y0.4741
X-1.1577 Y0.4693
X-1.1736 Y0.4259
X-1.1867 Y0.3911
X-1.1966 Y0.365
X-1.2033 Y0.3476
X-1.208 Y0.3348
X-1.2092 Y0.3303
X-1.2111 Y0.3216
X-1.2127 Y0.3129
X-1.2167 Y0.2899
X-1.2378 Y0.1651
X-1.2392 Y0.1564
X-1.2401 Y0.1477
X-1.2394 Y0.1304
X-1.2371 Y0.0782
X-1.2362 Y0.0521
X-1.2358 Y0.0348
X-1.2354 Y0.0087
X-1.2355 Y0.
X-1.2354 Y-0.0087
X-1.2356 Y-0.0261
X-1.236 Y-0.0435
X-1.2366 Y-0.0608
X-1.2382 Y-0.0956
X-1.2402 Y-0.1391
Y-0.1477
X-1.2389 Y-0.1564
X-1.2159 Y-0.2955
X-1.2129 Y-0.3129
X-1.2112 Y-0.3216
X-1.2091 Y-0.3303
X-1.208 Y-0.3341
X-1.203 Y-0.3476
X-1.1832 Y-0.3998
X-1.1735 Y-0.4259
X-1.1576 Y-0.4693
X-1.1559 Y-0.474
X-1.1505 Y-0.4867
X-1.1384 Y-0.5128
X-1.1263 Y-0.5388
X-1.1106 Y-0.5736
X-1.095 Y-0.6085
X-1.0909 Y-0.617
X-1.086 Y-0.6257
X-1.0802 Y-0.6344
X-1.0618 Y-0.6605
X-1.0305 Y-0.7045
X-1.0256 Y-0.7104
X-1.0229 Y-0.713
X-1.02 Y-0.7155
X-1.0139 Y-0.7203
X-1.0014 Y-0.7292
X-0.9953 Y-0.734
X-0.9897 Y-0.7392
X-0.9872 Y-0.742
X-0.9848 Y-0.745
X-0.977 Y-0.7561
X-0.9734 Y-0.7605
X-0.9694 Y-0.7648
X-0.9315 Y-0.7996
X-0.9125 Y-0.8171
X-0.8942 Y-0.8343
X-0.8778 Y-0.8502
X-0.8588 Y-0.8691
X-0.8502 Y-0.8778
X-0.8335 Y-0.8952
X-0.8253 Y-0.9038
X-0.8082 Y-0.9223
X-0.7698 Y-0.9647
X-0.7648 Y-0.9698
X-0.7602 Y-0.9734
X-0.7561 Y-0.9764
X-0.7361 Y-0.9908
X-0.6866 Y-1.0262
X-0.639 Y-1.0603
X-0.6267 Y-1.069
X-0.617 Y-1.075
X-0.6122 Y-1.0777
X-0.6084 Y-1.0796
X-0.5997 Y-1.0837
X-0.5552 Y-1.1037
X-0.5214 Y-1.1191
X-0.4867 Y-1.1354
X-0.478 Y-1.1393
X-0.4693 Y-1.143
X-0.4582 Y-1.1472
X-0.4172 Y-1.1622
X-0.3737 Y-1.1785
X-0.3389 Y-1.1918
X-0.3303 Y-1.195
X-0.3216 Y-1.197
X-0.3098 Y-1.1993
X-0.2868 Y-1.2033
X-0.1556 Y-1.2254
X-0.1477 Y-1.2263
X-0.1391 Y-1.226
X-0.0869 Y-1.2238
X-0.0608 Y-1.2228
X-0.0435 Y-1.2222
X-0.0174 Y-1.2217
X-0.0087
X0.
X0.0087
X0.0261 Y-1.2219
X0.0435 Y-1.2223
X0.0608 Y-1.2229
X0.0956 Y-1.2244
X0.1391 Y-1.2265
X0.1477 Y-1.2262
X0.1564 Y-1.2249
X0.2955 Y-1.2019
X0.3103 Y-1.1993
X0.3216 Y-1.197
X0.3303 Y-1.1949
X0.3476 Y-1.1884
X0.3911 Y-1.1718
X0.4172 Y-1.1621
X0.4606 Y-1.1462
X0.4693 Y-1.1429
X0.4798 Y-1.1385
X0.4867 Y-1.1354
X0.5214 Y-1.1192
X0.5475 Y-1.1073
X0.5823 Y-1.0917
X0.5997 Y-1.0839
X0.6084 Y-1.0798
X0.6125 Y-1.0777
X0.617 Y-1.075
X0.6263 Y-1.069
X0.6431 Y-1.0571
X0.6877 Y-1.0255
X0.7365 Y-0.9908
X0.7561 Y-0.9769
X0.7604 Y-0.9734
X0.7648 Y-0.9694
X0.7996 Y-0.9315
X0.8171 Y-0.9125
X0.8343 Y-0.8942
X0.8502 Y-0.8778
X0.8691 Y-0.8588
X0.8778 Y-0.8502
X0.8952 Y-0.8335
X0.9038 Y-0.8253
X0.9223 Y-0.8082
X0.9647 Y-0.7698
X0.9698 Y-0.7648
X0.9734 Y-0.7602
X0.9764 Y-0.7561
X1.0633 Y-0.6344
X1.0694 Y-0.6257
X1.075 Y-0.617
X1.0777 Y-0.6122
X1.0796 Y-0.6084
X1.0837 Y-0.5997
X1.1037 Y-0.5552
X1.1191 Y-0.5214
X1.1354 Y-0.4867
X1.1393 Y-0.478
X1.143 Y-0.4693
X1.1472 Y-0.4581
X1.1589 Y-0.4259
X1.1686 Y-0.3998
X1.1852 Y-0.3563
X1.1918 Y-0.3389
X1.195 Y-0.3303
X1.197 Y-0.3216
X1.1993 Y-0.3098
X1.2033 Y-0.2868
X1.2254 Y-0.1556
X1.2263 Y-0.1477
X1.226 Y-0.1391
X1.2238 Y-0.0869
X1.2228 Y-0.0608
X1.2222 Y-0.0435
X1.2217 Y-0.0174
Y-0.0087
Y0.
Y0.0087
X1.2219 Y0.0261
X1.2223 Y0.0435
X1.2229 Y0.0608
X1.2244 Y0.0956
X1.2265 Y0.1391
X1.2262 Y0.1477
X1.2249 Y0.1564
X1.2019 Y0.2955
X1.1993 Y0.3102
X1.197 Y0.3216
X1.1948 Y0.3303
X1.1883 Y0.3476
X1.1718 Y0.3911
X1.1621 Y0.4172
X1.1463 Y0.4606
X1.143 Y0.4693
X1.1385 Y0.4799
X1.1273 Y0.5041
X1.1152 Y0.5301
X1.0995 Y0.5649
X1.084 Y0.5997
X1.0799 Y0.6084
X1.0777 Y0.6126
X1.0751 Y0.617
X1.069 Y0.6263
X1.0571 Y0.6431
X1.0255 Y0.6877
X0.9908 Y0.7365
X0.9769 Y0.7561
X0.9734 Y0.7604
X0.9694 Y0.7648
X0.9315 Y0.7996
X0.9125 Y0.8171
X0.8942 Y0.8343
X0.8778 Y0.8502
X0.8588 Y0.8691
X0.8502 Y0.8778
X0.8335 Y0.8952
X0.8253 Y0.9038
X0.8082 Y0.9223
X0.7698 Y0.9647
X0.7648 Y0.9698
X0.7602 Y0.9734
X0.7561 Y0.9764
X0.6998 Y1.0168
X0.639 Y1.0603
X0.6266 Y1.069
X0.617 Y1.075
X0.6122 Y1.0777
X0.6084 Y1.0796
X0.5997 Y1.0836
X0.5551 Y1.1037
X0.5172 Y1.1211
X0.4867 Y1.1354
X0.478 Y1.1393
X0.4693 Y1.143
X0.4581 Y1.1472
X0.4259 Y1.1589
X0.4085 Y1.1654
X0.3648 Y1.182
X0.3389 Y1.1918
X0.3303 Y1.195
X0.3216 Y1.197
X0.3098 Y1.1993
X0.2868 Y1.2033
X0.1556 Y1.2254
X0.1477 Y1.2263
X0.1391 Y1.226
X0.0869 Y1.2238
X0.0608 Y1.2228
X0.0435 Y1.2222
X0.0174 Y1.2217
X0.0087
X0.
X-0.0087
X-0.0261 Y1.2219
X-0.0435 Y1.2223
X-0.0608 Y1.2229
X-0.0956 Y1.2244
X-0.1391 Y1.2265
X-0.1477 Y1.2263
X-0.1564 Y1.225
X-0.2868 Y1.2034
X-0.3107 Y1.1993
X-0.3216 Y1.197
X-0.3303 Y1.1948
X-0.3476 Y1.1883
X-0.3911 Y1.1718
X-0.4259 Y1.1589
X-0.4606 Y1.1462
X-0.4693 Y1.143
X-0.4798 Y1.1385
X-0.4867 Y1.1354
X-0.5214 Y1.1192
X-0.5562 Y1.1034
X-0.5997 Y1.0839
X-0.6084 Y1.0799
X-0.6126 Y1.0777
X-0.617 Y1.0751
X-0.6266 Y1.069
X-0.6431 Y1.0573
X-0.7561 Y0.977
X-0.7605 Y0.9734
X-0.7648 Y0.9694
X-0.7996 Y0.9315
X-0.8171 Y0.9125
X-0.8343 Y0.8942
X-0.8502 Y0.8778
X-0.8691 Y0.8588
X-0.8778 Y0.8502
X-0.8952 Y0.8335
X-0.9038 Y0.8253
X-0.9223 Y0.8082
X-0.9647 Y0.7698
X-0.9698 Y0.7648
X-0.9734 Y0.7602
X-0.9764 Y0.7561
X-0.9908 Y0.7361
X-1.0262 Y0.6866
X-1.0603 Y0.639
X-1.069 Y0.6267
X-1.075 Y0.617
X-1.0777 Y0.6122
X-1.0796 Y0.6084
X-1.0836 Y0.5997
X-1.1037 Y0.5551
X-1.1211 Y0.5172
X-1.1354 Y0.4867
X-1.1393 Y0.478
X-1.143 Y0.4693
X-1.1472 Y0.4582
X-1.1622 Y0.4172
X-1.1785 Y0.3737
X-1.1919 Y0.3389
X-1.195 Y0.3303
X-1.197 Y0.3216
X-1.1993 Y0.3098
X-1.2033 Y0.2868
X-1.2254 Y0.1556
X-1.2263 Y0.1477
X-1.226 Y0.1391
X-1.2238 Y0.0869
X-1.2228 Y0.0608
X-1.2222 Y0.0435
X-1.2217 Y0.0174
Y0.0087
Y0.
Y-0.0087
X-1.2219 Y-0.0261
X-1.2223 Y-0.0435
X-1.2229 Y-0.0608
X-1.2244 Y-0.0956
X-1.2265 Y-0.1391
X-1.2263 Y-0.1477
X-1.225 Y-0.1564
X-1.2034 Y-0.2868
X-1.1993 Y-0.3107
X-1.197 Y-0.3216
X-1.1948 Y-0.3303
X-1.1883 Y-0.3476
X-1.1718 Y-0.3911
X-1.1621 Y-0.4172
X-1.1462 Y-0.4606
X-1.1429 Y-0.4693
X-1.1385 Y-0.4797
X-1.1354 Y-0.4867
X-1.1192 Y-0.5214
X-1.1034 Y-0.5562
X-1.0839 Y-0.5997
X-1.0799 Y-0.6084
X-1.0777 Y-0.6126
X-1.0752 Y-0.617
X-1.069 Y-0.6266
X-1.0573 Y-0.6431
X-0.9848 Y-0.745
X-0.9825 Y-0.748
X-0.9812 Y-0.7494
X-0.9798 Y-0.7507
X-0.9769 Y-0.7532
X-0.9739 Y-0.7554
X-0.9673 Y-0.7595
X-0.9605 Y-0.7631
X-0.9534 Y-0.7665
X-0.9464 Y-0.7701
X-0.9397 Y-0.7741
X-0.9366 Y-0.7764
X-0.9336 Y-0.7789
X-0.9038 Y-0.8064
X-0.8835 Y-0.8256
X-0.8691 Y-0.8395
X-0.8517 Y-0.8567
X-0.8395 Y-0.8691
X-0.8228 Y-0.8865
X-0.8146 Y-0.8952
X-0.7985 Y-0.9125
X-0.7648 Y-0.9497
X-0.759 Y-0.956
X-0.7561 Y-0.959
X-0.7489 Y-0.9647
X-0.6275 Y-1.0516
X-0.617 Y-1.0588
X-0.6084 Y-1.0641
X-0.5987 Y-1.069
X-0.591 Y-1.0725
X-0.5411 Y-1.095
X-0.5128 Y-1.108
X-0.478 Y-1.1242
X-0.4652 Y-1.1298
X-0.4519 Y-1.1348
X-0.4172 Y-1.1475
X-0.3824 Y-1.1606
X-0.3476 Y-1.1738
X-0.3389 Y-1.1772
X-0.3303 Y-1.1804
X-0.3257 Y-1.182
X-0.3216 Y-1.1829
X-0.3129 Y-1.1847
X-0.3042 Y-1.1864
X-0.2607 Y-1.1938
X-0.1564 Y-1.2114
X-0.1477 Y-1.2125
X-0.1391 Y-1.2123
X-0.0869 Y-1.21
X-0.0608 Y-1.209
X-0.0435 Y-1.2085
X-0.0174 Y-1.208
X-0.0087 Y-1.2079
X0. Y-1.208
X0.0087
X0.0261 Y-1.2081
X0.0435 Y-1.2086
X0.0608 Y-1.2091
X0.0956 Y-1.2106
X0.1391 Y-1.2127
X0.1477 Y-1.2124
X0.1564 Y-1.211
X0.2955 Y-1.188
X0.3042 Y-1.1865
X0.3129 Y-1.1848
X0.3216 Y-1.1829
X0.3254 Y-1.182
X0.3303 Y-1.1802
X0.3737 Y-1.1637
X0.3944 Y-1.1559
X0.4179 Y-1.1472
X0.4606 Y-1.1315
X0.4651 Y-1.1298
X0.478 Y-1.1242
X0.5222 Y-1.1037
X0.5475 Y-1.0922
X0.591 Y-1.0728
X0.5997 Y-1.0687
X0.6084 Y-1.0642
X0.617 Y-1.0586
X0.6272 Y-1.0516
X0.6779 Y-1.0156
X0.7251 Y-0.9821
X0.7474 Y-0.9662
X0.7493 Y-0.9647
X0.7561 Y-0.9586
X0.7909 Y-0.9207
X0.8082 Y-0.9019
X0.8256 Y-0.8835
X0.8395 Y-0.8691
X0.8567 Y-0.8517
X0.8691 Y-0.8395
X0.8865 Y-0.8228
X0.8952 Y-0.8146
X0.9125 Y-0.7985
X0.9497 Y-0.7648
X0.956 Y-0.759
X0.959 Y-0.7561
X0.9657 Y-0.7474
X1.0527 Y-0.6257
X1.0587 Y-0.617
X1.0641 Y-0.6084
X1.069 Y-0.5986
X1.0725 Y-0.591
X1.095 Y-0.5411
X1.108 Y-0.5128
X1.1242 Y-0.478
X1.1298 Y-0.4652
X1.1348 Y-0.4519
X1.1475 Y-0.4172
X1.1572 Y-0.3911
X1.1772 Y-0.3389
X1.1804 Y-0.3303
X1.182 Y-0.3257
X1.1829 Y-0.3216
X1.1847 Y-0.3129
X1.1864 Y-0.3042
X1.1938 Y-0.2607
X1.2114 Y-0.1564
X1.2125 Y-0.1477
X1.2123 Y-0.1391
X1.2096 Y-0.0782
X1.2087 Y-0.0521
X1.2083 Y-0.0348
X1.2079 Y-0.0087
X1.208 Y0.
Y0.0087
X1.2081 Y0.0261
X1.2086 Y0.0435
X1.2091 Y0.0608
X1.2106 Y0.0956
X1.2127 Y0.1391
X1.2124 Y0.1477
X1.211 Y0.1564
X1.188 Y0.2955
X1.1864 Y0.3042
X1.1848 Y0.3129
X1.1829 Y0.3216
X1.182 Y0.3252
X1.1802 Y0.3303
X1.167 Y0.365
X1.1571 Y0.3911
X1.1443 Y0.4259
X1.1348 Y0.4519
X1.1298 Y0.4652
X1.1242 Y0.478
X1.1037 Y0.5223
X1.0884 Y0.5562
X1.0729 Y0.591
X1.0688 Y0.5997
X1.0642 Y0.6084
X1.0586 Y0.617
X1.0516 Y0.6272
X1.0156 Y0.6779
X0.9821 Y0.7251
X0.9662 Y0.7474
X0.9647 Y0.7493
X0.9586 Y0.7561
X0.9207 Y0.7909
X0.9019 Y0.8082
X0.8835 Y0.8256
X0.8691 Y0.8395
X0.8517 Y0.8567
X0.8395 Y0.8691
X0.8228 Y0.8865
X0.8146 Y0.8952
X0.7985 Y0.9125
X0.7648 Y0.9497
X0.759 Y0.956
X0.7561 Y0.959
X0.7489 Y0.9647
X0.6883 Y1.0081
X0.6344 Y1.0467
X0.6257 Y1.0528
X0.617 Y1.0588
X0.6084 Y1.0641
X0.5986 Y1.069
X0.591 Y1.0725
X0.5562 Y1.0881
X0.5214 Y1.104
X0.478 Y1.1242
X0.4652 Y1.1298
X0.4519 Y1.1348
X0.4172 Y1.1475
X0.3718 Y1.1646
X0.3389 Y1.1772
X0.3303 Y1.1804
X0.3257 Y1.182
X0.3216 Y1.1829
X0.3129 Y1.1848
X0.3042 Y1.1864
X0.1651 Y1.2099
X0.1564 Y1.2114
X0.1477 Y1.2125
X0.1391 Y1.2123
X0.0782 Y1.2096
X0.0521 Y1.2087
X0.0348 Y1.2083
X0.0087 Y1.2079
X0. Y1.208
X-0.0087
X-0.0261 Y1.2081
X-0.0435 Y1.2086
X-0.0608 Y1.2091
X-0.0956 Y1.2106
X-0.1391 Y1.2127
X-0.1477 Y1.2124
X-0.1651 Y1.2096
X-0.2868 Y1.1895
X-0.3042 Y1.1865
X-0.3129 Y1.1848
X-0.3216 Y1.1828
X-0.3251 Y1.182
X-0.3303 Y1.1802
X-0.365 Y1.167
X-0.3944 Y1.1559
X-0.4345 Y1.1411
X-0.4606 Y1.1315
X-0.4652 Y1.1298
X-0.478 Y1.1242
X-0.5222 Y1.1037
X-0.5605 Y1.0864
X-0.591 Y1.0728
X-0.5997 Y1.0688
X-0.6084 Y1.0643
X-0.617 Y1.0588
X-0.6275 Y1.0516
X-0.7474 Y0.9663
X-0.7494 Y0.9647
X-0.7561 Y0.9586
X-0.7909 Y0.9207
X-0.8082 Y0.9019
X-0.8256 Y0.8835
X-0.8395 Y0.8691
X-0.8567 Y0.8517
X-0.8691 Y0.8395
X-0.8865 Y0.8228
X-0.8952 Y0.8146
X-0.9125 Y0.7985
X-0.9497 Y0.7648
X-0.956 Y0.759
X-0.959 Y0.7561
X-0.9647 Y0.7489
X-1.0516 Y0.6275
X-1.0588 Y0.617
X-1.0641 Y0.6084
X-1.069 Y0.5986
X-1.0777 Y0.5795
X-1.0881 Y0.5562
X-1.108 Y0.5128
X-1.1242 Y0.478
X-1.1298 Y0.4652
X-1.1348 Y0.4519
X-1.1475 Y0.4172
X-1.1606 Y0.3824
X-1.1705 Y0.3563
X-1.1772 Y0.3389
X-1.1804 Y0.3303
X-1.182 Y0.3257
X-1.1829 Y0.3216
X-1.1848 Y0.3129
X-1.1864 Y0.3042
X-1.1938 Y0.2607
X-1.2114 Y0.1564
X-1.2125 Y0.1477
X-1.2123 Y0.1391
X-1.2096 Y0.0782
X-1.2087 Y0.0521
X-1.2083 Y0.0348
X-1.2079 Y0.0087
X-1.208 Y0.
Y-0.0087
X-1.2081 Y-0.0261
X-1.2086 Y-0.0435
X-1.2091 Y-0.0608
X-1.2106 Y-0.0956
X-1.2127 Y-0.1391
X-1.2124 Y-0.1477
X-1.2096 Y-0.1651
X-1.1895 Y-0.2868
X-1.1865 Y-0.3042
X-1.1848 Y-0.3129
X-1.1829 Y-0.3216
X-1.182 Y-0.3251
X-1.1802 Y-0.3303
X-1.1703 Y-0.3563
X-1.1571 Y-0.3911
X-1.1472 Y-0.4179
X-1.1315 Y-0.4606
X-1.1298 Y-0.4651
X-1.1242 Y-0.478
X-1.1037 Y-0.5222
X-1.0864 Y-0.5605
X-1.0728 Y-0.591
X-1.0688 Y-0.5997
X-1.0643 Y-0.6084
X-1.0588 Y-0.617
X-1.0516 Y-0.6275
X-0.9663 Y-0.7474
X-0.9647 Y-0.7494
X-0.9586 Y-0.7561
X-0.9336 Y-0.7789
X-0.9276 Y-0.7836
X-0.9244 Y-0.7857
X-0.921 Y-0.7875
X-0.9141 Y-0.7909
X-0.9001 Y-0.7972
X-0.8932 Y-0.8006
X-0.8867 Y-0.8045
X-0.8836 Y-0.8068
X-0.8807 Y-0.8093
X-0.8691 Y-0.8204
X-0.8548 Y-0.8343
X-0.8343 Y-0.8548
X-0.8204 Y-0.8691
X-0.8082 Y-0.8818
X-0.7909 Y-0.9006
X-0.7721 Y-0.9212
X-0.7561 Y-0.9389
X-0.7474 Y-0.9483
X-0.7387 Y-0.9551
X-0.6257 Y-1.036
X-0.6159 Y-1.0429
X-0.6084 Y-1.048
X-0.6026 Y-1.0516
X-0.5997 Y-1.0531
X-0.591 Y-1.0574
X-0.5736 Y-1.0653
X-0.5301 Y-1.0849
X-0.5041 Y-1.0969
X-0.478 Y-1.1091
X-0.4693 Y-1.113
X-0.4606 Y-1.1168
X-0.4494 Y-1.1211
X-0.3998 Y-1.1393
X-0.365 Y-1.1525
X-0.3334 Y-1.1646
X-0.3216 Y-1.1688
X-0.3129 Y-1.1707
X-0.3042 Y-1.1724
X-0.2781 Y-1.1769
X-0.1564 Y-1.1974
X-0.1477 Y-1.1986
X-0.1391 Y-1.1985
X-0.0869 Y-1.1963
X-0.0608 Y-1.1953
X-0.0435 Y-1.1947
X-0.0174 Y-1.1943
X-0.0087 Y-1.1942
X0. Y-1.1943
X0.0087 Y-1.1942
X0.0261 Y-1.1944
X0.0435 Y-1.1948
X0.0695 Y-1.1957
X0.1391 Y-1.199
X0.1477 Y-1.1985
X0.1738 Y-1.1942
X0.2955 Y-1.174
X0.3042 Y-1.1725
X0.3129 Y-1.1707
X0.3216 Y-1.1687
X0.3389 Y-1.1623
X0.3824 Y-1.1457
X0.4085 Y-1.136
X0.4519 Y-1.1201
X0.4606 Y-1.1168
X0.4707 Y-1.1124
X0.4895 Y-1.1037
X0.5128 Y-1.093
X0.5475 Y-1.0772
X0.5853 Y-1.0603
X0.591 Y-1.0576
X0.5997 Y-1.0532
X0.6026 Y-1.0516
X0.6084 Y-1.0479
X0.617 Y-1.0419
X0.6692 Y-1.0049
X0.7387 Y-0.9555
X0.7474 Y-0.9477
X0.7735 Y-0.9193
X0.7958 Y-0.8952
X0.8121 Y-0.8778
X0.8256 Y-0.8636
X0.8374 Y-0.8517
X0.8548 Y-0.8343
X0.8691 Y-0.8204
X0.8818 Y-0.8082
X0.9006 Y-0.7909
X0.9212 Y-0.7721
X0.9389 Y-0.7561
X0.9482 Y-0.7474
X0.955 Y-0.7387
X1.0358 Y-0.6257
X1.0429 Y-0.6157
X1.0479 Y-0.6084
X1.0516 Y-0.6025
X1.0531 Y-0.5997
X1.0574 Y-0.591
X1.0653 Y-0.5736
X1.0849 Y-0.5301
X1.0969 Y-0.5041
X1.1091 Y-0.478
X1.113 Y-0.4693
X1.1168 Y-0.4606
X1.1211 Y-0.4493
X1.1361 Y-0.4085
X1.1458 Y-0.3824
X1.1646 Y-0.3334
X1.1688 Y-0.3216
X1.1707 Y-0.3129
X1.1724 Y-0.3042
X1.1769 Y-0.2781
X1.1974 Y-0.1564
X1.1986 Y-0.1477
X1.1985 Y-0.1391
X1.1963 Y-0.0869
X1.1953 Y-0.0608
X1.1947 Y-0.0435
X1.1943 Y-0.0174
X1.1942 Y-0.0087
X1.1943 Y0.
X1.1942 Y0.0087
X1.1944 Y0.0261
X1.1948 Y0.0435
X1.1957 Y0.0695
X1.199 Y0.1391
X1.1985 Y0.1477
X1.1942 Y0.1738
X1.174 Y0.2955
X1.1725 Y0.3042
X1.1707 Y0.3129
X1.1687 Y0.3216
X1.1646 Y0.3328
X1.1457 Y0.3824
X1.136 Y0.4085
X1.1201 Y0.4519
X1.1168 Y0.4606
X1.1124 Y0.4708
X1.1037 Y0.4896
X1.093 Y0.5128
X1.0811 Y0.5388
X1.0603 Y0.5854
X1.0577 Y0.591
X1.0533 Y0.5997
X1.0516 Y0.6026
X1.0479 Y0.6084
X1.0419 Y0.617
X1.0049 Y0.6692
X0.9555 Y0.7387
X0.9477 Y0.7474
X0.9193 Y0.7735
X0.8952 Y0.7958
X0.8778 Y0.8121
X0.8636 Y0.8256
X0.8517 Y0.8374
X0.8343 Y0.8548
X0.8204 Y0.8691
X0.8082 Y0.8818
X0.7909 Y0.9006
X0.7721 Y0.9212
X0.7561 Y0.9389
X0.7474 Y0.9483
X0.7387 Y0.9551
X0.6866 Y0.9925
X0.6257 Y1.036
X0.6159 Y1.0429
X0.6084 Y1.048
X0.6025 Y1.0516
X0.5997 Y1.0531
X0.591 Y1.0574
X0.5301 Y1.0849
X0.5041 Y1.0969
X0.478 Y1.1091
X0.4693 Y1.113
X0.4606 Y1.1168
X0.4493 Y1.1211
X0.4085 Y1.1361
X0.365 Y1.1525
X0.3334 Y1.1646
